; generated by Slic3r 0.9.9 on 2013-10-03 at 10:44:07

; layer_height = .33
; perimeters = 2
; top_solid_layers = 3
; bottom_solid_layers = 3
; fill_density = 0.74
; perimeter_speed = 95
; infill_speed = 110
; travel_speed = 150
; nozzle_diameter = 0.5
; filament_diameter = 2.89
; extrusion_multiplier = 1
; perimeters extrusion width = 0.42mm
; infill extrusion width = 0.58mm
; solid infill extrusion width = 0.60mm
; top infill extrusion width = 0.45mm
; first layer extrusion width = 0.60mm

G21 ; set units to millimeters
M107
G28 ; home all axes
G90 ; use absolute coordinates
G92 E0
M82 ; use absolute distances for extrusion
G1 F1860.000 E-1.70000
G92 E0
G1 Z0.330 F9000.000
G1 X178.606 Y48.535
G1 F1860.000 E1.70000
G1 X179.816 Y47.575 E1.74495 F3990.000
G1 X180.826 Y46.915 E1.78007
G1 X181.966 Y46.305 E1.81770
G1 X182.676 Y45.995 E1.84025
G1 X183.916 Y45.595 E1.87817
G1 X185.076 Y45.325 E1.91283
G1 X186.096 Y45.175 E1.94284
G1 X187.136 Y45.095 E1.97320
G1 X254.856 Y45.095 E3.94416
G1 X255.896 Y45.175 E3.97452
G1 X256.916 Y45.325 E4.00452
G1 X258.076 Y45.595 E4.03919
G1 X259.316 Y45.995 E4.07711
G1 X260.026 Y46.305 E4.09966
G1 X261.166 Y46.915 E4.13729
G1 X262.176 Y47.575 E4.17240
G1 X263.386 Y48.535 E4.21736
G1 X263.926 Y49.075 E4.23958
G1 X264.616 Y49.845 E4.26968
G1 X265.356 Y50.835 E4.30565
G1 X265.906 Y51.715 E4.33585
G1 X266.466 Y52.815 E4.37178
G1 X266.856 Y53.775 E4.40194
G1 X267.216 Y54.945 E4.43756
G1 X267.526 Y56.445 E4.48214
G1 X267.586 Y56.945 E4.49680
G1 X267.646 Y58.515 E4.54253
G1 X267.646 Y85.505 E5.32806
G1 X267.626 Y86.485 E5.35659
G1 X267.496 Y87.655 E5.39085
G1 X267.316 Y88.615 E5.41928
G1 X267.026 Y89.695 E5.45182
G1 X266.706 Y90.595 E5.47962
G1 X266.246 Y91.625 E5.51246
G1 X265.766 Y92.505 E5.54163
G1 X265.096 Y93.515 E5.57691
G1 X264.486 Y94.285 E5.60550
G1 X263.676 Y95.155 E5.64009
G1 X262.946 Y95.815 E5.66874
G1 X262.036 Y96.515 E5.70215
G1 X261.216 Y97.045 E5.73057
G1 X260.166 Y97.605 E5.76520
G1 X259.286 Y97.985 E5.79310
G1 X258.166 Y98.365 E5.82752
G1 X257.196 Y98.605 E5.85660
G1 X256.056 Y98.785 E5.89020
G1 X255.076 Y98.865 E5.91881
G1 X254.496 Y98.895 E5.93572
G1 X187.496 Y98.895 E7.88572
G1 X185.936 Y98.785 E7.93124
G1 X184.836 Y98.615 E7.96363
G1 X183.886 Y98.385 E7.99208
G1 X182.716 Y97.995 E8.02798
G1 X181.816 Y97.605 E8.05653
G1 X180.776 Y97.045 E8.09090
G1 X179.956 Y96.515 E8.11932
G1 X179.046 Y95.815 E8.15273
G1 X178.316 Y95.155 E8.18138
G1 X177.506 Y94.285 E8.21597
G1 X176.896 Y93.515 E8.24456
G1 X176.256 Y92.565 E8.27790
G1 X175.776 Y91.705 E8.30657
G1 X175.286 Y90.635 E8.34082
G1 X174.956 Y89.715 E8.36927
G1 X174.646 Y88.545 E8.40449
G1 X174.476 Y87.585 E8.43287
G1 X174.366 Y86.485 E8.46504
G1 X174.346 Y85.505 E8.49357
G1 X174.346 Y58.515 E9.27910
G1 X174.406 Y56.945 E9.32483
G1 X174.506 Y56.195 E9.34685
G1 X174.776 Y54.945 E9.38407
G1 X175.136 Y53.775 E9.41970
G1 X175.526 Y52.815 E9.44986
G1 X176.086 Y51.715 E9.48578
G1 X176.636 Y50.835 E9.51599
G1 X177.376 Y49.845 E9.55196
G1 X178.066 Y49.075 E9.58205
G1 X178.543 Y48.595 E9.60175
G1 X178.986 Y48.965 F9000.000
G1 X180.166 Y48.025 E9.64566 F3990.000
G1 X181.096 Y47.425 E9.67787
G1 X182.216 Y46.825 E9.71485
G1 X182.656 Y46.625 E9.72892
G1 X184.096 Y46.145 E9.77310
G1 X185.156 Y45.895 E9.80480
G1 X186.176 Y45.745 E9.83480
G1 X187.136 Y45.675 E9.86282
G1 X254.856 Y45.675 E11.83378
G1 X255.816 Y45.745 E11.86180
G1 X256.836 Y45.895 E11.89180
G1 X257.896 Y46.145 E11.92350
G1 X259.116 Y46.545 E11.96087
G1 X259.776 Y46.825 E11.98173
G1 X260.896 Y47.425 E12.01871
G1 X261.826 Y48.025 E12.05092
G1 X263.006 Y48.965 E12.09483
G1 X263.496 Y49.465 E12.11521
G1 X264.186 Y50.235 E12.14530
G1 X264.866 Y51.135 E12.17813
G1 X265.416 Y52.015 E12.20833
G1 X265.926 Y53.025 E12.24126
G1 X266.316 Y53.985 E12.27142
G1 X266.656 Y55.065 E12.30438
G1 X266.876 Y56.075 E12.33446
G1 X266.956 Y56.535 E12.34805
G1 X267.006 Y56.995 E12.36152
G1 X267.066 Y58.515 E12.40579
G1 X267.066 Y85.485 E13.19074
G1 X267.046 Y86.465 E13.21927
G1 X266.936 Y87.545 E13.25086
G1 X266.756 Y88.505 E13.27929
G1 X266.486 Y89.495 E13.30916
G1 X266.166 Y90.395 E13.33696
G1 X265.746 Y91.345 E13.36719
G1 X265.266 Y92.225 E13.39636
G1 X264.646 Y93.165 E13.42914
G1 X264.036 Y93.935 E13.45773
G1 X263.286 Y94.725 E13.48943
G1 X262.556 Y95.385 E13.51807
G1 X261.716 Y96.025 E13.54881
G1 X260.896 Y96.555 E13.57723
G1 X259.936 Y97.075 E13.60900
G1 X259.056 Y97.455 E13.63690
G1 X258.026 Y97.805 E13.66856
G1 X257.056 Y98.045 E13.69764
G1 X256.016 Y98.215 E13.72831
G1 X255.036 Y98.295 E13.75693
G1 X254.496 Y98.315 E13.77266
G1 X187.496 Y98.315 E15.72267
G1 X186.956 Y98.295 E15.73839
G1 X185.976 Y98.215 E15.76701
G1 X184.966 Y98.045 E15.79682
G1 X184.016 Y97.815 E15.82527
G1 X182.946 Y97.465 E15.85804
G1 X182.046 Y97.075 E15.88658
G1 X181.096 Y96.555 E15.91810
G1 X180.276 Y96.025 E15.94652
G1 X179.436 Y95.385 E15.97726
G1 X178.706 Y94.725 E16.00590
G1 X177.956 Y93.935 E16.03760
G1 X177.346 Y93.165 E16.06619
G1 X176.766 Y92.285 E16.09687
G1 X176.286 Y91.425 E16.12553
G1 X175.836 Y90.435 E16.15718
G1 X175.506 Y89.515 E16.18563
G1 X175.216 Y88.445 E16.21789
G1 X175.046 Y87.485 E16.24627
G1 X174.946 Y86.465 E16.27610
G1 X174.926 Y85.485 E16.30463
G1 X174.926 Y58.515 E17.08958
G1 X175.006 Y56.765 E17.14056
G1 X175.116 Y56.075 E17.16090
G1 X175.336 Y55.065 E17.19099
G1 X175.676 Y53.985 E17.22394
G1 X176.066 Y53.025 E17.25410
G1 X176.576 Y52.015 E17.28703
G1 X177.126 Y51.135 E17.31723
G1 X177.806 Y50.235 E17.35006
G1 X178.496 Y49.465 E17.38015
G1 X178.923 Y49.025 E17.39800
G1 F1860.000 E15.69800
G92 E0
G1 X187.001 Y82.917 F9000.000
G1 F1860.000 E1.70000
M204 S800
G1 X187.500 Y82.874 E1.71457 F1470.000
G1 X187.999 Y82.917 E1.72913
G1 X188.090 Y82.942 E1.73190
G1 X188.482 Y83.047 E1.74370
G1 X188.936 Y83.258 E1.75826
G1 X189.346 Y83.545 E1.77283
G1 X189.699 Y83.899 E1.78740
G1 X189.986 Y84.309 E1.80196
G1 X190.198 Y84.763 E1.81653
G1 X190.328 Y85.246 E1.83110
G1 X190.371 Y85.745 E1.84566
G1 X190.328 Y86.243 E1.86023
G1 X190.198 Y86.727 E1.87479
G1 X189.986 Y87.180 E1.88936
G1 X189.699 Y87.590 E1.90392
G1 X189.346 Y87.944 E1.91849
G1 X188.936 Y88.231 E1.93306
G1 X188.482 Y88.443 E1.94762
G1 X187.999 Y88.572 E1.96219
G1 X187.500 Y88.616 E1.97675
G1 X187.001 Y88.572 E1.99132
G1 X186.518 Y88.443 E2.00589
G1 X186.064 Y88.231 E2.02045
G1 X185.987 Y88.177 E2.02322
G1 X185.654 Y87.944 E2.03502
G1 X185.301 Y87.590 E2.04958
G1 X185.014 Y87.180 E2.06415
G1 X184.802 Y86.727 E2.07872
G1 X184.672 Y86.243 E2.09328
G1 X184.629 Y85.745 E2.10785
G1 X184.672 Y85.246 E2.12241
G1 X184.802 Y84.763 E2.13698
G1 X185.014 Y84.309 E2.15155
G1 X185.301 Y83.899 E2.16611
G1 X185.654 Y83.545 E2.18068
G1 X186.064 Y83.258 E2.19524
G1 X186.518 Y83.047 E2.20981
G1 X186.918 Y82.940 E2.22185
M204 S800
G1 X187.102 Y83.489 F9000.000
M204 S800
G1 X187.500 Y83.454 E2.23347 F1470.000
G1 X187.941 Y83.501 E2.24636
G1 X188.283 Y83.592 E2.25669
G1 X188.645 Y83.761 E2.26831
G1 X188.972 Y83.990 E2.27993
G1 X189.255 Y84.272 E2.29155
G1 X189.484 Y84.600 E2.30317
G1 X189.652 Y84.961 E2.31479
G1 X189.756 Y85.347 E2.32641
G1 X189.790 Y85.745 E2.33803
G1 X189.756 Y86.142 E2.34965
G1 X189.652 Y86.528 E2.36127
G1 X189.458 Y86.926 E2.37416
G1 X189.255 Y87.217 E2.38449
G1 X188.972 Y87.499 E2.39611
G1 X188.645 Y87.728 E2.40773
G1 X188.283 Y87.897 E2.41935
G1 X187.898 Y88.000 E2.43097
G1 X187.500 Y88.035 E2.44259
G1 X187.059 Y87.989 E2.45548
G1 X186.717 Y87.897 E2.46581
G1 X186.355 Y87.728 E2.47743
G1 X186.028 Y87.499 E2.48905
G1 X185.745 Y87.217 E2.50067
G1 X185.516 Y86.890 E2.51229
G1 X185.348 Y86.528 E2.52391
G1 X185.244 Y86.142 E2.53553
G1 X185.210 Y85.745 E2.54715
G1 X185.244 Y85.347 E2.55877
G1 X185.348 Y84.961 E2.57039
G1 X185.516 Y84.600 E2.58201
G1 X185.745 Y84.272 E2.59363
G1 X186.028 Y83.990 E2.60525
G1 X186.355 Y83.761 E2.61687
G1 X186.717 Y83.592 E2.62849
G1 X187.018 Y83.512 E2.63758
M204 S800
G1 X187.250 Y83.118 F9000.000
G1 F1860.000 E0.93758
G92 E0
G1 X187.476 Y83.204 F9000.000
G1 X187.589 Y60.754
G1 X187.500 Y61.116
G1 F1860.000 E1.70000
M204 S800
G1 X187.001 Y61.072 E1.71457 F1470.000
G1 X186.518 Y60.943 E1.72913
G1 X186.064 Y60.731 E1.74370
G1 X185.654 Y60.444 E1.75827
G1 X185.301 Y60.090 E1.77283
G1 X185.013 Y59.680 E1.78740
G1 X184.802 Y59.227 E1.80196
G1 X184.672 Y58.743 E1.81653
G1 X184.629 Y58.245 E1.83110
G1 X184.672 Y57.746 E1.84566
G1 X184.802 Y57.263 E1.86023
G1 X185.014 Y56.809 E1.87479
G1 X185.301 Y56.399 E1.88936
G1 X185.368 Y56.332 E1.89212
G1 X185.654 Y56.045 E1.90392
G1 X186.064 Y55.758 E1.91849
G1 X186.518 Y55.547 E1.93306
G1 X187.001 Y55.417 E1.94762
G1 X187.500 Y55.374 E1.96219
G1 X187.999 Y55.417 E1.97675
G1 X188.482 Y55.547 E1.99132
G1 X188.936 Y55.758 E2.00589
G1 X189.346 Y56.045 E2.02045
G1 X189.699 Y56.399 E2.03502
G1 X189.986 Y56.809 E2.04958
G1 X190.198 Y57.263 E2.06415
G1 X190.327 Y57.746 E2.07872
G1 X190.371 Y58.245 E2.09328
G1 X190.328 Y58.743 E2.10785
G1 X190.198 Y59.227 E2.12241
G1 X189.986 Y59.680 E2.13698
G1 X189.699 Y60.090 E2.15154
G1 X189.346 Y60.444 E2.16611
G1 X188.936 Y60.731 E2.18068
G1 X188.482 Y60.943 E2.19524
G1 X187.999 Y61.072 E2.20981
G1 X187.586 Y61.108 E2.22185
M204 S800
G1 X187.500 Y60.535 F9000.000
M204 S800
G1 X187.102 Y60.500 E2.23347 F1470.000
G1 X186.717 Y60.397 E2.24509
G1 X186.355 Y60.228 E2.25671
G1 X186.028 Y59.999 E2.26833
G1 X185.745 Y59.717 E2.27995
G1 X185.516 Y59.390 E2.29157
G1 X185.348 Y59.028 E2.30319
G1 X185.244 Y58.642 E2.31481
G1 X185.210 Y58.245 E2.32643
G1 X185.244 Y57.847 E2.33805
G1 X185.348 Y57.461 E2.34967
G1 X185.516 Y57.100 E2.36129
G1 X185.777 Y56.741 E2.37418
G1 X186.028 Y56.490 E2.38451
G1 X186.355 Y56.261 E2.39613
G1 X186.717 Y56.092 E2.40775
G1 X187.102 Y55.989 E2.41937
G1 X187.500 Y55.954 E2.43099
G1 X187.898 Y55.989 E2.44261
G1 X188.283 Y56.092 E2.45423
G1 X188.645 Y56.261 E2.46585
G1 X188.972 Y56.490 E2.47747
G1 X189.255 Y56.772 E2.48909
G1 X189.502 Y57.140 E2.50198
G1 X189.652 Y57.461 E2.51231
G1 X189.756 Y57.847 E2.52393
G1 X189.790 Y58.245 E2.53555
G1 X189.756 Y58.642 E2.54717
G1 X189.652 Y59.028 E2.55879
G1 X189.484 Y59.390 E2.57040
G1 X189.255 Y59.717 E2.58202
G1 X188.972 Y59.999 E2.59364
G1 X188.645 Y60.228 E2.60526
G1 X188.283 Y60.397 E2.61688
G1 X187.898 Y60.500 E2.62850
G1 X187.586 Y60.528 E2.63760
M204 S800
G1 X187.290 Y60.875 F9000.000
G1 F1860.000 E0.93760
G92 E0
G1 X187.349 Y60.733 F9000.000
G1 X187.589 Y60.754
G1 X251.967 Y58.243
G1 X251.629 Y58.245
G1 F1860.000 E1.70000
M204 S800
G1 X251.673 Y57.746 E1.71457 F1470.000
G1 X251.802 Y57.263 E1.72913
G1 X252.014 Y56.809 E1.74370
G1 X252.301 Y56.399 E1.75826
G1 X252.368 Y56.332 E1.76103
G1 X252.654 Y56.045 E1.77283
G1 X253.064 Y55.758 E1.78739
G1 X253.518 Y55.547 E1.80196
G1 X254.001 Y55.417 E1.81653
G1 X254.500 Y55.374 E1.83109
G1 X254.999 Y55.417 E1.84566
G1 X255.482 Y55.547 E1.86022
G1 X255.936 Y55.758 E1.87479
G1 X256.346 Y56.045 E1.88936
G1 X256.413 Y56.113 E1.89212
G1 X256.699 Y56.399 E1.90392
G1 X256.986 Y56.809 E1.91849
G1 X257.198 Y57.263 E1.93306
G1 X257.328 Y57.746 E1.94762
G1 X257.371 Y58.245 E1.96219
G1 X257.328 Y58.743 E1.97675
G1 X257.198 Y59.227 E1.99132
G1 X256.986 Y59.680 E2.00589
G1 X256.699 Y60.090 E2.02045
G1 X256.345 Y60.444 E2.03502
G1 X255.936 Y60.731 E2.04958
G1 X255.849 Y60.771 E2.05235
G1 X255.482 Y60.943 E2.06415
G1 X254.999 Y61.072 E2.07872
G1 X254.500 Y61.116 E2.09328
G1 X254.001 Y61.072 E2.10785
G1 X253.518 Y60.943 E2.12241
G1 X253.064 Y60.731 E2.13698
G1 X252.654 Y60.444 E2.15154
G1 X252.301 Y60.090 E2.16611
G1 X252.014 Y59.680 E2.18068
G1 X251.802 Y59.227 E2.19524
G1 X251.673 Y58.743 E2.20981
G1 X251.636 Y58.331 E2.22185
M204 S800
G1 X252.210 Y58.245 F9000.000
M204 S800
G1 X252.244 Y57.847 E2.23347 F1470.000
G1 X252.348 Y57.461 E2.24509
G1 X252.516 Y57.100 E2.25671
G1 X252.777 Y56.741 E2.26960
G1 X253.028 Y56.490 E2.27993
G1 X253.355 Y56.261 E2.29155
G1 X253.717 Y56.092 E2.30317
G1 X254.102 Y55.989 E2.31479
G1 X254.500 Y55.954 E2.32641
G1 X254.898 Y55.989 E2.33803
G1 X255.283 Y56.092 E2.34965
G1 X255.645 Y56.261 E2.36127
G1 X256.004 Y56.522 E2.37416
G1 X256.255 Y56.772 E2.38449
G1 X256.484 Y57.100 E2.39611
G1 X256.652 Y57.461 E2.40773
G1 X256.756 Y57.847 E2.41935
G1 X256.790 Y58.245 E2.43097
G1 X256.756 Y58.642 E2.44259
G1 X256.652 Y59.028 E2.45421
G1 X256.484 Y59.390 E2.46583
G1 X256.255 Y59.717 E2.47745
G1 X255.972 Y59.999 E2.48907
G1 X255.605 Y60.247 E2.50196
G1 X255.283 Y60.397 E2.51229
G1 X254.898 Y60.500 E2.52391
G1 X254.500 Y60.535 E2.53553
G1 X254.102 Y60.500 E2.54715
G1 X253.717 Y60.397 E2.55877
G1 X253.355 Y60.228 E2.57039
G1 X253.028 Y59.999 E2.58201
G1 X252.745 Y59.717 E2.59363
G1 X252.516 Y59.390 E2.60525
G1 X252.348 Y59.028 E2.61687
G1 X252.244 Y58.642 E2.62848
G1 X252.217 Y58.331 E2.63758
M204 S800
G1 X251.870 Y58.035 F9000.000
G1 F1860.000 E0.93758
G92 E0
G1 X251.967 Y58.243 F9000.000
G1 X254.479 Y83.204
G1 X254.096 Y82.909
G1 F1860.000 E1.70000
M204 S800
G1 X254.500 Y82.874 E1.71180 F1470.000
G1 X254.998 Y82.917 E1.72636
G1 X255.482 Y83.047 E1.74093
G1 X255.936 Y83.258 E1.75550
G1 X256.346 Y83.545 E1.77006
G1 X256.699 Y83.899 E1.78463
G1 X256.986 Y84.309 E1.79920
G1 X257.198 Y84.763 E1.81376
G1 X257.328 Y85.246 E1.82833
G1 X257.371 Y85.745 E1.84289
G1 X257.328 Y86.243 E1.85746
G1 X257.198 Y86.727 E1.87203
G1 X256.986 Y87.180 E1.88659
G1 X256.699 Y87.590 E1.90116
G1 X256.345 Y87.944 E1.91573
G1 X255.936 Y88.231 E1.93029
G1 X255.482 Y88.443 E1.94486
G1 X254.999 Y88.572 E1.95942
G1 X254.500 Y88.616 E1.97399
G1 X254.002 Y88.572 E1.98855
G1 X253.518 Y88.443 E2.00312
G1 X253.065 Y88.231 E2.01768
G1 X252.987 Y88.177 E2.02045
G1 X252.654 Y87.944 E2.03225
G1 X252.301 Y87.590 E2.04682
G1 X252.014 Y87.180 E2.06138
G1 X251.802 Y86.727 E2.07595
G1 X251.672 Y86.243 E2.09051
G1 X251.629 Y85.745 E2.10508
G1 X251.673 Y85.246 E2.11965
G1 X251.802 Y84.763 E2.13421
G1 X252.014 Y84.309 E2.14878
G1 X252.301 Y83.899 E2.16334
G1 X252.654 Y83.545 E2.17791
G1 X253.064 Y83.258 E2.19248
G1 X253.518 Y83.047 E2.20704
G1 X254.010 Y82.916 E2.22185
M204 S800
G1 X254.102 Y83.489 F9000.000
M204 S800
G1 X254.500 Y83.454 E2.23347 F1470.000
G1 X254.898 Y83.489 E2.24508
G1 X255.283 Y83.592 E2.25670
G1 X255.645 Y83.761 E2.26833
G1 X255.972 Y83.990 E2.27994
G1 X256.280 Y84.309 E2.29284
G1 X256.484 Y84.600 E2.30317
G1 X256.652 Y84.961 E2.31479
G1 X256.756 Y85.347 E2.32641
G1 X256.790 Y85.745 E2.33803
G1 X256.744 Y86.185 E2.35092
G1 X256.652 Y86.528 E2.36125
G1 X256.484 Y86.890 E2.37287
G1 X256.255 Y87.217 E2.38449
G1 X255.972 Y87.499 E2.39611
G1 X255.645 Y87.728 E2.40772
G1 X255.283 Y87.897 E2.41935
G1 X254.898 Y88.000 E2.43097
G1 X254.500 Y88.035 E2.44258
G1 X254.102 Y88.000 E2.45420
G1 X253.717 Y87.897 E2.46582
G1 X253.318 Y87.703 E2.47872
G1 X253.028 Y87.499 E2.48905
G1 X252.745 Y87.217 E2.50066
G1 X252.516 Y86.890 E2.51228
G1 X252.348 Y86.528 E2.52391
G1 X252.244 Y86.142 E2.53552
G1 X252.210 Y85.745 E2.54714
G1 X252.244 Y85.347 E2.55876
G1 X252.348 Y84.961 E2.57038
G1 X252.516 Y84.600 E2.58200
G1 X252.745 Y84.272 E2.59362
G1 X253.028 Y83.990 E2.60524
G1 X253.355 Y83.761 E2.61686
G1 X253.717 Y83.592 E2.62848
G1 X254.018 Y83.512 E2.63758
M204 S800
G1 X254.250 Y83.118 F9000.000
G1 F1860.000 E0.93758
G92 E0
G1 X254.479 Y83.204 F9000.000
G1 X257.852 Y77.929
G1 X258.226 Y80.938
G1 F1860.000 E1.70000
M204 S800
G1 X259.223 Y83.731 E1.78634 F3990.000
G1 X259.496 Y84.584 E1.81238
G1 X259.619 Y85.413 E1.83677
G1 X259.604 Y86.250 E1.86116
G1 X259.454 Y87.075 E1.88555
G1 X259.171 Y87.864 E1.90994
G1 X258.764 Y88.596 E1.93433
G1 X258.242 Y89.252 E1.95872
G1 X257.621 Y89.815 E1.98311
G1 X256.917 Y90.269 E2.00750
G1 X256.148 Y90.602 E2.03189
G1 X255.335 Y90.806 E2.05628
G1 X254.465 Y90.877 E2.08170
G1 X187.536 Y90.877 E4.02965
G1 X186.665 Y90.806 E4.05507
G1 X185.852 Y90.602 E4.07946
G1 X185.083 Y90.269 E4.10385
G1 X184.379 Y89.815 E4.12824
G1 X183.757 Y89.252 E4.15263
G1 X183.236 Y88.596 E4.17702
G1 X182.829 Y87.864 E4.20141
G1 X182.546 Y87.075 E4.22580
G1 X182.396 Y86.251 E4.25019
G1 X182.381 Y85.413 E4.27458
G1 X182.504 Y84.584 E4.29897
G1 X182.777 Y83.731 E4.32501
G1 X183.774 Y80.938 E4.41135
G1 X184.507 Y78.005 E4.49934
G1 X184.950 Y75.014 E4.58733
G1 X185.098 Y71.995 E4.67531
