; generated by Slic3r 1.1.4 on 2014-07-14 at 17:28:10

; perimeters extrusion width = 0.75mm
; infill extrusion width = 0.75mm
; solid infill extrusion width = 0.75mm
; top infill extrusion width = 0.75mm

G21 ; set units to millimeters
G28 ; home all axes
G90 ; use absolute coordinates
G92 E0
M82 ; use absolute distances for extrusion
G1 F1200.000 E-1.20000
G92 E0
G1 Z0.350 F7800.000
G1 X114.985 Y90.202 F7800.000
G1 E1.20000 F1200.000
G1 X115.712 Y89.361 E1.24130 F2520.000
G1 X116.536 Y88.614 E1.28260
G1 X117.448 Y87.971 E1.32406
G1 X117.639 Y87.860 E1.33229
G1 X118.428 Y87.445 E1.36541
G1 X119.465 Y87.042 E1.40672
G1 X120.555 Y86.766 E1.44852
G1 X121.655 Y86.627 E1.48971
G1 X122.379 Y86.611 E1.51661
G1 X128.750 Y86.607 E1.75333
G1 X168.174 Y86.621 E3.21811
G1 X168.906 Y86.681 E3.24538
G1 X169.362 Y86.755 E3.26254
G1 X170.045 Y86.900 E3.28851
G1 X170.522 Y87.042 E3.30697
G1 X171.149 Y87.263 E3.33170
G1 X171.634 Y87.478 E3.35140
G1 X172.196 Y87.762 E3.37479
G1 X172.680 Y88.055 E3.39583
G1 X173.177 Y88.393 E3.41814
G1 X173.642 Y88.764 E3.44024
G1 X174.065 Y89.140 E3.46128
G1 X174.503 Y89.593 E3.48468
G1 X174.853 Y89.996 E3.50453
G1 X175.249 Y90.527 E3.52911
G1 X175.525 Y90.944 E3.54769
G1 X175.866 Y91.549 E3.57353
G1 X176.068 Y91.961 E3.59057
G1 X176.345 Y92.644 E3.61794
G1 X176.482 Y93.049 E3.63384
G1 X176.676 Y93.792 E3.66237
G1 X176.753 Y94.177 E3.67695
G1 X176.856 Y94.974 E3.70679
G1 X176.893 Y95.750 E3.73567
G1 X176.880 Y176.652 E6.74152
G1 X176.755 Y177.810 E6.78480
G1 X176.486 Y178.939 E6.82791
G1 X176.074 Y180.026 E6.87110
G1 X175.530 Y181.048 E6.91414
G1 X175.441 Y181.185 E6.92021
G1 X174.861 Y181.995 E6.95721
G1 X174.071 Y182.854 E7.00057
G1 X173.183 Y183.602 E7.04372
G1 X172.209 Y184.231 E7.08681
G1 X171.158 Y184.733 E7.13008
G1 X170.056 Y185.097 E7.17319
G1 X168.917 Y185.318 E7.21631
G1 X168.520 Y185.356 E7.23111
G1 X167.757 Y185.392 E7.25951
G1 X128.747 Y185.393 E8.70890
G1 X122.302 Y185.389 E8.94834
G1 X121.665 Y185.374 E8.97201
G1 X121.166 Y185.325 E8.99065
G1 X120.562 Y185.235 E9.01336
G1 X120.046 Y185.119 E9.03298
G1 X119.480 Y184.962 E9.05480
G1 X118.961 Y184.777 E9.07529
G1 X118.441 Y184.560 E9.09623
G1 X117.927 Y184.302 E9.11760
G1 X117.460 Y184.036 E9.13755
G1 X116.959 Y183.702 E9.15992
G1 X116.548 Y183.395 E9.17898
G1 X116.074 Y182.986 E9.20224
G1 X115.722 Y182.649 E9.22036
G1 X115.285 Y182.166 E9.24455
G1 X114.993 Y181.808 E9.26173
G1 X114.603 Y181.255 E9.28687
G1 X114.371 Y180.884 E9.30313
G1 X114.040 Y180.265 E9.32918
G1 X113.866 Y179.890 E9.34457
G1 X113.605 Y179.214 E9.37149
G1 X113.486 Y178.844 E9.38591
G1 X113.304 Y178.117 E9.41379
G1 X113.236 Y177.757 E9.42737
G1 X113.141 Y176.990 E9.45611
G1 X113.107 Y176.250 E9.48362
G1 X113.119 Y95.366 E12.48883
G1 X113.234 Y94.255 E12.53033
G1 X113.504 Y93.100 E12.57437
G1 X113.901 Y92.034 E12.61666
G1 X114.364 Y91.129 E12.65443
G1 X114.943 Y90.264 E12.69310
G1 X115.533 Y90.632 F7800.000
G1 X116.205 Y89.853 E12.73129 F2520.000
G1 X116.965 Y89.162 E12.76947
G1 X117.808 Y88.567 E12.80780
G1 X117.980 Y88.467 E12.81518
G1 X118.714 Y88.080 E12.84603
G1 X119.672 Y87.707 E12.88423
G1 X120.680 Y87.451 E12.92286
G1 X121.697 Y87.322 E12.96095
G1 X122.379 Y87.307 E12.98630
G1 X128.750 Y87.304 E13.22300
G1 X168.129 Y87.316 E14.68610
G1 X168.818 Y87.372 E14.71180
G1 X169.226 Y87.438 E14.72714
G1 X169.872 Y87.575 E14.75168
G1 X170.298 Y87.701 E14.76818
G1 X170.893 Y87.911 E14.79162
G1 X171.326 Y88.102 E14.80923
G1 X171.861 Y88.372 E14.83147
G1 X172.293 Y88.634 E14.85027
G1 X172.767 Y88.956 E14.87155
G1 X173.183 Y89.288 E14.89130
G1 X173.588 Y89.648 E14.91145
G1 X173.980 Y90.052 E14.93235
G1 X174.316 Y90.440 E14.95144
G1 X174.670 Y90.913 E14.97339
G1 X174.937 Y91.316 E14.99136
G1 X175.241 Y91.857 E15.01442
G1 X175.438 Y92.258 E15.03102
G1 X175.685 Y92.868 E15.05546
G1 X175.820 Y93.265 E15.07102
G1 X175.993 Y93.928 E15.09650
G1 X176.069 Y94.308 E15.11090
G1 X176.161 Y95.019 E15.13753
G1 X176.196 Y95.750 E15.16472
G1 X176.185 Y176.608 E18.16895
G1 X176.071 Y177.679 E18.20896
G1 X175.823 Y178.723 E18.24883
G1 X175.444 Y179.729 E18.28877
G1 X174.862 Y180.799 E18.33402
G1 X174.324 Y181.551 E18.36839
G1 X173.595 Y182.346 E18.40848
G1 X172.774 Y183.039 E18.44838
G1 X171.873 Y183.621 E18.48823
G1 X170.902 Y184.086 E18.52824
G1 X169.883 Y184.422 E18.56810
G1 X168.829 Y184.627 E18.60799
G1 X167.757 Y184.696 E18.64792
G1 X128.747 Y184.696 E20.09730
G1 X122.311 Y184.693 E20.33642
G1 X121.707 Y184.679 E20.35886
G1 X120.687 Y184.550 E20.39707
G1 X120.226 Y184.447 E20.41460
G1 X119.687 Y184.298 E20.43539
G1 X119.223 Y184.132 E20.45369
G1 X118.726 Y183.925 E20.47368
G1 X118.267 Y183.694 E20.49278
G1 X117.820 Y183.440 E20.51189
G1 X117.373 Y183.142 E20.53187
G1 X116.977 Y182.847 E20.55020
G1 X116.554 Y182.482 E20.57097
G1 X116.214 Y182.156 E20.58845
G1 X115.824 Y181.726 E20.61006
G1 X115.541 Y181.378 E20.62670
G1 X115.193 Y180.884 E20.64915
G1 X114.967 Y180.523 E20.66497
G1 X114.671 Y179.971 E20.68824
G1 X114.501 Y179.604 E20.70329
G1 X114.268 Y179.000 E20.72732
G1 X114.151 Y178.637 E20.74150
G1 X113.988 Y177.987 E20.76640
G1 X113.921 Y177.632 E20.77983
G1 X113.836 Y176.946 E20.80550
G1 X113.804 Y176.250 E20.83139
G1 X113.814 Y95.407 E23.83505
G1 X113.918 Y94.380 E23.87341
G1 X114.167 Y93.314 E23.91409
G1 X114.532 Y92.328 E23.95315
G1 X114.960 Y91.489 E23.98814
G1 X115.491 Y90.694 E24.02368
G1 F1200.000 E22.82368
G92 E0
G1 X165.608 Y177.250 F7800.000
G1 E1.20000 F1200.000
G1 X163.392 Y177.250 E1.28235 F2940.000
G1 X163.553 Y176.844 E1.29858
G1 X163.628 Y176.250 E1.32082
G1 X163.553 Y175.656 E1.34307
G1 X163.392 Y175.250 E1.35930
G1 X165.608 Y175.250 E1.44165
G1 X165.443 Y175.689 E1.45907
G1 X165.376 Y176.217 E1.47886
G1 X165.443 Y176.811 E1.50108
G1 X165.581 Y177.180 E1.51572
G1 F1200.000 E0.31572
G92 E0
G1 X159.108 Y177.250 F7800.000
G1 E1.20000 F1200.000
G1 X156.892 Y177.250 E1.28235 F2940.000
G1 X157.053 Y176.844 E1.29858
G1 X157.128 Y176.250 E1.32082
G1 X157.053 Y175.656 E1.34307
G1 X156.892 Y175.250 E1.35930
G1 X159.108 Y175.250 E1.44165
G1 X158.943 Y175.689 E1.45907
G1 X158.876 Y176.217 E1.47886
G1 X158.943 Y176.811 E1.50108
G1 X159.081 Y177.180 E1.51572
G1 F1200.000 E0.31572
G92 E0
G1 X152.608 Y177.250 F7800.000
G1 E1.20000 F1200.000
G1 X150.392 Y177.250 E1.28235 F2940.000
G1 X150.553 Y176.844 E1.29858
G1 X150.628 Y176.250 E1.32082
G1 X150.553 Y175.656 E1.34307
G1 X150.392 Y175.250 E1.35930
G1 X152.608 Y175.250 E1.44165
G1 X152.443 Y175.689 E1.45907
G1 X152.376 Y176.217 E1.47886
G1 X152.443 Y176.811 E1.50108
G1 X152.581 Y177.180 E1.51572
G1 F1200.000 E0.31572
G92 E0
G1 X146.108 Y177.250 F7800.000
G1 E1.20000 F1200.000
G1 X143.892 Y177.250 E1.28235 F2940.000
G1 X144.053 Y176.844 E1.29858
G1 X144.128 Y176.250 E1.32082
G1 X144.053 Y175.656 E1.34307
G1 X143.892 Y175.250 E1.35930
G1 X146.108 Y175.250 E1.44165
G1 X145.943 Y175.689 E1.45907
G1 X145.876 Y176.217 E1.47886
G1 X145.943 Y176.811 E1.50108
G1 X146.081 Y177.180 E1.51572
G1 F1200.000 E0.31572
G92 E0
G1 X139.608 Y177.250 F7800.000
G1 E1.20000 F1200.000
G1 X137.392 Y177.250 E1.28235 F2940.000
G1 X137.553 Y176.844 E1.29858
G1 X137.628 Y176.250 E1.32082
G1 X137.553 Y175.656 E1.34307
G1 X137.392 Y175.250 E1.35930
G1 X139.608 Y175.250 E1.44165
G1 X139.443 Y175.689 E1.45907
G1 X139.376 Y176.217 E1.47886
G1 X139.443 Y176.811 E1.50108
G1 X139.581 Y177.180 E1.51572
G1 F1200.000 E0.31572
G92 E0
G1 X133.108 Y177.250 F7800.000
G1 E1.20000 F1200.000
G1 X130.892 Y177.250 E1.28235 F2940.000
G1 X131.053 Y176.844 E1.29858
G1 X131.128 Y176.250 E1.32082
G1 X131.053 Y175.656 E1.34307
G1 X130.892 Y175.250 E1.35930
G1 X133.108 Y175.250 E1.44165
G1 X132.943 Y175.689 E1.45907
G1 X132.876 Y176.217 E1.47886
G1 X132.943 Y176.811 E1.50108
G1 X133.081 Y177.180 E1.51572
G1 F1200.000 E0.31572
G92 E0
G1 X126.608 Y177.250 F7800.000
G1 E1.20000 F1200.000
G1 X124.392 Y177.250 E1.28235 F2940.000
G1 X124.553 Y176.844 E1.29858
G1 X124.628 Y176.250 E1.32082
G1 X124.553 Y175.656 E1.34307
G1 X124.392 Y175.250 E1.35930
G1 X126.608 Y175.250 E1.44165
G1 X126.443 Y175.689 E1.45907
G1 X126.376 Y176.217 E1.47886
G1 X126.443 Y176.811 E1.50108
G1 X126.581 Y177.180 E1.51572
G1 F1200.000 E0.31572
G92 E0
G1 X131.131 Y177.625 F7800.000
G1 E1.20000 F1200.000
G1 X130.784 Y177.811 E1.21464 F2940.000
G1 X130.336 Y178.004 E1.23276
G1 X129.943 Y178.302 E1.25110
G1 X129.656 Y178.436 E1.26286
G1 X129.365 Y178.543 E1.27438
G1 X128.750 Y178.625 E1.29742
G1 X128.135 Y178.543 E1.32046
G1 X127.844 Y178.436 E1.33198
G1 X127.525 Y178.283 E1.34514
G1 X127.163 Y178.004 E1.36211
G1 X126.716 Y177.811 E1.38021
G1 X126.369 Y177.625 E1.39484
G1 F1200.000 E0.19484
G92 E0
G1 X137.631 Y177.625 F7800.000
G1 E1.20000 F1200.000
G1 X137.284 Y177.811 E1.21464 F2940.000
G1 X136.836 Y178.004 E1.23276
G1 X136.443 Y178.302 E1.25110
G1 X136.156 Y178.436 E1.26286
G1 X135.865 Y178.543 E1.27438
G1 X135.250 Y178.625 E1.29742
G1 X134.635 Y178.543 E1.32046
G1 X134.344 Y178.436 E1.33198
G1 X134.025 Y178.283 E1.34515
G1 X133.663 Y178.004 E1.36211
G1 X133.216 Y177.811 E1.38021
G1 X132.869 Y177.625 E1.39484
G1 F1200.000 E0.19484
G92 E0
G1 X144.131 Y177.625 F7800.000
G1 E1.20000 F1200.000
G1 X143.784 Y177.811 E1.21464 F2940.000
G1 X143.336 Y178.004 E1.23276
G1 X142.943 Y178.302 E1.25110
G1 X142.656 Y178.436 E1.26286
G1 X142.365 Y178.543 E1.27438
G1 X141.750 Y178.625 E1.29742
G1 X141.135 Y178.543 E1.32046
G1 X140.844 Y178.436 E1.33198
G1 X140.525 Y178.283 E1.34515
G1 X140.163 Y178.004 E1.36211
G1 X139.716 Y177.811 E1.38021
G1 X139.369 Y177.625 E1.39484
G1 F1200.000 E0.19484
G92 E0
G1 X150.631 Y177.625 F7800.000
G1 E1.20000 F1200.000
G1 X150.284 Y177.811 E1.21464 F2940.000
G1 X149.836 Y178.004 E1.23276
G1 X149.443 Y178.302 E1.25110
G1 X149.156 Y178.436 E1.26286
G1 X148.865 Y178.543 E1.27438
G1 X148.250 Y178.625 E1.29742
G1 X147.635 Y178.543 E1.32046
G1 X147.344 Y178.436 E1.33198
G1 X147.025 Y178.283 E1.34515
G1 X146.663 Y178.004 E1.36211
G1 X146.216 Y177.811 E1.38021
G1 X145.869 Y177.625 E1.39484
G1 F1200.000 E0.19484
G92 E0
G1 X157.131 Y177.625 F7800.000
G1 E1.20000 F1200.000
G1 X156.784 Y177.811 E1.21464 F2940.000
G1 X156.336 Y178.004 E1.23276
G1 X155.943 Y178.302 E1.25110
G1 X155.656 Y178.436 E1.26286
G1 X155.365 Y178.543 E1.27438
G1 X154.750 Y178.625 E1.29742
G1 X154.135 Y178.543 E1.32046
G1 X153.844 Y178.436 E1.33198
G1 X153.525 Y178.283 E1.34515
G1 X153.163 Y178.004 E1.36211
G1 X152.716 Y177.811 E1.38021
G1 X152.369 Y177.625 E1.39484
G1 F1200.000 E0.19484
G92 E0
G1 X163.631 Y177.625 F7800.000
G1 E1.20000 F1200.000
G1 X163.284 Y177.811 E1.21464 F2940.000
G1 X162.836 Y178.004 E1.23276
G1 X162.443 Y178.302 E1.25109
G1 X162.156 Y178.436 E1.26286
G1 X161.865 Y178.543 E1.27438
G1 X161.250 Y178.625 E1.29742
G1 X160.635 Y178.543 E1.32046
G1 X160.344 Y178.436 E1.33198
G1 X160.025 Y178.283 E1.34514
G1 X159.663 Y178.004 E1.36211
G1 X159.216 Y177.811 E1.38020
G1 X158.869 Y177.625 E1.39484
G1 F1200.000 E0.19484
G92 E0
G1 X165.369 Y174.875 F7800.000
G1 E1.20000 F1200.000
G1 X165.716 Y174.689 E1.21464 F2940.000
G1 X166.163 Y174.496 E1.23271
G1 X166.563 Y174.195 E1.25135
G1 X167.083 Y173.973 E1.27233
G1 X167.441 Y173.904 E1.28589
G1 X167.750 Y173.876 E1.29741
G1 X168.059 Y173.904 E1.30893
G1 X168.364 Y173.957 E1.32046
G1 X168.937 Y174.194 E1.34348
G1 X169.392 Y174.537 E1.36465
G1 X169.627 Y174.809 E1.37802
G1 X169.806 Y175.063 E1.38955
G1 X170.029 Y175.590 E1.41080
G1 X170.096 Y175.941 E1.42409
G1 X170.125 Y176.250 E1.43562
G1 X170.096 Y176.559 E1.44715
G1 X170.029 Y176.910 E1.46044
G1 X169.806 Y177.437 E1.48170
G1 X169.627 Y177.691 E1.49322
G1 X169.392 Y177.963 E1.50660
G1 X168.937 Y178.306 E1.52776
G1 X168.364 Y178.543 E1.55079
G1 X168.059 Y178.596 E1.56231
G1 X167.750 Y178.624 E1.57383
G1 X167.441 Y178.596 E1.58535
G1 X167.083 Y178.527 E1.59891
G1 X166.563 Y178.305 E1.61989
G1 X166.163 Y178.004 E1.63853
G1 X165.716 Y177.811 E1.65660
G1 X165.369 Y177.625 E1.67124
G1 F1200.000 E0.47124
G92 E0
G1 X124.615 Y177.650 F7800.000
G1 E1.20000 F1200.000
G1 X123.837 Y178.004 E1.23176 F2940.000
G1 X123.488 Y178.276 E1.24819
G1 X122.950 Y178.519 E1.27013
G1 X122.661 Y178.581 E1.28110
G1 X122.346 Y178.621 E1.29290
G1 X122.073 Y178.610 E1.30304
G1 X121.651 Y178.545 E1.31893
G1 X121.222 Y178.385 E1.33593
G1 X120.965 Y178.240 E1.34690
G1 X120.582 Y177.936 E1.36506
G1 X120.328 Y177.632 E1.37978
G1 X120.167 Y177.385 E1.39076
G1 X119.960 Y176.874 E1.41121
G1 X119.902 Y176.544 E1.42366
G1 X119.876 Y176.250 E1.43464
G1 X119.902 Y175.956 E1.44562
G1 X119.960 Y175.626 E1.45807
G1 X120.167 Y175.115 E1.47852
G1 X120.328 Y174.868 E1.48949
G1 X120.582 Y174.564 E1.50421
G1 X120.965 Y174.260 E1.52238
G1 X121.222 Y174.115 E1.53335
G1 X121.651 Y173.955 E1.55035
G1 X122.073 Y173.890 E1.56623
G1 X122.346 Y173.879 E1.57638
G1 X122.661 Y173.919 E1.58817
G1 X122.950 Y173.981 E1.59915
G1 X123.488 Y174.224 E1.62108
G1 X123.837 Y174.496 E1.63751
G1 X124.615 Y174.850 E1.66927
G1 F1200.000 E0.46927
G92 E0
G1 X158.869 Y174.875 F7800.000
G1 E1.20000 F1200.000
G1 X159.216 Y174.689 E1.21464 F2940.000
G1 X159.663 Y174.496 E1.23273
G1 X160.025 Y174.217 E1.24970
G1 X160.344 Y174.064 E1.26286
G1 X160.635 Y173.957 E1.27438
G1 X161.250 Y173.875 E1.29742
G1 X161.865 Y173.957 E1.32046
G1 X162.156 Y174.064 E1.33198
G1 X162.443 Y174.198 E1.34375
G1 X162.836 Y174.496 E1.36209
G1 X163.284 Y174.689 E1.38021
G1 X163.631 Y174.875 E1.39484
G1 F1200.000 E0.19484
G92 E0
G1 X152.369 Y174.875 F7800.000
G1 E1.20000 F1200.000
G1 X152.716 Y174.689 E1.21464 F2940.000
G1 X153.163 Y174.496 E1.23273
G1 X153.525 Y174.217 E1.24970
G1 X153.844 Y174.064 E1.26286
G1 X154.135 Y173.957 E1.27438
G1 X154.750 Y173.875 E1.29742
G1 X155.365 Y173.957 E1.32046
G1 X155.656 Y174.064 E1.33198
G1 X155.943 Y174.198 E1.34375
G1 X156.336 Y174.496 E1.36209
G1 X156.784 Y174.689 E1.38021
G1 X157.131 Y174.875 E1.39484
G1 F1200.000 E0.19484
G92 E0
G1 X145.869 Y174.875 F7800.000
G1 E1.20000 F1200.000
G1 X146.216 Y174.689 E1.21464 F2940.000
G1 X146.663 Y174.496 E1.23273
G1 X147.025 Y174.217 E1.24970
G1 X147.344 Y174.064 E1.26286
G1 X147.635 Y173.957 E1.27438
G1 X148.250 Y173.875 E1.29742
G1 X148.865 Y173.957 E1.32046
G1 X149.156 Y174.064 E1.33198
G1 X149.443 Y174.198 E1.34375
G1 X149.836 Y174.496 E1.36209
G1 X150.284 Y174.689 E1.38021
G1 X150.631 Y174.875 E1.39484
G1 F1200.000 E0.19484
G92 E0
G1 X139.369 Y174.875 F7800.000
G1 E1.20000 F1200.000
G1 X139.716 Y174.689 E1.21464 F2940.000
G1 X140.163 Y174.496 E1.23273
G1 X140.525 Y174.217 E1.24970
G1 X140.844 Y174.064 E1.26286
G1 X141.135 Y173.957 E1.27438
G1 X141.750 Y173.875 E1.29742
G1 X142.365 Y173.957 E1.32046
G1 X142.656 Y174.064 E1.33198
G1 X142.943 Y174.198 E1.34375
G1 X143.336 Y174.496 E1.36209
G1 X143.784 Y174.689 E1.38021
G1 X144.131 Y174.875 E1.39484
G1 F1200.000 E0.19484
G92 E0
G1 X132.869 Y174.875 F7800.000
G1 E1.20000 F1200.000
G1 X133.216 Y174.689 E1.21464 F2940.000
G1 X133.663 Y174.496 E1.23273
G1 X134.025 Y174.217 E1.24970
G1 X134.344 Y174.064 E1.26286
G1 X134.635 Y173.957 E1.27438
G1 X135.250 Y173.875 E1.29742
G1 X135.865 Y173.957 E1.32046
G1 X136.156 Y174.064 E1.33198
G1 X136.443 Y174.198 E1.34375
G1 X136.836 Y174.496 E1.36209
G1 X137.284 Y174.689 E1.38021
G1 X137.631 Y174.875 E1.39484
G1 F1200.000 E0.19484
G92 E0
G1 X126.369 Y174.875 F7800.000
G1 E1.20000 F1200.000
G1 X126.716 Y174.689 E1.21464 F2940.000
G1 X127.163 Y174.496 E1.23273
G1 X127.525 Y174.217 E1.24970
G1 X127.844 Y174.064 E1.26286
G1 X128.135 Y173.957 E1.27438
G1 X128.750 Y173.875 E1.29742
G1 X129.365 Y173.957 E1.32046
G1 X129.656 Y174.064 E1.33198
G1 X129.943 Y174.198 E1.34374
G1 X130.336 Y174.496 E1.36209
G1 X130.784 Y174.689 E1.38021
G1 X131.131 Y174.875 E1.39484
G1 F1200.000 E0.19484
G92 E0
G1 X164.094 Y176.765 F7800.000
G1 E1.20000 F1200.000
G1 X164.056 Y176.727 E1.20199 F4200.000
G1 X164.952 Y175.773 E1.25062
G1 X164.914 Y175.735 E1.25261
G1 F1200.000 E0.05261
G92 E0
G1 X158.414 Y175.735 F7800.000
G1 E1.20000 F1200.000
G1 X158.452 Y175.773 E1.20199 F4200.000
G1 X157.556 Y176.727 E1.25062
G1 X157.594 Y176.765 E1.25261
G1 F1200.000 E0.05261
G92 E0
G1 X151.914 Y175.735 F7800.000
G1 E1.20000 F1200.000
G1 X151.952 Y175.773 E1.20199 F4200.000
G1 X151.056 Y176.727 E1.25062
