; generated by Slic3r 1.1.7 on 2015-06-29 at 14:15:17

; perimeters extrusion width = 0.50mm
; infill extrusion width = 0.60mm
; solid infill extrusion width = 0.60mm
; top infill extrusion width = 0.43mm

G21 ; set units to millimeters
G21                                      ; metric values
G90                                      ; absolute positioning
M82                                      ; set extruder to absolute mode
M107                                    ; start with the fan off
G92 E0                                 ; set extruder position to 0
M140 S110                           ; get bed heating up
G28                                      ; home all
M109 S150                           ; set to cleaning temp and wait
G1 Z150 E-30 F75                ; suck up XXmm of filament
M109 S170                           ; heat up rest of way
G1 X45 Y174 F11520           ; move behind scraper
G1 Z0  F1200                       ; CRITICAL: set Z to height of top of scraper
G1 X45 Y174 Z-.5 F4000      ; wiping ; plunge into wipe pad
G1 X55 Y172 Z-.5 F4000      ; wiping
G1 X45 Y174 Z0 F4000        ; wiping
G1 X55 Y172 F4000             ; wiping
G1 X45 Y174 F4000             ; wiping
G1 X55 Y172 F4000             ; wiping
G1 X45 Y174 F4000             ; wiping
G1 X55 Y172 F4000             ; wiping
G1 X60 Y174 F4000             ; wiping
G1 X80 Y172 F4000             ; wiping
G1 X60 Y174 F4000             ; wiping
G1 X80 Y172 F4000             ; wiping
G1 X60 Y174 F4000             ; wiping
G1 X90 Y172 F4000             ; wiping
G1 X80 Y174 F4000             ; wiping
G1 X100 Y172 F4000           ; wiping
G1 X80 Y174 F4000             ; wiping
G1 X100 Y172 F4000           ; wiping
G1 X80 Y174 F4000             ; wiping
G1 X100 Y172 F4000           ; wiping
G1 X110 Y174 F4000           ; wiping
G1 X100 Y172 F4000           ; wiping
G1 X110 Y174 F4000           ; wiping
G1 X100 Y172 F4000           ; wiping
G1 X110 Y174 F4000           ; wiping
G1 X115 Y172 Z-0.5 F1000  ; wipe slower and bury noz in cleanish area
G1 Z10                                 ; raise z
G28 X0 Y0                            ; home x and y
M109 S170                           ; set to probing temp
M204 S300                           ; set accel for probing
G29                                      ; Probe
M204 S2000                         ; set accel back to normal
G1 X5 Y15 Z10 F5000          ; get out the way
M400                                    ; clear buffer
G4 S1                                   ; pause
M109 S250                           ; set extruder temp and wait
G4 S25                                 ; wait for bed to temp up
G1 Z2 E0 F75                       ; extrude filament back into nozzle
M140 S110                           ; get bed temping up during first layer
G90 ; use absolute coordinates
G92 E0
M82 ; use absolute distances for extrusion
M204 S2000
G1 F600.000 E-1.00000
G92 E0
G1 Z0.385 F9600.000
g91 z-0.01    ; relative coordinates z axis adjustment
g92
G1 X25.646 Y23.841 F9600.000
G1 E1.00000 F600.000
G1 X27.390 Y22.415 E1.09206 F1500.000
G1 X30.500 Y21.607 E1.22340
G1 X123.500 Y21.607 E5.02429
G1 X125.717 Y22.004 E5.11635
G1 X127.659 Y23.146 E5.20842 F1500.000
G1 X129.085 Y24.890 E5.30048
G1 X129.893 Y28.000 E5.43182
G1 X129.893 Y128.000 E9.51880
G1 X129.496 Y130.217 E9.61086
G1 X128.354 Y132.159 E9.70292
G1 X126.610 Y133.585 E9.79499
G1 X123.500 Y134.393 E9.92632
G1 X30.500 Y134.393 E13.72721
G1 X28.283 Y133.996 E13.81928
G1 X26.341 Y132.854 E13.91134
G1 X24.915 Y131.110 E14.00340
G1 X24.107 Y128.000 E14.13474
G1 X24.107 Y28.000 E18.22172
G1 X24.504 Y25.783 E18.31378
G1 X25.608 Y23.905 E18.40278
G1 X26.262 Y24.230 F9600.000
G1 X26.334 Y24.115 E18.40834 F1500.000
G1 X28.049 Y22.858 E18.49520
G1 X30.500 Y22.304 E18.59792
G1 X123.500 Y22.304 E22.39881
G1 X125.588 Y22.700 E22.48567
G1 X127.385 Y23.834 E22.57253 F1500.000
G1 X128.642 Y25.549 E22.65940
G1 X129.196 Y28.000 E22.76212
G1 X129.196 Y128.000 E26.84910
G1 X128.800 Y130.088 E26.93596
G1 X127.666 Y131.885 E27.02282
G1 X125.951 Y133.142 E27.10968
G1 X123.500 Y133.696 E27.21240
G1 X30.500 Y133.696 E31.01329
G1 X28.412 Y133.300 E31.10016
G1 X26.615 Y132.166 E31.18702
G1 X25.358 Y130.451 E31.27388
G1 X24.804 Y128.000 E31.37660
G1 X24.804 Y28.000 E35.46358
G1 X25.200 Y25.912 E35.55044
G1 X26.222 Y24.293 E35.62868
G1 F600.000 E34.62868
G92 E0
G1 X86.523 Y34.643 F9600.000
G1 E1.00000 F600.000
G1 X86.075 Y34.804 E1.01947 F1500.000
G1 X85.744 Y34.862 E1.03321
G1 X85.500 Y34.875 E1.04319
G1 X85.035 Y34.829 E1.06230
G1 X84.717 Y34.742 E1.07578
G1 X84.505 Y34.657 E1.08511
G1 X84.292 Y34.545 E1.09493
G1 X84.021 Y34.358 E1.10841
G1 X83.841 Y34.199 E1.11822
G1 X83.621 Y33.953 E1.13170
G1 X83.484 Y33.756 E1.14152
G1 X83.329 Y33.464 E1.15500
G1 X83.183 Y33.020 E1.17411
G1 X83.133 Y32.694 E1.18759
G1 X83.125 Y32.466 E1.19692
G1 X83.141 Y32.226 E1.20673
G1 X83.201 Y31.902 E1.22021
G1 X83.274 Y31.673 E1.23003
G1 X83.410 Y31.372 E1.24351
G1 X83.671 Y30.985 E1.26262
G1 X83.825 Y30.816 E1.27194
G1 X84.074 Y30.601 E1.28542
G1 X84.475 Y30.358 E1.30456
G1 X84.781 Y30.236 E1.31803
G1 X85.013 Y30.175 E1.32784
G1 X85.239 Y30.139 E1.33716
G1 X85.568 Y30.126 E1.35064
G1 X85.920 Y30.162 E1.36512 F1500.000
G1 X86.252 Y30.247 E1.37910
G1 X86.657 Y30.426 E1.39720
G1 X86.953 Y30.621 E1.41167
G1 X87.277 Y30.924 E1.42981
G1 X87.491 Y31.206 E1.44428
G1 X87.697 Y31.598 E1.46241
G1 X87.807 Y31.935 E1.47688
G1 X87.872 Y32.386 E1.49550
G1 X87.864 Y32.732 E1.50964
G1 X87.801 Y33.087 E1.52437
G1 X87.648 Y33.512 E1.54285
G1 X87.470 Y33.826 E1.55758
G1 X87.184 Y34.175 E1.57604
G1 X86.911 Y34.411 E1.59078
G1 X86.590 Y34.609 E1.60619
G1 F600.000 E0.60619
G92 E0
G1 X85.556 Y29.772 F9600.000
G1 X85.608 Y54.430 F9600.000
G1 E1.00000 F600.000
G1 X85.902 Y54.455 E1.01206 F1500.000
G1 X86.191 Y54.507 E1.02410
G1 X86.475 Y54.587 E1.03612
G1 X86.750 Y54.694 E1.04820
G1 X87.013 Y54.827 E1.06023
G1 X87.262 Y54.984 E1.07227
G1 X87.495 Y55.165 E1.08431
G1 X87.710 Y55.367 E1.09636
G1 X87.904 Y55.588 E1.10841
G1 X88.076 Y55.828 E1.12046
G1 X88.225 Y56.082 E1.13250
G1 X88.348 Y56.349 E1.14454
G1 X88.445 Y56.628 E1.15660
G1 X88.515 Y56.914 E1.16863
G1 X88.558 Y57.206 E1.18069
G1 X88.572 Y57.500 E1.19271
G1 X88.557 Y57.799 E1.20494
G1 X88.513 Y58.096 E1.21720
G1 X88.441 Y58.386 E1.22944
G1 X88.341 Y58.668 E1.24168
G1 X88.213 Y58.940 E1.25393
G1 X88.060 Y59.197 E1.26618
G1 X87.882 Y59.439 E1.27843
G1 X87.662 Y59.682 E1.29186
G1 X87.438 Y59.882 E1.30412
G1 X87.197 Y60.060 E1.31636
G1 X86.940 Y60.213 E1.32861
G1 X86.669 Y60.341 E1.34084
G1 X86.386 Y60.441 E1.35308
G1 X86.095 Y60.513 E1.36534
G1 X85.799 Y60.557 E1.37757
G1 X85.500 Y60.572 E1.38982
G1 X85.206 Y60.558 E1.40184
G1 X84.914 Y60.515 E1.41390
G1 X84.628 Y60.445 E1.42594
G1 X84.350 Y60.348 E1.43798
G1 X84.082 Y60.225 E1.45004
G1 X83.827 Y60.076 E1.46208
G1 X83.588 Y59.904 E1.47413
G1 X83.346 Y59.689 E1.48735
G1 X83.072 Y59.381 E1.50423
G1 X82.903 Y59.139 E1.51627
G1 X82.757 Y58.883 E1.52832
G1 X82.638 Y58.614 E1.54035
G1 X82.544 Y58.334 E1.55240
G1 X82.478 Y58.047 E1.56445
G1 X82.439 Y57.755 E1.57649
G1 X82.429 Y57.461 E1.58853
G1 X82.447 Y57.166 E1.60058
G1 X82.493 Y56.875 E1.61262
G1 X82.566 Y56.590 E1.62467
G1 X82.667 Y56.313 E1.63672
G1 X82.794 Y56.047 E1.64876
G1 X82.946 Y55.794 E1.66081
G1 X83.121 Y55.558 E1.67284
G1 X83.338 Y55.318 E1.68605
G1 X83.557 Y55.121 E1.69809
G1 X83.794 Y54.946 E1.71015
G1 X84.047 Y54.794 E1.72219
G1 X84.313 Y54.667 E1.73423
G1 X84.590 Y54.566 E1.74629
G1 X84.875 Y54.493 E1.75833
G1 X85.167 Y54.447 E1.77038
G1 X85.533 Y54.429 E1.78535
G1 X85.580 Y55.126 F9600.000
G1 X86.032 Y55.185 E1.80398 F1500.000
G1 X86.464 Y55.329 E1.82261
G1 X86.861 Y55.553 E1.84122
G1 X87.208 Y55.849 E1.85984
G1 X87.491 Y56.206 E1.87847
G1 X87.702 Y56.610 E1.89709
G1 X87.831 Y57.046 E1.91571
G1 X87.875 Y57.500 E1.93433
G1 X87.830 Y57.962 E1.95330
G1 X87.695 Y58.406 E1.97226
G1 X87.477 Y58.816 E1.99123
G1 X87.175 Y59.184 E2.01069
G1 X86.816 Y59.477 E2.02966
G1 X86.406 Y59.695 E2.04863
G1 X85.962 Y59.830 E2.06760
G1 X85.500 Y59.875 E2.08656
G1 X85.047 Y59.831 E2.10518
G1 X84.610 Y59.702 E2.12380
G1 X84.206 Y59.491 E2.14242
G1 X83.849 Y59.208 E2.16105
G1 X83.553 Y58.861 E2.17967
G1 X83.329 Y58.464 E2.19829
G1 X83.185 Y58.032 E2.21691
G1 X83.126 Y57.568 E2.23602
G1 X83.139 Y57.238 E2.24950
G1 X83.175 Y57.013 E2.25882
G1 X83.311 Y56.578 E2.27745
G1 X83.528 Y56.177 E2.29607
G1 X83.816 Y55.825 E2.31469
G1 X84.177 Y55.527 E2.33380
G1 X84.578 Y55.311 E2.35242
G1 X85.013 Y55.175 E2.37105
G1 X85.454 Y55.126 E2.38918
G1 X85.505 Y55.126 E2.39126 F1500.000
G1 X85.454 Y55.075 F9600.000
G1 F600.000 E1.39126
G92 E0
G1 X85.461 Y95.429 F9600.000
G1 E1.00000 F600.000
G1 X85.579 Y95.430 E1.00485 F1500.000
G1 X85.901 Y95.455 E1.01805 F1500.000
G1 X86.192 Y95.507 E1.03011
G1 X86.475 Y95.587 E1.04215
G1 X86.750 Y95.694 E1.05419
G1 X87.013 Y95.827 E1.06625
G1 X87.262 Y95.984 E1.07828
G1 X87.495 Y96.165 E1.09032
G1 X87.710 Y96.367 E1.10237
G1 X87.904 Y96.588 E1.11442
G1 X88.076 Y96.827 E1.12646
G1 X88.225 Y97.082 E1.13850
G1 X88.348 Y97.349 E1.15054
G1 X88.445 Y97.628 E1.16260
G1 X88.515 Y97.914 E1.17463
G1 X88.558 Y98.206 E1.18669
G1 X88.572 Y98.500 E1.19871
G1 X88.557 Y98.799 E1.21094
G1 X88.513 Y99.095 E1.22320
G1 X88.441 Y99.386 E1.23545
G1 X88.341 Y99.669 E1.24769
G1 X88.213 Y99.940 E1.25994
G1 X88.060 Y100.197 E1.27219
G1 X87.882 Y100.438 E1.28443
G1 X87.661 Y100.682 E1.29787
G1 X87.438 Y100.882 E1.31012
G1 X87.197 Y101.060 E1.32237
G1 X86.940 Y101.213 E1.33462
G1 X86.668 Y101.341 E1.34686
G1 X86.386 Y101.441 E1.35911
G1 X86.095 Y101.513 E1.37135
G1 X85.799 Y101.557 E1.38361
G1 X85.500 Y101.572 E1.39583
G1 X85.206 Y101.558 E1.40786
G1 X84.914 Y101.515 E1.41991
G1 X84.628 Y101.445 E1.43195
G1 X84.350 Y101.348 E1.44400
G1 X84.082 Y101.225 E1.45605
G1 X83.827 Y101.076 E1.46809
G1 X83.588 Y100.904 E1.48014
G1 X83.367 Y100.710 E1.49218
G1 X83.165 Y100.495 E1.50422
G1 X82.984 Y100.262 E1.51626
G1 X82.827 Y100.013 E1.52831
G1 X82.694 Y99.750 E1.54036
G1 X82.587 Y99.475 E1.55240
G1 X82.507 Y99.192 E1.56443
G1 X82.455 Y98.901 E1.57650
G1 X82.430 Y98.579 E1.58970
G1 X82.434 Y98.313 E1.60058
G1 X82.466 Y98.020 E1.61263
G1 X82.526 Y97.732 E1.62466
G1 X82.624 Y97.423 E1.63789
G1 X82.740 Y97.153 E1.64992
G1 X82.882 Y96.894 E1.66197
G1 X83.048 Y96.651 E1.67400
G1 X83.236 Y96.424 E1.68605
G1 X83.446 Y96.217 E1.69810
G1 X83.674 Y96.030 E1.71014
G1 X83.919 Y95.867 E1.72219
G1 X84.178 Y95.727 E1.73423
G1 X84.450 Y95.613 E1.74628
G1 X84.732 Y95.526 E1.75831
G1 X85.020 Y95.466 E1.77036
G1 X85.386 Y95.431 E1.78536
G1 X85.466 Y96.125 F9600.000
G1 X85.920 Y96.162 E1.80398 F1500.000
G1 X86.359 Y96.286 E1.82260
G1 X86.766 Y96.490 E1.84122
G1 X87.126 Y96.769 E1.85985
G1 X87.427 Y97.111 E1.87847
G1 X87.657 Y97.505 E1.89709
G1 X87.807 Y97.935 E1.91571
G1 X87.872 Y98.386 E1.93433
G1 X87.850 Y98.847 E1.95321
G1 X87.737 Y99.298 E1.97218
G1 X87.539 Y99.717 E1.99114
G1 X87.264 Y100.091 E2.01011
G1 X86.911 Y100.411 E2.02958
G1 X86.512 Y100.648 E2.04854
G1 X86.075 Y100.804 E2.06751
G1 X85.616 Y100.872 E2.08648
G1 X85.159 Y100.850 E2.10518
G1 X84.716 Y100.742 E2.12380
G1 X84.303 Y100.551 E2.14242
G1 X83.924 Y100.277 E2.16154
G1 X83.693 Y100.041 E2.17502
G1 X83.553 Y99.861 E2.18434
G1 X83.329 Y99.464 E2.20297
G1 X83.185 Y99.032 E2.22158
G1 X83.126 Y98.580 E2.24021
G1 X83.155 Y98.125 E2.25883
G1 X83.269 Y97.684 E2.27745
G1 X83.466 Y97.273 E2.29607
G1 X83.746 Y96.899 E2.31518
G1 X84.084 Y96.593 E2.33380
G1 X84.474 Y96.358 E2.35242
G1 X84.902 Y96.201 E2.37105
G1 X85.125 Y96.155 E2.38037
G1 X85.391 Y96.128 E2.39128
G1 X85.704 Y95.737 F9600.000
G1 F600.000 E1.39128
G92 E0
G1 X85.466 Y121.125 F9600.000
G1 E1.00000 F600.000
G1 X85.568 Y121.126 E1.00417 F1500.000
G1 X86.032 Y121.185 E1.02328 F1500.000
G1 X86.464 Y121.329 E1.04190
G1 X86.861 Y121.553 E1.06052
G1 X87.208 Y121.849 E1.07914
G1 X87.491 Y122.206 E1.09777
G1 X87.702 Y122.610 E1.11638
G1 X87.831 Y123.046 E1.13501
G1 X87.875 Y123.500 E1.15363
G1 X87.830 Y123.962 E1.17260
G1 X87.695 Y124.406 E1.19156
G1 X87.477 Y124.816 E1.21053
G1 X87.184 Y125.175 E1.22950
G1 X86.816 Y125.477 E1.24896
G1 X86.406 Y125.695 E1.26793
G1 X85.962 Y125.830 E1.28689
G1 X85.500 Y125.875 E1.30586
G1 X85.046 Y125.831 E1.32448
G1 X84.610 Y125.702 E1.34310
G1 X84.206 Y125.491 E1.36172
G1 X83.849 Y125.208 E1.38034
G1 X83.553 Y124.861 E1.39897
G1 X83.329 Y124.464 E1.41759
G1 X83.185 Y124.032 E1.43621
G1 X83.126 Y123.568 E1.45532
G1 X83.155 Y123.125 E1.47346
G1 X83.269 Y122.684 E1.49207
G1 X83.466 Y122.273 E1.51069
G1 X83.746 Y121.899 E1.52981
G1 X84.084 Y121.593 E1.54843
G1 X84.474 Y121.358 E1.56705
G1 X84.902 Y121.201 E1.58567
G1 X85.125 Y121.155 E1.59499
G1 X85.391 Y121.128 E1.60591
G1 X85.827 Y120.737 F9600.000
G1 F600.000 E0.60591
G92 E0
G1 X70.363 Y123.071 F9600.000
G1 E1.00000 F600.000
G1 X75.772 Y78.000 E2.85527 F1500.000
G1 X70.363 Y32.929 E4.71054
G1 X69.253 Y32.929 E4.75590
G1 X68.855 Y32.892 E4.77223
G1 X68.444 Y32.820 E4.78929
G1 X68.041 Y32.713 E4.80635
G1 X67.520 Y32.518 E4.82909
G1 X67.145 Y32.333 E4.84616
G1 X66.787 Y32.118 E4.86322
G1 X66.341 Y31.786 E4.88597
G1 X66.032 Y31.505 E4.90303
G1 X65.660 Y31.091 E4.92577
G1 X65.412 Y30.755 E4.94283
G1 X65.194 Y30.399 E4.95989
G1 X65.007 Y30.026 E4.97695
G1 X64.851 Y29.639 E4.99402
G1 X64.674 Y29.071 E5.01831
G1 X84.597 Y29.071 E5.83253
G1 X84.674 Y29.537 E5.85183
G1 X84.313 Y29.667 E5.86749
G1 X84.047 Y29.794 E5.87955
G1 X83.794 Y29.946 E5.89159
G1 X83.558 Y30.121 E5.90363
G1 X83.338 Y30.318 E5.91569
G1 X83.139 Y30.536 E5.92775
G1 X82.962 Y30.770 E5.93976
G1 X82.808 Y31.022 E5.95181
G1 X82.614 Y31.450 E5.97104
G1 X82.493 Y31.875 E5.98910
G1 X82.447 Y32.167 E6.00115
G1 X82.429 Y32.432 E6.01202
G1 X82.455 Y32.901 E6.03123
G1 X82.507 Y33.192 E6.04329
G1 X82.587 Y33.475 E6.05533
G1 X82.694 Y33.750 E6.06737
G1 X82.813 Y33.988 E6.07824
G1 X83.072 Y34.381 E6.09749
G1 X83.263 Y34.605 E6.10954
G1 X83.476 Y34.810 E6.12159
G1 X83.706 Y34.993 E6.13360
G1 X83.953 Y35.153 E6.14564
G1 X84.214 Y35.289 E6.15768
G1 X84.461 Y35.390 E6.16859
G1 X84.914 Y35.515 E6.18780
G1 X85.205 Y35.557 E6.19980
G1 X85.500 Y35.572 E6.21188
G1 X85.798 Y35.557 E6.22409
G1 X86.095 Y35.513 E6.23635
G1 X86.557 Y35.384 E6.25594
G1 X86.806 Y35.280 E6.26696
G1 X87.071 Y35.139 E6.27922
G1 X87.320 Y34.974 E6.29146
G1 X87.553 Y34.785 E6.30370
G1 X87.882 Y34.439 E6.32324
G1 X88.060 Y34.197 E6.33549
G1 X88.213 Y33.940 E6.34774
G1 X88.341 Y33.668 E6.35999
G1 X88.432 Y33.414 E6.37104
G1 X88.539 Y32.948 E6.39058
G1 X88.572 Y32.500 E6.40894
G1 X88.558 Y32.206 E6.42097
G1 X88.515 Y31.914 E6.43302
G1 X88.400 Y31.487 E6.45108
G1 X88.211 Y31.057 E6.47031
G1 X87.993 Y30.705 E6.48721
G1 X87.809 Y30.475 E6.49925
G1 X87.605 Y30.263 E6.51126
G1 X87.380 Y30.071 E6.52336
G1 X87.140 Y29.903 E6.53535
G1 X86.883 Y29.758 E6.54740
G1 X86.323 Y29.533 E6.57206
G1 X86.404 Y29.071 E6.59120
G1 X89.429 Y29.071 E6.71484
G1 X89.429 Y126.929 E10.71424
G1 X86.407 Y126.929 E10.83775
G1 X86.324 Y126.470 E10.85678
G1 X86.668 Y126.341 E10.87182
G1 X86.940 Y126.213 E10.88407
G1 X87.343 Y125.957 E10.90362
G1 X87.574 Y125.765 E10.91587
G1 X87.785 Y125.552 E10.92812
G1 X87.974 Y125.320 E10.94037
G1 X88.140 Y125.070 E10.95260
G1 X88.341 Y124.668 E10.97098
G1 X88.481 Y124.242 E10.98933
G1 X88.557 Y123.799 E11.00770
G1 X88.568 Y123.353 E11.02593
G1 X88.509 Y122.886 E11.04517
G1 X88.445 Y122.628 E11.05601
G1 X88.348 Y122.349 E11.06808
G1 X88.138 Y121.928 E11.08731
G1 X87.993 Y121.706 E11.09817
G1 X87.810 Y121.475 E11.11021
G1 X87.473 Y121.146 E11.12945
G1 X87.262 Y120.984 E11.14031
G1 X87.013 Y120.827 E11.15235
G1 X86.587 Y120.628 E11.17158
G1 X86.334 Y120.544 E11.18245
G1 X86.047 Y120.478 E11.19449
G1 X85.755 Y120.439 E11.20654
G1 X85.461 Y120.429 E11.21858
G1 X85.166 Y120.447 E11.23063
G1 X84.875 Y120.493 E11.24268
G1 X84.590 Y120.566 E11.25471
G1 X84.313 Y120.667 E11.26676
G1 X84.047 Y120.794 E11.27881
G1 X83.794 Y120.946 E11.29085
G1 X83.557 Y121.121 E11.30289
G1 X83.338 Y121.318 E11.31494
G1 X83.139 Y121.535 E11.32698
G1 X82.962 Y121.771 E11.33902
G1 X82.808 Y122.022 E11.35106
G1 X82.679 Y122.287 E11.36311
