; generated by Slic3r 1.1.4 on 2014-10-20 at 11:55:47

; perimeters extrusion width = 0.40mm
; infill extrusion width = 0.66mm
; solid infill extrusion width = 0.60mm
; top infill extrusion width = 0.40mm

G21 ; set units to millimeters

M301 P34 I4 D113     ; set PID nozzle
M304 P162 I17 D378 ; set PID Bed

;M104 S230                 ; set extruder temp for budaschnozzle
M104 S250                 ; set extruder temp for hex_hot_end
;M140 S100                 ; set bed temp for PET
M140 S105                 ; set bed temp for PEI (reminder ~G1 Z2 ~ M140 S(@-10 degree change) ;if -m is present in file name) 

G28                            ; home
G1 Z5 F300                ; move bed down 5mm
M84                            ; disable steppers
G4 S300                     ; wait 5 mins to preheat

G28                            ; home

G90 ; use absolute coordinates
G92 E0
M82 ; use absolute distances for extrusion
M204 S1500
G1 F1500.000 E-1.40000
G92 E0
G1 Z0.300 F8100.000
G1 X66.579 Y72.035 F8100.000
G1 E1.40000 F1500.000
G1 X68.105 Y70.577 E1.45586 F1260.000
G1 X70.867 Y68.225 E1.55185
G1 X72.561 Y67.003 E1.60711
G1 X75.585 Y65.060 E1.70222
G1 X77.452 Y64.056 E1.75831
G1 X80.344 Y62.688 E1.84296
G1 X81.236 Y62.310 E1.86857
G1 X82.692 Y61.786 E1.90952
G1 X85.771 Y60.811 E1.99498
G1 X86.913 Y60.502 E2.02627
G1 X88.186 Y60.236 E2.06068
G1 X91.402 Y59.679 E2.14703
G1 X92.786 Y59.502 E2.18395
G1 X93.837 Y59.432 E2.21183
G1 X97.134 Y59.311 E2.29912
G1 X98.740 Y59.329 E2.34162
G1 X99.544 Y59.388 E2.36295
G1 X102.865 Y59.716 E2.45124
G1 X104.661 Y59.986 E2.49930
G1 X108.542 Y60.901 E2.60479
G1 X110.723 Y61.568 E2.66514
G1 X113.908 Y62.799 E2.75549
G1 X115.991 Y63.753 E2.81611
G1 X119.021 Y65.423 E2.90767
G1 X120.898 Y66.617 E2.96651
G1 X123.737 Y68.710 E3.05983
G1 X125.381 Y70.107 E3.11691
G1 X127.971 Y72.601 E3.21205
G1 X129.370 Y74.170 E3.26768
G1 X131.622 Y77.003 E3.36344
G1 X132.793 Y78.743 E3.41892
G1 X134.629 Y81.823 E3.51379
G1 X135.575 Y83.729 E3.57010
G1 X136.847 Y86.673 E3.65494
G1 X137.214 Y87.626 E3.68197
G1 X137.667 Y89.041 E3.72129
G1 X138.540 Y92.160 E3.80698
G1 X138.822 Y93.363 E3.83966
G1 X139.033 Y94.584 E3.87245
G1 X139.483 Y97.826 E3.95905
G1 X139.617 Y99.267 E3.99735
G1 X139.648 Y100.259 E4.02359
G1 X139.657 Y103.567 E4.11114
G1 X139.582 Y105.225 E4.15504
G1 X139.502 Y105.964 E4.17472
G1 X139.042 Y109.380 E4.26590
G1 X138.597 Y111.599 E4.32579
G1 X137.690 Y114.900 E4.41637
G1 X136.950 Y117.063 E4.47686
G1 X135.607 Y120.215 E4.56751
G1 X134.590 Y122.249 E4.62769
G1 X132.813 Y125.237 E4.71965
G1 X131.564 Y127.058 E4.77808
G1 X129.369 Y129.840 E4.87185
G1 X127.927 Y131.423 E4.92849
G1 X125.338 Y133.941 E5.02407
G1 X123.728 Y135.278 E5.07944
G1 X120.827 Y137.430 E5.17500
G1 X119.044 Y138.546 E5.23067
G1 X115.911 Y140.274 E5.32533
G1 X113.968 Y141.160 E5.38184
G1 X110.975 Y142.336 E5.46691
G1 X109.959 Y142.687 E5.49536
G1 X108.589 Y143.074 E5.53303
G1 X105.433 Y143.844 E5.61897
G1 X104.170 Y144.094 E5.65305
G1 X103.003 Y144.254 E5.68421
G1 X99.739 Y144.595 E5.77103
G1 X98.242 Y144.682 E5.81071
G1 X97.311 Y144.679 E5.83534
G1 X93.996 Y144.576 E5.92311
G1 X92.289 Y144.440 E5.96842
G1 X91.614 Y144.343 E5.98645
G1 X88.222 Y143.769 E6.07748
G1 X86.013 Y143.250 E6.13752
G1 X82.770 Y142.242 E6.22736
G1 X80.771 Y141.496 E6.28382
G1 X77.493 Y139.969 E6.37951
G1 X75.508 Y138.890 E6.43928
G1 X72.567 Y137.007 E6.53169
G1 X70.804 Y135.706 E6.58966
G1 X68.082 Y133.410 E6.68388
G1 X66.563 Y131.927 E6.74004
G1 X64.119 Y129.243 E6.83609
G1 X62.844 Y127.595 E6.89122
G1 X60.796 Y124.631 E6.98654
G1 X59.734 Y122.804 E7.04246
G1 X58.273 Y119.967 E7.12689
G1 X57.888 Y119.137 E7.15108
G1 X57.292 Y117.644 E7.19363
G1 X56.216 Y114.606 E7.27891
G1 X55.883 Y113.527 E7.30878
G1 X55.559 Y112.203 E7.34484
G1 X54.895 Y109.016 E7.43097
G1 X54.679 Y107.692 E7.46647
G1 X54.566 Y106.583 E7.49598
G1 X54.335 Y103.300 E7.58304
G1 X54.298 Y101.747 E7.62415
G1 X54.331 Y100.880 E7.64711
G1 X54.547 Y97.560 E7.73512
G1 X54.748 Y95.807 E7.78183
G1 X55.544 Y91.831 E7.88912
G1 X56.137 Y89.634 E7.94931
G1 X57.256 Y86.420 E8.03937
G1 X58.134 Y84.314 E8.09973
G1 X59.707 Y81.221 E8.19155
G1 X60.845 Y79.290 E8.25085
G1 X62.833 Y76.397 E8.34372
G1 X64.183 Y74.693 E8.40125
G1 X66.528 Y72.091 E8.49394
G1 X66.981 Y72.452 F8100.000
G1 X68.483 Y71.015 E8.54894 F1260.000
G1 X71.208 Y68.693 E8.64367
G1 X72.877 Y67.488 E8.69813
G1 X75.862 Y65.568 E8.79204
G1 X77.700 Y64.578 E8.84726
G1 X80.580 Y63.216 E8.93155
G1 X81.433 Y62.854 E8.95609
G1 X82.867 Y62.338 E8.99641
G1 X85.931 Y61.367 E9.08144
G1 X87.033 Y61.068 E9.11166
G1 X88.285 Y60.806 E9.14551
G1 X91.482 Y60.252 E9.23136
G1 X92.826 Y60.079 E9.26721
G1 X93.859 Y60.010 E9.29460
G1 X97.134 Y59.890 E9.38131
G1 X98.700 Y59.906 E9.42274
G1 X99.488 Y59.963 E9.44366
G1 X102.784 Y60.289 E9.53129
G1 X104.541 Y60.552 E9.57828
G1 X108.378 Y61.456 E9.68259
G1 X110.516 Y62.108 E9.74172
G1 X113.672 Y63.328 E9.83127
G1 X115.714 Y64.260 E9.89064
G1 X118.715 Y65.914 E9.98131
G1 X120.557 Y67.085 E10.03905
G1 X123.365 Y69.153 E10.13134
G1 X124.982 Y70.526 E10.18747
G1 X127.541 Y72.988 E10.28142
G1 X128.920 Y74.533 E10.33621
G1 X131.144 Y77.329 E10.43073
G1 X132.298 Y79.042 E10.48539
G1 X134.112 Y82.083 E10.57908
G1 X135.044 Y83.959 E10.63450
G1 X136.311 Y86.890 E10.71897
G1 X136.663 Y87.805 E10.74493
G1 X137.110 Y89.198 E10.78363
G1 X137.979 Y92.300 E10.86888
G1 X138.252 Y93.463 E10.90048
G1 X138.460 Y94.664 E10.93273
G1 X138.908 Y97.886 E11.01880
G1 X139.039 Y99.287 E11.05604
G1 X139.070 Y100.261 E11.08181
G1 X139.079 Y103.547 E11.16876
G1 X139.007 Y105.164 E11.21159
G1 X138.928 Y105.889 E11.23088
G1 X138.474 Y109.271 E11.32117
G1 X138.039 Y111.447 E11.37988
G1 X137.141 Y114.718 E11.46963
G1 X136.417 Y116.838 E11.52890
G1 X135.087 Y119.961 E11.61872
G1 X134.092 Y121.956 E11.67769
G1 X132.334 Y124.913 E11.76872
G1 X131.108 Y126.702 E11.82609
G1 X128.939 Y129.453 E11.91879
G1 X127.521 Y131.010 E11.97451
G1 X124.966 Y133.498 E12.06887
G1 X123.380 Y134.816 E12.12342
G1 X120.518 Y136.941 E12.21776
G1 X118.762 Y138.041 E12.27259
G1 X115.668 Y139.749 E12.36609
G1 X113.756 Y140.622 E12.42170
G1 X110.777 Y141.792 E12.50637
G1 X109.799 Y142.131 E12.53375
G1 X108.451 Y142.512 E12.57082
G1 X105.313 Y143.278 E12.65629
G1 X104.089 Y143.521 E12.68930
G1 X102.942 Y143.679 E12.71994
G1 X99.699 Y144.018 E12.80622
G1 X98.242 Y144.104 E12.84483
G1 X97.328 Y144.101 E12.86902
G1 X94.036 Y143.999 E12.95617
G1 X92.369 Y143.867 E13.00041
G1 X91.709 Y143.772 E13.01806
G1 X88.349 Y143.205 E13.10821
G1 X86.183 Y142.697 E13.16707
G1 X82.968 Y141.699 E13.25614
G1 X81.007 Y140.968 E13.31152
G1 X77.765 Y139.458 E13.40615
G1 X75.818 Y138.401 E13.46475
G1 X72.907 Y136.539 E13.55620
G1 X71.174 Y135.262 E13.61314
G1 X68.484 Y132.994 E13.70625
G1 X66.988 Y131.534 E13.76153
G1 X64.575 Y128.887 E13.85633
G1 X63.318 Y127.263 E13.91066
G1 X61.295 Y124.338 E14.00476
G1 X60.248 Y122.539 E14.05983
G1 X58.793 Y119.713 E14.14392
G1 X58.425 Y118.921 E14.16704
G1 X57.837 Y117.450 E14.20894
G1 X56.766 Y114.427 E14.29381
G1 X56.445 Y113.387 E14.32260
G1 X56.125 Y112.085 E14.35808
G1 X55.464 Y108.916 E14.44373
G1 X55.254 Y107.632 E14.47816
G1 X55.143 Y106.541 E14.50716
G1 X54.913 Y103.280 E14.59366
G1 X54.876 Y101.767 E14.63370
G1 X54.909 Y100.916 E14.65623
G1 X55.122 Y97.621 E14.74361
G1 X55.318 Y95.907 E14.78925
G1 X56.104 Y91.976 E14.89531
G1 X56.684 Y89.823 E14.95431
G1 X57.793 Y86.637 E15.04358
G1 X58.650 Y84.575 E15.10267
G1 X60.208 Y81.510 E15.19362
G1 X61.323 Y79.615 E15.25179
G1 X63.289 Y76.753 E15.34366
G1 X64.615 Y75.078 E15.40020
G1 X66.930 Y72.507 E15.49174
G1 F1500.000 E14.09174
G92 E0
G1 X124.682 Y109.693 F8100.000
G1 E1.40000 F1500.000
G1 X124.093 Y110.210 E1.42072 F2100.000
G1 X123.468 Y110.682 E1.44143
G1 X122.809 Y111.107 E1.46220
G1 X122.097 Y111.492 E1.48361
G1 X121.410 Y111.803 E1.50358
G1 X120.674 Y112.073 E1.52430
G1 X119.921 Y112.287 E1.54503
G1 X119.155 Y112.445 E1.56573
G1 X118.378 Y112.546 E1.58644
G1 X117.597 Y112.589 E1.60716
G1 X116.813 Y112.575 E1.62791
G1 X116.019 Y112.500 E1.64900
G1 X115.262 Y112.373 E1.66931
G1 X114.502 Y112.187 E1.69002
G1 X113.757 Y111.945 E1.71074
G1 X113.032 Y111.649 E1.73146
G1 X112.331 Y111.300 E1.75217
G1 X111.658 Y110.900 E1.77289
G1 X111.015 Y110.451 E1.79363
G1 X110.398 Y109.946 E1.81473
G1 X109.840 Y109.419 E1.83504
G1 X109.313 Y108.840 E1.85575
G1 X108.830 Y108.224 E1.87647
G1 X108.393 Y107.574 E1.89718
G1 X108.006 Y106.894 E1.91790
G1 X107.670 Y106.186 E1.93862
G1 X107.387 Y105.455 E1.95936
G1 X107.155 Y104.692 E1.98046
G1 X106.987 Y103.943 E2.00077
G1 X106.871 Y103.169 E2.02148
G1 X106.814 Y102.388 E2.04220
G1 X106.814 Y101.605 E2.06291
G1 X106.871 Y100.825 E2.08363
G1 X106.987 Y100.050 E2.10434
G1 X107.159 Y99.286 E2.12508
G1 X107.392 Y98.525 E2.14612
G1 X107.670 Y97.807 E2.16649
G1 X108.006 Y97.100 E2.18721
G1 X108.393 Y96.420 E2.20793
G1 X108.830 Y95.770 E2.22864
G1 X109.313 Y95.154 E2.24935
G1 X109.841 Y94.574 E2.27010
G1 X110.419 Y94.029 E2.29113
G1 X111.016 Y93.542 E2.31150
G1 X111.658 Y93.094 E2.33222
G1 X112.331 Y92.694 E2.35293
G1 X113.032 Y92.345 E2.37365
G1 X113.757 Y92.049 E2.39437
G1 X114.502 Y91.807 E2.41509
G1 X115.262 Y91.621 E2.43580
G1 X116.036 Y91.491 E2.45657
G1 X116.842 Y91.418 E2.47798
G1 X117.597 Y91.404 E2.49795
G1 X118.378 Y91.448 E2.51866
G1 X119.155 Y91.549 E2.53938
G1 X119.923 Y91.707 E2.56015
G1 X120.701 Y91.931 E2.58156
G1 X121.410 Y92.190 E2.60152
G1 X122.123 Y92.513 E2.62224
G1 X122.811 Y92.888 E2.64296
G1 X123.468 Y93.312 E2.66367
G1 X124.093 Y93.784 E2.68439
G1 X124.682 Y94.301 E2.70511
G1 X125.230 Y94.859 E2.72582
G1 X125.736 Y95.457 E2.74654
G1 X126.196 Y96.091 E2.76726
G1 X126.608 Y96.756 E2.78797
G1 X126.970 Y97.451 E2.80869
G1 X127.280 Y98.170 E2.82940
G1 X127.535 Y98.910 E2.85012
G1 X127.736 Y99.667 E2.87084
G1 X127.880 Y100.436 E2.89155
G1 X127.966 Y101.214 E2.91227
G1 X127.995 Y101.998 E2.93301
G1 X127.965 Y102.795 E2.95411
G1 X127.880 Y103.557 E2.97441
G1 X127.736 Y104.327 E2.99513
G1 X127.535 Y105.084 E3.01585
G1 X127.280 Y105.824 E3.03656
G1 X126.970 Y106.543 E3.05728
G1 X126.608 Y107.237 E3.07800
G1 X126.196 Y107.903 E3.09871
G1 X125.736 Y108.537 E3.11942
G1 X125.230 Y109.134 E3.14014
G1 X124.734 Y109.639 E3.15887
G1 X124.284 Y109.272 F8100.000
G1 X123.728 Y109.761 E3.17846 F2100.000
G1 X123.137 Y110.207 E3.19805
G1 X122.514 Y110.609 E3.21766
G1 X121.840 Y110.974 E3.23794
G1 X121.191 Y111.268 E3.25679
G1 X120.496 Y111.522 E3.27638
G1 X119.783 Y111.725 E3.29598
G1 X119.059 Y111.874 E3.31554
G1 X118.325 Y111.970 E3.33513
G1 X117.586 Y112.011 E3.35471
G1 X116.845 Y111.997 E3.37432
G1 X116.094 Y111.926 E3.39428
G1 X115.379 Y111.806 E3.41347
G1 X114.660 Y111.630 E3.43305
G1 X113.956 Y111.401 E3.45263
G1 X113.271 Y111.121 E3.47222
G1 X112.608 Y110.791 E3.49180
G1 X111.972 Y110.413 E3.51139
G1 X111.365 Y109.989 E3.53099
G1 X110.780 Y109.512 E3.55095
G1 X110.254 Y109.013 E3.57014
G1 X109.755 Y108.466 E3.58972
G1 X109.298 Y107.884 E3.60931
G1 X108.885 Y107.269 E3.62889
G1 X108.519 Y106.626 E3.64847
G1 X108.202 Y105.957 E3.66806
G1 X107.934 Y105.267 E3.68766
G1 X107.715 Y104.545 E3.70762
G1 X107.556 Y103.837 E3.72681
G1 X107.447 Y103.105 E3.74639
G1 X107.392 Y102.367 E3.76598
G1 X107.392 Y101.627 E3.78556
G1 X107.447 Y100.889 E3.80515
G1 X107.556 Y100.157 E3.82473
G1 X107.719 Y99.434 E3.84433
G1 X107.939 Y98.715 E3.86423
G1 X108.202 Y98.036 E3.88348
G1 X108.519 Y97.368 E3.90306
G1 X108.885 Y96.724 E3.92265
G1 X109.298 Y96.110 E3.94223
G1 X109.755 Y95.528 E3.96182
G1 X110.254 Y94.980 E3.98142
G1 X110.801 Y94.464 E4.00132
G1 X111.365 Y94.004 E4.02057
G1 X111.972 Y93.580 E4.04015
G1 X112.608 Y93.202 E4.05974
G1 X113.271 Y92.873 E4.07932
G1 X113.956 Y92.592 E4.09890
G1 X114.660 Y92.364 E4.11849
G1 X115.379 Y92.188 E4.13807
G1 X116.110 Y92.065 E4.15769
G1 X116.873 Y91.996 E4.17797
G1 X117.586 Y91.983 E4.19682
G1 X118.325 Y92.024 E4.21641
G1 X119.059 Y92.120 E4.23599
G1 X119.785 Y92.269 E4.25561
G1 X120.522 Y92.481 E4.27589
G1 X121.191 Y92.726 E4.29474
G1 X121.865 Y93.031 E4.31433
G1 X122.515 Y93.386 E4.33391
G1 X123.137 Y93.787 E4.35349
G1 X123.728 Y94.233 E4.37308
G1 X124.284 Y94.721 E4.39266
G1 X124.802 Y95.249 E4.41225
G1 X125.280 Y95.815 E4.43183
G1 X125.715 Y96.413 E4.45142
G1 X126.105 Y97.043 E4.47100
G1 X126.447 Y97.699 E4.49058
G1 X126.740 Y98.379 E4.51017
G1 X126.982 Y99.078 E4.52975
G1 X127.171 Y99.794 E4.54934
G1 X127.307 Y100.522 E4.56892
G1 X127.389 Y101.257 E4.58850
G1 X127.416 Y101.998 E4.60811
G1 X127.387 Y102.751 E4.62807
G1 X127.307 Y103.472 E4.64726
G1 X127.171 Y104.200 E4.66684
G1 X126.982 Y104.915 E4.68642
G1 X126.740 Y105.615 E4.70601
G1 X126.447 Y106.295 E4.72559
G1 X126.105 Y106.951 E4.74518
G1 X125.715 Y107.580 E4.76476
G1 X125.280 Y108.179 E4.78434
G1 X124.802 Y108.744 E4.80393
G1 X124.336 Y109.219 E4.82153
G1 X123.886 Y108.852 F8100.000
G1 X123.362 Y109.312 E4.83998 F1260.000
G1 X122.805 Y109.732 E4.85843
G1 X122.219 Y110.111 E4.87689
G1 X121.583 Y110.455 E4.89604
G1 X120.972 Y110.732 E4.91379
G1 X120.317 Y110.972 E4.93224
G1 X119.645 Y111.162 E4.95070
G1 X118.963 Y111.303 E4.96914
G1 X118.271 Y111.393 E4.98759
G1 X117.575 Y111.432 E5.00605
G1 X116.878 Y111.419 E5.02451
G1 X116.169 Y111.352 E5.04334
G1 X115.496 Y111.239 E5.06140
G1 X114.818 Y111.073 E5.07985
G1 X114.155 Y110.858 E5.09831
G1 X113.509 Y110.594 E5.11676
G1 X112.885 Y110.283 E5.13521
G1 X112.286 Y109.927 E5.15366
G1 X111.714 Y109.527 E5.17212
G1 X111.163 Y109.077 E5.19095
G1 X110.667 Y108.608 E5.20902
G1 X110.197 Y108.092 E5.22747
G1 X109.766 Y107.544 E5.24592
G1 X109.378 Y106.965 E5.26437
G1 X109.033 Y106.358 E5.28283
G1 X108.733 Y105.729 E5.30128
G1 X108.481 Y105.078 E5.31974
G1 X108.275 Y104.397 E5.33857
G1 X108.125 Y103.731 E5.35663
G1 X108.022 Y103.041 E5.37508
G1 X107.971 Y102.346 E5.39354
G1 X107.971 Y101.648 E5.41199
G1 X108.022 Y100.953 E5.43044
G1 X108.125 Y100.263 E5.44889
G1 X108.278 Y99.582 E5.46735
G1 X108.486 Y98.904 E5.48612
G1 X108.733 Y98.265 E5.50425
G1 X109.033 Y97.635 E5.52270
G1 X109.378 Y97.029 E5.54115
G1 X109.766 Y96.450 E5.55960
G1 X110.197 Y95.902 E5.57805
G1 X110.667 Y95.386 E5.59651
G1 X111.183 Y94.899 E5.61528
G1 X111.714 Y94.466 E5.63341
G1 X112.286 Y94.067 E5.65186
G1 X112.885 Y93.711 E5.67032
G1 X113.509 Y93.400 E5.68877
G1 X114.155 Y93.136 E5.70722
G1 X114.818 Y92.921 E5.72567
G1 X115.496 Y92.755 E5.74412
G1 X116.184 Y92.639 E5.76259
G1 X116.905 Y92.574 E5.78173
G1 X117.575 Y92.562 E5.79948
G1 X118.271 Y92.601 E5.81793
G1 X118.963 Y92.691 E5.83638
G1 X119.646 Y92.831 E5.85484
G1 X120.342 Y93.031 E5.87399
G1 X120.972 Y93.262 E5.89174
G1 X121.607 Y93.550 E5.91019
G1 X122.219 Y93.883 E5.92864
G1 X122.805 Y94.261 E5.94709
G1 X123.362 Y94.682 E5.96554
G1 X123.886 Y95.142 E5.98400
G1 X124.375 Y95.639 E6.00245
G1 X124.825 Y96.172 E6.02090
G1 X125.235 Y96.736 E6.03935
G1 X125.602 Y97.329 E6.05780
G1 X125.924 Y97.947 E6.07626
G1 X126.200 Y98.588 E6.09471
G1 X126.428 Y99.247 E6.11316
G1 X126.606 Y99.921 E6.13161
G1 X126.734 Y100.607 E6.15006
G1 X126.812 Y101.300 E6.16852
G1 X126.837 Y101.997 E6.18698
G1 X126.810 Y102.708 E6.20581
G1 X126.734 Y103.387 E6.22387
G1 X126.606 Y104.072 E6.24232
G1 X126.428 Y104.747 E6.26078
G1 X126.200 Y105.406 E6.27923
G1 X125.924 Y106.046 E6.29768
G1 X125.602 Y106.665 E6.31613
G1 X125.235 Y107.258 E6.33458
G1 X124.825 Y107.822 E6.35304
G1 X124.375 Y108.354 E6.37149
G1 X123.938 Y108.798 E6.38796
G1 X123.996 Y109.340 F8100.000
G1 F1500.000 E4.98796
G92 E0
G1 X109.997 Y90.808 F8100.000
G1 E1.40000 F1500.000
G1 X109.373 Y91.280 E1.42072 F2100.000
G1 X108.715 Y91.704 E1.44143
G1 X108.027 Y92.079 E1.46215
G1 X107.314 Y92.402 E1.48286
G1 X106.578 Y92.672 E1.50361
G1 X105.810 Y92.889 E1.52471
G1 X105.059 Y93.043 E1.54501
G1 X104.282 Y93.145 E1.56573
G1 X103.499 Y93.188 E1.58647
G1 X102.702 Y93.172 E1.60757
G1 X101.938 Y93.101 E1.62787
G1 X101.166 Y92.972 E1.64859
G1 X100.405 Y92.785 E1.66931
G1 X99.661 Y92.543 E1.69002
G1 X98.936 Y92.247 E1.71074
G1 X98.235 Y91.898 E1.73146
G1 X97.562 Y91.498 E1.75217
G1 X96.919 Y91.049 E1.77292
G1 X96.302 Y90.545 E1.79401
G1 X95.744 Y90.017 E1.81432
G1 X95.217 Y89.439 E1.83504
