;Generated by Cura LulzBot Edition GCodeWriter Version: 3.6.14
;FLAVOR:Marlin
;TIME:13899
;Filament used: 6.41012m
;Layer height: 0.27
;Generated with Cura_SteamEngine 3.6.14
M82 ;absolute extrusion mode
;This G-Code has been generated specifically for the LulzBot TAZ 6 with Aerosturder
M73 P0 ; clear GLCD progress bar
M75 ; start GLCD timer
G26 ; clear potential 'probe fail' condition
M107 ; disable fans
M420 S0 ; disable leveling matrix
G90 ; absolute positioning
M82 ; set extruder to absolute mode
G92 E0 ; set extruder position to 0
M140 S50.0 ; start bed heating up
G28 XY ; home X and Y
G1 X-19 Y258 F1000 ; move to safe homing position
M109 R160 ; soften filament before homing Z
G28 Z ; home Z
G1 E-15 F100 ; retract filament
M109 R160 ; wait for extruder to reach wiping temp
G1 X-15 Y100 F3000 ; move above wiper pad
G1 Z1 ; push nozzle into wiper
G1 X-17 Y95 F1000 ; slow wipe
G1 X-17 Y90 F1000 ; slow wipe
G1 X-17 Y85 F1000 ; slow wipe
G1 X-15 Y90 F1000 ; slow wipe
G1 X-17 Y80 F1000 ; slow wipe
G1 X-15 Y95 F1000 ; slow wipe
G1 X-17 Y75 F2000 ; fast wipe
G1 X-15 Y65 F2000 ; fast wipe
G1 X-17 Y70 F2000 ; fast wipe
G1 X-15 Y60 F2000 ; fast wipe
G1 X-17 Y55 F2000 ; fast wipe
G1 X-15 Y50 F2000 ; fast wipe
G1 X-17 Y40 F2000 ; fast wipe
G1 X-15 Y45 F2000 ; fast wipe
G1 X-17 Y35 F2000 ; fast wipe
G1 X-15 Y40 F2000 ; fast wipe
G1 X-17 Y70 F2000 ; fast wipe
G1 X-15 Y30 Z2 F2000 ; fast wipe
G1 X-17 Y35 F2000 ; fast wipe
G1 X-15 Y25 F2000 ; fast wipe
G1 X-17 Y30 F2000 ; fast wipe
G1 X-15 Y25 Z1.5 F1000 ; slow wipe
G1 X-17 Y23 F1000 ; slow wipe
G1 Z10 ; raise extruder
M109 R160 ; wait for extruder to reach probe temp
G1 X-9 Y-9 ; move above first probe point
M204 S100 ; set probing acceleration
G29          ; start auto-leveling sequence
M420 S1      ; enable leveling matrix
M425 Z       ; use measured Z backlash for compensation
M425 Z F0    ; turn off measured Z backlash compensation. (if activated in the quality settings, this command will automatically be ignored)
M204 S500 ; restore standard acceleration
G1 X0 Y0 Z15 F5000 ; move up off last probe point
G4 S1 ; pause
M400 ; wait for moves to finish
M117 Heating... ; progress indicator message on LCD
M109 R235  ; wait for extruder to reach printing temp
M190 R50.0 ; wait for bed to reach printing temp
G1 Z2 E0 F75 ; prime tiny bit of filament into the nozzle
M117 TAZ 6 Printing... ; progress indicator message on LCD

M221 S100 T0
M83 ;relative extrusion mode
M425 F1.00
;LAYER:0
M107
M204 S1000
M205 X10 Y10
G0 F3857.1 X24.224 Y4.555
G0 F3857.1 Z0.4
;TYPE:SKIRT
G1 F240 E2
G1 F900 X24.34 Y3.97 E0.02421
G1 X24.451 Y3.615 E0.0151
G1 X24.636 Y3.291 E0.01515
G1 X24.885 Y3.014 E0.01512
G1 X25.187 Y2.797 E0.0151
G1 X25.528 Y2.649 E0.01509
G1 X26.045 Y2.57 E0.02123
G1 X62.533 Y2.566 E1.48144
G1 X62.997 Y2.629 E0.01901
G1 X68.711 Y4.213 E0.24074
G1 X74.185 Y5.396 E0.22738
G1 X76.864 Y5.854 E0.11035
G1 X82.389 Y6.563 E0.22616
G1 X87.943 Y6.959 E0.22607
G1 X93.508 Y7.04 E0.22597
G1 X99.033 Y6.808 E0.22452
G1 X104.587 Y6.258 E0.2266
G1 X110.092 Y5.397 E0.22622
G1 X112.756 Y4.865 E0.1103
G1 X118.207 Y3.53 E0.22786
G1 X121.26 Y2.639 E0.12913
G1 X121.747 Y2.569 E0.01998
G1 X158.242 Y2.566 E1.48172
G1 X158.702 Y2.628 E0.01885
G1 X164.079 Y4.105 E0.2264
G1 X169.552 Y5.285 E0.22731
G1 X172.228 Y5.742 E0.11022
G1 X177.76 Y6.45 E0.22644
G1 X183.311 Y6.844 E0.22594
G1 X188.875 Y6.922 E0.22592
G1 X194.418 Y6.687 E0.22525
G1 X199.941 Y6.139 E0.22534
G1 X205.455 Y5.274 E0.22661
G1 X208.123 Y4.74 E0.11047
G1 X210.868 Y4.107 E0.11437
G1 X216.236 Y2.633 E0.22601
G1 X216.697 Y2.571 E0.01889
G1 X253.182 Y2.595 E1.48132
G1 X253.552 Y2.635 E0.01511
G1 X253.905 Y2.753 E0.01511
G1 X254.225 Y2.944 E0.01513
G1 X254.497 Y3.198 E0.01511
G1 X254.709 Y3.504 E0.01511
G1 X254.841 Y3.818 E0.01383
G1 X254.968 Y4.227 E0.01739
G1 X255.046 Y4.741 E0.02111
G1 X255.051 Y15.184 E0.42399
G1 X255.035 Y15.419 E0.00956
G1 X254.449 Y19.726 E0.17648
G1 X253.961 Y25.268 E0.22588
G1 X253.785 Y30.83 E0.22593
G1 X253.926 Y36.376 E0.22524
G1 X254.38 Y41.922 E0.22592
G1 X255.044 Y46.938 E0.20543
G1 X255.059 Y47.166 E0.00928
G1 X255.058 Y57.373 E0.41441
G1 X255.045 Y57.589 E0.00879
G1 X254.176 Y64.534 E0.28417
G1 X253.824 Y70.054 E0.22457
G1 X253.785 Y75.617 E0.22587
G1 X254.06 Y81.161 E0.22537
G1 X254.837 Y87.963 E0.27796
G1 X255.043 Y89.481 E0.0622
G1 X255.059 Y89.715 E0.00952
G1 X255.058 Y99.922 E0.41441
G1 X255.042 Y100.154 E0.00944
G1 X254.465 Y104.431 E0.17522
G1 X253.976 Y109.978 E0.22609
G1 X253.8 Y115.541 E0.22597
G1 X253.941 Y121.086 E0.2252
G1 X254.395 Y126.635 E0.22605
G1 X255.044 Y131.548 E0.2012
G1 X255.059 Y131.775 E0.00924
G1 X255.058 Y141.982 E0.41441
G1 X255.045 Y142.196 E0.0087
G1 X254.116 Y149.694 E0.30675
G1 X253.787 Y155.234 E0.22532
G1 X253.772 Y160.799 E0.22594
G1 X254.071 Y166.328 E0.22481
G1 X254.832 Y172.803 E0.2647
G1 X255.043 Y174.357 E0.06367
G1 X255.059 Y174.591 E0.00952
G1 X255.058 Y184.798 E0.41441
G1 X255.043 Y185.029 E0.0094
G1 X254.488 Y189.158 E0.16915
G1 X254 Y194.688 E0.22539
G1 X253.826 Y200.249 E0.22589
G1 X253.968 Y205.795 E0.22525
G1 X254.422 Y211.345 E0.22609
G1 X255.044 Y216.072 E0.19357
G1 X255.059 Y216.299 E0.00924
G1 X255.058 Y226.506 E0.41441
G1 X255.042 Y226.744 E0.00968
G1 X254.473 Y230.867 E0.16898
G1 X253.959 Y236.419 E0.22638
G1 X253.762 Y241.954 E0.22487
G1 X253.878 Y247.527 E0.22632
G1 X254.309 Y253.069 E0.22569
G1 X255.029 Y258.501 E0.22247
G1 X255.044 Y258.733 E0.00944
G1 X255.028 Y269.356 E0.4313
G1 X254.988 Y269.726 E0.01511
G1 X254.904 Y269.998 E0.01156
G1 X254.614 Y270.724 E0.03174
G1 X254.44 Y271.053 E0.01511
G1 X254.311 Y271.22 E0.00857
G1 X253.948 Y271.637 E0.02245
G1 X253.675 Y271.89 E0.01511
G1 X253.435 Y272.04 E0.01149
G1 X247.73 Y274.987 E0.26071
G1 X242.217 Y278.211 E0.2593
G1 X241.881 Y278.363 E0.01497
G1 X241.078 Y278.626 E0.03431
G1 X240.533 Y278.712 E0.0224
G1 X229.2 Y278.686 E0.46013
G1 X228.83 Y278.645 E0.01511
G1 X228.568 Y278.565 E0.01112
G1 X227.449 Y278.125 E0.04882
G1 X227.419 Y278.114 E0.0013
G1 X222.614 Y276.122 E0.21119
G1 X220.052 Y275.183 E0.11079
G1 X214.774 Y273.495 E0.22498
G1 X209.373 Y272.098 E0.2265
G1 X206.613 Y271.508 E0.11459
G1 X203.948 Y271.018 E0.11001
G1 X198.427 Y270.24 E0.22637
G1 X192.878 Y269.776 E0.22608
G1 X187.334 Y269.628 E0.22517
G1 X181.787 Y269.794 E0.22531
G1 X176.226 Y270.276 E0.22663
G1 X170.748 Y271.065 E0.22471
G1 X165.275 Y272.171 E0.2267
G1 X162.619 Y272.825 E0.11106
G1 X157.258 Y274.392 E0.22677
G1 X152.019 Y276.25 E0.22569
G1 X146.519 Y278.528 E0.2417
G1 X146.153 Y278.634 E0.01547
G1 X145.838 Y278.689 E0.01298
G1 X145.539 Y278.715 E0.01219
G1 X134.495 Y278.718 E0.44839
G1 X134.156 Y278.685 E0.01383
G1 X133.643 Y278.583 E0.02124
G1 X133.296 Y278.475 E0.01476
G1 X128.836 Y276.561 E0.19705
G1 X123.625 Y274.631 E0.22562
G1 X120.978 Y273.777 E0.11293
G1 X115.61 Y272.295 E0.2261
G1 X112.923 Y271.674 E0.11197
G1 X107.443 Y270.652 E0.22633
G1 X101.939 Y269.943 E0.22531
G1 X96.388 Y269.545 E0.22595
G1 X90.825 Y269.463 E0.22589
G1 X85.301 Y269.692 E0.22447
G1 X79.742 Y270.24 E0.22679
G1 X74.257 Y271.096 E0.22539
G1 X68.839 Y272.258 E0.22498
G1 X66.148 Y272.956 E0.11287
G1 X60.83 Y274.579 E0.22575
G1 X55.595 Y276.506 E0.22649
G1 X50.719 Y278.551 E0.21468
G1 X50.362 Y278.657 E0.01512
G1 X50.052 Y278.686 E0.01264
G1 X38.788 Y278.718 E0.45733
G1 X38.269 Y278.64 E0.02131
G1 X37.381 Y278.365 E0.03774
G1 X37 Y278.195 E0.01694
G1 X33.658 Y276.187 E0.1583
G1 X28.75 Y273.54 E0.2264
G1 X26.17 Y272.287 E0.11645
G1 X25.764 Y272.013 E0.01989
G1 X25.126 Y271.437 E0.0349
G1 X24.878 Y271.159 E0.01513
G1 X24.768 Y270.984 E0.00839
G1 X24.551 Y270.589 E0.0183
G1 X24.381 Y270.147 E0.01923
G1 X24.234 Y269.517 E0.02627
G1 X24.189 Y269.122 E0.01614
G1 X24.191 Y258.892 E0.41535
G1 X24.206 Y258.664 E0.00928
G1 X24.94 Y253.109 E0.2275
G1 X25.373 Y247.562 E0.2259
G1 X25.492 Y241.991 E0.22624
G1 X25.296 Y236.454 E0.22495
G1 X24.783 Y230.891 E0.22682
G1 X24.205 Y226.746 E0.16992
G1 X24.188 Y226.505 E0.00981
G1 X24.191 Y216.289 E0.41478
G1 X24.205 Y216.066 E0.00907
G1 X24.867 Y210.964 E0.20888
G1 X25.301 Y205.422 E0.2257
G1 X25.422 Y199.852 E0.2262
G1 X25.228 Y194.313 E0.22503
G1 X24.72 Y188.768 E0.22607
G1 X24.204 Y185.037 E0.15292
G1 X24.188 Y184.798 E0.00973
G1 X24.191 Y174.581 E0.41482
G1 X24.206 Y174.353 E0.00928
G1 X24.959 Y168.685 E0.23215
G1 X25.39 Y163.141 E0.22577
G1 X25.509 Y157.57 E0.22624
G1 X25.313 Y152.033 E0.22495
G1 X24.801 Y146.478 E0.22649
G1 X24.401 Y143.635 E0.11656
G1 X24.4 Y143.631 E0.00017
G1 X24.204 Y142.216 E0.058
G1 X24.188 Y141.977 E0.00973
G1 X24.191 Y131.766 E0.41457
G1 X24.206 Y131.542 E0.00911
G1 X24.892 Y126.294 E0.21489
G1 X25.328 Y120.737 E0.22631
G1 X25.449 Y115.167 E0.2262
G1 X25.255 Y109.628 E0.22503
G1 X24.747 Y104.083 E0.22607
G1 X24.204 Y100.156 E0.16096
G1 X24.188 Y99.917 E0.00973
G1 X24.191 Y89.706 E0.41457
G1 X24.206 Y89.479 E0.00924
G1 X24.931 Y84.003 E0.22427
G1 X25.367 Y78.455 E0.22595
G1 X25.488 Y72.885 E0.2262
G1 X25.295 Y67.345 E0.22506
G1 X24.787 Y61.789 E0.22652
G1 X24.206 Y57.624 E0.17074
G1 X24.189 Y57.379 E0.00997
G1 X24.22 Y46.869 E0.42672
G1 X24.239 Y46.62 E0.01014
G1 X24.57 Y44.382 E0.09185
G1 X25.164 Y38.843 E0.22618
G1 X25.445 Y33.282 E0.22607
G1 X25.409 Y27.735 E0.22522
G1 X25.06 Y22.187 E0.2257
G1 X24.201 Y15.325 E0.28078
G1 X24.188 Y15.108 E0.00883
G1 X24.191 Y4.892 E0.41478
G1 X24.224 Y4.555 E0.01375
G0 F3857.1 X24.837 Y4.677
G1 F900 X24.953 Y4.092 E0.02421
G1 X25.05 Y3.81 E0.01211
G1 X25.217 Y3.564 E0.01207
G1 X25.444 Y3.371 E0.0121
G1 X25.714 Y3.245 E0.0121
G1 X26.045 Y3.195 E0.01359
G1 X62.533 Y3.191 E1.48144
G1 X62.83 Y3.231 E0.01217
G1 X68.568 Y4.822 E0.24176
G1 X74.062 Y6.008 E0.2282
G1 X76.774 Y6.473 E0.11172
G1 X82.338 Y7.187 E0.22775
G1 X87.906 Y7.583 E0.22664
G1 X93.507 Y7.666 E0.22743
G1 X99.085 Y7.431 E0.22667
G1 X104.659 Y6.879 E0.22742
G1 X110.212 Y6.011 E0.22819
G1 X112.887 Y5.477 E0.11075
G1 X118.374 Y4.133 E0.22936
G1 X121.435 Y3.239 E0.12947
G1 X121.747 Y3.194 E0.0128
G1 X158.242 Y3.191 E1.48172
G1 X158.537 Y3.231 E0.01209
G1 X163.925 Y4.711 E0.22686
G1 X169.433 Y5.899 E0.22877
G1 X172.142 Y6.362 E0.11158
G1 X177.705 Y7.073 E0.2277
G1 X183.276 Y7.468 E0.22675
G1 X188.875 Y7.548 E0.22735
G1 X194.453 Y7.311 E0.22668
G1 X200.029 Y6.757 E0.2275
G1 X205.575 Y5.887 E0.22793
G1 X208.257 Y5.35 E0.11105
G1 X211.028 Y4.712 E0.11545
G1 X216.401 Y3.236 E0.22623
G1 X216.697 Y3.196 E0.01213
G1 X253.182 Y3.22 E1.48132
G1 X253.477 Y3.26 E0.01209
G1 X253.751 Y3.377 E0.0121
G1 X253.984 Y3.562 E0.01208
G1 X254.159 Y3.802 E0.01206
G1 X254.244 Y4.003 E0.00886
G1 X254.371 Y4.412 E0.01739
G1 X254.421 Y4.741 E0.01351
G1 X254.426 Y15.184 E0.42399
G1 X254.416 Y15.335 E0.00614
G1 X253.829 Y19.651 E0.17685
G1 X253.336 Y25.246 E0.22804
G1 X253.16 Y30.808 E0.22593
G1 X253.302 Y36.424 E0.22809
G1 X253.759 Y41.995 E0.22695
G1 X254.424 Y47.02 E0.2058
G1 X254.434 Y47.166 E0.00594
G1 X254.433 Y57.373 E0.41441
G1 X254.424 Y57.511 E0.00561
G1 X253.556 Y64.45 E0.28392
G1 X253.199 Y70.044 E0.22758
G1 X253.16 Y75.626 E0.22664
G1 X253.437 Y81.216 E0.22724
G1 X254.213 Y88.011 E0.27768
G1 X254.424 Y89.565 E0.06367
G1 X254.434 Y89.715 E0.0061
G1 X254.433 Y99.922 E0.41441
G1 X254.423 Y100.071 E0.00606
G1 X253.844 Y104.359 E0.17568
G1 X253.351 Y109.956 E0.22812
G1 X253.175 Y115.519 E0.22597
G1 X253.317 Y121.135 E0.22809
G1 X253.774 Y126.705 E0.22691
G1 X254.424 Y131.629 E0.20165
G1 X254.434 Y131.775 E0.00594
G1 X254.433 Y141.982 E0.41441
G1 X254.425 Y142.119 E0.00557
G1 X253.492 Y149.642 E0.30778
G1 X253.162 Y155.213 E0.22658
G1 X253.147 Y160.813 E0.22737
G1 X253.448 Y166.387 E0.22664
G1 X254.213 Y172.887 E0.26573
G1 X254.424 Y174.441 E0.06367
G1 X254.434 Y174.591 E0.0061
G1 X254.433 Y184.798 E0.41441
G1 X254.423 Y184.946 E0.00602
G1 X253.87 Y189.065 E0.16873
G1 X253.376 Y194.666 E0.22829
G1 X253.201 Y200.228 E0.22593
G1 X253.344 Y205.844 E0.22809
G1 X253.801 Y211.418 E0.22707
G1 X254.424 Y216.154 E0.19394
G1 X254.434 Y216.299 E0.0059
G1 X254.433 Y226.506 E0.41441
G1 X254.423 Y226.658 E0.00618
G1 X253.848 Y230.823 E0.17071
G1 X253.335 Y236.375 E0.22638
G1 X253.136 Y241.954 E0.22666
G1 X253.253 Y247.554 E0.22741
G1 X253.687 Y253.14 E0.22748
G1 X254.409 Y258.584 E0.22297
G1 X254.419 Y258.732 E0.00602
G1 X254.403 Y269.355 E0.4313
G1 X254.324 Y269.766 E0.01699
G1 X254.034 Y270.492 E0.03174
G1 X253.839 Y270.81 E0.01515
G1 X253.476 Y271.227 E0.02245
G1 X253.148 Y271.485 E0.01694
G1 X247.438 Y274.435 E0.26094
G1 X241.902 Y277.672 E0.26037
G1 X241.686 Y277.769 E0.00961
G1 X240.883 Y278.032 E0.03431
G1 X240.534 Y278.087 E0.01434
G1 X229.201 Y278.061 E0.46013
G1 X228.797 Y277.984 E0.0167
G1 X227.678 Y277.544 E0.04882
G1 X227.659 Y277.536 E0.00084
G1 X222.858 Y275.546 E0.21101
G1 X220.267 Y274.596 E0.11204
G1 X214.945 Y272.894 E0.22686
G1 X209.492 Y271.484 E0.22868
G1 X206.776 Y270.903 E0.11277
G1 X204.03 Y270.398 E0.11336
G1 X198.495 Y269.618 E0.22695
G1 X192.93 Y269.153 E0.22673
G1 X187.331 Y269.004 E0.2274
G1 X181.733 Y269.171 E0.22738
G1 X176.171 Y269.653 E0.22667
G1 X170.626 Y270.451 E0.22745
G1 X165.142 Y271.56 E0.22716
G1 X162.451 Y272.223 E0.11252
G1 X157.071 Y273.795 E0.22757
G1 X151.786 Y275.67 E0.22768
G1 X146.28 Y277.95 E0.24196
G1 X146.045 Y278.018 E0.00993
G1 X145.73 Y278.073 E0.01298
G1 X145.539 Y278.09 E0.00779
G1 X134.495 Y278.093 E0.44839
G1 X134.278 Y278.072 E0.00885
G1 X133.765 Y277.97 E0.02124
G1 X133.543 Y277.901 E0.00944
G1 X129.068 Y275.98 E0.19772
G1 X123.823 Y274.038 E0.22708
G1 X121.174 Y273.183 E0.11301
G1 X115.748 Y271.685 E0.22854
G1 X113.038 Y271.059 E0.11293
G1 X107.55 Y270.035 E0.22666
G1 X101.993 Y269.319 E0.22748
G1 X96.425 Y268.921 E0.22664
G1 X90.826 Y268.837 E0.22735
G1 X85.248 Y269.069 E0.22667
G1 X79.675 Y269.619 E0.22737
G1 X74.136 Y270.483 E0.22761
G1 X68.692 Y271.651 E0.22606
G1 X66.001 Y272.348 E0.11286
G1 X60.608 Y273.994 E0.22893
G1 X55.361 Y275.926 E0.22701
G1 X50.477 Y277.974 E0.21502
G1 X50.05 Y278.061 E0.01769
G1 X38.786 Y278.093 E0.45733
G1 X38.454 Y278.043 E0.01363
G1 X37.566 Y277.768 E0.03774
G1 X37.322 Y277.659 E0.01085
G1 X33.972 Y275.646 E0.15868
G1 X29.022 Y272.976 E0.22835
G1 X26.443 Y271.724 E0.1164
G1 X26.183 Y271.549 E0.01272
G1 X25.545 Y270.973 E0.0349
G1 X25.316 Y270.683 E0.015
G1 X25.099 Y270.288 E0.0183
G1 X24.99 Y270.005 E0.01231
G1 X24.843 Y269.375 E0.02627
G1 X24.814 Y269.122 E0.01034
G1 X24.816 Y258.892 E0.41535
G1 X24.826 Y258.746 E0.00594
G1 X25.561 Y253.184 E0.22778
G1 X25.998 Y247.587 E0.22793
G1 X26.118 Y241.989 E0.22734
G1 X25.92 Y236.406 E0.22682
G1 X25.405 Y230.823 E0.22764
G1 X24.824 Y226.66 E0.17066
G1 X24.813 Y226.506 E0.00627
G1 X24.816 Y216.29 E0.41478
G1 X24.825 Y216.147 E0.00582
G1 X25.488 Y211.035 E0.20929
G1 X25.926 Y205.449 E0.22749
G1 X26.048 Y199.849 E0.22742
G1 X25.852 Y194.269 E0.22669
G1 X25.344 Y188.72 E0.22624
G1 X24.823 Y184.951 E0.15448
G1 X24.813 Y184.799 E0.00618
G1 X24.816 Y174.582 E0.41482
G1 X24.826 Y174.436 E0.00594
G1 X25.579 Y168.761 E0.23243
G1 X26.015 Y163.169 E0.22773
G1 X26.135 Y157.568 E0.22746
G1 X25.937 Y151.988 E0.22669
G1 X25.424 Y146.418 E0.2271
G1 X25.02 Y143.548 E0.11767
G1 X25.02 Y143.546 E0.00008
G1 X24.824 Y142.131 E0.058
G1 X24.813 Y141.978 E0.00623
G1 X24.816 Y131.767 E0.41457
G1 X24.825 Y131.623 E0.00586
G1 X25.515 Y126.346 E0.21607
G1 X25.953 Y120.764 E0.22733
G1 X26.075 Y115.164 E0.22742
G1 X25.879 Y109.584 E0.22669
G1 X25.371 Y104.035 E0.22624
G1 X24.823 Y100.07 E0.16251
G1 X24.813 Y99.918 E0.00618
G1 X24.816 Y89.707 E0.41457
G1 X24.826 Y89.561 E0.00594
G1 X25.552 Y84.078 E0.22456
G1 X25.992 Y78.482 E0.2279
G1 X26.114 Y72.882 E0.22742
G1 X25.919 Y67.302 E0.22669
G1 X25.41 Y61.731 E0.22713
G1 X24.825 Y57.538 E0.17189
G1 X24.814 Y57.381 E0.00639
G1 X24.845 Y46.871 E0.42672
G1 X24.857 Y46.711 E0.00651
G1 X25.189 Y44.465 E0.09218
G1 X25.788 Y38.886 E0.22781
G1 X26.07 Y33.293 E0.22737
G1 X26.034 Y27.71 E0.22668
G1 X25.683 Y22.117 E0.22753
G1 X24.822 Y15.247 E0.28111
G1 X24.813 Y15.109 E0.00561
G1 X24.816 Y4.893 E0.41478
G1 X24.837 Y4.677 E0.00881
G1 F240 E-2

G92 E0
G1 F240 E-2
;LAYER_COUNT:19
;LAYER:0
M107
M204 S1000
M205 X10 Y10
;MESH:
G0 F3857.1 X147.315 Y12.272
G0 F3857.1 Z0.4
