; generated by Slic3r 1.1.7 on 2015-05-19 at 12:48:52

; perimeters extrusion width = 0.50mm
; infill extrusion width = 0.60mm
; solid infill extrusion width = 0.60mm
; top infill extrusion width = 0.43mm

G21 ; set units to millimeters

M301 P34 I4 D113     ; set PID nozzle
M304 P162 I17 D378 ; set PID Bed

M104 S230                 ; set extruder temp for budaschnozzle
;M104 S250                 ; set extruder temp for hex_hot_end
M140 S109                 ; set bed temp for PEI (reminder ~G1 Z2 ~ M140 S(@-10 degree change) ;if -m is present in file name)

G28                            ; home
G1 Z5 F300                ; move bed down 5mm
M84                            ; disable steppers
G4 S300                     ; wait 5 mins to preheat

G28                            ; home

G90 ; use absolute coordinates
G92 E0
M82 ; use absolute distances for extrusion
M204 S2000
G1 F1200.000 E-1.00000
G92 E0
G1 Z0.350 F9600.000
G1 X22.513 Y31.931 F9600.000
G1 E1.00000 F1200.000
G1 X23.871 Y30.779 E1.05498 F1080.000
G1 X55.871 Y10.779 E2.21983
G1 X57.925 Y9.963 E2.28806
G1 X59.134 Y9.843 E2.32557
G1 X94.866 Y9.843 E3.42854
G1 X97.040 Y10.240 E3.49677
G1 X98.934 Y11.379 E3.56500 F1080.000
G1 X100.601 Y13.762 E3.65477
G1 X132.601 Y95.762 E6.37190
G1 X133.023 Y98.000 E6.44221
G1 X133.023 Y106.000 E6.68916
G1 X132.626 Y108.174 E6.75739
G1 X131.487 Y110.069 E6.82562
G1 X130.129 Y111.221 E6.88060
G1 X98.129 Y131.221 E8.04545
G1 X96.075 Y132.037 E8.11368
G1 X94.866 Y132.157 E8.15118
G1 X59.134 Y132.157 E9.25416
G1 X56.960 Y131.760 E9.32239
G1 X55.066 Y130.621 E9.39062
G1 X53.399 Y128.238 E9.48039
G1 X21.399 Y46.238 E12.19752
G1 X20.977 Y44.000 E12.26783
G1 X20.977 Y36.000 E12.51478
G1 X21.374 Y33.826 E12.58301
G1 X22.474 Y31.996 E12.64892
G1 X23.024 Y32.258 F9600.000
G1 X23.085 Y32.163 E12.65241 F1080.000
G1 X24.178 Y31.269 E12.69598
G1 X56.178 Y11.269 E13.86083
G1 X59.134 Y10.421 E13.95578
G1 X94.866 Y10.421 E15.05875
G1 X96.931 Y10.818 E15.12367
G1 X98.703 Y11.951 E15.18859 F1080.000
G1 X100.063 Y13.972 E15.26378
G1 X132.063 Y95.972 E17.98091
G1 X132.444 Y98.000 E18.04461
G1 X132.444 Y106.000 E18.29156
G1 X132.048 Y108.065 E18.35648
G1 X130.915 Y109.837 E18.42140
G1 X129.822 Y110.731 E18.46496
G1 X97.822 Y130.731 E19.62982
G1 X94.866 Y131.579 E19.72476
G1 X59.134 Y131.579 E20.82774
G1 X57.069 Y131.182 E20.89265
G1 X55.297 Y130.049 E20.95757
G1 X53.937 Y128.028 E21.03277
G1 X21.937 Y46.028 E23.74990
G1 X21.556 Y44.000 E23.81360
G1 X21.556 Y36.000 E24.06055
G1 X21.952 Y33.935 E24.12546
G1 X22.984 Y32.321 E24.18458
G1 F1200.000 E23.18458
G92 E0
G1 X69.015 Y25.068 F9600.000
G1 E1.00000 F1200.000
G1 X68.162 Y25.688 E1.03256 F1800.000
G1 X67.181 Y26.077 E1.06513
G1 X66.134 Y26.209 E1.09770
G1 X65.088 Y26.077 E1.13026
G1 X64.107 Y25.688 E1.16283
G1 X63.253 Y25.068 E1.19539
G1 X62.581 Y24.255 E1.22796
G1 X62.132 Y23.301 E1.26053
G1 X61.934 Y22.264 E1.29309
G1 X62.000 Y21.211 E1.32566
G1 X62.326 Y20.208 E1.35823
G1 X62.891 Y19.317 E1.39079
G1 X63.660 Y18.595 E1.42336
G1 X64.585 Y18.087 E1.45593
G1 X65.607 Y17.824 E1.48849
G1 X66.662 Y17.824 E1.52106
G1 X67.077 Y17.931 E1.53427
G1 X67.684 Y18.087 E1.55362 F1800.000
G1 X68.608 Y18.595 E1.58619
G1 X69.377 Y19.317 E1.61875
G1 X69.943 Y20.208 E1.65132
G1 X70.269 Y21.211 E1.68389
G1 X70.335 Y22.264 E1.71645
G1 X70.137 Y23.301 E1.74902
G1 X69.688 Y24.255 E1.78159
G1 X69.063 Y25.010 E1.81184
G1 X68.616 Y24.643 F9600.000
G1 X67.881 Y25.177 E1.83989 F1350.000
G1 X67.036 Y25.512 E1.86795
G1 X66.134 Y25.626 E1.89600
G1 X65.233 Y25.512 E1.92406
G1 X64.388 Y25.177 E1.95211
G1 X63.652 Y24.643 E1.98016
G1 X63.073 Y23.943 E2.00822
G1 X62.993 Y23.773 E2.01401
G1 X62.686 Y23.120 E2.03627
G1 X62.516 Y22.228 E2.06432
G1 X62.573 Y21.321 E2.09238
G1 X62.854 Y20.456 E2.12043
G1 X63.341 Y19.689 E2.14849
G1 X64.003 Y19.067 E2.17654
G1 X64.800 Y18.629 E2.20460
G1 X65.680 Y18.403 E2.23265
G1 X66.589 Y18.403 E2.26070 F1350.000
G1 X67.469 Y18.629 E2.28876
G1 X67.564 Y18.681 E2.29209
G1 X68.265 Y19.067 E2.31681
G1 X68.928 Y19.689 E2.34486
G1 X69.415 Y20.456 E2.37292
G1 X69.696 Y21.321 E2.40097
G1 X69.753 Y22.228 E2.42903
G1 X69.583 Y23.120 E2.45708
G1 X69.196 Y23.943 E2.48514
G1 X68.664 Y24.585 E2.51088
G1 F1200.000 E1.51088
G92 E0
G1 X65.586 Y17.912 F9600.000
G1 X66.662 Y66.824 F9600.000
G1 E1.00000 F1200.000
G1 X67.123 Y66.943 E1.01469 F1800.000
G1 X67.684 Y67.087 E1.03257 F1800.000
G1 X68.608 Y67.595 E1.06513
G1 X69.377 Y68.317 E1.09770
G1 X69.943 Y69.208 E1.13026
G1 X70.269 Y70.211 E1.16283
G1 X70.335 Y71.264 E1.19540
G1 X70.137 Y72.301 E1.22796
G1 X69.688 Y73.255 E1.26053
G1 X69.015 Y74.068 E1.29310
G1 X68.162 Y74.688 E1.32566
G1 X67.181 Y75.077 E1.35823
G1 X66.134 Y75.209 E1.39080
G1 X65.088 Y75.077 E1.42336
G1 X64.107 Y74.688 E1.45593
G1 X63.762 Y74.438 E1.46909
G1 X63.253 Y74.068 E1.48849
G1 X62.581 Y73.255 E1.52106
G1 X62.132 Y72.301 E1.55363
G1 X61.934 Y71.264 E1.58619
G1 X62.000 Y70.211 E1.61876
G1 X62.326 Y69.208 E1.65133
G1 X62.891 Y68.317 E1.68389
G1 X63.660 Y67.595 E1.71646
G1 X64.585 Y67.087 E1.74902
G1 X65.607 Y66.824 E1.78159
G1 X66.587 Y66.824 E1.81184
G1 X66.589 Y67.403 F9600.000
G1 X67.469 Y67.629 E1.83989 F1350.000
G1 X68.265 Y68.067 E1.86795
G1 X68.928 Y68.689 E1.89600
G1 X69.415 Y69.456 E1.92406
G1 X69.566 Y69.920 E1.93912
G1 X69.696 Y70.321 E1.95211
G1 X69.753 Y71.228 E1.98017
G1 X69.583 Y72.120 E2.00822
G1 X69.196 Y72.943 E2.03627
G1 X68.616 Y73.643 E2.06433
G1 X67.881 Y74.177 E2.09238
G1 X67.036 Y74.512 E2.12044
G1 X66.134 Y74.626 E2.14849
G1 X65.233 Y74.512 E2.17654
G1 X64.832 Y74.353 E2.18986
G1 X64.388 Y74.177 E2.20460
G1 X63.652 Y73.643 E2.23265
G1 X63.073 Y72.943 E2.26071
G1 X62.884 Y72.540 E2.27444
G1 X62.686 Y72.120 E2.28876
G1 X62.516 Y71.228 E2.31681
G1 X62.573 Y70.321 E2.34487
G1 X62.854 Y69.456 E2.37292
G1 X63.341 Y68.689 E2.40098
G1 X64.003 Y68.067 E2.42903
G1 X64.800 Y67.629 E2.45708
G1 X65.680 Y67.403 E2.48514
G1 X66.514 Y67.403 E2.51088 F1350.000
G1 X65.680 Y66.903 F9600.000
G1 F1200.000 E1.51088
G92 E0
G1 X66.589 Y115.824 F9600.000
G1 E1.00000 F1200.000
G1 X66.662 Y115.824 E1.00226 F1800.000
G1 X67.684 Y116.087 E1.03482
G1 X68.608 Y116.595 E1.06739
G1 X69.377 Y117.317 E1.09995
G1 X69.943 Y118.208 E1.13252
G1 X70.269 Y119.211 E1.16509
G1 X70.335 Y120.264 E1.19765
G1 X70.137 Y121.301 E1.23022
G1 X69.688 Y122.255 E1.26279
G1 X69.015 Y123.068 E1.29535
G1 X68.162 Y123.688 E1.32792
G1 X67.640 Y123.895 E1.34524
G1 X67.181 Y124.077 E1.36049
G1 X66.134 Y124.209 E1.39305
G1 X65.088 Y124.077 E1.42562
G1 X64.889 Y123.998 E1.43222
G1 X64.107 Y123.688 E1.45819
G1 X63.253 Y123.068 E1.49075
G1 X62.581 Y122.255 E1.52332
G1 X62.132 Y121.301 E1.55588
G1 X61.934 Y120.264 E1.58844
G1 X62.000 Y119.211 E1.62102
G1 X62.326 Y118.208 E1.65358
G1 X62.891 Y117.317 E1.68614
G1 X63.660 Y116.595 E1.71871
G1 X64.585 Y116.087 E1.75128
G1 X65.607 Y115.824 E1.78384
G1 X66.111 Y115.824 E1.79942
G1 X66.514 Y115.824 E1.81184 F1800.000
G1 X66.589 Y116.403 F9600.000
G1 X67.469 Y116.629 E1.83989 F1350.000
G1 X68.265 Y117.067 E1.86795
G1 X68.928 Y117.689 E1.89600
G1 X69.415 Y118.456 E1.92406
G1 X69.696 Y119.321 E1.95211
G1 X69.753 Y120.228 E1.98016
G1 X69.583 Y121.120 E2.00822
G1 X69.409 Y121.490 E2.02082
G1 X69.196 Y121.943 E2.03627
G1 X68.616 Y122.643 E2.06433
G1 X67.881 Y123.177 E2.09238
G1 X67.427 Y123.357 E2.10744
G1 X67.036 Y123.512 E2.12044
G1 X66.134 Y123.626 E2.14849
G1 X65.233 Y123.512 E2.17654
G1 X65.102 Y123.460 E2.18089
G1 X64.388 Y123.177 E2.20460
G1 X63.652 Y122.643 E2.23265
G1 X63.073 Y121.943 E2.26070
G1 X62.861 Y121.493 E2.27605
G1 X62.686 Y121.120 E2.28876
G1 X62.516 Y120.228 E2.31681
G1 X62.573 Y119.321 E2.34487
G1 X62.854 Y118.456 E2.37292
G1 X63.341 Y117.689 E2.40097
G1 X64.003 Y117.067 E2.42903
G1 X64.800 Y116.629 E2.45708
G1 X65.585 Y116.427 E2.48211
G1 X65.680 Y116.403 E2.48514 F1350.000
G1 X66.514 Y116.403 E2.51088
G1 X65.516 Y116.357 F9600.000
G1 F1200.000 E1.51088
G92 E0
G1 X60.013 Y43.121 F9600.000
G1 E1.00000 F1200.000
G1 X35.971 Y43.121 E1.74213 F1800.000
G1 X36.688 Y42.255 E1.77684
G1 X37.137 Y41.301 E1.80940
G1 X37.335 Y40.264 E1.84196
G1 X37.269 Y39.211 E1.87453
G1 X36.943 Y38.208 E1.90710
G1 X36.377 Y37.317 E1.93967
G1 X35.910 Y36.879 E1.95945
G1 X60.013 Y36.879 E2.70347
G1 X60.013 Y16.879 E3.32084
G1 X72.256 Y16.879 E3.69876
G1 X72.256 Y125.121 E7.04006
G1 X60.013 Y125.121 E7.41798
G1 X60.013 Y43.196 E9.94688
G1 X59.434 Y43.700 F9600.000
G1 X34.582 Y43.700 E10.71403 F1350.000
G1 X34.510 Y43.324 E10.72585
G1 X34.881 Y43.177 E10.73815
G1 X35.616 Y42.643 E10.76621
G1 X36.196 Y41.943 E10.79426
G1 X36.583 Y41.120 E10.82232
G1 X36.753 Y40.228 E10.85037
G1 X36.696 Y39.321 E10.87842
G1 X36.415 Y38.456 E10.90648
G1 X35.928 Y37.689 E10.93453
G1 X35.265 Y37.067 E10.96259
G1 X34.503 Y36.648 E10.98944
G1 X34.592 Y36.300 E11.00052
G1 X59.434 Y36.300 E11.76735
G1 X59.434 Y16.300 E12.38472
G1 X72.834 Y16.300 E12.79836
G1 X72.834 Y125.700 E16.17538
G1 X59.434 Y125.700 E16.58902
G1 X59.434 Y43.775 E19.11792
G1 X59.434 Y43.200 F9600.000
G1 F1200.000 E18.11792
G92 E0
G1 X30.297 Y43.121 F9600.000
G1 E1.00000 F1200.000
G1 X28.013 Y43.121 E1.07052 F1800.000
G1 X28.013 Y36.879 E1.26323
G1 X30.359 Y36.879 E1.33564
G1 X29.891 Y37.317 E1.35542
G1 X29.326 Y38.208 E1.38799
G1 X29.000 Y39.211 E1.42056
G1 X28.934 Y40.264 E1.45312
G1 X29.132 Y41.301 E1.48569
G1 X29.581 Y42.255 E1.51826
G1 X30.250 Y43.064 E1.55064
G1 X31.758 Y43.324 F9600.000
G1 X31.687 Y43.700 E1.56246 F1350.000
G1 X27.434 Y43.700 E1.69372
G1 X27.434 Y36.300 E1.92215
G1 X31.676 Y36.300 E2.05309
G1 X31.766 Y36.648 E2.06417
G1 X31.003 Y37.067 E2.09102
G1 X30.341 Y37.689 E2.11908
G1 X29.854 Y38.456 E2.14713
G1 X29.573 Y39.321 E2.17519
G1 X29.516 Y40.228 E2.20324
G1 X29.686 Y41.120 E2.23130
G1 X30.073 Y41.943 E2.25935
G1 X30.652 Y42.643 E2.28740
G1 X31.388 Y43.177 E2.31546
G1 X31.689 Y43.296 E2.32545
G1 X31.490 Y43.597 F9600.000
G1 F1200.000 E1.32545
G92 E0
G1 X34.180 Y43.191 F9600.000
G1 E1.00000 F1200.000
G1 X33.871 Y43.617 E1.01623 F1350.000
G1 X33.092 Y43.660 E1.04031
G1 X32.398 Y43.617 E1.06177
G1 X32.240 Y43.391 E1.07027
G1 X32.099 Y43.136 E1.07925
G1 F1200.000 E0.07925
G92 E0
G1 X32.020 Y36.434 F9600.000
G1 E1.00000 F1200.000
G1 X32.718 Y36.351 E1.02168 F1350.000
G1 X33.551 Y36.351 E1.04739
G1 X34.248 Y36.434 E1.06907
G1 F1200.000 E0.06907
G92 E0
G1 X36.919 Y37.278 F9600.000
G1 E1.00000 F1200.000
G1 X42.363 Y42.722 E1.23766 F1980.000
G1 X43.182 Y42.722 E1.26295
G1 X37.738 Y37.278 E1.50061
G1 X38.558 Y37.278 E1.52590
G1 X44.002 Y42.722 E1.76356
G1 X44.821 Y42.722 E1.78886
G1 X39.377 Y37.278 E2.02652
G1 X40.196 Y37.278 E2.05181
G1 X45.640 Y42.722 E2.28947
G1 X46.460 Y42.722 E2.31476
G1 X41.016 Y37.278 E2.55242
G1 X41.835 Y37.278 E2.57771
G1 X47.279 Y42.722 E2.81537
G1 X48.098 Y42.722 E2.84066
G1 X42.654 Y37.278 E3.07832
G1 X43.474 Y37.278 E3.10362
G1 X48.918 Y42.722 E3.34128
G1 X49.737 Y42.722 E3.36657
G1 X44.293 Y37.278 E3.60423
G1 X45.112 Y37.278 E3.62952
G1 X50.557 Y42.722 E3.86718
G1 X51.376 Y42.722 E3.89247
G1 X45.932 Y37.278 E4.13013
G1 X46.751 Y37.278 E4.15543
G1 X52.195 Y42.722 E4.39308
G1 X53.015 Y42.722 E4.41838
G1 X47.571 Y37.278 E4.65604
G1 X48.390 Y37.278 E4.68133
G1 X53.834 Y42.722 E4.91899
G1 X54.653 Y42.722 E4.94428
G1 X49.209 Y37.278 E5.18194
G1 X50.029 Y37.278 E5.20723
G1 X55.473 Y42.722 E5.44489
G1 X56.292 Y42.722 E5.47019
G1 X50.848 Y37.278 E5.70785
G1 X51.667 Y37.278 E5.73314
G1 X57.111 Y42.722 E5.97080
G1 X57.931 Y42.722 E5.99609
G1 X52.487 Y37.278 E6.23375
G1 X53.306 Y37.278 E6.25904
G1 X58.750 Y42.722 E6.49670
G1 X59.570 Y42.722 E6.52199
G1 X54.126 Y37.278 E6.75965
G1 X54.945 Y37.278 E6.78495
G1 X71.856 Y54.189 E7.52321
G1 X71.856 Y53.370 E7.54851
G1 X55.764 Y37.278 E8.25100
G1 X56.584 Y37.278 E8.27629
G1 X71.856 Y52.551 E8.94302
G1 X71.856 Y51.731 E8.96831
G1 X57.403 Y37.278 E9.59927
G1 X58.222 Y37.278 E9.62457
G1 X71.856 Y50.912 E10.21975
G1 X71.856 Y50.093 E10.24505
G1 X59.042 Y37.278 E10.80447
G1 X59.861 Y37.278 E10.82976
G1 X71.856 Y49.273 E11.35341
G1 X71.856 Y48.454 E11.37870
G1 X60.412 Y37.010 E11.87829
G1 X60.412 Y36.190 E11.90358
G1 X71.856 Y47.635 E12.40317
G1 X71.856 Y46.815 E12.42846
G1 X60.412 Y35.371 E12.92805
G1 X60.412 Y34.552 E12.95334
G1 X71.856 Y45.996 E13.45293
G1 X71.856 Y45.176 E13.47822
G1 X60.412 Y33.732 E13.97781
G1 X60.412 Y32.913 E14.00310
G1 X71.856 Y44.357 E14.50269
G1 X71.856 Y43.538 E14.52798
G1 X60.412 Y32.094 E15.02757
G1 X60.412 Y31.274 E15.05286
G1 X71.856 Y42.718 E15.55245
G1 X71.856 Y41.899 E15.57774
G1 X60.412 Y30.455 E16.07733
G1 X60.412 Y29.636 E16.10262
G1 X71.856 Y41.080 E16.60221
G1 X71.856 Y40.260 E16.62751
G1 X60.412 Y28.816 E17.12709
G1 X60.412 Y27.997 E17.15239
G1 X71.856 Y39.441 E17.65197
G1 X71.856 Y38.621 E17.67727
G1 X60.412 Y27.177 E18.17685
G1 X60.412 Y26.358 E18.20215
G1 X71.856 Y37.802 E18.70173
G1 X71.856 Y36.983 E18.72703
G1 X60.412 Y25.539 E19.22661
G1 X60.412 Y24.719 E19.25191
G1 X71.856 Y36.163 E19.75149
G1 X71.856 Y35.344 E19.77679
G1 X60.412 Y23.900 E20.27637
G1 F1200.000 E19.27637
G92 E0
G1 X61.652 Y17.000 F9600.000
G1 X64.442 Y17.278 F9600.000
G1 E1.00000 F1200.000
G1 X64.511 Y17.347 E1.00300 F1980.000
G1 X64.192 Y17.847 E1.02131
G1 X63.623 Y17.278 E1.04616
G1 X62.803 Y17.278 E1.07145
G1 X63.663 Y18.138 E1.10899
G1 X63.193 Y18.487 E1.12707
G1 X61.984 Y17.278 E1.17983
G1 X61.165 Y17.278 E1.20512
G1 X62.770 Y18.883 E1.27521
G1 X62.405 Y19.338 E1.29320
G1 X60.412 Y17.345 E1.38020
G1 X60.412 Y18.164 E1.40549
G1 X62.087 Y19.839 E1.47860
G1 X61.840 Y20.411 E1.49785
G1 X60.412 Y18.984 E1.56017
G1 X60.412 Y19.803 E1.58547
G1 X61.639 Y21.030 E1.63902
G1 X61.564 Y21.775 E1.66213
G1 X60.412 Y20.622 E1.71242
G1 X60.412 Y21.442 E1.73772
G1 X61.596 Y22.626 E1.78940
G1 X61.902 Y23.751 E1.82539
G1 X60.412 Y22.261 E1.89043
G1 X60.412 Y23.081 E1.91572
G1 X71.856 Y34.525 E2.41531
G1 X71.856 Y33.705 E2.44060
G1 X64.375 Y26.224 E2.76719
G1 X65.502 Y26.531 E2.80325
G1 X71.856 Y32.886 E3.08065
G1 X71.856 Y32.067 E3.10594
G1 X66.371 Y26.581 E3.34540
G1 X67.099 Y26.490 E3.36803
G1 X71.856 Y31.247 E3.57572
G1 X71.856 Y30.428 E3.60102
G1 X67.721 Y26.292 E3.78155
G1 X68.308 Y26.060 E3.80104
G1 X71.856 Y29.608 E3.95594
G1 X71.856 Y28.789 E3.98124
G1 X68.792 Y25.724 E4.11503
G1 X69.266 Y25.380 E4.13313
G1 X71.856 Y27.970 E4.24621
G1 X71.856 Y27.150 E4.27150
G1 X69.643 Y24.937 E4.36814
G1 X70.014 Y24.488 E4.38611
G1 X71.856 Y26.331 E4.46655
G1 X71.856 Y25.512 E4.49185
G1 X70.280 Y23.935 E4.56067
G1 X70.531 Y23.367 E4.57984
G1 X71.856 Y24.692 E4.63770
G1 X71.856 Y23.873 E4.66299
G1 X70.662 Y22.679 E4.71512
G1 X70.713 Y21.910 E4.73890
G1 X71.856 Y23.054 E4.78883
G1 X71.856 Y22.234 E4.81412
G1 X70.619 Y20.997 E4.86815
G1 X70.009 Y19.568 F9600.000
G1 X71.856 Y21.415 E4.94879 F1980.000
G1 X71.856 Y20.595 E4.97408
G1 X68.539 Y17.278 E5.11890
G1 X69.358 Y17.278 E5.14420
G1 X71.856 Y19.776 E5.25325
G1 X71.856 Y18.957 E5.27854
G1 X70.178 Y17.278 E5.35183
G1 X70.997 Y17.278 E5.37712
G1 X71.856 Y18.137 E5.41463
G1 X71.856 Y17.318 E5.43993
G1 X71.816 Y17.278 E5.44167
G1 F1200.000 E4.44167
G92 E0
G1 X68.547 Y18.106 F9600.000
G1 E1.00000 F1200.000
G1 X67.761 Y17.320 E1.03431 F1980.000
G1 F1200.000 E0.03431
G92 E0
G1 X61.652 Y17.000 F9600.000
G1 X60.412 Y43.565 F9600.000
G1 E1.00000 F1200.000
G1 X71.856 Y55.009 E1.49959 F1980.000
G1 X71.856 Y55.828 E1.52488
G1 X60.412 Y44.384 E2.02447
G1 X60.412 Y45.203 E2.04976
G1 X71.856 Y56.648 E2.54935
G1 X71.856 Y57.467 E2.57464
G1 X60.412 Y46.023 E3.07423
G1 X60.412 Y46.842 E3.09952
G1 X71.856 Y58.286 E3.59911
G1 X71.856 Y59.106 E3.62440
G1 X60.412 Y47.662 E4.12399
G1 X60.412 Y48.481 E4.14928
G1 X71.856 Y59.925 E4.64887
G1 X71.856 Y60.744 E4.67416
G1 X60.412 Y49.300 E5.17375
G1 X60.412 Y50.120 E5.19904
G1 X71.856 Y61.564 E5.69863
G1 X71.856 Y62.383 E5.72392
G1 X60.412 Y50.939 E6.22351
G1 X60.412 Y51.758 E6.24880
G1 X71.856 Y63.202 E6.74839
G1 X71.856 Y64.022 E6.77368
G1 X60.412 Y52.578 E7.27327
G1 X60.412 Y53.397 E7.29856
G1 X71.856 Y64.841 E7.79815
G1 X71.856 Y65.661 E7.82344
G1 X60.412 Y54.217 E8.32303
G1 X60.412 Y55.036 E8.34832
G1 X71.856 Y66.480 E8.84791
G1 X71.856 Y67.299 E8.87320
G1 X60.412 Y55.855 E9.37279
