; generated by Slic3r 1.1.4 on 2014-10-20 at 11:55:47

; perimeters extrusion width = 0.40mm
; infill extrusion width = 0.66mm
; solid infill extrusion width = 0.60mm
; top infill extrusion width = 0.40mm

G21 ; set units to millimeters

M301 P34 I4 D113     ; set PID nozzle
M304 P162 I17 D378 ; set PID Bed

;M104 S230                 ; set extruder temp for budaschnozzle
M104 S250                 ; set extruder temp for hex_hot_end
;M140 S100                 ; set bed temp for PET
M140 S105                 ; set bed temp for PEI (reminder ~G1 Z2 ~ M140 S(@-10 degree change) ;if -m is present in file name) 

G28                            ; home
G1 Z5 F300                ; move bed down 5mm
M84                            ; disable steppers
G4 S300                     ; wait 5 mins to preheat

G28                            ; home

G90 ; use absolute coordinates
G92 E0
M82 ; use absolute distances for extrusion
M204 S1500
G1 F1500.000 E-1.40000
G92 E0
G1 Z0.300 F8100.000
G1 X114.579 Y106.035 F8100.000
G1 E1.40000 F1500.000
G1 X116.105 Y104.577 E1.45586 F1260.000
G1 X118.867 Y102.225 E1.55185
G1 X120.561 Y101.003 E1.60711
G1 X123.585 Y99.060 E1.70222
G1 X125.452 Y98.056 E1.75831
G1 X128.344 Y96.688 E1.84296
G1 X129.236 Y96.310 E1.86857
G1 X130.692 Y95.786 E1.90952
G1 X133.771 Y94.811 E1.99498
G1 X134.913 Y94.502 E2.02627
G1 X136.186 Y94.236 E2.06068
G1 X139.402 Y93.679 E2.14703
G1 X140.786 Y93.502 E2.18395
G1 X141.837 Y93.432 E2.21183
G1 X145.134 Y93.311 E2.29912
G1 X146.740 Y93.329 E2.34162
G1 X147.544 Y93.388 E2.36295
G1 X150.865 Y93.716 E2.45124
G1 X152.661 Y93.986 E2.49930
G1 X156.542 Y94.901 E2.60479
G1 X158.723 Y95.568 E2.66514
G1 X161.908 Y96.799 E2.75549
G1 X163.991 Y97.753 E2.81611
G1 X167.021 Y99.423 E2.90767
G1 X168.898 Y100.617 E2.96651
G1 X171.737 Y102.710 E3.05983
G1 X173.381 Y104.107 E3.11691
G1 X175.971 Y106.601 E3.21205
G1 X177.370 Y108.170 E3.26768
G1 X179.622 Y111.003 E3.36344
G1 X180.793 Y112.743 E3.41892
G1 X182.629 Y115.823 E3.51379
G1 X183.575 Y117.729 E3.57010
G1 X184.847 Y120.673 E3.65494
G1 X185.214 Y121.626 E3.68197
G1 X185.667 Y123.041 E3.72129
G1 X186.540 Y126.160 E3.80698
G1 X186.822 Y127.363 E3.83966
G1 X187.033 Y128.584 E3.87245
G1 X187.483 Y131.826 E3.95905
G1 X187.617 Y133.267 E3.99735
G1 X187.648 Y134.259 E4.02359
G1 X187.657 Y137.567 E4.11114
G1 X187.582 Y139.225 E4.15504
G1 X187.502 Y139.964 E4.17472
G1 X187.042 Y143.380 E4.26590
G1 X186.597 Y145.599 E4.32579
G1 X185.690 Y148.900 E4.41637
G1 X184.950 Y151.063 E4.47686
G1 X183.607 Y154.215 E4.56751
G1 X182.590 Y156.249 E4.62769
G1 X180.813 Y159.237 E4.71965
G1 X179.564 Y161.058 E4.77808
G1 X177.369 Y163.840 E4.87185
G1 X175.927 Y165.423 E4.92849
G1 X173.338 Y167.941 E5.02407
G1 X171.728 Y169.278 E5.07944
G1 X168.827 Y171.430 E5.17500
G1 X167.044 Y172.546 E5.23067
G1 X163.911 Y174.274 E5.32533
G1 X161.968 Y175.160 E5.38184
G1 X158.975 Y176.336 E5.46691
G1 X157.959 Y176.687 E5.49536
G1 X156.589 Y177.074 E5.53303
G1 X153.433 Y177.844 E5.61897
G1 X152.170 Y178.094 E5.65305
G1 X151.003 Y178.254 E5.68421
G1 X147.739 Y178.595 E5.77103
G1 X146.242 Y178.682 E5.81071
G1 X145.311 Y178.679 E5.83534
G1 X141.996 Y178.576 E5.92311
G1 X140.289 Y178.440 E5.96842
G1 X139.614 Y178.343 E5.98645
G1 X136.222 Y177.769 E6.07748
G1 X134.013 Y177.250 E6.13752
G1 X130.770 Y176.242 E6.22736
G1 X128.771 Y175.496 E6.28382
G1 X125.493 Y173.969 E6.37951
G1 X123.508 Y172.890 E6.43928
G1 X120.567 Y171.007 E6.53169
G1 X118.804 Y169.706 E6.58966
G1 X116.082 Y167.410 E6.68388
G1 X114.563 Y165.927 E6.74004
G1 X112.119 Y163.243 E6.83609
G1 X110.844 Y161.595 E6.89122
G1 X108.796 Y158.631 E6.98654
G1 X107.734 Y156.804 E7.04246
G1 X106.273 Y153.967 E7.12689
G1 X105.888 Y153.137 E7.15108
G1 X105.292 Y151.644 E7.19363
G1 X104.216 Y148.606 E7.27891
G1 X103.883 Y147.527 E7.30878
G1 X103.559 Y146.203 E7.34484
G1 X102.895 Y143.016 E7.43097
G1 X102.679 Y141.692 E7.46647
G1 X102.566 Y140.583 E7.49598
G1 X102.335 Y137.300 E7.58304
G1 X102.298 Y135.747 E7.62415
G1 X102.331 Y134.880 E7.64711
G1 X102.547 Y131.560 E7.73512
G1 X102.748 Y129.807 E7.78183
G1 X103.544 Y125.831 E7.88912
G1 X104.137 Y123.634 E7.94931
G1 X105.256 Y120.420 E8.03937
G1 X106.134 Y118.314 E8.09973
G1 X107.707 Y115.221 E8.19155
G1 X108.845 Y113.290 E8.25085
G1 X110.833 Y110.397 E8.34372
G1 X112.183 Y108.693 E8.40125
G1 X114.528 Y106.091 E8.49394
G1 X114.981 Y106.452 F8100.000
G1 X116.483 Y105.015 E8.54894 F1260.000
G1 X119.208 Y102.693 E8.64367
G1 X120.877 Y101.488 E8.69813
G1 X123.862 Y99.568 E8.79204
G1 X125.700 Y98.578 E8.84726
G1 X128.580 Y97.216 E8.93155
G1 X129.433 Y96.854 E8.95609
G1 X130.867 Y96.338 E8.99641
G1 X133.931 Y95.367 E9.08144
G1 X135.033 Y95.068 E9.11166
G1 X136.285 Y94.806 E9.14551
G1 X139.482 Y94.252 E9.23136
G1 X140.826 Y94.079 E9.26721
G1 X141.859 Y94.010 E9.29460
G1 X145.134 Y93.890 E9.38131
G1 X146.700 Y93.906 E9.42274
G1 X147.488 Y93.963 E9.44366
G1 X150.784 Y94.289 E9.53129
G1 X152.541 Y94.552 E9.57828
G1 X156.378 Y95.456 E9.68259
G1 X158.516 Y96.108 E9.74172
G1 X161.672 Y97.328 E9.83127
G1 X163.714 Y98.260 E9.89064
G1 X166.715 Y99.914 E9.98131
G1 X168.557 Y101.085 E10.03905
G1 X171.365 Y103.153 E10.13134
G1 X172.982 Y104.526 E10.18747
G1 X175.541 Y106.988 E10.28142
G1 X176.920 Y108.533 E10.33621
G1 X179.144 Y111.329 E10.43073
G1 X180.298 Y113.042 E10.48539
G1 X182.112 Y116.083 E10.57908
G1 X183.044 Y117.959 E10.63450
G1 X184.311 Y120.890 E10.71897
G1 X184.663 Y121.805 E10.74493
G1 X185.110 Y123.198 E10.78363
G1 X185.979 Y126.300 E10.86888
G1 X186.252 Y127.463 E10.90048
G1 X186.460 Y128.664 E10.93273
G1 X186.908 Y131.886 E11.01880
G1 X187.039 Y133.287 E11.05604
G1 X187.070 Y134.261 E11.08181
G1 X187.079 Y137.547 E11.16876
G1 X187.007 Y139.164 E11.21159
G1 X186.928 Y139.889 E11.23088
G1 X186.474 Y143.271 E11.32117
G1 X186.039 Y145.447 E11.37988
G1 X185.141 Y148.718 E11.46963
G1 X184.417 Y150.838 E11.52890
G1 X183.087 Y153.961 E11.61872
G1 X182.092 Y155.956 E11.67769
G1 X180.334 Y158.913 E11.76872
G1 X179.108 Y160.702 E11.82609
G1 X176.939 Y163.453 E11.91879
G1 X175.521 Y165.010 E11.97451
G1 X172.966 Y167.498 E12.06887
G1 X171.380 Y168.816 E12.12342
G1 X168.518 Y170.941 E12.21776
G1 X166.762 Y172.041 E12.27259
G1 X163.668 Y173.749 E12.36609
G1 X161.756 Y174.622 E12.42170
G1 X158.777 Y175.792 E12.50637
G1 X157.799 Y176.131 E12.53375
G1 X156.451 Y176.512 E12.57082
G1 X153.313 Y177.278 E12.65629
G1 X152.089 Y177.521 E12.68930
G1 X150.942 Y177.679 E12.71994
G1 X147.699 Y178.018 E12.80622
G1 X146.242 Y178.104 E12.84483
G1 X145.328 Y178.101 E12.86902
G1 X142.036 Y177.999 E12.95617
G1 X140.369 Y177.867 E13.00041
G1 X139.709 Y177.772 E13.01806
G1 X136.349 Y177.205 E13.10821
G1 X134.183 Y176.697 E13.16707
G1 X130.968 Y175.699 E13.25614
G1 X129.007 Y174.968 E13.31152
G1 X125.765 Y173.458 E13.40615
G1 X123.818 Y172.401 E13.46475
G1 X120.907 Y170.539 E13.55620
G1 X119.174 Y169.262 E13.61314
G1 X116.484 Y166.994 E13.70625
G1 X114.988 Y165.534 E13.76153
G1 X112.575 Y162.887 E13.85633
G1 X111.318 Y161.263 E13.91066
G1 X109.295 Y158.338 E14.00476
G1 X108.248 Y156.539 E14.05983
G1 X106.793 Y153.713 E14.14392
G1 X106.425 Y152.921 E14.16704
G1 X105.837 Y151.450 E14.20894
G1 X104.766 Y148.427 E14.29381
G1 X104.445 Y147.387 E14.32260
G1 X104.125 Y146.085 E14.35808
G1 X103.464 Y142.916 E14.44373
G1 X103.254 Y141.632 E14.47816
G1 X103.143 Y140.541 E14.50716
G1 X102.913 Y137.280 E14.59366
G1 X102.876 Y135.767 E14.63370
G1 X102.909 Y134.916 E14.65623
G1 X103.122 Y131.621 E14.74361
G1 X103.318 Y129.907 E14.78925
G1 X104.104 Y125.976 E14.89531
G1 X104.684 Y123.823 E14.95431
G1 X105.793 Y120.637 E15.04358
G1 X106.650 Y118.575 E15.10267
G1 X108.208 Y115.510 E15.19362
G1 X109.323 Y113.615 E15.25179
G1 X111.289 Y110.753 E15.34366
G1 X112.615 Y109.078 E15.40020
G1 X114.930 Y106.507 E15.49174
G1 F1500.000 E14.09174
G92 E0
G1 X172.682 Y143.693 F8100.000
G1 E1.40000 F1500.000
G1 X172.093 Y144.210 E1.42072 F2100.000
G1 X171.468 Y144.682 E1.44143
G1 X170.809 Y145.107 E1.46220
G1 X170.097 Y145.492 E1.48361
G1 X169.410 Y145.803 E1.50358
G1 X168.674 Y146.073 E1.52430
G1 X167.921 Y146.287 E1.54503
G1 X167.155 Y146.445 E1.56573
G1 X166.378 Y146.546 E1.58644
G1 X165.597 Y146.589 E1.60716
G1 X164.813 Y146.575 E1.62791
G1 X164.019 Y146.500 E1.64900
G1 X163.262 Y146.373 E1.66931
G1 X162.502 Y146.187 E1.69002
G1 X161.757 Y145.945 E1.71074
G1 X161.032 Y145.649 E1.73146
G1 X160.331 Y145.300 E1.75217
G1 X159.658 Y144.900 E1.77289
G1 X159.015 Y144.451 E1.79363
G1 X158.398 Y143.946 E1.81473
G1 X157.840 Y143.419 E1.83504
G1 X157.313 Y142.840 E1.85575
G1 X156.830 Y142.224 E1.87647
G1 X156.393 Y141.574 E1.89718
G1 X156.006 Y140.894 E1.91790
G1 X155.670 Y140.186 E1.93862
G1 X155.387 Y139.455 E1.95936
G1 X155.155 Y138.692 E1.98046
G1 X154.987 Y137.943 E2.00077
G1 X154.871 Y137.169 E2.02148
G1 X154.814 Y136.388 E2.04220
G1 X154.814 Y135.605 E2.06291
G1 X154.871 Y134.825 E2.08363
G1 X154.987 Y134.050 E2.10434
G1 X155.159 Y133.286 E2.12508
G1 X155.392 Y132.525 E2.14612
G1 X155.670 Y131.807 E2.16649
G1 X156.006 Y131.100 E2.18721
G1 X156.393 Y130.420 E2.20793
G1 X156.830 Y129.770 E2.22864
G1 X157.313 Y129.154 E2.24935
G1 X157.841 Y128.574 E2.27010
G1 X158.419 Y128.029 E2.29113
G1 X159.016 Y127.542 E2.31150
G1 X159.658 Y127.094 E2.33222
G1 X160.331 Y126.694 E2.35293
G1 X161.032 Y126.345 E2.37365
G1 X161.757 Y126.049 E2.39437
G1 X162.502 Y125.807 E2.41509
G1 X163.262 Y125.621 E2.43580
G1 X164.036 Y125.491 E2.45657
G1 X164.842 Y125.418 E2.47798
G1 X165.597 Y125.404 E2.49795
G1 X166.378 Y125.448 E2.51866
G1 X167.155 Y125.549 E2.53938
G1 X167.923 Y125.707 E2.56015
G1 X168.701 Y125.931 E2.58156
G1 X169.410 Y126.190 E2.60152
G1 X170.123 Y126.513 E2.62224
G1 X170.811 Y126.888 E2.64296
G1 X171.468 Y127.312 E2.66367
G1 X172.093 Y127.784 E2.68439
G1 X172.682 Y128.301 E2.70511
G1 X173.230 Y128.859 E2.72582
G1 X173.736 Y129.457 E2.74654
G1 X174.196 Y130.091 E2.76726
G1 X174.608 Y130.756 E2.78797
G1 X174.970 Y131.451 E2.80869
G1 X175.280 Y132.170 E2.82940
G1 X175.535 Y132.910 E2.85012
G1 X175.736 Y133.667 E2.87084
G1 X175.880 Y134.436 E2.89155
G1 X175.966 Y135.214 E2.91227
G1 X175.995 Y135.998 E2.93301
G1 X175.965 Y136.795 E2.95411
G1 X175.880 Y137.557 E2.97441
G1 X175.736 Y138.327 E2.99513
G1 X175.535 Y139.084 E3.01585
G1 X175.280 Y139.824 E3.03656
G1 X174.970 Y140.543 E3.05728
G1 X174.608 Y141.237 E3.07800
G1 X174.196 Y141.903 E3.09871
G1 X173.736 Y142.537 E3.11942
G1 X173.230 Y143.134 E3.14014
G1 X172.734 Y143.639 E3.15887
G1 X172.284 Y143.272 F8100.000
G1 X171.728 Y143.761 E3.17846 F2100.000
G1 X171.137 Y144.207 E3.19805
G1 X170.514 Y144.609 E3.21766
G1 X169.840 Y144.974 E3.23794
G1 X169.191 Y145.268 E3.25679
G1 X168.496 Y145.522 E3.27638
G1 X167.783 Y145.725 E3.29598
G1 X167.059 Y145.874 E3.31554
G1 X166.325 Y145.970 E3.33513
G1 X165.586 Y146.011 E3.35471
G1 X164.845 Y145.997 E3.37432
G1 X164.094 Y145.926 E3.39428
G1 X163.379 Y145.806 E3.41347
G1 X162.660 Y145.630 E3.43305
G1 X161.956 Y145.401 E3.45263
G1 X161.271 Y145.121 E3.47222
G1 X160.608 Y144.791 E3.49180
G1 X159.972 Y144.413 E3.51139
G1 X159.365 Y143.989 E3.53099
G1 X158.780 Y143.512 E3.55095
G1 X158.254 Y143.013 E3.57014
G1 X157.755 Y142.466 E3.58972
G1 X157.298 Y141.884 E3.60931
G1 X156.885 Y141.269 E3.62889
G1 X156.519 Y140.626 E3.64847
G1 X156.202 Y139.957 E3.66806
G1 X155.934 Y139.267 E3.68766
G1 X155.715 Y138.545 E3.70762
G1 X155.556 Y137.837 E3.72681
G1 X155.447 Y137.105 E3.74639
G1 X155.392 Y136.367 E3.76598
G1 X155.392 Y135.627 E3.78556
G1 X155.447 Y134.889 E3.80515
G1 X155.556 Y134.157 E3.82473
G1 X155.719 Y133.434 E3.84433
G1 X155.939 Y132.715 E3.86423
G1 X156.202 Y132.036 E3.88348
G1 X156.519 Y131.368 E3.90306
G1 X156.885 Y130.724 E3.92265
G1 X157.298 Y130.110 E3.94223
G1 X157.755 Y129.528 E3.96182
G1 X158.254 Y128.980 E3.98142
G1 X158.801 Y128.464 E4.00132
G1 X159.365 Y128.004 E4.02057
G1 X159.972 Y127.580 E4.04015
G1 X160.608 Y127.202 E4.05974
G1 X161.271 Y126.873 E4.07932
G1 X161.956 Y126.592 E4.09890
G1 X162.660 Y126.364 E4.11849
G1 X163.379 Y126.188 E4.13807
G1 X164.110 Y126.065 E4.15769
G1 X164.873 Y125.996 E4.17797
G1 X165.586 Y125.983 E4.19682
G1 X166.325 Y126.024 E4.21641
G1 X167.059 Y126.120 E4.23599
G1 X167.785 Y126.269 E4.25561
G1 X168.522 Y126.481 E4.27589
G1 X169.191 Y126.726 E4.29474
G1 X169.865 Y127.031 E4.31433
G1 X170.515 Y127.386 E4.33391
G1 X171.137 Y127.787 E4.35349
G1 X171.728 Y128.233 E4.37308
G1 X172.284 Y128.721 E4.39266
G1 X172.802 Y129.249 E4.41225
G1 X173.280 Y129.815 E4.43183
G1 X173.715 Y130.413 E4.45142
G1 X174.105 Y131.043 E4.47100
G1 X174.447 Y131.699 E4.49058
G1 X174.740 Y132.379 E4.51017
G1 X174.982 Y133.078 E4.52975
G1 X175.171 Y133.794 E4.54934
G1 X175.307 Y134.522 E4.56892
G1 X175.389 Y135.257 E4.58850
G1 X175.416 Y135.998 E4.60811
G1 X175.387 Y136.751 E4.62807
G1 X175.307 Y137.472 E4.64726
G1 X175.171 Y138.200 E4.66684
G1 X174.982 Y138.915 E4.68642
G1 X174.740 Y139.615 E4.70601
G1 X174.447 Y140.295 E4.72559
G1 X174.105 Y140.951 E4.74518
G1 X173.715 Y141.580 E4.76476
G1 X173.280 Y142.179 E4.78434
G1 X172.802 Y142.744 E4.80393
G1 X172.336 Y143.219 E4.82153
G1 X171.886 Y142.852 F8100.000
G1 X171.362 Y143.312 E4.83998 F1260.000
G1 X170.805 Y143.732 E4.85843
G1 X170.219 Y144.111 E4.87689
G1 X169.583 Y144.455 E4.89604
G1 X168.972 Y144.732 E4.91379
G1 X168.317 Y144.972 E4.93224
G1 X167.645 Y145.162 E4.95070
G1 X166.963 Y145.303 E4.96914
G1 X166.271 Y145.393 E4.98759
G1 X165.575 Y145.432 E5.00605
G1 X164.878 Y145.419 E5.02451
G1 X164.169 Y145.352 E5.04334
G1 X163.496 Y145.239 E5.06140
G1 X162.818 Y145.073 E5.07985
G1 X162.155 Y144.858 E5.09831
G1 X161.509 Y144.594 E5.11676
G1 X160.885 Y144.283 E5.13521
G1 X160.286 Y143.927 E5.15366
G1 X159.714 Y143.527 E5.17212
G1 X159.163 Y143.077 E5.19095
G1 X158.667 Y142.608 E5.20902
G1 X158.197 Y142.092 E5.22747
G1 X157.766 Y141.544 E5.24592
G1 X157.378 Y140.965 E5.26437
G1 X157.033 Y140.358 E5.28283
G1 X156.733 Y139.729 E5.30128
G1 X156.481 Y139.078 E5.31974
G1 X156.275 Y138.397 E5.33857
G1 X156.125 Y137.731 E5.35663
G1 X156.022 Y137.041 E5.37508
G1 X155.971 Y136.346 E5.39354
G1 X155.971 Y135.648 E5.41199
G1 X156.022 Y134.953 E5.43044
G1 X156.125 Y134.263 E5.44889
G1 X156.278 Y133.582 E5.46735
G1 X156.486 Y132.904 E5.48612
G1 X156.733 Y132.265 E5.50425
G1 X157.033 Y131.635 E5.52270
G1 X157.378 Y131.029 E5.54115
G1 X157.766 Y130.450 E5.55960
G1 X158.197 Y129.902 E5.57805
G1 X158.667 Y129.386 E5.59651
G1 X159.183 Y128.899 E5.61528
G1 X159.714 Y128.466 E5.63341
G1 X160.286 Y128.067 E5.65186
G1 X160.885 Y127.711 E5.67032
G1 X161.509 Y127.400 E5.68877
G1 X162.155 Y127.136 E5.70722
G1 X162.818 Y126.921 E5.72567
G1 X163.496 Y126.755 E5.74412
G1 X164.184 Y126.639 E5.76259
G1 X164.905 Y126.574 E5.78173
G1 X165.575 Y126.562 E5.79948
G1 X166.271 Y126.601 E5.81793
G1 X166.963 Y126.691 E5.83638
G1 X167.646 Y126.831 E5.85484
G1 X168.342 Y127.031 E5.87399
G1 X168.972 Y127.262 E5.89174
G1 X169.607 Y127.550 E5.91019
G1 X170.219 Y127.883 E5.92864
G1 X170.805 Y128.261 E5.94709
G1 X171.362 Y128.682 E5.96554
G1 X171.886 Y129.142 E5.98400
G1 X172.375 Y129.639 E6.00245
G1 X172.825 Y130.172 E6.02090
G1 X173.235 Y130.736 E6.03935
G1 X173.602 Y131.329 E6.05780
G1 X173.924 Y131.947 E6.07626
G1 X174.200 Y132.588 E6.09471
G1 X174.428 Y133.247 E6.11316
G1 X174.606 Y133.921 E6.13161
G1 X174.734 Y134.607 E6.15006
G1 X174.812 Y135.300 E6.16852
G1 X174.837 Y135.997 E6.18698
G1 X174.810 Y136.708 E6.20581
G1 X174.734 Y137.387 E6.22387
G1 X174.606 Y138.072 E6.24232
G1 X174.428 Y138.747 E6.26078
G1 X174.200 Y139.406 E6.27923
G1 X173.924 Y140.046 E6.29768
G1 X173.602 Y140.665 E6.31613
G1 X173.235 Y141.258 E6.33458
G1 X172.825 Y141.822 E6.35304
G1 X172.375 Y142.354 E6.37149
G1 X171.938 Y142.798 E6.38796
G1 X171.996 Y143.340 F8100.000
G1 F1500.000 E4.98796
G92 E0
G1 X157.997 Y124.808 F8100.000
G1 E1.40000 F1500.000
G1 X157.373 Y125.280 E1.42072 F2100.000
G1 X156.715 Y125.704 E1.44143
G1 X156.027 Y126.079 E1.46215
G1 X155.314 Y126.402 E1.48286
G1 X154.578 Y126.672 E1.50361
G1 X153.810 Y126.889 E1.52471
G1 X153.059 Y127.043 E1.54501
G1 X152.282 Y127.145 E1.56573
G1 X151.499 Y127.188 E1.58647
G1 X150.702 Y127.172 E1.60757
