; generated by Slic3r 1.1.7 on 2015-03-02 at 16:37:43

; perimeters extrusion width = 0.40mm
; infill extrusion width = 0.60mm
; solid infill extrusion width = 0.50mm
; top infill extrusion width = 0.40mm

G21 ; set units to millimeters
M107

M301 P34 I4 D113     ; set PID nozzle
M304 P162 I17 D378 ; set PID Bed

M104 S230                 ; set extruder temp for budaschnozzle
;M104 S240                 ; set extruder temp for hex_hot_end
;M140 S100                 ; set bed temp for PET
M140 S110                 ; set bed temp for PEI (reminder ~G1 Z2 ~ M140 S(@-10 degree change) ;if -m is present in file name)

G28                            ; home
G1 Z5 F300                ; move bed down 5mm
M84                            ; disable steppers
G4 S300                     ; wait 5 mins to preheat

G28                            ; home

G90 ; use absolute coordinates
G92 E0
M82 ; use absolute distances for extrusion
M204 S2000
G1 F1200.000 E-1.20000
G92 E0
G1 Z0.350 F9600.000
G1 X94.305 Y70.629 F9600.000
G1 E1.20000 F1200.000
G1 X96.043 Y69.241 E1.27307 F1260.000
G1 X99.000 Y68.495 E1.37329
G1 X199.000 Y68.495 E4.65920
G1 X201.188 Y68.891 E4.73227
G1 X203.098 Y70.031 E4.80534 F1260.000
G1 X204.485 Y71.769 E4.87841
G1 X205.232 Y74.726 E4.97864
G1 X205.232 Y187.726 E8.69171
G1 X204.835 Y189.914 E8.76478
G1 X203.050 Y192.463 E8.86702
G1 X185.897 Y207.060 E9.60711
G1 X184.828 Y207.653 E9.64729
G1 X183.708 Y208.048 E9.68629
G1 X181.206 Y208.595 E9.77046
G1 X179.245 Y208.756 E9.83510
G1 X149.662 Y209.505 E10.80748
G1 X148.179 Y209.503 E10.85621
G1 X118.367 Y208.734 E11.83613
G1 X115.824 Y208.432 E11.92029
G1 X114.478 Y208.094 E11.96588
G1 X113.328 Y207.720 E12.00564
G1 X112.244 Y207.153 E12.04582
G1 X111.462 Y206.580 E12.07767
G1 X94.950 Y192.463 E12.79150
G1 X93.545 Y190.739 E12.86457
G1 X92.768 Y187.726 E12.96681
G1 X92.768 Y74.726 E16.67988
G1 X93.165 Y72.538 E16.75296
G1 X94.266 Y70.693 E16.82356
G1 X94.849 Y70.975 F9600.000
G1 X94.914 Y70.874 E16.82752 F1260.000
G1 X96.624 Y69.638 E16.89686
G1 X99.000 Y69.110 E16.97682
G1 X199.000 Y69.110 E20.26273
G1 X201.073 Y69.507 E20.33206
G1 X202.853 Y70.640 E20.40140 F1260.000
G1 X204.089 Y72.350 E20.47074
G1 X204.616 Y74.726 E20.55070
G1 X204.616 Y187.726 E24.26377
G1 X204.219 Y189.799 E24.33311
G1 X202.649 Y191.995 E24.42181
G1 X185.560 Y206.545 E25.15930
G1 X184.582 Y207.088 E25.19606
G1 X183.558 Y207.450 E25.23176
G1 X181.152 Y207.982 E25.31273
G1 X179.229 Y208.140 E25.37612
G1 X149.662 Y208.890 E26.34797
G1 X148.195 Y208.888 E26.39619
G1 X118.421 Y208.120 E27.37485
G1 X115.974 Y207.835 E27.45583
G1 X114.628 Y207.497 E27.50142
G1 X113.573 Y207.155 E27.53786
G1 X112.581 Y206.637 E27.57462
G1 X111.862 Y206.112 E27.60387
G1 X95.351 Y191.995 E28.31770
G1 X94.033 Y190.346 E28.38704
G1 X93.384 Y187.726 E28.47574
G1 X93.384 Y74.726 E32.18881
G1 X93.781 Y72.654 E32.25815
G1 X94.809 Y71.038 E32.32106
G1 F1200.000 E31.12106
G92 E0
G1 X106.249 Y182.727 F9600.000
G1 E1.20000 F1200.000
G1 X106.033 Y183.189 E1.21676 F1564.500
G1 X105.741 Y183.606 E1.23351
G1 X105.380 Y183.967 E1.25026
G1 X104.962 Y184.259 E1.26702
G1 X104.500 Y184.475 E1.28377
G1 X104.008 Y184.607 E1.30052
G1 X103.500 Y184.651 E1.31727
G1 X102.992 Y184.607 E1.33403
G1 X102.500 Y184.475 E1.35078
G1 X102.038 Y184.259 E1.36753
G1 X101.620 Y183.967 E1.38429
G1 X101.259 Y183.606 E1.40104
G1 X100.967 Y183.189 E1.41780
G1 X100.741 Y182.687 E1.43589
G1 X100.619 Y182.234 E1.45128
G1 X100.575 Y181.726 E1.46804
G1 X100.619 Y181.218 E1.48479
G1 X100.751 Y180.726 E1.50154
G1 X100.967 Y180.264 E1.51830
G1 X101.289 Y179.817 E1.53640
G1 X101.620 Y179.486 E1.55179
G1 X102.038 Y179.193 E1.56854
G1 X102.500 Y178.978 E1.58529
G1 X102.992 Y178.846 E1.60205
G1 X103.541 Y178.805 E1.62014
G1 X104.008 Y178.846 E1.63553 F1564.500
G1 X104.500 Y178.978 E1.65229
G1 X104.962 Y179.193 E1.66904
G1 X105.380 Y179.486 E1.68579
G1 X105.741 Y179.846 E1.70255
G1 X106.033 Y180.264 E1.71930
G1 X106.249 Y180.726 E1.73605
G1 X106.381 Y181.218 E1.75281
G1 X106.425 Y181.726 E1.76956
G1 X106.381 Y182.234 E1.78632
G1 X106.268 Y182.654 E1.80060
G1 F1200.000 E0.60060
G92 E0
G1 X103.461 Y178.344 F9600.000
G1 X103.616 Y152.641 F9600.000
G1 E1.20000 F1200.000
G1 X103.500 Y152.651 E1.20383 F1564.500
G1 X102.992 Y152.607 E1.22058
G1 X102.500 Y152.475 E1.23734
G1 X102.038 Y152.259 E1.25409
G1 X101.620 Y151.967 E1.27085
G1 X101.259 Y151.606 E1.28760
G1 X100.967 Y151.189 E1.30435
G1 X100.751 Y150.727 E1.32110
G1 X100.619 Y150.234 E1.33786
G1 X100.575 Y149.726 E1.35461
G1 X100.619 Y149.218 E1.37137
G1 X100.769 Y148.688 E1.38946
G1 X100.967 Y148.264 E1.40485
G1 X101.259 Y147.846 E1.42161
G1 X101.620 Y147.486 E1.43836
G1 X102.038 Y147.193 E1.45511
G1 X102.500 Y146.978 E1.47187
G1 X102.992 Y146.846 E1.48862
G1 X103.541 Y146.805 E1.50672
G1 X104.008 Y146.846 E1.52211 F1564.500
G1 X104.500 Y146.978 E1.53886
G1 X104.962 Y147.193 E1.55561
G1 X105.380 Y147.486 E1.57237
G1 X105.741 Y147.846 E1.58912
G1 X106.033 Y148.264 E1.60588
G1 X106.249 Y148.726 E1.62263
G1 X106.381 Y149.218 E1.63938
G1 X106.425 Y149.726 E1.65614
G1 X106.381 Y150.234 E1.67289
G1 X106.249 Y150.727 E1.68964
G1 X106.033 Y151.189 E1.70640
G1 X105.741 Y151.606 E1.72315
G1 X105.380 Y151.967 E1.73990
G1 X104.963 Y152.259 E1.75666
G1 X104.500 Y152.475 E1.77341
G1 X104.008 Y152.607 E1.79016
G1 X103.691 Y152.635 E1.80062
G1 F1200.000 E0.60062
G92 E0
G1 X103.556 Y146.337 F9600.000
G1 X192.259 Y81.606 F9600.000
G1 E1.20000 F1200.000
G1 X191.967 Y81.189 E1.21675 F1564.500
G1 X191.751 Y80.727 E1.23351
G1 X191.619 Y80.234 E1.25026
G1 X191.575 Y79.726 E1.26701
G1 X191.619 Y79.218 E1.28377
G1 X191.751 Y78.726 E1.30052
G1 X191.967 Y78.264 E1.31727
G1 X192.259 Y77.846 E1.33403
G1 X192.620 Y77.486 E1.35078
G1 X193.038 Y77.193 E1.36753
G1 X193.500 Y76.978 E1.38429
G1 X193.992 Y76.846 E1.40104
G1 X194.541 Y76.805 E1.41914
G1 X195.008 Y76.846 E1.43453 F1564.500
G1 X195.500 Y76.978 E1.45128
G1 X195.963 Y77.193 E1.46804
G1 X196.380 Y77.486 E1.48479
G1 X196.741 Y77.846 E1.50154
G1 X197.033 Y78.264 E1.51829
G1 X197.249 Y78.726 E1.53505
G1 X197.381 Y79.218 E1.55180
G1 X197.425 Y79.726 E1.56855
G1 X197.381 Y80.234 E1.58531
G1 X197.249 Y80.727 E1.60206
G1 X197.009 Y81.223 E1.62016
G1 X196.741 Y81.606 E1.63555
G1 X196.380 Y81.967 E1.65230
G1 X195.962 Y82.259 E1.66906
G1 X195.500 Y82.475 E1.68581
G1 X195.008 Y82.607 E1.70256
G1 X194.500 Y82.651 E1.71932
G1 X193.992 Y82.607 E1.73607
G1 X193.500 Y82.475 E1.75282
G1 X193.037 Y82.259 E1.76958
G1 X192.620 Y81.967 E1.78633
G1 X192.312 Y81.659 E1.80062
G1 F1200.000 E0.60062
G92 E0
G1 X194.624 Y76.344 F9600.000
G1 X173.026 Y79.924 F9600.000
G1 E1.20000 F1200.000
G1 X172.989 Y80.342 E1.21378 F2100.000
G1 X172.830 Y80.938 E1.23407
G1 X172.568 Y81.498 E1.25437
G1 X172.214 Y82.004 E1.27466
G1 X171.778 Y82.440 E1.29495
G1 X171.271 Y82.795 E1.31525
G1 X170.712 Y83.056 E1.33554
G1 X170.115 Y83.216 E1.35584
G1 X169.500 Y83.269 E1.37613
G1 X168.885 Y83.216 E1.39643
G1 X168.288 Y83.056 E1.41672
G1 X167.728 Y82.795 E1.43701
G1 X167.222 Y82.440 E1.45731
G1 X166.786 Y82.004 E1.47760
G1 X166.431 Y81.498 E1.49790
G1 X166.171 Y80.938 E1.51819
G1 X166.011 Y80.341 E1.53849
G1 X165.957 Y79.726 E1.55878
G1 X166.011 Y79.111 E1.57908
G1 X166.170 Y78.514 E1.59937
G1 X166.431 Y77.955 E1.61966
G1 X166.786 Y77.449 E1.63996
G1 X167.222 Y77.012 E1.66025
G1 X167.729 Y76.658 E1.68055
G1 X168.288 Y76.397 E1.70084
G1 X168.885 Y76.237 E1.72113
G1 X169.500 Y76.183 E1.74143
G1 X169.595 Y76.191 E1.74457
G1 X170.115 Y76.237 E1.76173 F2100.000
G1 X170.712 Y76.397 E1.78201
G1 X171.272 Y76.658 E1.80231
G1 X171.778 Y77.012 E1.82261
G1 X172.214 Y77.449 E1.84290
G1 X172.569 Y77.955 E1.86320
G1 X172.829 Y78.514 E1.88349
G1 X172.989 Y79.111 E1.90379
G1 X173.043 Y79.726 E1.92408
G1 X173.032 Y79.849 E1.92813
G1 X172.412 Y79.870 F9600.000
G1 X172.381 Y80.234 E1.94014 F1564.500
G1 X172.249 Y80.727 E1.95689
G1 X172.033 Y81.189 E1.97364
G1 X171.741 Y81.606 E1.99040
G1 X171.380 Y81.967 E2.00715
G1 X170.962 Y82.259 E2.02391
G1 X170.500 Y82.475 E2.04066
G1 X170.008 Y82.607 E2.05741
G1 X169.500 Y82.651 E2.07417
G1 X168.992 Y82.607 E2.09092
G1 X168.500 Y82.475 E2.10767
G1 X168.038 Y82.259 E2.12442
G1 X167.620 Y81.967 E2.14118
G1 X167.259 Y81.606 E2.15793
G1 X166.967 Y81.189 E2.17469
G1 X166.751 Y80.727 E2.19144
G1 X166.619 Y80.234 E2.20819
G1 X166.575 Y79.726 E2.22495
G1 X166.619 Y79.218 E2.24170
G1 X166.751 Y78.726 E2.25845
G1 X166.991 Y78.230 E2.27655
G1 X167.259 Y77.846 E2.29194
G1 X167.620 Y77.486 E2.30869
G1 X168.038 Y77.193 E2.32545
G1 X168.500 Y76.978 E2.34220
G1 X169.033 Y76.842 E2.36030
G1 X169.500 Y76.801 E2.37569 F1564.500
G1 X170.008 Y76.846 E2.39244
G1 X170.500 Y76.978 E2.40919
G1 X170.962 Y77.193 E2.42595
G1 X171.380 Y77.486 E2.44270
G1 X171.741 Y77.846 E2.45946
G1 X172.033 Y78.264 E2.47621
G1 X172.249 Y78.726 E2.49296
G1 X172.381 Y79.218 E2.50972
G1 X172.419 Y79.795 E2.52872
G1 F1200.000 E1.32872
G92 E0
G1 X168.861 Y76.406 F9600.000
G1 X165.043 Y79.726 F9600.000
G1 E1.20000 F1200.000
G1 X164.989 Y80.342 E1.22030 F2100.000
G1 X164.830 Y80.938 E1.24058
G1 X164.569 Y81.498 E1.26088
G1 X164.514 Y81.576 E1.26402
G1 X164.214 Y82.004 E1.28118
G1 X163.778 Y82.440 E1.30147
G1 X163.271 Y82.795 E1.32177
G1 X162.712 Y83.056 E1.34206
G1 X162.115 Y83.216 E1.36235
G1 X161.500 Y83.269 E1.38265
G1 X160.885 Y83.216 E1.40295
G1 X160.288 Y83.056 E1.42323
G1 X159.728 Y82.795 E1.44353
G1 X159.222 Y82.440 E1.46383
G1 X158.786 Y82.004 E1.48412
G1 X158.431 Y81.498 E1.50442
G1 X158.171 Y80.938 E1.52471
G1 X158.011 Y80.341 E1.54500
G1 X157.957 Y79.726 E1.56530
G1 X158.011 Y79.111 E1.58559
G1 X158.170 Y78.515 E1.60588
G1 X158.432 Y77.955 E1.62618
G1 X158.786 Y77.449 E1.64648
G1 X159.222 Y77.012 E1.66677
G1 X159.729 Y76.658 E1.68707
G1 X160.288 Y76.397 E1.70735
G1 X160.885 Y76.237 E1.72765
G1 X161.500 Y76.183 E1.74795
G1 X161.595 Y76.191 E1.75108
G1 X162.115 Y76.237 E1.76824 F2100.000
G1 X162.712 Y76.397 E1.78853
G1 X163.272 Y76.658 E1.80883
G1 X163.778 Y77.012 E1.82912
G1 X164.214 Y77.449 E1.84942
G1 X164.569 Y77.955 E1.86972
G1 X164.829 Y78.514 E1.89000
G1 X164.989 Y79.111 E1.91030
G1 X165.037 Y79.652 E1.92813
G1 X164.425 Y79.726 F9600.000
G1 X164.381 Y80.234 E1.94489 F1564.500
G1 X164.249 Y80.727 E1.96164
G1 X164.033 Y81.189 E1.97839
G1 X163.711 Y81.636 E1.99649
G1 X163.380 Y81.967 E2.01188
G1 X162.962 Y82.259 E2.02863
G1 X162.500 Y82.475 E2.04539
G1 X162.008 Y82.607 E2.06214
G1 X161.500 Y82.651 E2.07889
G1 X160.992 Y82.607 E2.09565
G1 X160.500 Y82.475 E2.11240
G1 X160.038 Y82.259 E2.12915
G1 X159.620 Y81.967 E2.14591
G1 X159.259 Y81.606 E2.16266
G1 X158.967 Y81.189 E2.17941
G1 X158.741 Y80.687 E2.19751
G1 X158.619 Y80.234 E2.21290
G1 X158.575 Y79.726 E2.22966
G1 X158.619 Y79.218 E2.24641
G1 X158.751 Y78.726 E2.26316
G1 X158.991 Y78.230 E2.28126
G1 X159.259 Y77.846 E2.29665
G1 X159.620 Y77.486 E2.31340
G1 X160.038 Y77.193 E2.33016
G1 X160.500 Y76.978 E2.34691
G1 X161.033 Y76.842 E2.36501
G1 X161.500 Y76.801 E2.38040 F1564.500
G1 X162.008 Y76.846 E2.39715
G1 X162.500 Y76.978 E2.41390
G1 X162.962 Y77.193 E2.43066
G1 X163.380 Y77.486 E2.44741
G1 X163.741 Y77.846 E2.46417
G1 X164.033 Y78.264 E2.48092
G1 X164.249 Y78.726 E2.49767
G1 X164.381 Y79.218 E2.51443
G1 X164.418 Y79.652 E2.52871
G1 F1200.000 E1.32871
G92 E0
G1 X160.862 Y76.406 F9600.000
G1 X106.425 Y79.726 F9600.000
G1 E1.20000 F1200.000
G1 X106.381 Y80.234 E1.21675 F1564.500
G1 X106.249 Y80.727 E1.23351
G1 X106.009 Y81.223 E1.25161
G1 X105.741 Y81.606 E1.26699
G1 X105.380 Y81.967 E1.28375
G1 X104.962 Y82.259 E1.30050
G1 X104.500 Y82.475 E1.31725
G1 X104.008 Y82.607 E1.33401
G1 X103.500 Y82.651 E1.35076
G1 X102.992 Y82.607 E1.36752
G1 X102.500 Y82.475 E1.38427
G1 X102.038 Y82.259 E1.40102
G1 X101.620 Y81.967 E1.41778
G1 X101.259 Y81.606 E1.43453
G1 X100.967 Y81.189 E1.45128
G1 X100.751 Y80.727 E1.46804
G1 X100.619 Y80.234 E1.48479
G1 X100.575 Y79.726 E1.50154
G1 X100.619 Y79.218 E1.51830
G1 X100.751 Y78.726 E1.53505
G1 X100.967 Y78.264 E1.55180
G1 X101.259 Y77.846 E1.56856
G1 X101.620 Y77.486 E1.58531
G1 X102.038 Y77.193 E1.60207
G1 X102.500 Y76.978 E1.61882
G1 X102.992 Y76.846 E1.63557
G1 X103.541 Y76.805 E1.65367
G1 X104.008 Y76.846 E1.66906 F1564.500
G1 X104.500 Y76.978 E1.68581
G1 X104.962 Y77.193 E1.70256
G1 X105.380 Y77.486 E1.71932
G1 X105.741 Y77.846 E1.73607
G1 X106.033 Y78.264 E1.75283
G1 X106.249 Y78.726 E1.76958
G1 X106.381 Y79.218 E1.78633
G1 X106.418 Y79.652 E1.80062
G1 F1200.000 E0.60062
G92 E0
G1 X103.434 Y76.349 F9600.000
G1 X124.957 Y79.726 F9600.000
G1 E1.20000 F1200.000
G1 X125.011 Y79.111 E1.22030 F2100.000
G1 X125.170 Y78.515 E1.24058
G1 X125.432 Y77.955 E1.26088
G1 X125.786 Y77.449 E1.28118
G1 X126.222 Y77.012 E1.30147
G1 X126.729 Y76.658 E1.32177
G1 X127.288 Y76.397 E1.34206
G1 X127.885 Y76.237 E1.36235
G1 X128.500 Y76.183 E1.38265
G1 X128.595 Y76.191 E1.38578
G1 X129.115 Y76.237 E1.40294 F2100.000
G1 X129.712 Y76.397 E1.42323
G1 X130.272 Y76.658 E1.44353
G1 X130.778 Y77.012 E1.46382
G1 X131.214 Y77.449 E1.48412
G1 X131.569 Y77.955 E1.50442
G1 X131.829 Y78.514 E1.52470
G1 X131.989 Y79.111 E1.54500
G1 X132.043 Y79.726 E1.56530
G1 X131.989 Y80.342 E1.58559
G1 X131.830 Y80.938 E1.60588
G1 X131.568 Y81.498 E1.62618
G1 X131.214 Y82.004 E1.64647
G1 X130.778 Y82.440 E1.66677
G1 X130.271 Y82.795 E1.68707
G1 X129.712 Y83.056 E1.70735
G1 X129.115 Y83.216 E1.72765
G1 X128.500 Y83.269 E1.74795
G1 X127.885 Y83.216 E1.76824
G1 X127.288 Y83.056 E1.78853
G1 X126.728 Y82.795 E1.80883
G1 X126.650 Y82.740 E1.81196
G1 X126.222 Y82.440 E1.82912
G1 X125.786 Y82.004 E1.84942
G1 X125.431 Y81.498 E1.86972
G1 X125.171 Y80.938 E1.89000
G1 X125.011 Y80.341 E1.91030
G1 X124.963 Y79.801 E1.92813
G1 X125.575 Y79.726 F9600.000
G1 X125.619 Y79.218 E1.94489 F1564.500
G1 X125.751 Y78.726 E1.96164
G1 X125.967 Y78.264 E1.97839
G1 X126.259 Y77.846 E1.99514
G1 X126.620 Y77.486 E2.01190
G1 X127.038 Y77.193 E2.02865
G1 X127.500 Y76.978 E2.04540
G1 X128.033 Y76.842 E2.06350
G1 X128.500 Y76.801 E2.07889 F1564.500
G1 X129.008 Y76.846 E2.09565
G1 X129.500 Y76.978 E2.11240
G1 X129.962 Y77.193 E2.12915
G1 X130.380 Y77.486 E2.14591
G1 X130.741 Y77.846 E2.16266
G1 X131.033 Y78.264 E2.17941
G1 X131.249 Y78.726 E2.19617
G1 X131.381 Y79.218 E2.21292
G1 X131.425 Y79.726 E2.22967
G1 X131.381 Y80.234 E2.24643
G1 X131.231 Y80.764 E2.26452
G1 X131.033 Y81.189 E2.27991
G1 X130.741 Y81.606 E2.29667
G1 X130.380 Y81.967 E2.31342
G1 X129.962 Y82.259 E2.33018
G1 X129.500 Y82.475 E2.34693
G1 X129.008 Y82.607 E2.36368
G1 X128.500 Y82.651 E2.38044
G1 X127.992 Y82.607 E2.39719
G1 X127.500 Y82.475 E2.41394
G1 X127.003 Y82.236 E2.43204
G1 X126.620 Y81.967 E2.44743
G1 X126.259 Y81.606 E2.46418
G1 X125.967 Y81.189 E2.48094
G1 X125.751 Y80.727 E2.49769
G1 X125.619 Y80.234 E2.51444
G1 X125.582 Y79.801 E2.52873
G1 F1200.000 E1.32873
G92 E0
G1 X128.103 Y76.379 F9600.000
G1 X132.957 Y79.726 F9600.000
G1 E1.20000 F1200.000
G1 X133.011 Y79.111 E1.22030 F2100.000
G1 X133.170 Y78.514 E1.24058
G1 X133.432 Y77.955 E1.26088
G1 X133.786 Y77.449 E1.28118
G1 X134.222 Y77.012 E1.30147
G1 X134.729 Y76.658 E1.32177
G1 X135.288 Y76.397 E1.34206
G1 X135.885 Y76.237 E1.36235
G1 X136.500 Y76.183 E1.38265
G1 X136.595 Y76.191 E1.38578
G1 X137.115 Y76.237 E1.40295 F2100.000
G1 X137.712 Y76.397 E1.42323
G1 X138.272 Y76.658 E1.44353
G1 X138.778 Y77.012 E1.46383
G1 X139.214 Y77.449 E1.48412
G1 X139.569 Y77.955 E1.50442
G1 X139.829 Y78.514 E1.52470
G1 X139.989 Y79.111 E1.54500
G1 X139.998 Y79.206 E1.54814
G1 X140.043 Y79.726 E1.56530
G1 X139.989 Y80.342 E1.58559
G1 X139.830 Y80.938 E1.60588
G1 X139.568 Y81.498 E1.62618
G1 X139.214 Y82.004 E1.64647
G1 X138.778 Y82.440 E1.66677
G1 X138.271 Y82.795 E1.68707
G1 X137.712 Y83.056 E1.70735
G1 X137.115 Y83.216 E1.72765
G1 X136.500 Y83.269 E1.74795
G1 X135.885 Y83.216 E1.76824
G1 X135.288 Y83.056 E1.78853
G1 X134.728 Y82.795 E1.80883
G1 X134.650 Y82.740 E1.81196
G1 X134.222 Y82.440 E1.82912
G1 X133.786 Y82.004 E1.84942
G1 X133.431 Y81.498 E1.86972
G1 X133.171 Y80.938 E1.89000
G1 X133.011 Y80.342 E1.91030
G1 X132.963 Y79.801 E1.92813
G1 X133.575 Y79.726 F9600.000
G1 X133.619 Y79.218 E1.94489 F1564.500
