; generated by Slic3r 0.9.9 on 2013-10-03 at 10:44:07

; layer_height = .33
; perimeters = 2
; top_solid_layers = 3
; bottom_solid_layers = 3
; fill_density = 0.74
; perimeter_speed = 95
; infill_speed = 110
; travel_speed = 150
; nozzle_diameter = 0.5
; filament_diameter = 2.89
; extrusion_multiplier = 1
; perimeters extrusion width = 0.42mm
; infill extrusion width = 0.58mm
; solid infill extrusion width = 0.60mm
; top infill extrusion width = 0.45mm
; first layer extrusion width = 0.60mm

G21 ; set units to millimeters
M107
G28 ; home all axes
G90 ; use absolute coordinates
G92 E0
M82 ; use absolute distances for extrusion
G1 F1860.000 E-1.70000
G92 E0
G1 Z0.330 F9000.000
G1 X106.606 Y116.535
G1 F1860.000 E1.70000
G1 X107.816 Y115.575 F3990.000 E1.74495
G1 X108.826 Y114.915 E1.78007
G1 X109.966 Y114.305 E1.81770
G1 X110.676 Y113.995 E1.84025
G1 X111.916 Y113.595 E1.87817
G1 X113.076 Y113.325 E1.91283
G1 X114.096 Y113.175 E1.94284
G1 X115.136 Y113.095 E1.97320
G1 X182.856 Y113.095 E3.94416
G1 X183.896 Y113.175 E3.97452
G1 X184.916 Y113.325 E4.00452
G1 X186.076 Y113.595 E4.03919
G1 X187.316 Y113.995 E4.07711
G1 X188.026 Y114.305 E4.09966
G1 X189.166 Y114.915 E4.13729
G1 X190.176 Y115.575 E4.17240
G1 X191.386 Y116.535 E4.21736
G1 X191.926 Y117.075 E4.23958
G1 X192.616 Y117.845 E4.26968
G1 X193.356 Y118.835 E4.30565
G1 X193.906 Y119.715 E4.33585
G1 X194.466 Y120.815 E4.37178
G1 X194.856 Y121.775 E4.40194
G1 X195.216 Y122.945 E4.43756
G1 X195.526 Y124.445 E4.48214
G1 X195.586 Y124.945 E4.49680
G1 X195.646 Y126.515 E4.54253
G1 X195.646 Y153.505 E5.32806
G1 X195.626 Y154.485 E5.35659
G1 X195.496 Y155.655 E5.39085
G1 X195.316 Y156.615 E5.41928
G1 X195.026 Y157.695 E5.45182
G1 X194.706 Y158.595 E5.47962
G1 X194.246 Y159.625 E5.51246
G1 X193.766 Y160.505 E5.54163
G1 X193.096 Y161.515 E5.57691
G1 X192.486 Y162.285 E5.60550
G1 X191.676 Y163.155 E5.64009
G1 X190.946 Y163.815 E5.66874
G1 X190.036 Y164.515 E5.70215
G1 X189.216 Y165.045 E5.73057
G1 X188.166 Y165.605 E5.76520
G1 X187.286 Y165.985 E5.79310
G1 X186.166 Y166.365 E5.82752
G1 X185.196 Y166.605 E5.85660
G1 X184.056 Y166.785 E5.89020
G1 X183.076 Y166.865 E5.91881
G1 X182.496 Y166.895 E5.93572
G1 X115.496 Y166.895 E7.88572
G1 X113.936 Y166.785 E7.93124
G1 X112.836 Y166.615 E7.96363
G1 X111.886 Y166.385 E7.99208
G1 X110.716 Y165.995 E8.02798
G1 X109.816 Y165.605 E8.05653
G1 X108.776 Y165.045 E8.09090
G1 X107.956 Y164.515 E8.11932
G1 X107.046 Y163.815 E8.15273
G1 X106.316 Y163.155 E8.18138
G1 X105.506 Y162.285 E8.21597
G1 X104.896 Y161.515 E8.24456
G1 X104.256 Y160.565 E8.27790
G1 X103.776 Y159.705 E8.30657
G1 X103.286 Y158.635 E8.34082
G1 X102.956 Y157.715 E8.36927
G1 X102.646 Y156.545 E8.40449
G1 X102.476 Y155.585 E8.43287
G1 X102.366 Y154.485 E8.46504
G1 X102.346 Y153.505 E8.49357
G1 X102.346 Y126.515 E9.27910
G1 X102.406 Y124.945 E9.32483
G1 X102.506 Y124.195 E9.34685
G1 X102.776 Y122.945 E9.38407
G1 X103.136 Y121.775 E9.41970
G1 X103.526 Y120.815 E9.44986
G1 X104.086 Y119.715 E9.48578
G1 X104.636 Y118.835 E9.51599
G1 X105.376 Y117.845 E9.55196
G1 X106.066 Y117.075 E9.58205
G1 X106.543 Y116.595 E9.60175
G1 X106.986 Y116.965 F9000.000
G1 X108.166 Y116.025 F3990.000 E9.64566
G1 X109.096 Y115.425 E9.67787
G1 X110.216 Y114.825 E9.71485
G1 X110.656 Y114.625 E9.72892
G1 X112.096 Y114.145 E9.77310
G1 X113.156 Y113.895 E9.80480
G1 X114.176 Y113.745 E9.83480
G1 X115.136 Y113.675 E9.86282
G1 X182.856 Y113.675 E11.83378
G1 X183.816 Y113.745 E11.86180
G1 X184.836 Y113.895 E11.89180
G1 X185.896 Y114.145 E11.92350
G1 X187.116 Y114.545 E11.96087
G1 X187.776 Y114.825 E11.98173
G1 X188.896 Y115.425 E12.01871
G1 X189.826 Y116.025 E12.05092
G1 X191.006 Y116.965 E12.09483
G1 X191.496 Y117.465 E12.11521
G1 X192.186 Y118.235 E12.14530
G1 X192.866 Y119.135 E12.17813
G1 X193.416 Y120.015 E12.20833
G1 X193.926 Y121.025 E12.24126
G1 X194.316 Y121.985 E12.27142
G1 X194.656 Y123.065 E12.30438
G1 X194.876 Y124.075 E12.33446
G1 X194.956 Y124.535 E12.34805
G1 X195.006 Y124.995 E12.36152
G1 X195.066 Y126.515 E12.40579
G1 X195.066 Y153.485 E13.19074
G1 X195.046 Y154.465 E13.21927
G1 X194.936 Y155.545 E13.25086
G1 X194.756 Y156.505 E13.27929
G1 X194.486 Y157.495 E13.30916
G1 X194.166 Y158.395 E13.33696
G1 X193.746 Y159.345 E13.36719
G1 X193.266 Y160.225 E13.39636
G1 X192.646 Y161.165 E13.42914
G1 X192.036 Y161.935 E13.45773
G1 X191.286 Y162.725 E13.48943
G1 X190.556 Y163.385 E13.51807
G1 X189.716 Y164.025 E13.54881
G1 X188.896 Y164.555 E13.57723
G1 X187.936 Y165.075 E13.60900
G1 X187.056 Y165.455 E13.63690
G1 X186.026 Y165.805 E13.66856
G1 X185.056 Y166.045 E13.69764
G1 X184.016 Y166.215 E13.72831
G1 X183.036 Y166.295 E13.75693
G1 X182.496 Y166.315 E13.77266
G1 X115.496 Y166.315 E15.72267
G1 X114.956 Y166.295 E15.73839
G1 X113.976 Y166.215 E15.76701
G1 X112.966 Y166.045 E15.79682
G1 X112.016 Y165.815 E15.82527
G1 X110.946 Y165.465 E15.85804
G1 X110.046 Y165.075 E15.88658
G1 X109.096 Y164.555 E15.91810
G1 X108.276 Y164.025 E15.94652
G1 X107.436 Y163.385 E15.97726
G1 X106.706 Y162.725 E16.00590
G1 X105.956 Y161.935 E16.03760
G1 X105.346 Y161.165 E16.06619
G1 X104.766 Y160.285 E16.09687
G1 X104.286 Y159.425 E16.12553
G1 X103.836 Y158.435 E16.15718
G1 X103.506 Y157.515 E16.18563
G1 X103.216 Y156.445 E16.21789
G1 X103.046 Y155.485 E16.24627
G1 X102.946 Y154.465 E16.27610
G1 X102.926 Y153.485 E16.30463
G1 X102.926 Y126.515 E17.08958
G1 X103.006 Y124.765 E17.14056
G1 X103.116 Y124.075 E17.16090
G1 X103.336 Y123.065 E17.19099
G1 X103.676 Y121.985 E17.22394
G1 X104.066 Y121.025 E17.25410
G1 X104.576 Y120.015 E17.28703
G1 X105.126 Y119.135 E17.31723
G1 X105.806 Y118.235 E17.35006
G1 X106.496 Y117.465 E17.38015
G1 X106.923 Y117.025 E17.39800
G1 F1860.000 E15.69800
G92 E0
G1 X115.001 Y150.917 F9000.000
G1 F1860.000 E1.70000
M204 S800
G1 X115.500 Y150.874 F1470.000 E1.71457
G1 X115.999 Y150.917 E1.72913
G1 X116.090 Y150.942 E1.73190
G1 X116.482 Y151.047 E1.74370
G1 X116.936 Y151.258 E1.75826
G1 X117.346 Y151.545 E1.77283
G1 X117.699 Y151.899 E1.78740
G1 X117.986 Y152.309 E1.80196
G1 X118.198 Y152.763 E1.81653
G1 X118.328 Y153.246 E1.83110
G1 X118.371 Y153.745 E1.84566
G1 X118.328 Y154.243 E1.86023
G1 X118.198 Y154.727 E1.87479
G1 X117.986 Y155.180 E1.88936
G1 X117.699 Y155.590 E1.90392
G1 X117.346 Y155.944 E1.91849
G1 X116.936 Y156.231 E1.93306
G1 X116.482 Y156.443 E1.94762
G1 X115.999 Y156.572 E1.96219
G1 X115.500 Y156.616 E1.97675
G1 X115.001 Y156.572 E1.99132
G1 X114.518 Y156.443 E2.00589
G1 X114.064 Y156.231 E2.02045
G1 X113.987 Y156.177 E2.02322
G1 X113.654 Y155.944 E2.03502
G1 X113.301 Y155.590 E2.04958
G1 X113.014 Y155.180 E2.06415
G1 X112.802 Y154.727 E2.07872
G1 X112.672 Y154.243 E2.09328
G1 X112.629 Y153.745 E2.10785
G1 X112.672 Y153.246 E2.12241
G1 X112.802 Y152.763 E2.13698
G1 X113.014 Y152.309 E2.15155
G1 X113.301 Y151.899 E2.16611
G1 X113.654 Y151.545 E2.18068
G1 X114.064 Y151.258 E2.19524
G1 X114.518 Y151.047 E2.20981
G1 X114.918 Y150.940 E2.22185
M204 S800
G1 X115.102 Y151.489 F9000.000
M204 S800
G1 X115.500 Y151.454 F1470.000 E2.23347
G1 X115.941 Y151.501 E2.24636
G1 X116.283 Y151.592 E2.25669
G1 X116.645 Y151.761 E2.26831
G1 X116.972 Y151.990 E2.27993
G1 X117.255 Y152.272 E2.29155
G1 X117.484 Y152.600 E2.30317
G1 X117.652 Y152.961 E2.31479
G1 X117.756 Y153.347 E2.32641
G1 X117.790 Y153.745 E2.33803
G1 X117.756 Y154.142 E2.34965
G1 X117.652 Y154.528 E2.36127
G1 X117.458 Y154.926 E2.37416
G1 X117.255 Y155.217 E2.38449
G1 X116.972 Y155.499 E2.39611
G1 X116.645 Y155.728 E2.40773
G1 X116.283 Y155.897 E2.41935
G1 X115.898 Y156.000 E2.43097
G1 X115.500 Y156.035 E2.44259
G1 X115.059 Y155.989 E2.45548
G1 X114.717 Y155.897 E2.46581
G1 X114.355 Y155.728 E2.47743
G1 X114.028 Y155.499 E2.48905
G1 X113.745 Y155.217 E2.50067
G1 X113.516 Y154.890 E2.51229
G1 X113.348 Y154.528 E2.52391
G1 X113.244 Y154.142 E2.53553
G1 X113.210 Y153.745 E2.54715
G1 X113.244 Y153.347 E2.55877
G1 X113.348 Y152.961 E2.57039
G1 X113.516 Y152.600 E2.58201
G1 X113.745 Y152.272 E2.59363
G1 X114.028 Y151.990 E2.60525
G1 X114.355 Y151.761 E2.61687
G1 X114.717 Y151.592 E2.62849
G1 X115.018 Y151.512 E2.63758
M204 S800
G1 X115.250 Y151.118 F9000.000
G1 F1860.000 E0.93758
G92 E0
G1 X115.476 Y151.204 F9000.000
G1 X115.589 Y128.754
G1 X115.500 Y129.116
G1 F1860.000 E1.70000
M204 S800
G1 X115.001 Y129.072 F1470.000 E1.71457
G1 X114.518 Y128.943 E1.72913
G1 X114.064 Y128.731 E1.74370
G1 X113.654 Y128.444 E1.75827
G1 X113.301 Y128.090 E1.77283
G1 X113.013 Y127.680 E1.78740
G1 X112.802 Y127.227 E1.80196
G1 X112.672 Y126.743 E1.81653
G1 X112.629 Y126.245 E1.83110
G1 X112.672 Y125.746 E1.84566
G1 X112.802 Y125.263 E1.86023
G1 X113.014 Y124.809 E1.87479
G1 X113.301 Y124.399 E1.88936
G1 X113.368 Y124.332 E1.89212
G1 X113.654 Y124.045 E1.90392
G1 X114.064 Y123.758 E1.91849
G1 X114.518 Y123.547 E1.93306
G1 X115.001 Y123.417 E1.94762
G1 X115.500 Y123.374 E1.96219
G1 X115.999 Y123.417 E1.97675
G1 X116.482 Y123.547 E1.99132
G1 X116.936 Y123.758 E2.00589
G1 X117.346 Y124.045 E2.02045
G1 X117.699 Y124.399 E2.03502
G1 X117.986 Y124.809 E2.04958
G1 X118.198 Y125.263 E2.06415
G1 X118.327 Y125.746 E2.07872
G1 X118.371 Y126.245 E2.09328
G1 X118.328 Y126.743 E2.10785
G1 X118.198 Y127.227 E2.12241
G1 X117.986 Y127.680 E2.13698
G1 X117.699 Y128.090 E2.15154
G1 X117.346 Y128.444 E2.16611
G1 X116.936 Y128.731 E2.18068
G1 X116.482 Y128.943 E2.19524
G1 X115.999 Y129.072 E2.20981
G1 X115.586 Y129.108 E2.22185
M204 S800
G1 X115.500 Y128.535 F9000.000
M204 S800
G1 X115.102 Y128.500 F1470.000 E2.23347
G1 X114.717 Y128.397 E2.24509
G1 X114.355 Y128.228 E2.25671
G1 X114.028 Y127.999 E2.26833
G1 X113.745 Y127.717 E2.27995
G1 X113.516 Y127.390 E2.29157
G1 X113.348 Y127.028 E2.30319
G1 X113.244 Y126.642 E2.31481
G1 X113.210 Y126.245 E2.32643
G1 X113.244 Y125.847 E2.33805
G1 X113.348 Y125.461 E2.34967
G1 X113.516 Y125.100 E2.36129
G1 X113.777 Y124.741 E2.37418
G1 X114.028 Y124.490 E2.38451
G1 X114.355 Y124.261 E2.39613
G1 X114.717 Y124.092 E2.40775
G1 X115.102 Y123.989 E2.41937
G1 X115.500 Y123.954 E2.43099
G1 X115.898 Y123.989 E2.44261
G1 X116.283 Y124.092 E2.45423
G1 X116.645 Y124.261 E2.46585
G1 X116.972 Y124.490 E2.47747
G1 X117.255 Y124.772 E2.48909
G1 X117.502 Y125.140 E2.50198
G1 X117.652 Y125.461 E2.51231
G1 X117.756 Y125.847 E2.52393
G1 X117.790 Y126.245 E2.53555
G1 X117.756 Y126.642 E2.54717
G1 X117.652 Y127.028 E2.55879
G1 X117.484 Y127.390 E2.57040
G1 X117.255 Y127.717 E2.58202
G1 X116.972 Y127.999 E2.59364
G1 X116.645 Y128.228 E2.60526
G1 X116.283 Y128.397 E2.61688
G1 X115.898 Y128.500 E2.62850
G1 X115.586 Y128.528 E2.63760
M204 S800
G1 X115.290 Y128.875 F9000.000
G1 F1860.000 E0.93760
G92 E0
G1 X115.349 Y128.733 F9000.000
G1 X115.589 Y128.754
G1 X179.967 Y126.243
G1 X179.629 Y126.245
G1 F1860.000 E1.70000
M204 S800
G1 X179.673 Y125.746 F1470.000 E1.71457
G1 X179.802 Y125.263 E1.72913
G1 X180.014 Y124.809 E1.74370
G1 X180.301 Y124.399 E1.75826
G1 X180.368 Y124.332 E1.76103
G1 X180.654 Y124.045 E1.77283
G1 X181.064 Y123.758 E1.78739
G1 X181.518 Y123.547 E1.80196
G1 X182.001 Y123.417 E1.81653
G1 X182.500 Y123.374 E1.83109
G1 X182.999 Y123.417 E1.84566
G1 X183.482 Y123.547 E1.86022
G1 X183.936 Y123.758 E1.87479
G1 X184.346 Y124.045 E1.88936
G1 X184.413 Y124.113 E1.89212
G1 X184.699 Y124.399 E1.90392
G1 X184.986 Y124.809 E1.91849
G1 X185.198 Y125.263 E1.93306
G1 X185.328 Y125.746 E1.94762
G1 X185.371 Y126.245 E1.96219
G1 X185.328 Y126.743 E1.97675
G1 X185.198 Y127.227 E1.99132
G1 X184.986 Y127.680 E2.00589
G1 X184.699 Y128.090 E2.02045
G1 X184.345 Y128.444 E2.03502
G1 X183.936 Y128.731 E2.04958
G1 X183.849 Y128.771 E2.05235
G1 X183.482 Y128.943 E2.06415
G1 X182.999 Y129.072 E2.07872
G1 X182.500 Y129.116 E2.09328
G1 X182.001 Y129.072 E2.10785
G1 X181.518 Y128.943 E2.12241
G1 X181.064 Y128.731 E2.13698
G1 X180.654 Y128.444 E2.15154
G1 X180.301 Y128.090 E2.16611
G1 X180.014 Y127.680 E2.18068
G1 X179.802 Y127.227 E2.19524
G1 X179.673 Y126.743 E2.20981
G1 X179.636 Y126.331 E2.22185
M204 S800
G1 X180.210 Y126.245 F9000.000
M204 S800
G1 X180.244 Y125.847 F1470.000 E2.23347
G1 X180.348 Y125.461 E2.24509
G1 X180.516 Y125.100 E2.25671
G1 X180.777 Y124.741 E2.26960
G1 X181.028 Y124.490 E2.27993
G1 X181.355 Y124.261 E2.29155
G1 X181.717 Y124.092 E2.30317
G1 X182.102 Y123.989 E2.31479
G1 X182.500 Y123.954 E2.32641
G1 X182.898 Y123.989 E2.33803
G1 X183.283 Y124.092 E2.34965
G1 X183.645 Y124.261 E2.36127
G1 X184.004 Y124.522 E2.37416
G1 X184.255 Y124.772 E2.38449
G1 X184.484 Y125.100 E2.39611
G1 X184.652 Y125.461 E2.40773
G1 X184.756 Y125.847 E2.41935
G1 X184.790 Y126.245 E2.43097
G1 X184.756 Y126.642 E2.44259
G1 X184.652 Y127.028 E2.45421
G1 X184.484 Y127.390 E2.46583
G1 X184.255 Y127.717 E2.47745
G1 X183.972 Y127.999 E2.48907
G1 X183.605 Y128.247 E2.50196
G1 X183.283 Y128.397 E2.51229
G1 X182.898 Y128.500 E2.52391
G1 X182.500 Y128.535 E2.53553
G1 X182.102 Y128.500 E2.54715
G1 X181.717 Y128.397 E2.55877
G1 X181.355 Y128.228 E2.57039
G1 X181.028 Y127.999 E2.58201
G1 X180.745 Y127.717 E2.59363
G1 X180.516 Y127.390 E2.60525
G1 X180.348 Y127.028 E2.61687
G1 X180.244 Y126.642 E2.62848
G1 X180.217 Y126.331 E2.63758
M204 S800
G1 X179.870 Y126.035 F9000.000
G1 F1860.000 E0.93758
G92 E0
G1 X179.967 Y126.243 F9000.000
G1 X182.479 Y151.204
G1 X182.096 Y150.909
G1 F1860.000 E1.70000
M204 S800
G1 X182.500 Y150.874 F1470.000 E1.71180
G1 X182.998 Y150.917 E1.72636
G1 X183.482 Y151.047 E1.74093
G1 X183.936 Y151.258 E1.75550
G1 X184.346 Y151.545 E1.77006
G1 X184.699 Y151.899 E1.78463
G1 X184.986 Y152.309 E1.79920
G1 X185.198 Y152.763 E1.81376
G1 X185.328 Y153.246 E1.82833
G1 X185.371 Y153.745 E1.84289
G1 X185.328 Y154.243 E1.85746
G1 X185.198 Y154.727 E1.87203
G1 X184.986 Y155.180 E1.88659
G1 X184.699 Y155.590 E1.90116
G1 X184.345 Y155.944 E1.91573
G1 X183.936 Y156.231 E1.93029
G1 X183.482 Y156.443 E1.94486
G1 X182.999 Y156.572 E1.95942
G1 X182.500 Y156.616 E1.97399
G1 X182.002 Y156.572 E1.98855
G1 X181.518 Y156.443 E2.00312
G1 X181.065 Y156.231 E2.01768
G1 X180.987 Y156.177 E2.02045
G1 X180.654 Y155.944 E2.03225
G1 X180.301 Y155.590 E2.04682
G1 X180.014 Y155.180 E2.06138
G1 X179.802 Y154.727 E2.07595
G1 X179.672 Y154.243 E2.09051
G1 X179.629 Y153.745 E2.10508
G1 X179.673 Y153.246 E2.11965
G1 X179.802 Y152.763 E2.13421
G1 X180.014 Y152.309 E2.14878
G1 X180.301 Y151.899 E2.16334
G1 X180.654 Y151.545 E2.17791
G1 X181.064 Y151.258 E2.19248
G1 X181.518 Y151.047 E2.20704
G1 X182.010 Y150.916 E2.22185
M204 S800
G1 X182.102 Y151.489 F9000.000
M204 S800
G1 X182.500 Y151.454 F1470.000 E2.23347
G1 X182.898 Y151.489 E2.24508
G1 X183.283 Y151.592 E2.25670
G1 X183.645 Y151.761 E2.26833
G1 X183.972 Y151.990 E2.27994
G1 X184.280 Y152.309 E2.29284
G1 X184.484 Y152.600 E2.30317
G1 X184.652 Y152.961 E2.31479
G1 X184.756 Y153.347 E2.32641
G1 X184.790 Y153.745 E2.33803
G1 X184.744 Y154.185 E2.35092
G1 X184.652 Y154.528 E2.36125
G1 X184.484 Y154.890 E2.37287
G1 X184.255 Y155.217 E2.38449
G1 X183.972 Y155.499 E2.39611
G1 X183.645 Y155.728 E2.40772
G1 X183.283 Y155.897 E2.41935
G1 X182.898 Y156.000 E2.43097
G1 X182.500 Y156.035 E2.44258
G1 X182.102 Y156.000 E2.45420
G1 X181.717 Y155.897 E2.46582
G1 X181.318 Y155.703 E2.47872
G1 X181.028 Y155.499 E2.48905
G1 X180.745 Y155.217 E2.50066
G1 X180.516 Y154.890 E2.51228
G1 X180.348 Y154.528 E2.52391
G1 X180.244 Y154.142 E2.53552
G1 X180.210 Y153.745 E2.54714
G1 X180.244 Y153.347 E2.55876
G1 X180.348 Y152.961 E2.57038
G1 X180.516 Y152.600 E2.58200
G1 X180.745 Y152.272 E2.59362
G1 X181.028 Y151.990 E2.60524
G1 X181.355 Y151.761 E2.61686
G1 X181.717 Y151.592 E2.62848
G1 X182.018 Y151.512 E2.63758
M204 S800
G1 X182.250 Y151.118 F9000.000
G1 F1860.000 E0.93758
G92 E0
G1 X182.479 Y151.204 F9000.000
G1 X185.852 Y145.929
G1 X186.226 Y148.938
G1 F1860.000 E1.70000
M204 S800
G1 X187.223 Y151.731 F3990.000 E1.78634
G1 X187.496 Y152.584 E1.81238
G1 X187.619 Y153.413 E1.83677
G1 X187.604 Y154.250 E1.86116
G1 X187.454 Y155.075 E1.88555
G1 X187.171 Y155.864 E1.90994
G1 X186.764 Y156.596 E1.93433
G1 X186.242 Y157.252 E1.95872
G1 X185.621 Y157.815 E1.98311
G1 X184.917 Y158.269 E2.00750
G1 X184.148 Y158.602 E2.03189
G1 X183.335 Y158.806 E2.05628
G1 X182.465 Y158.877 E2.08170
