;Generated by Cura LulzBot Edition GCodeWriter Version: 3.6.23
;FLAVOR:Marlin
;TIME:12679
;Filament used: 6.60419m
;Layer height: 0.25
;Generated with Cura_SteamEngine 3.6.23
M82 ;absolute extrusion mode
;This G-Code has been generated specifically for the LulzBot Mini 2 with SE 0.5mm Tool Head
M73 P0                  ; clear GLCD progress bar
M75 					; Start GLCD Print Timer
G26 					; clear potential 'probe fail' condition
M107 					; disable fans
M420 S0                 ; disable leveling matrix
G90 					; absolute positioning
M82 					; set extruder to absolute mode
G92 E0 					; set extruder position to 0
M140 S60.0 ; start bed heating up
G28 					; home all axes
G0 X0 Y187 Z156 F200 			; move away from endstops
M117 Mini 2 Wiping...			; progress indicator message on LCD
M109 R140 	; soften filament before retraction
G1 E-15 F75 				; retract filament
M109 R140 	; wait for extruder to reach wiping temp
G1 X45 Y176 F11520 			; move above wiper pad
G1 Z0 F1200 				; push nozzle into wiper
G1 X45 Y178 Z-.5 F4000		; wiping
G1 X55 Y176 Z-.5 F4000		; wiping
G1 X45 Y177 Z0 F4000		; wiping
G1 X55 Y176 F4000		; wiping
G1 X45 Y178 F4000		; wiping
G1 X55 Y176 F4000		; wiping
G1 X45 Y178 F4000		; wiping
G1 X55 Y176 F4000		; wiping
G1 X60 Y178 F4000		; wiping
G1 X80 Y176 F4000		; wiping
G1 X60 Y178 F4000		; wiping
G1 X80 Y176 F4000		; wiping
G1 X60 Y178 F4000		; wiping
G1 X90 Y176 F4000		; wiping
G1 X80 Y178 F4000		; wiping
G1 X100 Y176 F4000		; wiping
G1 X80 Y178 F4000		; wiping
G1 X100 Y176 F4000		; wiping
G1 X80 Y178 F4000		; wiping
G1 X100 Y176 F4000		; wiping
G1 X110 Y178 F4000		; wiping
G1 X100 Y176 F4000		; wiping
G1 X110 Y178 F4000		; wiping
G1 X100 Y176 F4000		; wiping
G1 X110 Y178 F4000		; wiping
G1 X115 Y176 Z-0.5 F1000	; wiping
G1 Z10					; raise extruder
G28 X0 Y0				; home X and Y
M109 R140	; wait for extruder to reach probe temp
M204 S300				; set probing acceleration
G29					; start auto-leveling sequence
M420 S1                     ; enable leveling matrix
M425 Z			     		; use measured Z backlash for compensation
M425 Z F0		     		; turn off measured Z backlash compensation. (if activated in the quality settings, this command will automatically be ignored)
M204 S2000				; restore standard acceleration
G1 X5 Y15 Z10 F5000			; move up off last probe point
G4 S1					; pause
M400					; wait for moves to finish
M117 Heating...				; progress indicator message on LCD
M109 R200 ; wait for extruder to reach initial printing temp
M190 R60.0 ; wait for bed to reach printing temp
G1 Z2 E0 F75				; prime tiny bit of filment into the nozzle
M117 Mini 2 Printing...		; progress indicator message on LCD

M221 S100 T0
G92 E0
G1 F600 E-1.5
;LAYER_COUNT:134
;LAYER:0
M107
G0 F2625 X37.825 Y40.255 Z0.425
;TYPE:SKIRT
G1 F600 E0
G1 F900 X41.048 Y37.269 E0.14635
G1 X41.184 Y37.15 E0.15237
G1 X43.113 Y35.553 E0.23579
G1 X43.281 Y35.423 E0.24287
G1 X46.793 Y32.883 E0.38724
G1 X46.942 Y32.781 E0.39326
G1 X49.069 Y31.415 E0.47746
G1 X49.249 Y31.308 E0.48444
G1 X53.009 Y29.223 E0.62765
G1 X53.171 Y29.139 E0.63373
G1 X55.48 Y28.023 E0.71916
G1 X55.645 Y27.949 E0.72518
G1 X58.833 Y26.622 E0.84021
G1 X59.046 Y26.542 E0.84778
G1 X63.162 Y25.157 E0.99244
G1 X63.336 Y25.103 E0.99851
G1 X65.784 Y24.43 E1.08308
G1 X65.957 Y24.388 E1.08901
G1 X69.316 Y23.659 E1.20351
G1 X69.511 Y23.623 E1.21011
G1 X72.902 Y23.102 E1.32439
G1 X73.128 Y23.075 E1.33197
G1 X77.447 Y22.717 E1.47633
G1 X77.628 Y22.707 E1.48237
G1 X80.174 Y22.639 E1.56721
G1 X80.386 Y22.64 E1.57427
G1 X84.74 Y22.807 E1.71941
G1 X84.92 Y22.819 E1.72542
G1 X87.424 Y23.055 E1.8092
G1 X87.634 Y23.082 E1.81625
G1 X91.941 Y23.773 E1.96156
G1 X92.152 Y23.814 E1.96872
G1 X95.462 Y24.573 E2.08184
G1 X95.618 Y24.613 E2.0872
G1 X98.071 Y25.305 E2.1721
G1 X98.273 Y25.369 E2.17916
G1 X102.353 Y26.812 E2.32331
G1 X102.524 Y26.878 E2.32942
G1 X104.885 Y27.866 E2.41467
G1 X105.048 Y27.939 E2.42062
G1 X108.126 Y29.431 E2.53456
G1 X108.327 Y29.538 E2.54215
G1 X112.111 Y31.712 E2.68752
G1 X112.265 Y31.806 E2.69353
G1 X114.383 Y33.185 E2.77771
G1 X114.559 Y33.308 E2.78487
G1 X118.071 Y35.939 E2.93104
G1 X118.239 Y36.074 E2.93822
G1 X120.812 Y38.283 E3.05118
G1 X120.93 Y38.39 E3.05648
G1 X122.759 Y40.123 E3.14041
G1 X122.908 Y40.273 E3.14746
G1 X125.863 Y43.461 E3.29225
G1 X125.982 Y43.597 E3.29827
G1 X127.586 Y45.534 E3.38204
G1 X127.716 Y45.701 E3.38909
G1 X130.268 Y49.226 E3.53405
G1 X130.37 Y49.376 E3.5401
G1 X131.739 Y51.508 E3.6245
G1 X131.847 Y51.69 E3.63154
G1 X133.954 Y55.496 E3.77645
G1 X134.038 Y55.657 E3.7825
G1 X135.143 Y57.945 E3.86714
G1 X135.216 Y58.109 E3.87312
G1 X136.535 Y61.278 E3.98746
G1 X136.615 Y61.49 E3.99501
G1 X137.985 Y65.561 E4.13809
G1 X138.038 Y65.735 E4.14415
G1 X138.718 Y68.203 E4.22942
G1 X138.761 Y68.378 E4.23542
G1 X139.498 Y71.781 E4.3514
G1 X139.534 Y71.974 E4.35794
G1 X140.05 Y75.324 E4.47085
G1 X140.077 Y75.55 E4.47843
G1 X140.437 Y79.885 E4.62333
G1 X140.447 Y80.067 E4.6294
G1 X140.515 Y82.612 E4.71421
G1 X140.514 Y82.824 E4.72127
G1 X140.347 Y87.179 E4.86644
G1 X140.335 Y87.359 E4.87245
G1 X140.1 Y89.854 E4.95593
G1 X140.073 Y90.063 E4.96295
G1 X139.387 Y94.348 E5.1075
G1 X139.346 Y94.559 E5.11466
G1 X138.582 Y97.898 E5.22876
G1 X138.541 Y98.058 E5.23426
G1 X137.84 Y100.536 E5.32004
G1 X137.777 Y100.735 E5.32699
G1 X136.345 Y104.783 E5.47002
G1 X136.28 Y104.953 E5.47609
G1 X135.298 Y107.302 E5.56089
G1 X135.223 Y107.466 E5.5669
G1 X133.708 Y110.59 E5.68255
G1 X133.602 Y110.791 E5.69012
G1 X131.442 Y114.55 E5.83454
G1 X131.347 Y114.706 E5.84062
G1 X129.963 Y116.829 E5.92504
G1 X129.842 Y117.001 E5.93204
G1 X127.25 Y120.466 E6.07618
G1 X127.136 Y120.61 E6.0823
G1 X125.506 Y122.55 E6.16671
G1 X125.39 Y122.681 E6.17254
G1 X123.046 Y125.183 E6.28674
G1 X122.883 Y125.345 E6.29439
G1 X119.693 Y128.3 E6.43924
G1 X119.557 Y128.419 E6.44526
G1 X117.57 Y130.064 E6.53118
G1 X117.402 Y130.194 E6.53826
G1 X113.933 Y132.703 E6.68087
G1 X113.782 Y132.806 E6.68696
G1 X111.63 Y134.186 E6.77212
G1 X111.452 Y134.293 E6.77903
G1 X107.705 Y136.37 E6.92174
G1 X107.543 Y136.453 E6.9278
G1 X105.234 Y137.569 E7.01323
G1 X105.069 Y137.643 E7.01925
G1 X101.881 Y138.97 E7.13428
G1 X101.668 Y139.05 E7.14186
G1 X97.552 Y140.435 E7.28652
G1 X97.378 Y140.489 E7.29259
G1 X94.93 Y141.162 E7.37716
G1 X94.757 Y141.204 E7.38309
G1 X91.398 Y141.933 E7.49758
G1 X91.203 Y141.969 E7.50419
G1 X87.812 Y142.49 E7.61847
G1 X87.586 Y142.517 E7.62605
G1 X83.267 Y142.875 E7.77041
G1 X83.086 Y142.885 E7.77645
G1 X80.54 Y142.953 E7.86129
G1 X80.328 Y142.952 E7.86835
G1 X75.974 Y142.785 E8.01349
G1 X75.794 Y142.773 E8.0195
G1 X73.29 Y142.537 E8.10328
G1 X73.08 Y142.51 E8.11033
G1 X68.773 Y141.819 E8.25563
G1 X68.562 Y141.778 E8.26279
G1 X65.252 Y141.019 E8.37591
G1 X65.096 Y140.979 E8.38127
G1 X62.643 Y140.287 E8.46617
G1 X62.441 Y140.223 E8.47323
G1 X58.361 Y138.78 E8.61739
G1 X58.19 Y138.714 E8.62349
G1 X55.829 Y137.726 E8.70875
G1 X55.666 Y137.653 E8.7147
G1 X52.588 Y136.161 E8.82864
G1 X52.388 Y136.055 E8.83618
G1 X48.633 Y133.9 E8.98039
G1 X48.477 Y133.804 E8.98649
G1 X46.317 Y132.397 E9.07236
G1 X46.144 Y132.276 E9.07939
G1 X42.683 Y129.686 E9.22339
G1 X42.514 Y129.551 E9.23059
G1 X39.916 Y127.322 E9.34462
G1 X39.797 Y127.214 E9.34997
G1 X37.966 Y125.479 E9.434
G1 X37.818 Y125.33 E9.44099
G1 X34.853 Y122.132 E9.58626
G1 X34.733 Y121.995 E9.59233
G1 X33.128 Y120.057 E9.67615
G1 X32.998 Y119.89 E9.6832
G1 X30.447 Y116.366 E9.82811
G1 X30.345 Y116.216 E9.83415
G1 X28.976 Y114.084 E9.91855
G1 X28.868 Y113.902 E9.9256
G1 X26.761 Y110.096 E10.07051
G1 X26.677 Y109.935 E10.07656
G1 X25.572 Y107.646 E10.16123
G1 X25.499 Y107.483 E10.16717
G1 X24.185 Y104.33 E10.28096
G1 X24.115 Y104.145 E10.28755
G1 X22.989 Y100.9 E10.40196
G1 X22.922 Y100.684 E10.40949
G1 X21.789 Y96.5 E10.55388
G1 X21.739 Y96.289 E10.56111
G1 X21.062 Y92.905 E10.67606
G1 X21.034 Y92.746 E10.68144
G1 X20.66 Y90.236 E10.76597
G1 X20.636 Y90.025 E10.77305
G1 X20.278 Y85.706 E10.91741
G1 X20.268 Y85.525 E10.92345
G1 X20.2 Y82.98 E11.00825
G1 X20.201 Y82.768 E11.01531
G1 X20.368 Y78.413 E11.16049
G1 X20.38 Y78.233 E11.1665
G1 X20.616 Y75.729 E11.25027
G1 X20.643 Y75.519 E11.25733
G1 X21.334 Y71.212 E11.40263
G1 X21.375 Y71.001 E11.40979
G1 X22.134 Y67.691 E11.52291
G1 X22.174 Y67.535 E11.52827
G1 X22.866 Y65.082 E11.61317
G1 X22.93 Y64.881 E11.6202
G1 X24.366 Y60.818 E11.76374
G1 X24.432 Y60.647 E11.76985
G1 X25.418 Y58.29 E11.85495
G1 X25.492 Y58.126 E11.86095
G1 X27.007 Y55.002 E11.9766
G1 X27.113 Y54.801 E11.98417
G1 X29.273 Y51.042 E12.12858
G1 X29.368 Y50.886 E12.13467
G1 X30.752 Y48.763 E12.21909
G1 X30.873 Y48.591 E12.22609
G1 X33.465 Y45.126 E12.37023
G1 X33.6 Y44.957 E12.37744
G1 X35.848 Y42.337 E12.49243
G1 X35.956 Y42.218 E12.49778
G1 X37.675 Y40.404 E12.58103
G1 X37.825 Y40.255 E12.58807
G1 F600 E11.08807
;MESH:
G0 F2625 X42.138 Y39.724
G0 X43.12 Y40.768
G0 X83.747 Y26.829
G0 X83.753 Y26.73
;TYPE:WALL-INNER
G1 F600 E12.58807
G1 F900 X87.136 Y27.037 E12.70123
G1 X90.481 Y27.546 E12.81393
G1 X93.79 Y28.256 E12.92666
G1 X97.072 Y29.171 E13.04016
G1 X100.273 Y30.276 E13.15296
G1 X103.404 Y31.572 E13.26583
G1 X106.451 Y33.056 E13.37873
G1 X109.43 Y34.736 E13.49265
G1 X112.269 Y36.572 E13.60527
G1 X114.995 Y38.576 E13.71797
G1 X117.607 Y40.754 E13.83126
G1 X120.075 Y43.078 E13.94418
G1 X122.4 Y45.546 E14.05713
G1 X124.577 Y48.158 E14.17039
G1 X126.577 Y50.877 E14.28282
G1 X128.421 Y53.728 E14.39593
G1 X130.098 Y56.702 E14.50965
G1 X131.582 Y59.75 E14.62258
G1 X132.878 Y62.88 E14.73542
G1 X133.981 Y66.078 E14.84811
G1 X134.898 Y69.363 E14.96172
G1 X135.609 Y72.679 E15.07468
G1 X136.117 Y76.012 E15.18699
G1 X136.424 Y79.394 E15.30011
G1 X136.528 Y82.788 E15.41322
G1 X136.424 Y86.192 E15.52666
G1 X136.117 Y89.575 E15.63981
G1 X135.609 Y92.913 E15.75228
G1 X134.898 Y96.229 E15.86525
G1 X133.982 Y99.511 E15.97875
G1 X132.878 Y102.712 E16.09154
G1 X131.584 Y105.837 E16.20421
G1 X130.098 Y108.89 E16.31731
G1 X128.424 Y111.859 E16.43085
G1 X126.577 Y114.715 E16.54414
G1 X124.577 Y117.434 E16.65658
G1 X122.403 Y120.043 E16.7697
G1 X120.075 Y122.514 E16.88278
G1 X117.607 Y124.838 E16.99571
G1 X114.997 Y127.015 E17.10892
G1 X112.269 Y129.021 E17.22171
G1 X109.43 Y130.856 E17.33432
G1 X106.453 Y132.535 E17.44817
G1 X103.404 Y134.02 E17.56113
G1 X100.275 Y135.315 E17.67394
G1 X97.072 Y136.421 E17.78681
G1 X93.79 Y137.336 E17.9003
G1 X90.481 Y138.046 E18.01304
G1 X87.136 Y138.555 E18.12574
G1 X83.753 Y138.862 E18.2389
G1 X80.357 Y138.966 E18.35207
G1 X76.961 Y138.862 E18.46525
G1 X73.578 Y138.555 E18.5784
G1 X70.233 Y138.046 E18.6911
G1 X66.924 Y137.336 E18.80384
G1 X63.642 Y136.421 E18.91733
G1 X60.439 Y135.315 E19.0302
G1 X57.31 Y134.02 E19.14301
G1 X54.261 Y132.535 E19.25598
G1 X51.284 Y130.856 E19.36982
G1 X48.446 Y129.021 E19.4824
G1 X45.717 Y127.015 E19.59522
G1 X43.107 Y124.838 E19.70843
G1 X40.64 Y122.514 E19.82133
G1 X38.312 Y120.043 E19.93442
G1 X36.138 Y117.434 E20.04754
G1 X34.138 Y114.715 E20.15997
G1 X32.291 Y111.859 E20.27327
G1 X30.617 Y108.89 E20.3868
G1 X29.131 Y105.837 E20.49991
G1 X27.837 Y102.712 E20.61257
G1 X26.732 Y99.511 E20.72537
G1 X25.817 Y96.229 E20.83887
G1 X25.105 Y92.913 E20.95184
G1 X24.598 Y89.575 E21.06431
G1 X24.291 Y86.192 E21.17746
G1 X24.187 Y82.803 E21.2904
G1 X24.291 Y79.394 E21.40401
G1 X24.598 Y76.012 E21.51713
G1 X25.105 Y72.679 E21.62943
G1 X25.817 Y69.363 E21.7424
G1 X26.733 Y66.078 E21.856
G1 X27.837 Y62.88 E21.9687
G1 X29.133 Y59.75 E22.08154
G1 X30.617 Y56.702 E22.19447
G1 X32.294 Y53.728 E22.3082
G1 X34.138 Y50.877 E22.4213
G1 X36.138 Y48.158 E22.53373
G1 X38.315 Y45.546 E22.647
G1 X40.64 Y43.078 E22.75994
G1 X43.107 Y40.754 E22.87284
G1 X45.719 Y38.576 E22.98612
G1 X48.438 Y36.577 E23.09854
G1 X51.294 Y34.73 E23.21183
G1 X54.263 Y33.056 E23.32537
G1 X57.31 Y31.572 E23.43826
G1 X60.441 Y30.276 E23.55114
G1 X63.642 Y29.171 E23.66394
G1 X66.924 Y28.256 E23.77743
G1 X70.233 Y27.546 E23.89017
G1 X73.578 Y27.037 E24.00287
G1 X76.961 Y26.73 E24.11603
G1 X80.357 Y26.626 E24.2292
G1 X83.753 Y26.73 E24.34238
G0 F2625 X83.747 Y26.829
G0 X56.648 Y42.768
G0 X54.028 Y44.442
G0 X51.525 Y46.284
G0 X49.15 Y48.293
G0 X46.915 Y50.454
G0 X44.83 Y52.76
G0 X42.903 Y55.2
G0 X41.143 Y57.763
G0 X39.558 Y60.438
G0 X38.156 Y63.213
G0 X36.943 Y66.075
G0 X35.922 Y69.013
G0 X35.102 Y72.011
G0 X34.482 Y75.058
G0 X34.068 Y78.139
G0 X33.86 Y81.242
G0 X33.86 Y84.35
G0 X34.068 Y87.453
G0 X34.482 Y90.534
G0 X35.102 Y93.581
G0 X35.922 Y96.579
G0 X36.943 Y99.517
G0 X38.156 Y102.379
G0 X39.558 Y105.154
G0 X41.143 Y107.829
G0 X42.903 Y110.392
G0 X44.83 Y112.832
G0 X46.915 Y115.139
G0 X49.15 Y117.3
G0 X51.525 Y119.308
G0 X54.028 Y121.151
G0 X56.15 Y122.505
G0 X59.347 Y124.373
G0 X59.392 Y124.284
G1 F900 X62.21 Y125.591 E24.44585
G1 X65.11 Y126.708 E24.54937
G1 X68.077 Y127.627 E24.65283
G1 X71.098 Y128.348 E24.75629
G1 X74.162 Y128.865 E24.85979
G1 X77.253 Y129.176 E24.96328
G1 X80.357 Y129.279 E25.06673
G1 X83.462 Y129.176 E25.17021
G1 X86.553 Y128.865 E25.2737
G1 X89.617 Y128.348 E25.3772
G1 X92.638 Y127.627 E25.48066
G1 X95.605 Y126.708 E25.58412
G1 X98.504 Y125.591 E25.68761
G1 X101.322 Y124.284 E25.79108
G1 X104.046 Y122.79 E25.89457
G1 X106.665 Y121.119 E25.99806
G1 X109.166 Y119.277 E26.10152
G1 X111.539 Y117.271 E26.20503
G1 X113.772 Y115.112 E26.30849
G1 X115.855 Y112.807 E26.41198
G1 X117.78 Y110.369 E26.51545
G1 X119.539 Y107.808 E26.61894
G1 X121.121 Y105.135 E26.72241
G1 X122.523 Y102.363 E26.82588
G1 X123.735 Y99.503 E26.92935
G1 X124.754 Y96.568 E27.03284
G1 X125.575 Y93.572 E27.13632
G1 X126.194 Y90.528 E27.23979
G1 X126.608 Y87.449 E27.34328
G1 X126.815 Y84.349 E27.44677
G1 X126.815 Y81.243 E27.55023
G1 X126.608 Y78.143 E27.65372
G1 X126.194 Y75.064 E27.75721
G1 X125.575 Y72.02 E27.86068
G1 X124.754 Y69.024 E27.96416
G1 X123.735 Y66.089 E28.06765
G1 X122.523 Y63.229 E28.17112
G1 X121.121 Y60.457 E28.27459
G1 X119.539 Y57.784 E28.37806
G1 X117.78 Y55.223 E28.48155
G1 X115.855 Y52.785 E28.58502
G1 X113.772 Y50.481 E28.68848
G1 X111.539 Y48.322 E28.79195
G1 X109.166 Y46.315 E28.89547
G1 X106.665 Y44.474 E28.99892
G1 X104.046 Y42.802 E29.10242
G1 X101.322 Y41.308 E29.20591
G1 X98.504 Y40.001 E29.30938
G1 X95.605 Y38.884 E29.41287
G1 X92.638 Y37.965 E29.51633
G1 X89.617 Y37.244 E29.61979
G1 X86.553 Y36.727 E29.7233
G1 X83.462 Y36.416 E29.82678
G1 X80.357 Y36.313 E29.93026
G1 X77.253 Y36.416 E30.03372
G1 X74.162 Y36.727 E30.1372
G1 X71.098 Y37.244 E30.2407
G1 X68.077 Y37.965 E30.34416
G1 X65.11 Y38.884 E30.44763
G1 X62.21 Y40.001 E30.55114
G1 X59.392 Y41.308 E30.65462
G1 X56.668 Y42.802 E30.75811
G1 X54.05 Y44.474 E30.86158
G1 X51.549 Y46.315 E30.96503
G1 X49.176 Y48.322 E31.06855
G1 X46.943 Y50.481 E31.17202
G1 X44.86 Y52.785 E31.27548
G1 X42.935 Y55.223 E31.37895
G1 X41.176 Y57.784 E31.48244
G1 X39.593 Y60.457 E31.58593
G1 X38.192 Y63.229 E31.68939
G1 X36.98 Y66.089 E31.79285
G1 X35.96 Y69.024 E31.89636
G1 X35.14 Y72.02 E31.99982
G1 X34.521 Y75.064 E32.1033
G1 X34.107 Y78.143 E32.20678
G1 X33.899 Y81.243 E32.31028
G1 X33.899 Y84.349 E32.41374
G1 X34.107 Y87.449 E32.51723
G1 X34.521 Y90.528 E32.62072
G1 X35.14 Y93.572 E32.72419
G1 X35.96 Y96.568 E32.82766
G1 X36.98 Y99.503 E32.93116
G1 X38.192 Y102.363 E33.03463
G1 X39.593 Y105.135 E33.13809
G1 X41.176 Y107.808 E33.24157
G1 X42.935 Y110.369 E33.34506
G1 X44.86 Y112.807 E33.44854
G1 X46.943 Y115.112 E33.55202
G1 X49.176 Y117.271 E33.65549
G1 X51.549 Y119.277 E33.75899
G1 X54.05 Y121.119 E33.86246
G1 X56.669 Y122.79 E33.96594
G1 X59.392 Y124.284 E34.0694
G0 F2625 X59.347 Y124.373
G0 X62.195 Y125.627
G0 X65.097 Y126.745
G0 X68.067 Y127.665
