;Generated by Cura LulzBot Edition GCodeWriter Version: 3.6.20
;FLAVOR:Marlin
;TIME:3292
;Filament used: 1.00385m
;Layer height: 0.25
;Generated with Cura_SteamEngine 3.6.20
M82 ;absolute extrusion mode
;This G-Code has been generated specifically for the LulzBot Mini 2 with SE 0.5mm Tool Head
M73 P0                  ; clear GLCD progress bar
M75 					; Start GLCD Print Timer
G26 					; clear potential 'probe fail' condition
M107 					; disable fans
M420 S0                 ; disable leveling matrix
G90 					; absolute positioning
M82 					; set extruder to absolute mode
G92 E0 					; set extruder position to 0
M140 S60.0 ; start bed heating up
G28 					; home all axes
G0 X0 Y187 Z156 F200 			; move away from endstops
M117 Mini 2 Wiping...			; progress indicator message on LCD
M109 R140 	; soften filament before retraction
G1 E-15 F75 				; retract filament
M109 R140 	; wait for extruder to reach wiping temp
G1 X45 Y176 F11520 			; move above wiper pad
G1 Z0 F1200 				; push nozzle into wiper
G1 X45 Y178 Z-.5 F4000		; wiping
G1 X55 Y176 Z-.5 F4000		; wiping
G1 X45 Y177 Z0 F4000		; wiping
G1 X55 Y176 F4000		; wiping
G1 X45 Y178 F4000		; wiping
G1 X55 Y176 F4000		; wiping
G1 X45 Y178 F4000		; wiping
G1 X55 Y176 F4000		; wiping
G1 X60 Y178 F4000		; wiping
G1 X80 Y176 F4000		; wiping
G1 X60 Y178 F4000		; wiping
G1 X80 Y176 F4000		; wiping
G1 X60 Y178 F4000		; wiping
G1 X90 Y176 F4000		; wiping
G1 X80 Y178 F4000		; wiping
G1 X100 Y176 F4000		; wiping
G1 X80 Y178 F4000		; wiping
G1 X100 Y176 F4000		; wiping
G1 X80 Y178 F4000		; wiping
G1 X100 Y176 F4000		; wiping
G1 X110 Y178 F4000		; wiping
G1 X100 Y176 F4000		; wiping
G1 X110 Y178 F4000		; wiping
G1 X100 Y176 F4000		; wiping
G1 X110 Y178 F4000		; wiping
G1 X115 Y176 Z-0.5 F1000	; wiping
G1 Z10					; raise extruder
G28 X0 Y0				; home X and Y
M109 R140	; wait for extruder to reach probe temp
M204 S300				; set probing acceleration
G29					; start auto-leveling sequence
M420 S1                     ; enable leveling matrix
M425 Z			     		; use measured Z backlash for compensation
M425 Z F0		     		; turn off measured Z backlash compensation. (if activated in the quality settings, this command will automatically be ignored)
M204 S2000				; restore standard acceleration
G1 X5 Y15 Z10 F5000			; move up off last probe point
G4 S1					; pause
M400					; wait for moves to finish
M117 Heating...				; progress indicator message on LCD
M109 R210 ; wait for extruder to reach initial printing temp
M190 R60.0 ; wait for bed to reach printing temp
G1 Z2 E0 F75				; prime tiny bit of filment into the nozzle
M117 Mini 2 Printing...		; progress indicator message on LCD

M221 S100 T0
G92 E0
G1 F600 E-1.75
;LAYER_COUNT:94
;LAYER:0
M425 F1.0
M107
G0 F2625 X43.54 Y43.183 Z0.425
;TYPE:SKIRT
G1 F600 E0
G1 F900 X43.952 Y42.883 E0.01698
G1 X44.408 Y42.65 E0.03403
G1 X48.541 Y40.938 E0.18305
G1 X66.731 Y33.402 E0.83891
G1 X66.789 Y33.379 E0.84098
G1 X73.113 Y30.9 E1.06725
G1 X79.71 Y28.032 E1.30686
G1 X80.192 Y27.867 E1.32383
G1 X80.694 Y27.778 E1.34082
G1 X81.203 Y27.769 E1.35777
G1 X81.708 Y27.84 E1.37476
G1 X82.247 Y28.009 E1.39358
G1 X94.933 Y33.25 E1.85079
G1 X94.937 Y33.252 E1.85094
G1 X117.592 Y42.651 E2.66796
G1 X118.046 Y42.883 E2.68494
G1 X118.458 Y43.182 E2.7019
G1 X118.819 Y43.543 E2.7189
G1 X119.118 Y43.955 E2.73586
G1 X119.35 Y44.409 E2.75284
G1 X133.986 Y79.738 E4.02666
G1 X134.143 Y80.223 E4.04364
G1 X134.223 Y80.726 E4.0606
G1 X134.223 Y81.235 E4.07756
G1 X134.144 Y81.739 E4.09455
G1 X133.986 Y82.225 E4.11157
G1 X119.351 Y117.59 E5.38648
G1 X119.12 Y118.044 E5.40345
G1 X118.821 Y118.456 E5.4204
G1 X118.461 Y118.817 E5.43739
G1 X118.049 Y119.117 E5.45436
G1 X117.592 Y119.35 E5.47145
G1 X82.262 Y133.986 E6.74529
G1 X81.777 Y134.143 E6.76227
G1 X81.274 Y134.223 E6.77924
G1 X80.765 Y134.223 E6.79619
G1 X80.261 Y134.144 E6.81319
G1 X79.775 Y133.986 E6.83021
G1 X44.41 Y119.351 E8.10512
G1 X43.956 Y119.12 E8.12209
G1 X43.544 Y118.821 E8.13904
G1 X43.183 Y118.461 E8.15602
G1 X42.883 Y118.049 E8.173
G1 X42.65 Y117.592 E8.19009
G1 X28.008 Y82.244 E9.46456
G1 X27.851 Y81.759 E9.48154
G1 X27.771 Y81.256 E9.49851
G1 X27.771 Y80.746 E9.5155
G1 X27.85 Y80.243 E9.53246
G1 X28.008 Y79.756 E9.54951
G1 X42.649 Y44.409 E10.82394
G1 X42.881 Y43.955 E10.84092
G1 X43.18 Y43.543 E10.85788
G1 X43.54 Y43.183 E10.87484
G1 F600 E9.12484
;MESH:
G0 F2625 X51.211 Y42.624
G0 X54.787 Y42.772
G0 X56.216 Y42.676
G0 X58.534 Y43.334
G0 X89.409 Y39.818
G0 X86.499 Y43.225
G0 X89.082 Y44.429
G0 X89.043 Y44.52
;TYPE:WALL-INNER
G1 F600 E10.87484
G1 F900 X88.313 Y44.217 E10.90117
G1 X89.124 Y43.25 E10.94321
G1 X89.043 Y44.52 E10.9856
G0 F2625 X89.082 Y44.429
G0 X86.499 Y43.225
G0 X89.409 Y39.818
G0 X91.279 Y40.591
G0 X91.29 Y40.64
G0 X91.25 Y40.538
G1 F900 X91.352 Y40.581 E10.98928
G1 X91.228 Y40.593 E10.98984
G1 X91.228 Y40.576
G1 X91.231 Y40.53
G1 X91.25 Y40.538
G0 F2625 X91.29 Y40.64
G0 X91.279 Y40.591
G0 X89.409 Y39.818
G0 X81 Y41.148
G0 X52.821 Y52.821
G0 X41.148 Y81
G0 X51.844 Y109.216
G0 X52.797 Y111.238
G0 X53.948 Y113.156
G0 X55.288 Y114.963
G0 X56.78 Y116.611
G0 X58.437 Y118.112
G0 X60.233 Y119.446
G0 X62.162 Y120.602
G0 X64.184 Y121.556
G0 X66.279 Y122.307
G0 X68.463 Y122.853
G0 X70.673 Y123.181
G0 X72.9 Y123.29
G0 X75.127 Y123.181
G0 X77.337 Y122.853
G0 X79.521 Y122.307
G0 X81.616 Y121.556
G0 X109.179 Y109.179
G0 X120.852 Y81
G0 X109.179 Y52.821
G0 X94.407 Y42.428
G0 X96.938 Y42.984
G0 X98.577 Y39.123
G0 X115.753 Y46.247
G0 X117.024 Y50.994
G0 X116.581 Y50.74
G0 X115.223 Y50.94
G0 X114.324 Y51.158
G1 F900 X113.892 Y50.747 E11.00971
G1 X113.802 Y50.62 E11.01489
G1 X113.707 Y50.426 E11.02209
G1 X113.666 Y50.277 E11.02723
G1 X113.661 Y50.196 E11.02994
G1 X113.673 Y50.101 E11.03313
G1 X113.735 Y49.98 E11.03766
G1 X113.827 Y49.887 E11.04201
G1 X113.965 Y49.802 E11.04741
G1 X114.115 Y49.749 E11.05271
G1 X114.162 Y49.74 E11.05431
G1 X114.259 Y49.734 E11.05754
G1 X114.364 Y49.75 E11.06108
G1 X114.465 Y49.803 E11.06488
G1 X114.538 Y49.874 E11.06827
G1 X114.624 Y49.998 E11.0733
G1 X114.681 Y50.136 E11.07827
G1 X114.732 Y50.324 E11.08476
G1 X114.747 Y50.445 E11.08882
G1 X114.77 Y50.958 E11.10593
G1 X114.779 Y51.164 E11.1128
G1 X114.473 Y51.3 E11.12395
G1 X114.324 Y51.158 E11.12975
G0 F2625 X116.451 Y51.258
G0 X116.836 Y51.485
G0 X117.129 Y51.879
G0 X117.316 Y52.384
G0 X117.376 Y52.824
G0 X116.426 Y53.171
G0 X115.841 Y53.06
G0 X115.93 Y53.105
G1 F900 X115.107 Y53.471 E11.15975
G1 X115.064 Y53.375 E11.16325
G1 X115.887 Y53.009 E11.16953
G1 X115.908 Y53 E11.17029
G1 X115.93 Y53.105 E11.17216
G0 F2625 X115.841 Y53.06
G0 X116.569 Y53.33
G0 X117.513 Y52.917
G0 X117.997 Y54.01
G0 X115.876 Y56.248
G0 X113.474 Y57.329
G0 X115.959 Y63.628
G0 X115.977 Y63.53
G1 F900 X116.238 Y63.27 E11.18443
G1 X116.277 Y63.231 E11.18627
G1 X116.491 Y63.018 E11.19633
G1 X116.73 Y62.781 E11.20754
G1 X116.53 Y63.056 E11.20824
G1 X116.67 Y63.323 E11.21468
G1 X117.553 Y65 E11.27781
G1 X116.53 Y66.944 E11.35098
G1 X117.078 Y67.699 E11.38206
G1 X119.244 Y67.327 E11.45527
G1 X120.571 Y68.688 E11.51858
G1 X117.818 Y72.477 E11.67459
G1 X117.811 Y72.487 E11.675
G1 X118.044 Y73.011 E11.6941
G1 X119.81 Y76.978 E11.83875
G1 X124.699 Y77.491 E12.0025
G1 X127.007 Y74.313 E12.13333
G1 X127.269 Y73.953 E12.14816
G1 X127.439 Y74.365 E12.15653
G1 X130.188 Y81 E12.39576
G1 X115.781 Y115.781 E13.64979
G1 X81 Y130.188 E14.90381
G1 X47.986 Y116.512 E16.09414
G1 X47.429 Y116.282 E16.11422
G1 X47.986 Y116.052 E16.125
G1 X50.956 Y114.821 E16.2321
G1 X50.957 Y114.82 E16.23214
G1 X51.187 Y114.726 E16.24042
G1 X51.092 Y114.496 E16.24577
G1 X48.317 Y107.797 E16.4873
G1 X43.703 Y109.708 E16.65366
G1 X31.812 Y81 E17.68872
G1 X46.219 Y46.219 E18.94275
G1 X47.246 Y45.794 E18.97977
G1 X47.707 Y46.209 E19.00043
G1 X48.498 Y46.79 E19.03312
G1 X48.647 Y46.889 E19.03908
G1 X49.149 Y47.168 E19.05821
G1 X49.805 Y47.359 E19.08097
G1 X50.508 Y47.11 E19.10581
G1 X50.881 Y46.541 E19.12848
G1 X51.06 Y45.793 E19.1541
G1 X51.179 Y44.835 E19.18625
G1 X51.186 Y44.779 E19.18813
G1 X51.281 Y44.288 E19.20479
G1 X51.466 Y44.443 E19.20671
G1 X51.509 Y44.479 E19.20847
G1 X51.734 Y44.668 E19.21826
G1 X52.704 Y45.679 E19.26493
G1 X53.788 Y46.784 E19.31649
G1 X54.82 Y47.54 E19.35911
G1 X55.713 Y47.594 E19.38891
G1 X56.265 Y46.896 E19.41855
G1 X56.398 Y45.615 E19.46145
G1 X56.309 Y44.181 E19.50931
G1 X56.197 Y42.672 E19.55971
G1 X56.208 Y42.359 E19.57015
G1 X56.216 Y42.112 E19.57838
G1 X56.218 Y42.077 E19.57955
G1 X56.29 Y42.047 E19.58214
G1 X56.439 Y42.12 E19.58554
G1 X56.644 Y42.256 E19.59175
G1 X57.624 Y42.906 E19.63092
G1 X58.541 Y43.295 E19.6641
G1 X59.227 Y43.226 E19.68707
G1 X59.752 Y42.778 E19.71006
G1 X60.046 Y41.904 E19.74078
G1 X60.179 Y40.815 E19.77732
G1 X60.255 Y40.405 E19.79121
G1 X61.53 Y39.877 E19.83718
G1 X61.625 Y39.879 E19.84034
G1 X64.217 Y40.277 E19.9277
G1 X65.388 Y40.306 E19.96671
G1 X65.556 Y40.281 E19.97237
G1 X66.09 Y40.146 E19.99072
G1 X66.647 Y39.751 E20.01347
G1 X67.122 Y38.819 E20.04831
G1 X67.28 Y37.885 E20.07986
G1 X67.33 Y37.474 E20.09366
G1 X67.918 Y37.231 E20.11485
G1 X68.855 Y37.809 E20.15152
G1 X69.347 Y38.028 E20.16946
G1 X70.125 Y38.167 E20.19579
G1 X70.882 Y38.101 E20.2211
G1 X72.132 Y37.747 E20.26437
G1 X73.188 Y37.305 E20.30251
G1 X74.179 Y36.778 E20.33989
G1 X75.165 Y36.124 E20.37931
G1 X76.068 Y35.379 E20.4183
G1 X77.737 Y33.674 E20.49778
G1 X78.323 Y32.922 E20.52953
G1 X81 Y31.812 E20.62607
G1 X89.036 Y35.141 E20.91581
G1 X89.037 Y35.142 E20.91586
G1 X89.268 Y35.237 E20.92418
G1 X89.17 Y35.468 E20.92956
G1 X87.665 Y39.015 E21.05791
G1 X89.065 Y39.611 E21.10859
G1 X89.192 Y39.665 E21.11319
G1 X89.477 Y39.787 E21.12351
G1 X89.418 Y39.856
G1 X89.328 Y39.961 E21.12736
G1 X86.369 Y43.412 E21.27879
G1 X81 Y41.188 E21.47237
G1 X52.849 Y52.849 E22.48735
G1 X41.188 Y81 E23.50234
G1 X50.289 Y102.973 E24.29457
G1 X50.396 Y103.839 E24.32363
G1 X50.587 Y104.938 E24.36079
G1 X50.831 Y106.028 E24.398
G1 X51.129 Y107.104 E24.43519
G1 X51.48 Y108.165 E24.47241
G1 X51.882 Y109.206 E24.50959
G1 X52.334 Y110.227 E24.54678
G1 X52.836 Y111.225 E24.58399
G1 X53.387 Y112.196 E24.62118
G1 X53.984 Y113.139 E24.65836
G1 X54.626 Y114.052 E24.69554
G1 X55.314 Y114.933 E24.73277
G1 X56.043 Y115.778 E24.76995
G1 X56.813 Y116.587 E24.80715
G1 X57.622 Y117.357 E24.84435
G1 X58.467 Y118.086 E24.88153
G1 X59.348 Y118.774 E24.91876
G1 X60.26 Y119.416 E24.95591
G1 X61.204 Y120.014 E24.99314
G1 X62.175 Y120.564 E25.03031
G1 X63.173 Y121.066 E25.06752
G1 X64.194 Y121.518 E25.10471
G1 X65.235 Y121.92 E25.14189
G1 X66.296 Y122.271 E25.17911
G1 X67.372 Y122.569 E25.2163
G1 X68.462 Y122.813 E25.25351
G1 X69.562 Y123.004 E25.2907
G1 X70.671 Y123.141 E25.32792
G1 X71.784 Y123.223 E25.3651
G1 X72.9 Y123.25 E25.40228
G1 X74.016 Y123.223 E25.43947
G1 X75.129 Y123.141 E25.47664
G1 X76.238 Y123.004 E25.51386
G1 X77.338 Y122.813 E25.55105
G1 X78.428 Y122.569 E25.58826
G1 X79.504 Y122.271 E25.62545
G1 X80.565 Y121.92 E25.66268
G1 X81.606 Y121.518 E25.69985
G1 X82.627 Y121.066 E25.73704
G1 X83.625 Y120.564 E25.77426
G1 X84.596 Y120.014 E25.81143
G1 X85.54 Y119.416 E25.84865
G1 X86.452 Y118.774 E25.8858
G1 X87.053 Y118.305 E25.9112
G1 X109.151 Y109.151 E26.70795
G1 X120.812 Y81 E27.72293
G1 X117.582 Y73.203 E28.00406
G1 X117.363 Y72.673 E28.02287
G1 X117.359 Y72.661 E28.0233
G1 X109.151 Y52.849 E28.73764
G1 X92.657 Y46.016 E29.33234
G1 X92.464 Y45.937 E29.33928
G1 X92.23 Y45.84 E29.34772
G1 X92.053 Y45.766 E29.35411
G1 X92.266 Y45.749 E29.35528
G1 X92.579 Y45.657 E29.36067
G1 X92.763 Y45.559 E29.36637
G1 X92.863 Y45.506 E29.37014
G1 X93.1 Y45.304 E29.38051
G1 X93.288 Y45.071 E29.39049
G1 X93.424 Y44.812 E29.40023
G1 X93.503 Y44.573 E29.40862
G1 X93.543 Y44.327 E29.41692
G1 X93.543 Y44.077 E29.42525
G1 X93.533 Y44.018 E29.42724
G1 X93.622 Y43.97 E29.43061
G1 X93.851 Y43.786 E29.44039
G1 X94.049 Y43.556 E29.4505
G1 X94.194 Y43.305 E29.46016
G1 X94.265 Y43.137 E29.46623
G1 X94.317 Y42.967 E29.47215
G1 X94.352 Y42.792 E29.4781
G1 X94.369 Y42.614 E29.48406
G1 X94.368 Y42.434 E29.49005
G1 X94.359 Y42.362 E29.49247
G1 X94.346 Y42.239 E29.49659
G1 X94.262 Y41.926 E29.50738
G1 X94.202 Y41.792 E29.51227
G1 X94.3 Y41.833 E29.51228
G1 X94.484 Y41.911 E29.51665
G1 X94.598 Y41.959 E29.52025
G1 X96.695 Y42.85 E29.59615
G1 X96.925 Y42.947 E29.60446
G1 X97.022 Y42.717 E29.60983
G1 X98.562 Y39.086 E29.74121
G1 X115.781 Y46.219 E30.36204
G1 X117.86 Y51.243 E30.54316
G1 X117.897 Y51.334 E30.54643
G1 X117.965 Y51.498 E30.55234
G1 X118.091 Y51.801 E30.56328
G1 X118.213 Y52.096 E30.57391
G1 X118.24 Y52.159 E30.57619
G1 X119.034 Y54.077 E30.64534
G1 X119.13 Y54.308 E30.65367
G1 X119.952 Y56.291 E30.72518
G1 X120.292 Y57.111 E30.75475
G1 X120.965 Y58.736 E30.81333
G1 X121.952 Y61.116 E30.89916
G1 X122.005 Y61.246 E30.90384
G1 X122.205 Y61.729 E30.92125
G1 X122.964 Y63.56 E30.98727
G1 X123.218 Y64.173 E31.00938
G1 X122.623 Y63.88 E31.02113
G1 X121.979 Y63.562 E31.04506
G1 X121.738 Y61.904 E31.10086
G1 X121.664 Y61.387 E31.116
G1 X121.53 Y61.344 E31.12013
G1 X120.777 Y61.1 E31.1465
G1 X119.244 Y62.673 E31.21966
G1 X117.669 Y62.402 E31.2729
G1 X117.192 Y62.321 E31.28901
G1 X117.535 Y61.98 E31.29795
G1 X120.672 Y58.857 E31.4454
G1 X119.959 Y57.25 E31.48505
G1 X117.269 Y57.476 E31.57497
G1 X119.597 Y56.439 E31.65986
G1 X118.724 Y54.476 E31.71876
G1 X116.375 Y55.521 E31.8044
G1 X116.251 Y55.576 E31.80892
G1 X116.19 Y55.603 E31.81114
G1 X116.131 Y55.63 E31.8133
G1 X116.081 Y55.53 E31.81703
G1 X116.075 Y55.49 E31.81733
G1 X116.11 Y55.425 E31.81804
G1 X116.161 Y55.374 E31.81862
G1 X116.277 Y55.301 E31.82074
G1 X118.62 Y54.248 E31.86264
G1 X117.778 Y52.35 E31.92808
G1 X117.767 Y52.28 E31.9304
G1 X117.673 Y51.974 E31.94036
G1 X117.543 Y51.674 E31.95026
G1 X117.454 Y51.516 E31.95591
G1 X117.398 Y51.435 E31.95912
G1 X117.317 Y51.321 E31.96378
G1 X117.152 Y51.148 E31.97174
G1 X117.006 Y51.029 E31.97801
G1 X116.801 Y50.904 E31.98601
G1 X116.722 Y50.872 E31.98885
G1 X116.71 Y50.245 E32.00974
G1 X116.682 Y50.014 E32.01749
G1 X116.631 Y49.771 E32.02576
G1 X116.558 Y49.509 E32.03482
G1 X116.475 Y49.276 E32.04306
G1 X116.358 Y49.01 E32.05274
G1 X116.235 Y48.782 E32.06137
G1 X116.032 Y48.487 E32.0733
G1 X115.84 Y48.272 E32.0829
G1 X115.661 Y48.108 E32.09099
G1 X115.421 Y47.931 E32.10092
G1 X115.201 Y47.808 E32.10932
G1 X114.989 Y47.715 E32.11703
G1 X114.763 Y47.645 E32.12491
G1 X114.523 Y47.597 E32.13306
G1 X114.256 Y47.576 E32.14198
G1 X114.019 Y47.581 E32.14988
G1 X113.817 Y47.605 E32.15665
G1 X113.576 Y47.654 E32.16485
G1 X113.25 Y47.76 E32.17627
G1 X113.014 Y47.865 E32.18487
G1 X112.794 Y47.989 E32.19328
G1 X112.643 Y48.094 E32.19941
G1 X112.608 Y48.118 E32.20082
G1 X112.59 Y48.13 E32.20154
G1 X112.478 Y48.226 E32.20646
G1 X112.4 Y48.292 E32.20986
G1 X112.284 Y48.415 E32.21549
G1 X112.303 Y48.279 E32.21566
G1 X112.331 Y48.091 E32.21877
G1 X112.336 Y48.061
G1 X112.34 Y47.968 E32.22008
G1 X112.351 Y47.745 E32.22607
G1 X112.349 Y47.702 E32.22744
G1 X112.334 Y47.425 E32.23668
G1 X112.284 Y47.108 E32.24737
G1 X112.205 Y46.801 E32.25793
G1 X112.096 Y46.501 E32.26856
G1 X111.958 Y46.213 E32.2792
G1 X111.793 Y45.941 E32.2898
G1 X111.602 Y45.686 E32.30041
G1 X111.386 Y45.45 E32.31107
G1 X111.149 Y45.238 E32.32166
G1 X110.892 Y45.048 E32.33231
G1 X110.618 Y44.886 E32.34291
G1 X110.327 Y44.75 E32.35361
G1 X110.026 Y44.645 E32.36423
G1 X109.716 Y44.569 E32.37486
G1 X109.4 Y44.525 E32.38549
G1 X109.081 Y44.51 E32.39613
G1 X108.763 Y44.528 E32.40674
G1 X108.449 Y44.577 E32.41732
G1 X108.139 Y44.656 E32.42798
G1 X107.84 Y44.765 E32.43858
G1 X107.552 Y44.903 E32.44922
G1 X107.3 Y45.056 E32.45904
G1 X107.28 Y45.068 E32.45981
G1 X107.081 Y45.216 E32.46807
G1 X107.023 Y45.26 E32.4705
G1 X106.996 Y45.285 E32.47173
G1 X106.899 Y45.374 E32.47611
G1 X106.894 Y45.267 E32.47645
G1 X106.888 Y45.169 E32.47718
G1 X106.883 Y45.132
G1 X106.846 Y44.902 E32.48273
G1 X106.84 Y44.879 E32.48352
G1 X106.779 Y44.642 E32.49168
G1 X106.688 Y44.388 E32.50066
G1 X106.57 Y44.141 E32.50978
G1 X106.43 Y43.914 E32.51867
G1 X106.27 Y43.698 E32.52762
G1 X106.086 Y43.498 E32.53667
G1 X105.886 Y43.319 E32.54561
G1 X105.668 Y43.158 E32.55464
G1 X105.435 Y43.021 E32.56364
