;Generated by Cura LulzBot Edition GCodeWriter Version: 3.6.23
;FLAVOR:Marlin
;TIME:320
;Filament used: 0.0869204m
;Layer height: 0.25
;Generated with Cura_SteamEngine 3.6.23
M82 ;absolute extrusion mode
;This G-Code has been generated specifically for the LulzBot Mini 2 with SE 0.5mm Tool Head
M73 P0                  ; clear GLCD progress bar
M75 					; Start GLCD Print Timer
G26 					; clear potential 'probe fail' condition
M107 					; disable fans
M420 S0                 ; disable leveling matrix
G90 					; absolute positioning
M82 					; set extruder to absolute mode
G92 E0 					; set extruder position to 0
M140 S60.0 ; start bed heating up
G28 					; home all axes
G0 X0 Y187 Z156 F200 			; move away from endstops
M117 Mini 2 Wiping...			; progress indicator message on LCD
M109 R140 	; soften filament before retraction
G1 E-15 F75 				; retract filament
M109 R140 	; wait for extruder to reach wiping temp
G1 X45 Y176 F11520 			; move above wiper pad
G1 Z0 F1200 				; push nozzle into wiper
G1 X45 Y178 Z-.5 F4000		; wiping
G1 X55 Y176 Z-.5 F4000		; wiping
G1 X45 Y177 Z0 F4000		; wiping
G1 X55 Y176 F4000		; wiping
G1 X45 Y178 F4000		; wiping
G1 X55 Y176 F4000		; wiping
G1 X45 Y178 F4000		; wiping
G1 X55 Y176 F4000		; wiping
G1 X60 Y178 F4000		; wiping
G1 X80 Y176 F4000		; wiping
G1 X60 Y178 F4000		; wiping
G1 X80 Y176 F4000		; wiping
G1 X60 Y178 F4000		; wiping
G1 X90 Y176 F4000		; wiping
G1 X80 Y178 F4000		; wiping
G1 X100 Y176 F4000		; wiping
G1 X80 Y178 F4000		; wiping
G1 X100 Y176 F4000		; wiping
G1 X80 Y178 F4000		; wiping
G1 X100 Y176 F4000		; wiping
G1 X110 Y178 F4000		; wiping
G1 X100 Y176 F4000		; wiping
G1 X110 Y178 F4000		; wiping
G1 X100 Y176 F4000		; wiping
G1 X110 Y178 F4000		; wiping
G1 X115 Y176 Z-0.5 F1000	; wiping
G1 Z10					; raise extruder
G28 X0 Y0				; home X and Y
M109 R140	; wait for extruder to reach probe temp
M204 S300				; set probing acceleration
G29					; start auto-leveling sequence
M420 S1                     ; enable leveling matrix
M425 Z			     		; use measured Z backlash for compensation
M425 Z F0		     		; turn off measured Z backlash compensation. (if activated in the quality settings, this command will automatically be ignored)
M204 S2000				; restore standard acceleration
G1 X5 Y15 Z10 F5000			; move up off last probe point
G4 S1					; pause
M400					; wait for moves to finish
M117 Heating...				; progress indicator message on LCD
M109 R210 ; wait for extruder to reach initial printing temp
M190 R60.0 ; wait for bed to reach printing temp
G1 Z2 E0 F75				; prime tiny bit of filment into the nozzle
M117 Mini 2 Printing...		; progress indicator message on LCD

M221 S100 T0
G92 E0
G1 F600 E-1.75
;LAYER_COUNT:2
;LAYER:0
M425 F1.0
M107
G0 F2625 X5.729 Y6.658 Z0.425
;TYPE:SKIRT
G1 F600 E0
G1 F900 X6.193 Y6.339 E0.01876
G1 X7.447 Y5.628 E0.06677
G1 X7.909 Y5.412 E0.08376
G1 X8.398 Y5.271 E0.10072
G1 X8.762 Y5.218 E0.11297
G1 X10.371 Y5.075 E0.16678
G1 X11.092 Y5.091 E0.1908
G1 X12.261 Y5.248 E0.23009
G1 X12.664 Y5.328 E0.24377
G1 X15.424 Y6.063 E0.33891
G1 X15.912 Y6.236 E0.35616
G1 X20.939 Y8.479 E0.53952
G1 X21.212 Y8.616 E0.5497
G1 X26.701 Y11.712 E0.75962
G1 X26.778 Y11.757 E0.76259
G1 X29.316 Y13.282 E0.86122
G1 X34.128 Y15.938 E1.0443
G1 X36.566 Y17.152 E1.13503
G1 X39.023 Y18.289 E1.22521
G1 X44.104 Y20.386 E1.40831
G1 X49.283 Y22.186 E1.59094
G1 X54.556 Y23.691 E1.7736
G1 X57.221 Y24.332 E1.86491
G1 X59.855 Y24.884 E1.95455
G1 X65.277 Y25.787 E2.13765
G1 X70.712 Y26.379 E2.31976
G1 X76.187 Y26.662 E2.50238
G1 X81.652 Y26.635 E2.68442
G1 X87.125 Y26.299 E2.86707
G1 X92.536 Y25.658 E3.04858
G1 X97.961 Y24.702 E3.23207
G1 X100.606 Y24.118 E3.3223
G1 X103.248 Y23.459 E3.413
G1 X108.509 Y21.902 E3.59576
G1 X113.651 Y20.058 E3.77772
G1 X118.711 Y17.915 E3.96076
G1 X123.62 Y15.499 E4.14302
G1 X128.362 Y12.823 E4.32439
G1 X134.942 Y8.561 E4.58553
G1 X135.126 Y8.451 E4.59267
G1 X140.03 Y5.716 E4.77972
G1 X140.248 Y5.605 E4.78786
G1 X141.609 Y4.975 E4.83782
G1 X141.827 Y4.883 E4.8457
G1 X145.953 Y3.326 E4.9926
G1 X146.579 Y3.159 E5.01418
G1 X148.753 Y2.806 E5.08755
G1 X149.323 Y2.764 E5.10659
G1 X151.308 Y2.794 E5.17272
G1 X151.815 Y2.842 E5.18968
G1 X152.268 Y2.955 E5.20523
G1 X153.942 Y3.502 E5.26389
G1 X154.413 Y3.697 E5.28087
G1 X154.89 Y3.996 E5.29963
G1 X156.274 Y5.04 E5.35737
G1 X156.656 Y5.378 E5.37436
G1 X157.087 Y5.935 E5.39782
G1 X158.004 Y7.429 E5.45622
G1 X158.236 Y7.883 E5.4732
G1 X158.393 Y8.367 E5.49015
G1 X158.447 Y8.639 E5.49939
G1 X158.748 Y10.612 E5.56587
G1 X158.776 Y11.344 E5.59027
G1 X158.646 Y13.083 E5.64836
G1 X158.526 Y13.748 E5.67087
G1 X157.919 Y15.837 E5.74333
G1 X157.714 Y16.365 E5.7622
G1 X155.364 Y21.139 E5.93944
G1 X155.164 Y21.488 E5.95284
G1 X150.206 Y29.037 E6.25369
G1 X147.428 Y33.778 E6.43673
G1 X144.941 Y38.633 E6.61843
G1 X142.72 Y43.65 E6.80119
G1 X140.787 Y48.774 E6.98362
G1 X139.154 Y53.986 E7.16555
G1 X137.804 Y59.33 E7.34915
G1 X137.258 Y61.97 E7.43895
G1 X136.374 Y67.366 E7.62109
G1 X135.794 Y72.822 E7.80386
G1 X135.526 Y78.28 E7.98589
G1 X135.565 Y83.762 E8.1685
G1 X135.915 Y89.219 E8.35065
G1 X136.571 Y94.641 E8.53257
G1 X137.541 Y100.059 E8.71592
G1 X138.125 Y102.677 E8.80527
G1 X138.797 Y105.338 E8.89669
G1 X140.37 Y110.606 E9.07982
G1 X142.229 Y115.75 E9.26202
G1 X144.373 Y120.776 E9.44403
G1 X146.805 Y125.684 E9.62649
G1 X149.516 Y130.459 E9.80939
G1 X154.055 Y137.594 E10.09108
G1 X154.145 Y137.743 E10.09688
G1 X156.622 Y142.142 E10.26504
G1 X156.817 Y142.553 E10.2802
G1 X158.599 Y147.108 E10.44312
G1 X158.756 Y147.64 E10.4616
G1 X159.172 Y149.67 E10.53063
G1 X159.238 Y150.318 E10.55232
G1 X159.24 Y152.129 E10.61265
G1 X159.201 Y152.637 E10.62962
G1 X159.106 Y153.056 E10.64393
G1 X158.622 Y154.691 E10.70073
G1 X158.44 Y155.166 E10.71767
G1 X158.088 Y155.742 E10.74016
G1 X157.105 Y157.028 E10.79408
G1 X156.765 Y157.407 E10.81104
G1 X156.37 Y157.728 E10.82799
G1 X156.137 Y157.875 E10.83717
G1 X154.863 Y158.604 E10.88606
G1 X154.402 Y158.821 E10.90304
G1 X153.679 Y159.004 E10.92788
G1 X152.135 Y159.21 E10.97976
G1 X151.626 Y159.238 E10.99675
G1 X151.359 Y159.221 E11.00566
G1 X150.321 Y159.11 E11.04043
G1 X150.037 Y159.066 E11.05
G1 X148.721 Y158.806 E11.09469
G1 X148.416 Y158.731 E11.10515
G1 X147.035 Y158.316 E11.15318
G1 X146.623 Y158.161 E11.16785
G1 X141.949 Y156.032 E11.33893
G1 X141.645 Y155.873 E11.35036
G1 X136.399 Y152.778 E11.55325
G1 X136.282 Y152.706 E11.55783
G1 X130.366 Y148.872 E11.79265
G1 X125.598 Y146.167 E11.97526
G1 X120.708 Y143.748 E12.15699
G1 X115.673 Y141.602 E12.3393
G1 X110.524 Y139.744 E12.52164
G1 X105.27 Y138.177 E12.70427
G1 X99.906 Y136.902 E12.88793
G1 X97.27 Y136.396 E12.97734
G1 X91.851 Y135.586 E13.15985
G1 X86.406 Y135.085 E13.34199
G1 X80.927 Y134.892 E13.52461
G1 X75.463 Y135.009 E13.70666
G1 X70.015 Y135.435 E13.88869
G1 X64.577 Y136.171 E14.07148
G1 X59.189 Y137.213 E14.25429
G1 X56.555 Y137.84 E14.34448
G1 X53.934 Y138.542 E14.43486
G1 X48.69 Y140.188 E14.61794
G1 X43.554 Y142.127 E14.80081
G1 X38.566 Y144.339 E14.98257
G1 X33.692 Y146.839 E15.16503
G1 X28.953 Y149.619 E15.34805
G1 X25.252 Y151.978 E15.49424
G1 X25.121 Y152.057 E15.49934
G1 X19.324 Y155.378 E15.72188
G1 X19.104 Y155.493 E15.73015
G1 X14.839 Y157.522 E15.88748
G1 X14.569 Y157.636 E15.89724
G1 X13.213 Y158.137 E15.94539
G1 X12.839 Y158.25 E15.95841
G1 X10.493 Y158.808 E16.03873
G1 X9.99 Y158.886 E16.05569
G1 X9.665 Y158.895 E16.06652
G1 X8.25 Y158.862 E16.11367
G1 X7.743 Y158.81 E16.13064
G1 X7.251 Y158.68 E16.14759
G1 X6.818 Y158.492 E16.16332
G1 X5.629 Y157.869 E16.20803
G1 X5.197 Y157.598 E16.22502
G1 X4.814 Y157.262 E16.24199
G1 X4.369 Y156.694 E16.26603
G1 X3.551 Y155.365 E16.31801
G1 X3.319 Y154.911 E16.33499
G1 X3.125 Y154.261 E16.35759
G1 X2.817 Y152.621 E16.41317
G1 X2.762 Y152.114 E16.43016
G1 X2.772 Y151.759 E16.44199
G1 X2.941 Y149.669 E16.51183
G1 X3.016 Y149.188 E16.52805
G1 X3.318 Y147.902 E16.57205
G1 X3.393 Y147.633 E16.58136
G1 X3.905 Y146.07 E16.63614
G1 X3.982 Y145.861 E16.64356
G1 X5.695 Y141.634 E16.79549
G1 X5.852 Y141.303 E16.80769
G1 X8.754 Y135.965 E17.01008
G1 X8.848 Y135.803 E17.01632
G1 X12.703 Y129.593 E17.25979
G1 X14.074 Y127.224 E17.35097
G1 X16.617 Y122.368 E17.53356
G1 X18.877 Y117.386 E17.71579
G1 X20.855 Y112.276 E17.89831
G1 X22.534 Y107.084 E18.08008
G1 X23.94 Y101.72 E18.26479
G1 X24.499 Y99.135 E18.35289
G1 X25.435 Y93.729 E18.53564
G1 X26.064 Y88.264 E18.71888
G1 X26.381 Y82.826 E18.90033
G1 X26.39 Y77.342 E19.08301
G1 X26.09 Y71.886 E19.26502
G1 X25.479 Y66.436 E19.4477
G1 X24.561 Y61.022 E19.63062
G1 X24.002 Y58.406 E19.71973
G1 X23.35 Y55.726 E19.8116
G1 X21.827 Y50.455 E19.99436
G1 X20.02 Y45.306 E20.17613
G1 X17.906 Y40.226 E20.35942
G1 X15.529 Y35.317 E20.5411
G1 X12.869 Y30.535 E20.72337
G1 X7.108 Y21.445 E21.08186
G1 X6.948 Y21.161 E21.09271
G1 X5.088 Y17.45 E21.23099
G1 X4.942 Y17.113 E21.24322
G1 X4.033 Y14.634 E21.33117
G1 X3.868 Y13.983 E21.35354
G1 X3.619 Y12.273 E21.4111
G1 X3.585 Y11.765 E21.42806
G1 X3.616 Y11.356 E21.44173
G1 X3.818 Y9.907 E21.49046
G1 X3.928 Y9.41 E21.50742
G1 X4.114 Y8.935 E21.52441
G1 X4.297 Y8.608 E21.53689
G1 X5.056 Y7.418 E21.58391
G1 X5.363 Y7.012 E21.60086
G1 X5.729 Y6.658 E21.61782
G1 F600 E19.86782
;MESH:
G0 F2625 X7.292 Y8.774
G0 X7.317 Y8.81
G0 X8.891 Y10.941
G0 X8.916 Y10.976
G0 X8.94 Y11.007
G0 X8.062 Y10.686
G0 X58.253 Y72.992
G0 X58.28 Y73.026
G0 X63.201 Y79.135
G0 X63.279 Y79.14
;TYPE:WALL-OUTER
G1 F600 E21.61782
G1 F900 X63.098 Y78.263 E21.64765
G1 X62.549 Y77.295 E21.68472
G1 X60.516 Y75.06 E21.78536
G1 X57.47 Y72.289 E21.92253
G1 X53.556 Y68.96 E22.09369
G1 X49.047 Y65.038 E22.29275
G1 X44.16 Y60.566 E22.51341
G1 X39.072 Y55.515 E22.75222
G1 X34.072 Y49.863 E23.00359
G1 X28.538 Y43.128 E23.29396
G1 X23.209 Y36.495 E23.57738
G1 X18.358 Y30.237 E23.84113
G1 X14.158 Y24.421 E24.0801
G1 X10.854 Y19.296 E24.28321
G1 X8.706 Y15 E24.44321
G1 X8.106 Y13.238 E24.50521
G1 X7.891 Y11.774 E24.5545
G1 X8.043 Y10.679 E24.59132
G1 X8.525 Y9.916 E24.62138
G1 X9.358 Y9.48 E24.6527
G1 X10.613 Y9.369 E24.69467
G1 X12.279 Y9.616 E24.75077
G1 X14.341 Y10.246 E24.82259
G1 X19.253 Y12.458 E25.00204
G1 X25.139 Y15.83 E25.228
G1 X31.715 Y20.097 E25.48912
G1 X38.74 Y25.088 E25.77617
G1 X45.997 Y30.554 E26.0788
G1 X53.187 Y36.296 E26.38531
G1 X57.93 Y40.384 E26.59388
G1 X62.541 Y44.615 E26.80234
G1 X66.876 Y48.811 E27.00331
G1 X74.331 Y56.056 E27.34958
G1 X77.241 Y58.759 E27.48188
G1 X79.52 Y60.527 E27.57796
G1 X80.397 Y61.047 E27.61192
G1 X81.186 Y61.228 E27.63889
G1 X82.008 Y61.015 E27.66717
G1 X82.886 Y60.463 E27.70172
G1 X85.27 Y58.489 E27.80482
G1 X88.352 Y55.511 E27.94758
G1 X92.094 Y51.701 E28.12547
G1 X96.389 Y47.237 E28.33182
G1 X101.168 Y42.358 E28.55931
G1 X106.326 Y37.271 E28.80063
G1 X111.835 Y32.177 E29.05056
G1 X118.33 Y26.475 E29.33846
G1 X124.866 Y21.076 E29.62085
G1 X131.244 Y16.217 E29.88793
G1 X137.268 Y12.192 E30.12926
G1 X142.727 Y9.188 E30.33682
G1 X147.405 Y7.387 E30.50379
G1 X149.347 Y7.069 E30.56934
G1 X151.024 Y7.069 E30.6252
G1 X152.452 Y7.508 E30.67497
G1 X153.526 Y8.361 E30.72065
G1 X154.229 Y9.543 E30.76646
G1 X154.521 Y10.966 E30.81485
G1 X154.341 Y12.65 E30.87127
G1 X153.779 Y14.583 E30.93832
G1 X151.529 Y19.116 E31.1069
G1 X148.04 Y24.399 E31.31779
G1 X143.533 Y30.21 E31.56275
G1 X138.374 Y36.467 E31.83288
G1 X132.804 Y42.962 E32.1179
G1 X127.098 Y49.664 E32.41109
G1 X122.217 Y55.194 E32.65679
G1 X117.436 Y60.419 E32.8927
G1 X112.897 Y65.163 E33.11141
G1 X108.772 Y69.389 E33.30812
G1 X105.269 Y73.028 E33.47638
G1 X102.528 Y76.007 E33.61122
G1 X100.724 Y78.219 E33.7063
G1 X100.236 Y79.031 E33.73786
G1 X100.028 Y79.747 E33.76269
G1 X100.267 Y80.585 E33.79172
G1 X100.919 Y81.431 E33.8273
G1 X101.872 Y82.554 E33.87636
G1 X103.136 Y83.885 E33.9375
G1 X104.678 Y85.428 E34.01017
G1 X106.464 Y87.178 E34.09346
G1 X110.692 Y91.268 E34.28941
G1 X115.504 Y96.041 E34.51517
G1 X120.696 Y101.369 E34.76298
G1 X125.96 Y107.181 E35.02419
G1 X131.054 Y113.339 E35.2904
G1 X136.387 Y120.217 E35.58031
G1 X141.439 Y126.881 E35.85887
G1 X146.054 Y133.214 E36.11989
G1 X149.907 Y139.026 E36.35217
G1 X152.808 Y144.203 E36.54985
G1 X154.576 Y148.604 E36.70783
G1 X154.93 Y150.446 E36.77031
G1 X154.93 Y152.02 E36.82274
G1 X154.562 Y153.309 E36.8674
G1 X153.776 Y154.32 E36.91005
G1 X152.921 Y154.785 E36.94247
G1 X151.739 Y154.933 E36.98215
G1 X150.165 Y154.718 E37.03507
G1 X148.315 Y154.16 E37.09944
G1 X143.775 Y152.117 E37.26527
G1 X138.403 Y148.95 E37.473
G1 X132.332 Y144.778 E37.71837
G1 X125.801 Y139.831 E37.99129
G1 X118.984 Y134.255 E38.28465
G1 X112.043 Y128.244 E38.59051
G1 X107.324 Y123.837 E38.80559
G1 X102.442 Y119.097 E39.03225
G1 X97.563 Y114.287 E39.26047
G1 X92.957 Y109.684 E39.47738
G1 X88.77 Y105.567 E39.67298
G1 X85.134 Y102.277 E39.83632
G1 X83.635 Y101.015 E39.90159
G1 X82.314 Y100.068 E39.95573
G1 X81.227 Y99.442 E39.99751
G1 X80.278 Y99.228 E40.02992
G1 X79.6 Y99.463 E40.05382
G1 X78.921 Y99.981 E40.08227
G1 X78.006 Y100.794 E40.12304
G1 X76.879 Y101.886 E40.17531
G1 X74.065 Y104.801 E40.31028
G1 X70.526 Y108.544 E40.48186
G1 X66.297 Y112.909 E40.68431
G1 X61.548 Y117.656 E40.90798
G1 X56.325 Y122.671 E41.14918
G1 X50.716 Y127.693 E41.39996
G1 X43.767 Y133.469 E41.70095
G1 X36.742 Y138.908 E41.9969
G1 X29.869 Y143.821 E42.27832
G1 X23.467 Y148.017 E42.53329
G1 X17.775 Y151.362 E42.75321
G1 X13.041 Y153.572 E42.92724
G1 X11.16 Y154.233 E42.99365
G1 X9.6 Y154.588 E43.04695
G1 X8.555 Y154.551 E43.08178
G1 X7.911 Y154.294 E43.10487
G1 X7.322 Y153.314 E43.14296
G1 X7.103 Y151.995 E43.1875
G1 X7.21 Y150.256 E43.24553
G1 X7.7 Y148.223 E43.31519
G1 X9.671 Y143.315 E43.49137
G1 X12.846 Y137.452 E43.71347
G1 X17.017 Y131.009 E43.96913
G1 X21.931 Y124.138 E44.25052
G1 X27.471 Y117.088 E44.54919
G1 X33.36 Y110.135 E44.8527
G1 X38.618 Y104.364 E45.11276
G1 X43.851 Y98.961 E45.36331
G1 X48.834 Y94.049 E45.59639
G1 X53.407 Y89.649 E45.80778
G1 X57.324 Y85.906 E45.98825
G1 X60.411 Y82.888 E46.13205
G1 X61.572 Y81.66 E46.18835
G1 X62.454 Y80.644 E46.23316
G1 X63.01 Y79.859 E46.26521
G1 X63.279 Y79.14 E46.29078
G0 F2625 X63.229 Y78.896
G0 X63.326 Y78.877
G0 X63.28 Y78.97
G0 X63.261 Y79.139
G0 X43.835 Y98.949
G0 X38.607 Y104.348
G0 X33.342 Y110.125
G0 X27.46 Y117.072
G0 X21.919 Y124.122
G0 X16.997 Y131.003
G0 X12.83 Y137.441
G0 X9.655 Y143.305
G0 X7.682 Y148.218
G0 X7.191 Y150.256
G0 X7.085 Y151.996
G0 X7.305 Y153.319
G0 X7.861 Y154.353
G0 X7.925 Y154.277
G1 F900 X8.559 Y154.531 E46.29154
G1 X9.598 Y154.568 E46.29281
G1 X11.155 Y154.214 E46.29482
G1 X13.037 Y153.553 E46.29735
G1 X17.765 Y151.344 E46.30384
G1 X23.452 Y148.003 E46.31252
G1 X29.852 Y143.806 E46.32337
G1 X36.733 Y138.889 E46.33534
G1 X43.751 Y133.456 E46.34702
G1 X50.699 Y127.68 E46.35949
G1 X56.307 Y122.659 E46.37015
G1 X61.536 Y117.64 E46.3799
G1 X66.281 Y112.896 E46.38852
G1 X70.511 Y108.532 E46.39645
G1 X74.049 Y104.789 E46.40318
G1 X76.861 Y101.875 E46.40877
G1 X77.995 Y100.776 E46.41109
G1 X78.91 Y99.962 E46.41289
G1 X79.591 Y99.445 E46.41415
G1 X80.275 Y99.207 E46.41521
G1 X81.233 Y99.423 E46.41668
G1 X82.328 Y100.053 E46.4185
G1 X83.65 Y101.001 E46.42077
G1 X85.145 Y102.258 E46.42334
G1 X88.787 Y105.555 E46.43017
G1 X92.971 Y109.669 E46.43791
G1 X97.577 Y114.272 E46.44659
G1 X102.457 Y119.083 E46.45572
G1 X107.34 Y123.825 E46.46485
G1 X112.053 Y128.226 E46.4733
G1 X119.001 Y134.242 E46.48598
G1 X125.811 Y139.812 E46.49813
G1 X132.349 Y144.765 E46.50975
G1 X138.409 Y148.929 E46.5198
G1 X143.789 Y152.1 E46.52885
G1 X148.317 Y154.14 E46.53561
G1 X150.174 Y154.699 E46.53837
G1 X151.738 Y154.912 E46.5404
G1 X152.916 Y154.765 E46.54196
