;Generated by Cura LulzBot Edition GCodeWriter Version: 3.6.23
;FLAVOR:Marlin
;TIME:2431
;Filament used: 0.581849m
;Layer height: 0.25
;Generated with Cura_SteamEngine 3.6.23
M82 ;absolute extrusion mode
;This G-Code has been generated specifically for the LulzBot Mini 2 with SE 0.5mm Tool Head
M73 P0                  ; clear GLCD progress bar
M75 					; Start GLCD Print Timer
G26 					; clear potential 'probe fail' condition
M107 					; disable fans
M420 S0                 ; disable leveling matrix
G90 					; absolute positioning
M82 					; set extruder to absolute mode
G92 E0 					; set extruder position to 0
M140 S60.0 ; start bed heating up
G28 					; home all axes
G0 X0 Y187 Z156 F200 			; move away from endstops
M117 Mini 2 Wiping...			; progress indicator message on LCD
M109 R140 	; soften filament before retraction
G1 E-15 F75 				; retract filament
M109 R140 	; wait for extruder to reach wiping temp
G1 X45 Y176 F11520 			; move above wiper pad
G1 Z0 F1200 				; push nozzle into wiper
G1 X45 Y178 Z-.5 F4000		; wiping
G1 X55 Y176 Z-.5 F4000		; wiping
G1 X45 Y177 Z0 F4000		; wiping
G1 X55 Y176 F4000		; wiping
G1 X45 Y178 F4000		; wiping
G1 X55 Y176 F4000		; wiping
G1 X45 Y178 F4000		; wiping
G1 X55 Y176 F4000		; wiping
G1 X60 Y178 F4000		; wiping
G1 X80 Y176 F4000		; wiping
G1 X60 Y178 F4000		; wiping
G1 X80 Y176 F4000		; wiping
G1 X60 Y178 F4000		; wiping
G1 X90 Y176 F4000		; wiping
G1 X80 Y178 F4000		; wiping
G1 X100 Y176 F4000		; wiping
G1 X80 Y178 F4000		; wiping
G1 X100 Y176 F4000		; wiping
G1 X80 Y178 F4000		; wiping
G1 X100 Y176 F4000		; wiping
G1 X110 Y178 F4000		; wiping
G1 X100 Y176 F4000		; wiping
G1 X110 Y178 F4000		; wiping
G1 X100 Y176 F4000		; wiping
G1 X110 Y178 F4000		; wiping
G1 X115 Y176 Z-0.5 F1000	; wiping
G1 Z10					; raise extruder
G28 X0 Y0				; home X and Y
M109 R140	; wait for extruder to reach probe temp
M204 S300				; set probing acceleration
G29					; start auto-leveling sequence
M420 S1                     ; enable leveling matrix
M425 Z			     		; use measured Z backlash for compensation
M425 Z F0		     		; turn off measured Z backlash compensation. (if activated in the quality settings, this command will automatically be ignored)
M204 S2000				; restore standard acceleration
G1 X5 Y15 Z10 F5000			; move up off last probe point
G4 S1					; pause
M400					; wait for moves to finish
M117 Heating...				; progress indicator message on LCD
M109 R210 ; wait for extruder to reach initial printing temp
M190 R60.0 ; wait for bed to reach printing temp
G1 Z2 E0 F75				; prime tiny bit of filment into the nozzle
M117 Mini 2 Printing...		; progress indicator message on LCD

M221 S100 T0
G92 E0
G1 F600 E-1.75
;LAYER_COUNT:80
;LAYER:0
M107
G0 F2625 X68.12 Y67.892 Z0.425
;TYPE:SKIRT
G1 F600 E0
G1 F900 X68.574 Y67.526 E0.01943
G1 X69.073 Y67.226 E0.03882
G1 X69.609 Y66.996 E0.05825
G1 X70.171 Y66.842 E0.07766
G1 X71.009 Y66.759 E0.10571
G1 X90.991 Y66.76 E0.77132
G1 X91.573 Y66.8 E0.79075
G1 X92.143 Y66.919 E0.81015
G1 X92.692 Y67.115 E0.82956
G1 X93.209 Y67.384 E0.84898
G1 X93.684 Y67.722 E0.8684
G1 X94.108 Y68.121 E0.88779
G1 X94.474 Y68.575 E0.90722
G1 X94.774 Y69.074 E0.92661
G1 X95.004 Y69.61 E0.94604
G1 X95.158 Y70.172 E0.96545
G1 X95.241 Y71.01 E0.9935
G1 X95.241 Y90.991 E1.65907
G1 X95.201 Y91.572 E1.67847
G1 X95.082 Y92.143 E1.6979
G1 X94.886 Y92.692 E1.71732
G1 X94.617 Y93.208 E1.7367
G1 X94.279 Y93.684 E1.75615
G1 X93.88 Y94.108 E1.77554
G1 X93.426 Y94.474 E1.79497
G1 X92.927 Y94.774 E1.81436
G1 X92.391 Y95.004 E1.83379
G1 X91.829 Y95.158 E1.8532
G1 X90.991 Y95.241 E1.88125
G1 X71.009 Y95.241 E2.54686
G1 X70.428 Y95.201 E2.56626
G1 X69.857 Y95.082 E2.58569
G1 X69.308 Y94.886 E2.60511
G1 X68.792 Y94.617 E2.62449
G1 X68.316 Y94.279 E2.64394
G1 X67.892 Y93.88 E2.66333
G1 X67.526 Y93.426 E2.68276
G1 X67.226 Y92.927 E2.70215
G1 X66.996 Y92.391 E2.72158
G1 X66.842 Y91.829 E2.74099
G1 X66.759 Y90.991 E2.76904
G1 X66.759 Y71.009 E3.43465
G1 X66.799 Y70.428 E3.45405
G1 X66.918 Y69.857 E3.47348
G1 X67.114 Y69.308 E3.49289
G1 X67.383 Y68.792 E3.51228
G1 X67.721 Y68.316 E3.53172
G1 X68.12 Y67.892 E3.55112
G0 F2625 X68.61 Y68.127
G1 F900 X69.055 Y67.808 E3.56936
G1 X69.542 Y67.558 E3.58759
G1 X70.06 Y67.381 E3.60583
G1 X70.598 Y67.282 E3.62405
G1 X71.009 Y67.259 E3.63776
G1 X90.991 Y67.26 E4.30337
G1 X91.537 Y67.3 E4.3216
G1 X92.071 Y67.419 E4.33983
G1 X92.583 Y67.615 E4.35809
G1 X93.06 Y67.882 E4.3763
G1 X93.493 Y68.217 E4.39453
G1 X93.873 Y68.611 E4.41277
G1 X94.192 Y69.056 E4.43101
G1 X94.442 Y69.543 E4.44924
G1 X94.619 Y70.061 E4.46748
G1 X94.718 Y70.599 E4.4857
G1 X94.741 Y71.01 E4.49941
G1 X94.741 Y90.991 E5.16498
G1 X94.701 Y91.537 E5.18322
G1 X94.582 Y92.071 E5.20144
G1 X94.387 Y92.582 E5.21966
G1 X94.119 Y93.06 E5.23792
G1 X93.784 Y93.493 E5.25615
G1 X93.39 Y93.873 E5.27439
G1 X92.945 Y94.192 E5.29262
G1 X92.458 Y94.442 E5.31086
G1 X91.94 Y94.619 E5.32909
G1 X91.402 Y94.718 E5.34732
G1 X90.991 Y94.741 E5.36103
G1 X71.009 Y94.741 E6.02664
G1 X70.463 Y94.701 E6.04487
G1 X69.929 Y94.582 E6.0631
G1 X69.418 Y94.387 E6.08131
G1 X68.94 Y94.119 E6.09957
G1 X68.507 Y93.784 E6.1178
G1 X68.127 Y93.39 E6.13604
G1 X67.808 Y92.945 E6.15428
G1 X67.558 Y92.458 E6.17251
G1 X67.381 Y91.94 E6.19075
G1 X67.282 Y91.402 E6.20897
G1 X67.259 Y90.991 E6.22268
G1 X67.259 Y71.009 E6.88829
G1 X67.299 Y70.463 E6.90652
G1 X67.418 Y69.929 E6.92475
G1 X67.613 Y69.418 E6.94297
G1 X67.881 Y68.94 E6.96122
G1 X68.216 Y68.507 E6.97946
G1 X68.61 Y68.127 E6.99769
G0 F2625 X68.709 Y68.713
G1 F900 X69.096 Y68.381 E7.01468
G1 X69.531 Y68.115 E7.03166
G1 X70.001 Y67.919 E7.04862
G1 X70.496 Y67.8 E7.06558
G1 X71.009 Y67.759 E7.08272
G1 X90.991 Y67.76 E7.74833
G1 X91.499 Y67.8 E7.76531
G1 X91.995 Y67.919 E7.7823
G1 X92.465 Y68.114 E7.79925
G1 X92.9 Y68.38 E7.81623
G1 X93.288 Y68.71 E7.8332
G1 X93.619 Y69.098 E7.85019
G1 X93.885 Y69.532 E7.86714
G1 X94.081 Y70.002 E7.8841
G1 X94.2 Y70.498 E7.9011
G1 X94.241 Y71.01 E7.9182
G1 X94.241 Y90.991 E8.58378
G1 X94.201 Y91.499 E8.60075
G1 X94.082 Y91.994 E8.61771
G1 X93.887 Y92.465 E8.63469
G1 X93.621 Y92.9 E8.65168
G1 X93.291 Y93.287 E8.66862
G1 X92.904 Y93.619 E8.6856
G1 X92.469 Y93.885 E8.70259
G1 X91.999 Y94.081 E8.71955
G1 X91.504 Y94.2 E8.73651
G1 X90.991 Y94.241 E8.75365
G1 X71.009 Y94.241 E9.41926
G1 X70.501 Y94.201 E9.43623
G1 X70.006 Y94.082 E9.45319
G1 X69.535 Y93.887 E9.47017
G1 X69.1 Y93.621 E9.48716
G1 X68.713 Y93.291 E9.5041
G1 X68.381 Y92.904 E9.52108
G1 X68.115 Y92.469 E9.53807
G1 X67.919 Y91.999 E9.55503
G1 X67.8 Y91.504 E9.57199
G1 X67.759 Y90.991 E9.58913
G1 X67.759 Y71.009 E10.25474
G1 X67.799 Y70.501 E10.27171
G1 X67.918 Y70.006 E10.28867
G1 X68.113 Y69.535 E10.30565
G1 X68.379 Y69.1 E10.32264
G1 X68.709 Y68.713 E10.33958
G1 F600 E8.58958
;MESH:
G0 F2625 X71.764 Y70.335
G0 X71.764 Y71.764
G0 X90.18 Y90.18
G0 X90.25 Y90.25
;TYPE:WALL-INNER
G1 F600 E10.33958
G1 F900 X71.75 Y90.25 E10.95582
G1 X71.75 Y71.75 E11.57206
G1 X90.25 Y71.75 E12.1883
G1 X90.25 Y90.25 E12.80454
G0 F2625 X90.75 Y90.75
;TYPE:WALL-OUTER
G1 F900 X71.25 Y90.75 E13.4541
G1 X71.25 Y71.25 E14.10365
G1 X90.75 Y71.25 E14.7532
G1 X90.75 Y90.75 E15.40275
G0 F2625 X90.5 Y90.75
G0 X90.18 Y90.18
G0 X89.76 Y89.76
;TYPE:SKIN
G1 F900 X72.24 Y89.76 E15.98635
G1 X72.24 Y72.24 E16.56995
G1 X89.76 Y72.24 E17.15354
G1 X89.76 Y89.76 E17.73714
G0 F2625 X89.534 Y72.564
G1 F900 X89.435 Y72.465 E17.74181
G0 F2625 X88.728 Y72.465
G1 F900 X89.534 Y73.271 E17.77977
G0 F2625 X89.534 Y73.978
G1 F900 X88.021 Y72.465 E17.85105
G0 F2625 X87.314 Y72.465
G1 F900 X89.534 Y74.685 E17.95563
G0 F2625 X89.534 Y75.392
G1 F900 X86.607 Y72.465 E18.09351
G0 F2625 X85.9 Y72.465
G1 F900 X89.534 Y76.099 E18.2647
G0 F2625 X89.534 Y76.806
G1 F900 X85.192 Y72.465 E18.46922
G0 F2625 X84.485 Y72.465
G1 F900 X89.534 Y77.513 E18.70705
G0 F2625 X89.534 Y78.22
G1 F900 X83.778 Y72.465 E18.97818
G0 F2625 X83.071 Y72.465
G1 F900 X89.534 Y78.927 E19.28261
G0 F2625 X89.534 Y79.635
G1 F900 X82.364 Y72.465 E19.62038
G0 F2625 X81.657 Y72.465
G1 F900 X89.534 Y80.342 E19.99145
G0 F2625 X89.534 Y81.049
G1 F900 X80.95 Y72.465 E20.39582
G0 F2625 X80.243 Y72.465
G1 F900 X89.534 Y81.756 E20.8335
G0 F2625 X89.534 Y82.463
G1 F900 X79.536 Y72.465 E21.30449
G0 F2625 X78.828 Y72.465
G1 F900 X89.534 Y83.17 E21.8088
G0 F2625 X89.534 Y83.877
G1 F900 X78.121 Y72.465 E22.34642
G0 F2625 X77.414 Y72.465
G1 F900 X89.534 Y84.584 E22.91735
G0 F2625 X89.534 Y85.291
G1 F900 X76.707 Y72.465 E23.52158
G0 F2625 X76 Y72.465
G1 F900 X89.534 Y85.999 E24.15914
G0 F2625 X89.534 Y86.706
G1 F900 X75.293 Y72.465 E24.83
G0 F2625 X74.586 Y72.465
G1 F900 X89.534 Y87.413 E25.53417
G0 F2625 X89.534 Y88.12
G1 F900 X73.879 Y72.465 E26.27164
G0 F2625 X73.172 Y72.465
G1 F900 X89.534 Y88.827 E27.04243
G0 F2625 X89.534 Y89.534
G1 F900 X72.464 Y72.464 E27.84656
G0 F2625 X72.464 Y73.171
G1 F900 X88.827 Y89.534 E28.61739
G0 F2625 X88.12 Y89.534
G1 F900 X72.464 Y73.878 E29.35491
G0 F2625 X72.464 Y74.585
G1 F900 X87.413 Y89.534 E30.05912
G0 F2625 X86.706 Y89.534
G1 F900 X72.464 Y75.292 E30.73004
G0 F2625 X72.464 Y75.999
G1 F900 X85.999 Y89.534 E31.36764
G0 F2625 X85.291 Y89.534
G1 F900 X72.464 Y76.706 E31.97192
G0 F2625 X72.464 Y77.414
G1 F900 X84.584 Y89.534 E32.54287
G0 F2625 X83.877 Y89.534
G1 F900 X72.464 Y78.121 E33.08051
G0 F2625 X72.464 Y78.828
G1 F900 X83.17 Y89.534 E33.58485
G0 F2625 X82.463 Y89.534
G1 F900 X72.464 Y79.535 E34.05588
G0 F2625 X72.464 Y80.242
G1 F900 X81.756 Y89.534 E34.49361
G0 F2625 X81.049 Y89.534
G1 F900 X72.464 Y80.949 E34.89803
G0 F2625 X72.464 Y81.656
G1 F900 X80.342 Y89.534 E35.26915
G0 F2625 X79.635 Y89.534
G1 F900 X72.464 Y82.363 E35.60696
G0 F2625 X72.464 Y83.07
G1 F900 X78.927 Y89.534 E35.91144
G0 F2625 X78.22 Y89.534
G1 F900 X72.464 Y83.778 E36.18259
G0 F2625 X72.464 Y84.485
G1 F900 X77.513 Y89.534 E36.42044
G0 F2625 X76.806 Y89.534
G1 F900 X72.464 Y85.192 E36.62499
G0 F2625 X72.464 Y85.899
M104 S205
G1 F900 X76.099 Y89.534 E36.79622
G0 F2625 X75.392 Y89.534
G1 F900 X72.464 Y86.606 E36.93416
G0 F2625 X72.464 Y87.313
G1 F900 X74.685 Y89.534 E37.03878
G0 F2625 X73.978 Y89.534
G1 F900 X72.464 Y88.02 E37.1101
G0 F2625 X72.464 Y88.727
G1 F900 X73.271 Y89.534 E37.14812
G0 F2625 X72.564 Y89.534
G1 F900 X72.464 Y89.434 E37.15283
;MESH:NONMESH
G0 F2625 X90.18 Y90.18
G0 X90.25 Y90.25
;TIME_ELAPSED:83.828043
;LAYER:1
M140 S60
M221 S100 T0
M106 S255
;MESH:
G0 F6562.5 X90.25 Y90.25 Z0.675
;TYPE:WALL-INNER
G1 F1350 X71.75 Y90.25 E37.51533
G1 X71.75 Y71.75 E37.87782
G1 X90.25 Y71.75 E38.24032
G1 X90.25 Y90.25 E38.60281
G0 F6562.5 X90.75 Y90.75
;TYPE:WALL-OUTER
G1 F1350 X71.25 Y90.75 E38.9849
G1 X71.25 Y71.25 E39.36699
G1 X90.75 Y71.25 E39.74908
G1 X90.75 Y90.75 E40.13117
G0 F6562.5 X90.5 Y90.75
G0 X90.18 Y90.18
G0 X89.76 Y89.76
;TYPE:SKIN
G1 F1350 X72.24 Y89.76 E40.47446
G1 X72.24 Y72.24 E40.81775
G1 X89.76 Y72.24 E41.16105
G1 X89.76 Y89.76 E41.50434
G0 F6562.5 X89.363 Y89.534
G1 F1350 X89.534 Y89.363 E41.50908
G0 F6562.5 X89.534 Y88.656
G1 F1350 X88.656 Y89.534 E41.53341
G0 F6562.5 X87.949 Y89.534
G1 F1350 X89.534 Y87.949 E41.57733
G0 F6562.5 X89.534 Y87.242
G1 F1350 X87.242 Y89.534 E41.64084
G0 F6562.5 X86.535 Y89.534
G1 F1350 X89.534 Y86.535 E41.72395
G0 F6562.5 X89.534 Y85.827
G1 F1350 X85.827 Y89.534 E41.82667
G0 F6562.5 X85.12 Y89.534
G1 F1350 X89.534 Y85.12 E41.94898
G0 F6562.5 X89.534 Y84.413
G1 F1350 X84.413 Y89.534 E42.09089
G0 F6562.5 X83.706 Y89.534
G1 F1350 X89.534 Y83.706 E42.25239
G0 F6562.5 X89.534 Y82.999
G1 F1350 X82.999 Y89.534 E42.43347
G0 F6562.5 X82.292 Y89.534
G1 F1350 X89.534 Y82.292 E42.63415
G0 F6562.5 X89.534 Y81.585
G1 F1350 X81.585 Y89.534 E42.85443
G0 F6562.5 X80.878 Y89.534
G1 F1350 X89.534 Y80.878 E43.09429
G0 F6562.5 X89.534 Y80.171
G1 F1350 X80.171 Y89.534 E43.35374
G0 F6562.5 X79.463 Y89.534
G1 F1350 X89.534 Y79.463 E43.63282
G0 F6562.5 X89.534 Y78.756
G1 F1350 X78.756 Y89.534 E43.93148
G0 F6562.5 X78.049 Y89.534
G1 F1350 X89.534 Y78.049 E44.24974
G0 F6562.5 X89.534 Y77.342
G1 F1350 X77.342 Y89.534 E44.58758
G0 F6562.5 X76.635 Y89.534
G1 F1350 X89.534 Y76.635 E44.94502
G0 F6562.5 X89.534 Y75.928
G1 F1350 X75.928 Y89.534 E45.32205
G0 F6562.5 X75.221 Y89.534
G1 F1350 X89.534 Y75.221 E45.71867
G0 F6562.5 X89.534 Y74.514
G1 F1350 X74.514 Y89.534 E46.13489
G0 F6562.5 X73.807 Y89.534
G1 F1350 X89.534 Y73.807 E46.57069
G0 F6562.5 X89.534 Y73.099
G1 F1350 X73.099 Y89.534 E47.02611
G0 F6562.5 X72.465 Y89.462
G1 F1350 X89.463 Y72.464 E47.49714
G0 F6562.5 X88.756 Y72.464
G1 F1350 X72.465 Y88.755 E47.94857
G0 F6562.5 X72.465 Y88.048
G1 F1350 X88.048 Y72.464 E48.3804
G0 F6562.5 X87.341 Y72.464
G1 F1350 X72.465 Y87.341 E48.79263
G0 F6562.5 X72.465 Y86.634
G1 F1350 X86.634 Y72.464 E49.18528
G0 F6562.5 X85.927 Y72.464
G1 F1350 X72.465 Y85.926 E49.55832
G0 F6562.5 X72.465 Y85.219
G1 F1350 X85.22 Y72.464 E49.91177
G0 F6562.5 X84.513 Y72.464
G1 F1350 X72.465 Y84.512 E50.24562
G0 F6562.5 X72.465 Y83.805
G1 F1350 X83.806 Y72.464 E50.55989
G0 F6562.5 X83.099 Y72.464
G1 F1350 X72.465 Y83.098 E50.85456
G0 F6562.5 X72.465 Y82.391
G1 F1350 X82.392 Y72.464 E51.12965
G0 F6562.5 X81.684 Y72.464
G1 F1350 X72.465 Y81.684 E51.38512
G0 F6562.5 X72.465 Y80.977
G1 F1350 X80.977 Y72.464 E51.62101
G0 F6562.5 X80.27 Y72.464
G1 F1350 X72.465 Y80.27 E51.8373
G0 F6562.5 X72.465 Y79.562
G1 F1350 X79.563 Y72.464 E52.03399
G0 F6562.5 X78.856 Y72.464
G1 F1350 X72.465 Y78.855 E52.21109
G0 F6562.5 X72.465 Y78.148
G1 F1350 X78.149 Y72.464 E52.3686
G0 F6562.5 X77.442 Y72.464
G1 F1350 X72.465 Y77.441 E52.50651
G0 F6562.5 X72.465 Y76.734
G1 F1350 X76.735 Y72.464 E52.62484
G0 F6562.5 X76.028 Y72.464
G1 F1350 X72.465 Y76.027 E52.72357
G0 F6562.5 X72.465 Y75.32
G1 F1350 X75.321 Y72.464 E52.80271
G0 F6562.5 X74.613 Y72.464
G1 F1350 X72.465 Y74.613 E52.86225
G0 F6562.5 X72.465 Y73.906
G1 F1350 X73.906 Y72.464 E52.90219
G0 F6562.5 X73.199 Y72.464
G1 F1350 X72.465 Y73.198 E52.92253
G1 X72.377 Y73.286
;MESH:NONMESH
G0 F6562.5 X90.18 Y90.18
G0 X90.25 Y90.25
;TIME_ELAPSED:122.275279
;LAYER:2
;MESH:
G0 F10500 X90.25 Y90.25 Z0.925
;TYPE:WALL-INNER
G1 F1634.2 X71.75 Y90.25 E53.28503
G1 X71.75 Y71.75 E53.64752
G1 X90.25 Y71.75 E54.01002
G1 X90.25 Y90.25 E54.37251
G0 F10500 X90.75 Y90.75
;TYPE:WALL-OUTER
G1 F1634.2 X71.25 Y90.75 E54.7546
G1 X71.25 Y71.25 E55.13669
G1 X90.75 Y71.25 E55.51878
G1 X90.75 Y90.75 E55.90087
G0 F10500 X90.5 Y90.75
G0 X90.18 Y90.18
G0 X89.76 Y89.76
;TYPE:SKIN
G1 F1634.2 X72.24 Y89.76 E56.24416
G1 X72.24 Y72.24 E56.58746
G1 X89.76 Y72.24 E56.93075
G1 X89.76 Y89.76 E57.27404
G0 F10500 X89.534 Y72.564
G1 F1634.2 X89.435 Y72.465 E57.27679
G0 F10500 X88.728 Y72.465
G1 F1634.2 X89.534 Y73.271 E57.29912
G0 F10500 X89.534 Y73.978
G1 F1634.2 X88.021 Y72.465 E57.34105
G0 F10500 X87.314 Y72.465
G1 F1634.2 X89.534 Y74.685 E57.40256
G0 F10500 X89.534 Y75.392
G1 F1634.2 X86.607 Y72.465 E57.48367
G0 F10500 X85.9 Y72.465
G1 F1634.2 X89.534 Y76.099 E57.58437
G0 F10500 X89.534 Y76.806
G1 F1634.2 X85.192 Y72.465 E57.70468
G0 F10500 X84.485 Y72.465
G1 F1634.2 X89.534 Y77.513 E57.84458
G0 F10500 X89.534 Y78.22
G1 F1634.2 X83.778 Y72.465 E58.00406
G0 F10500 X83.071 Y72.465
G1 F1634.2 X89.534 Y78.927 E58.18314
G0 F10500 X89.534 Y79.635
G1 F1634.2 X82.364 Y72.465 E58.38183
G0 F10500 X81.657 Y72.465
G1 F1634.2 X89.534 Y80.342 E58.6001
G0 F10500 X89.534 Y81.049
G1 F1634.2 X80.95 Y72.465 E58.83797
G0 F10500 X80.243 Y72.465
G1 F1634.2 X89.534 Y81.756 E59.09543
G0 F10500 X89.534 Y82.463
G1 F1634.2 X79.536 Y72.465 E59.37248
G0 F10500 X78.828 Y72.465
G1 F1634.2 X89.534 Y83.17 E59.66914
G0 F10500 X89.534 Y83.877
G1 F1634.2 X78.121 Y72.465 E59.98538
G0 F10500 X77.414 Y72.465
