;Generated by Cura LulzBot Edition GCodeWriter Version: 2.6.69
;FLAVOR:RepRap
;TIME:2953
;Filament used: 0.911233m
;Layer height: 0.3592
;Generated with Cura_SteamEngine 2.6.69
;This G-Code has been generated specifically for the LulzBot Mini with Aerostruder
G26 ; clear potential 'probe fail' condition
G21 ; set units to Millimetres
M107 ; disable fans
G90 ; absolute positioning
M82 ; set extruder to absolute mode
G92 E0 ; set extruder position to 0
M140 S40 ; start bed heating up
G28 ; home all axes
G0 X0 Y187 Z156 F200 ; move away from endstops
M109 R180 ; soften filament before retraction
G1 E-15 F75 ; retract filament
M109 R180 ; wait for extruder to reach wiping temp
G1 X45 Y173 F11520 ; move above wiper pad
G1 Z0 F1200 ; push nozzle into wiper
G1 X42 Y173 Z-.5 F4000 ; wiping
G1 X52 Y171 Z-.5 F4000 ; wiping
G1 X42 Y173 Z0 F4000 ; wiping
G1 X52 Y171 F4000 ; wiping
G1 X42 Y173 F4000 ; wiping
G1 X52 Y171 F4000 ; wiping
G1 X42 Y173 F4000 ; wiping
G1 X52 Y171 F4000 ; wiping
G1 X57 Y173 F4000 ; wiping
G1 X77 Y171 F4000 ; wiping
G1 X57 Y173 F4000 ; wiping
G1 X77 Y171 F4000 ; wiping
G1 X57 Y173 F4000 ; wiping
G1 X87 Y171 F4000 ; wiping
G1 X77 Y173 F4000 ; wiping
G1 X97 Y171 F4000 ; wiping
G1 X77 Y173 F4000 ; wiping
G1 X97 Y171 F4000 ; wiping
G1 X77 Y173 F4000 ; wiping
G1 X97 Y171 F4000 ; wiping
G1 X107 Y173 F4000 ; wiping
G1 X97 Y171 F4000 ; wiping
G1 X107 Y173 F4000 ; wiping
G1 X97 Y171 F4000 ; wiping
G1 X107 Y173 F4000 ; wiping
G1 X112 Y171 Z-0.5 F1000 ; wiping
G1 Z10 ; raise extruder
G28 X0 Y0 ; home X and Y
G0 X0 Y187 F200 ; move away from endstops
M109 R180 ; wait for extruder to reach probe temp
M204 S300 ; set probing acceleration
G29 ; start auto-leveling sequence
M204 S2000 ; restore standard acceleration
G28 X0 Y0 ; re-home to account for build variance of earlier mini builds
G0 X0 Y187 F200 ; move away from endstops
G0 Y152 F4000 ; move in front of wiper pad
G4 S1 ; pause
M400 ; wait for moves to finish
M117 Heating... ; progress indicator message on LCD
M109 R235 ; wait for extruder to reach printing temp
M190 S40 ; wait for bed to reach printing temp
G1 Z2 E0 F75 ; prime tiny bit of filament into the nozzle
M117 Mini Printing... ; progress indicator message on LCD


G92 E606.16349
;LAYER_COUNT:24
;LAYER:0
G0 F2800 X16.87 Y118.116 
G0 F2800 Z0.42
;TYPE:SKIRT
G1 F240 E607.66349
G1 F480 X17.398 Y118.082 E607.68368
G1 X17.784 Y118.108 E607.69844
G1 X18.551 Y118.202 E607.72792
G1 X19.069 Y118.306 E607.74807
G1 X19.437 Y118.431 E607.7629
G1 X20.164 Y118.725 E607.79282
G1 X20.638 Y118.96 E607.813
G1 X21.035 Y119.234 E607.83141
G1 X21.871 Y119.901 E607.87221
G1 X22.169 Y120.168 E607.88748
G1 X27.927 Y125.955 E608.19893
G1 X28.17 Y126.226 E608.21282
G1 X29.08 Y127.354 E608.26811
G1 X29.309 Y127.674 E608.28312
G1 X29.861 Y128.542 E608.32237
G1 X30.028 Y128.833 E608.33517
G1 X30.533 Y129.826 E608.37767
G1 X30.675 Y130.145 E608.39099
G1 X31.048 Y131.105 E608.43029
G1 X31.153 Y131.418 E608.44288
G1 X31.451 Y132.469 E608.48456
G1 X31.529 Y132.806 E608.49776
G1 X31.717 Y133.854 E608.53838
G1 X31.761 Y134.199 E608.55165
G1 X31.847 Y135.298 E608.5937
G1 X31.857 Y135.64 E608.60676
G1 X31.836 Y136.704 E608.64736
G1 X31.811 Y137.058 E608.6609
G1 X31.664 Y138.265 E608.70729
G1 X31.599 Y138.636 E608.72166
G1 X31.358 Y139.67 E608.76216
G1 X31.264 Y139.998 E608.77518
G1 X30.905 Y141.059 E608.81792
G1 X30.778 Y141.382 E608.83116
G1 X30.346 Y142.335 E608.87108
G1 X30.193 Y142.634 E608.88389
G1 X29.661 Y143.56 E608.92463
G1 X29.471 Y143.855 E608.93802
G1 X28.826 Y144.755 E608.98027
G1 X28.594 Y145.045 E608.99443
G1 X27.619 Y146.139 E609.05034
G1 X27.479 Y146.287 E609.05812
G1 X21.972 Y151.784 E609.35497
G1 X21.634 Y152.08 E609.37212
G1 X21.03 Y152.545 E609.4012
G1 X20.588 Y152.835 E609.42137
G1 X20.257 Y152.996 E609.43541
G1 X19.542 Y153.298 E609.46502
G1 X19.041 Y153.467 E609.48519
G1 X18.665 Y153.54 E609.49981
G1 X17.886 Y153.649 E609.52982
G1 X17.358 Y153.683 E609.55
G1 X16.978 Y153.657 E609.56453
G1 X16.214 Y153.564 E609.5939
G1 X15.696 Y153.461 E609.61405
G1 X15.323 Y153.334 E609.62908
G1 X14.585 Y153.035 E609.65946
G1 X14.111 Y152.8 E609.67964
G1 X13.657 Y152.478 E609.70088
G1 X12.643 Y151.632 E609.75126
G1 X12.41 Y151.42 E609.76328
G1 X3.408 Y142.417 E610.24901
G1 X3.203 Y142.193 E610.26059
G1 X1.909 Y140.652 E610.33736
G1 X1.6 Y140.222 E610.35756
G1 X1.362 Y139.756 E610.37753
G1 X0.857 Y138.553 E610.4273
G1 X0.69 Y138.051 E610.44749
G1 X0.616 Y137.673 E610.46218
G1 X0.44 Y136.387 E610.5117
G1 X0.408 Y135.859 E610.53188
G1 X0.435 Y135.479 E610.54642
G1 X0.597 Y134.181 E610.59632
G1 X0.702 Y133.662 E610.61652
G1 X0.831 Y133.288 E610.63162
G1 X1.323 Y132.086 E610.68117
G1 X1.56 Y131.613 E610.70135
G1 X1.818 Y131.239 E610.71869
G1 X2.837 Y129.952 E610.78132
G1 X3.112 Y129.644 E610.79707
G1 X12.979 Y119.824 E611.32817
G1 X13.36 Y119.496 E611.34735
G1 X13.781 Y119.183 E611.36737
G1 X14.228 Y118.901 E611.38753
G1 X14.503 Y118.769 E611.39917
G1 X15.211 Y118.469 E611.42851
G1 X15.713 Y118.3 E611.44872
G1 X16.089 Y118.226 E611.46334
G1 X16.87 Y118.116 E611.49343
G0 F2800 X16.954 Y118.71
G1 F480 X17.434 Y118.683 E611.51177
G1 X17.711 Y118.704 E611.52237
G1 X18.478 Y118.798 E611.55185
G1 X18.949 Y118.896 E611.5702
G1 X19.212 Y118.988 E611.58083
G1 X19.939 Y119.282 E611.61075
G1 X20.369 Y119.498 E611.62911
G1 X20.661 Y119.703 E611.64272
G1 X21.497 Y120.37 E611.68352
G1 X21.744 Y120.592 E611.69619
G1 X27.502 Y126.379 E612.00765
G1 X27.703 Y126.603 E612.01913
G1 X28.613 Y127.731 E612.07442
G1 X28.803 Y127.996 E612.08687
G1 X29.355 Y128.864 E612.12611
G1 X29.493 Y129.105 E612.13671
G1 X29.998 Y130.098 E612.17921
G1 X30.116 Y130.363 E612.19028
G1 X30.489 Y131.323 E612.22957
G1 X30.576 Y131.582 E612.23999
G1 X30.874 Y132.633 E612.28167
G1 X30.938 Y132.912 E612.29259
G1 X31.126 Y133.96 E612.33321
G1 X31.163 Y134.246 E612.34421
G1 X31.249 Y135.345 E612.38627
G1 X31.257 Y135.628 E612.39707
G1 X31.236 Y136.692 E612.43767
G1 X31.216 Y136.986 E612.44892
G1 X31.069 Y138.193 E612.49531
G1 X31.014 Y138.5 E612.50721
G1 X30.773 Y139.534 E612.54771
G1 X30.696 Y139.805 E612.55846
G1 X30.337 Y140.866 E612.60119
G1 X30.231 Y141.134 E612.61219
G1 X29.799 Y142.087 E612.65211
G1 X29.673 Y142.335 E612.66272
G1 X29.141 Y143.261 E612.70347
G1 X28.983 Y143.505 E612.71456
G1 X28.338 Y144.405 E612.7568
G1 X28.146 Y144.645 E612.76853
G1 X27.171 Y145.739 E612.82443
G1 X27.055 Y145.862 E612.83088
G1 X21.548 Y151.359 E613.12774
G1 X21.268 Y151.605 E613.14196
G1 X20.664 Y152.07 E613.17104
G1 X20.26 Y152.331 E613.18939
G1 X20.023 Y152.443 E613.1994
G1 X19.308 Y152.745 E613.22901
G1 X18.851 Y152.895 E613.24736
G1 X18.582 Y152.946 E613.2578
G1 X17.803 Y153.055 E613.28781
G1 X17.322 Y153.082 E613.30619
G1 X17.051 Y153.062 E613.31656
G1 X16.287 Y152.969 E613.34592
G1 X15.815 Y152.871 E613.36432
G1 X15.548 Y152.778 E613.3751
G1 X14.81 Y152.479 E613.40548
G1 X14.381 Y152.262 E613.42382
G1 X14.041 Y152.018 E613.43979
G1 X13.027 Y151.172 E613.49017
G1 X12.834 Y150.995 E613.50016
G1 X3.832 Y141.992 E613.98589
G1 X3.662 Y141.807 E613.99548
G1 X2.368 Y140.266 E614.07225
G1 X2.09 Y139.873 E614.09061
G1 X1.915 Y139.523 E614.10554
G1 X1.41 Y138.32 E614.15532
G1 X1.261 Y137.863 E614.17366
G1 X1.211 Y137.591 E614.18421
G1 X1.035 Y136.305 E614.23373
G1 X1.009 Y135.825 E614.25207
G1 X1.03 Y135.553 E614.26248
G1 X1.192 Y134.255 E614.31238
G1 X1.291 Y133.784 E614.33074
G1 X1.386 Y133.515 E614.34163
G1 X1.878 Y132.313 E614.39118
G1 X2.097 Y131.885 E614.40952
G1 X2.288 Y131.612 E614.42223
G1 X3.307 Y130.325 E614.48486
G1 X3.535 Y130.07 E614.49791
G1 X13.402 Y120.25 E615.02902
G1 X13.718 Y119.978 E615.04492
G1 X14.139 Y119.665 E615.06494
G1 X14.738 Y119.322 E615.09127
G1 X15.446 Y119.022 E615.12061
G1 X15.903 Y118.871 E615.13897
G1 X16.173 Y118.82 E615.14945
G1 X16.954 Y118.71 E615.17955
G0 F2800 X17.037 Y119.304
G1 F480 X17.638 Y119.299 E615.20248
G1 X18.405 Y119.393 E615.23196
G1 X18.987 Y119.544 E615.2549
G1 X19.714 Y119.838 E615.28481
G1 X20.095 Y120.035 E615.30118
G1 X20.286 Y120.172 E615.31015
G1 X21.122 Y120.839 E615.35095
G1 X21.318 Y121.015 E615.361
G1 X27.076 Y126.802 E615.67245
G1 X27.236 Y126.98 E615.68158
G1 X28.146 Y128.108 E615.73688
G1 X28.297 Y128.318 E615.74675
G1 X28.849 Y129.186 E615.78599
G1 X28.958 Y129.377 E615.79438
G1 X29.463 Y130.37 E615.83688
G1 X29.557 Y130.58 E615.84566
G1 X29.93 Y131.54 E615.88495
G1 X29.999 Y131.746 E615.89324
G1 X30.297 Y132.797 E615.93492
G1 X30.348 Y133.018 E615.94357
G1 X30.536 Y134.066 E615.9842
G1 X30.565 Y134.293 E615.99293
G1 X30.651 Y135.392 E616.03498
G1 X30.658 Y135.616 E616.04353
G1 X30.637 Y136.68 E616.08414
G1 X30.62 Y136.913 E616.09305
G1 X30.473 Y138.12 E616.13944
G1 X30.43 Y138.364 E616.14889
G1 X30.189 Y139.398 E616.1894
G1 X30.128 Y139.613 E616.19792
G1 X29.769 Y140.674 E616.24066
G1 X29.685 Y140.887 E616.24939
G1 X29.253 Y141.84 E616.28931
G1 X29.152 Y142.036 E616.29772
G1 X28.62 Y142.962 E616.33847
G1 X28.495 Y143.156 E616.34727
G1 X27.85 Y144.056 E616.38952
G1 X27.698 Y144.246 E616.3988
G1 X26.723 Y145.34 E616.45471
G1 X26.631 Y145.438 E616.45984
G1 X21.124 Y150.935 E616.7567
G1 X20.902 Y151.129 E616.76794
G1 X20.298 Y151.594 E616.79702
G1 X19.79 Y151.891 E616.81948
G1 X19.075 Y152.193 E616.84909
G1 X18.499 Y152.352 E616.87188
G1 X17.72 Y152.461 E616.90189
G1 X17.123 Y152.466 E616.92467
G1 X16.359 Y152.373 E616.95403
G1 X15.773 Y152.222 E616.97712
G1 X15.035 Y151.923 E617.0075
G1 X14.655 Y151.726 E617.02383
G1 X14.426 Y151.557 E617.03469
G1 X13.412 Y150.711 E617.08507
G1 X13.259 Y150.571 E617.09298
G1 X4.257 Y141.568 E617.57871
G1 X4.122 Y141.421 E617.58633
G1 X2.828 Y139.88 E617.6631
G1 X2.584 Y139.528 E617.67944
G1 X2.468 Y139.291 E617.6895
G1 X1.963 Y138.088 E617.73928
G1 X1.805 Y137.51 E617.76214
G1 X1.629 Y136.224 E617.81166
G1 X1.626 Y135.627 E617.83444
G1 X1.788 Y134.329 E617.88434
G1 X1.941 Y133.743 E617.90745
G1 X2.433 Y132.541 E617.957
G1 X2.632 Y132.161 E617.97337
G1 X2.759 Y131.984 E617.98168
G1 X3.778 Y130.697 E618.04431
G1 X3.959 Y130.495 E618.05465
G1 X13.826 Y120.675 E618.58576
G1 X14.076 Y120.459 E618.59836
G1 X14.497 Y120.146 E618.61838
G1 X14.972 Y119.874 E618.63926
G1 X15.68 Y119.574 E618.6686
G1 X16.256 Y119.414 E618.69141
G1 X17.037 Y119.304 E618.7215
G1 F240 E617.2215
G0 F2800 X17.213 Y120.922
G0 X17.38 Y122.193
G0 X17.38 Y122.273
G0 X17.38 Y122.173
;TYPE:WALL-INNER
G1 F240 E618.7215
G1 F480 X17.998 Y122.255 E618.73735
G1 X18.577 Y122.494 E618.75328
G1 X19.106 Y122.901 E618.77026
G1 X24.227 Y128.022 E618.95446
G1 X24.256 Y128.051 E618.95551
G1 X24.724 Y128.519 E618.97234
G1 X24.742 Y128.539 E618.97302
G1 X25.197 Y129.041 E618.99026
G1 X25.296 Y129.15 E618.994
G1 X25.417 Y129.283 E618.99857
G1 X26.028 Y130.106 E619.02464
G1 X26.553 Y130.982 E619.05062
G1 X26.98 Y131.887 E619.07607
G1 X27.332 Y132.868 E619.10258
G1 X27.578 Y133.849 E619.1283
G1 X27.729 Y134.861 E619.15433
G1 X27.778 Y135.876 E619.18018
G1 X27.729 Y136.905 E619.20638
G1 X27.578 Y137.916 E619.23238
G1 X27.328 Y138.911 E619.25847
G1 X26.991 Y139.856 E619.28399
G1 X26.551 Y140.786 E619.31016
G1 X26.028 Y141.659 E619.33604
G1 X25.422 Y142.476 E619.36191
G1 X25.296 Y142.615 E619.36669
G1 X25.198 Y142.723 E619.37039
G1 X24.742 Y143.226 E619.38766
G1 X24.723 Y143.247 E619.38838
G1 X24.258 Y143.713 E619.40513
G1 X24.229 Y143.742 E619.40617
G1 X19.106 Y148.865 E619.59044
G1 X18.577 Y149.27 E619.60739
G1 X17.998 Y149.51 E619.62333
G1 X17.38 Y149.592 E619.63919
G1 X16.763 Y149.51 E619.65502
G1 X16.182 Y149.27 E619.67101
G1 X15.653 Y148.865 E619.68795
G1 X5.812 Y139.023 E620.04195
G1 X5.088 Y138.08 E620.07219
G1 X4.649 Y137.02 E620.10137
G1 X4.498 Y135.883 E620.13054
G1 X4.649 Y134.746 E620.15971
G1 X5.088 Y133.686 E620.1889
G1 X5.812 Y132.742 E620.21915
G1 X15.653 Y122.901 E620.57313
G1 X16.182 Y122.495 E620.59009
G1 X16.763 Y122.255 E620.60608
G1 X17.38 Y122.173 E620.62191
G0 F2800 X17.38 Y122.273
G0 X21.331 Y128.237
G0 X21.38 Y128.323
G1 F480 X20.841 Y128.737 E620.6392
G1 X20.427 Y129.276 E620.65649
G1 X20.167 Y129.905 E620.6738
G1 X20.077 Y130.579 E620.69109
G1 X20.167 Y131.254 E620.70841
G1 X20.427 Y131.882 E620.7257
G1 X20.583 Y132.086 E620.73223
G1 X20.841 Y132.422 E620.74301
G1 X21.174 Y132.677 E620.75368
G1 X21.38 Y132.835 E620.76028
G1 X22.008 Y133.095 E620.77757
G1 X22.683 Y133.185 E620.79489
G1 X23.358 Y133.095 E620.81221
G1 X23.986 Y132.835 E620.82949
G1 X24.525 Y132.422 E620.84677
G1 X24.939 Y131.882 E620.86407
G1 X25.199 Y131.254 E620.88136
G1 X25.289 Y130.579 E620.89868
G1 X25.199 Y129.905 E620.91597
G1 X24.995 Y129.412 E620.92955
G1 X24.939 Y129.276 E620.93305
G1 X24.525 Y128.737 E620.94697
G1 X23.986 Y128.323 E620.96166
G1 X23.948 Y128.307 E620.96269
G1 X23.358 Y128.064 E620.97892
G1 X22.683 Y127.973 E620.99624
G1 X22.008 Y128.064 E621.01357
G1 X21.38 Y128.323 E621.03084
G0 F2800 X21.331 Y128.237
G0 X20.813 Y128.709
G0 X20.393 Y129.257
G0 X20.129 Y129.895
G0 X19.777 Y131.84
G0 X19.724 Y131.924
G1 F480 X19.598 Y131.859 E621.03445
G1 X18.552 Y131.431 E621.0632
G1 X17.383 Y131.279 E621.09318
G1 X16.239 Y131.425 E621.12251
G1 X16.103 Y131.468 E621.12614
G1 X15.094 Y131.887 E621.15393
G1 X14.129 Y132.62 E621.18475
G1 X13.396 Y133.574 E621.21535
G1 X12.934 Y134.684 E621.24593
G1 X12.775 Y135.876 E621.27652
G1 X12.929 Y137.071 E621.30716
G1 X13.39 Y138.184 E621.3378
G1 X14.124 Y139.14 E621.36846
G1 X15.094 Y139.88 E621.39949
G1 X16.203 Y140.334 E621.42997
G1 X17.395 Y140.489 E621.46054
G1 X18.585 Y140.327 E621.49109
G1 X19.691 Y139.866 E621.52156
G1 X20.309 Y139.389 E621.54142
G1 X20.643 Y139.132 E621.55214
G1 X20.894 Y138.803 E621.56266
G1 X21.371 Y138.178 E621.58266
G1 X21.828 Y137.069 E621.61317
G1 X21.986 Y135.879 E621.6437
G1 X21.826 Y134.687 E621.67429
G1 X21.367 Y133.579 E621.7048
G1 X20.891 Y132.96 E621.72466
G1 X20.636 Y132.627 E621.73386
G1 X20.301 Y132.369 E621.74313
G1 X19.724 Y131.924 E621.76166
G0 F2800 X19.777 Y131.84
G0 X20.664 Y132.599
G0 X21.401 Y133.559
G0 X21.864 Y134.677
G0 X22.026 Y135.879
G0 X21.983 Y138.574
G0 X22.008 Y138.67
G1 F480 X21.38 Y138.93 E621.77895
G1 X21.169 Y139.092 E621.78572
G1 X20.841 Y139.344 E621.7948
G1 X20.584 Y139.678 E621.80406
G1 X20.427 Y139.883 E621.81062
G1 X20.167 Y140.511 E621.82791
G1 X20.077 Y141.186 E621.84523
G1 X20.167 Y141.861 E621.86255
G1 X20.427 Y142.489 E621.87984
G1 X20.841 Y143.028 E621.89713
G1 X21.38 Y143.442 E621.91441
G1 X22.008 Y143.702 E621.9317
G1 X22.683 Y143.792 E621.94902
G1 X23.358 Y143.702 E621.96634
G1 X23.948 Y143.458 E621.98258
G1 X23.986 Y143.442 E621.98361
G1 X24.525 Y143.028 E621.9983
G1 X24.939 Y142.489 E622.01218
G1 X24.994 Y142.354 E622.01565
G1 X25.199 Y141.861 E622.02923
G1 X25.289 Y141.186 E622.04655
G1 X25.199 Y140.511 E622.06387
G1 X24.939 Y139.883 E622.08116
G1 X24.525 Y139.344 E622.09845
G1 X23.986 Y138.93 E622.11573
G1 X23.358 Y138.67 E622.13302
G1 X22.683 Y138.58 E622.15034
G1 X22.008 Y138.67 E622.16766
G0 F2800 X22.087 Y138.963
;TYPE:WALL-OUTER
G1 F480 X21.532 Y139.193 E622.18294
G1 X21.056 Y139.559 E622.19821
G1 X20.69 Y140.035 E622.21348
G1 X20.46 Y140.59 E622.22876
G1 X20.381 Y141.186 E622.24406
G1 X20.46 Y141.782 E622.25935
G1 X20.69 Y142.337 E622.27463
G1 X21.056 Y142.813 E622.2899
G1 X21.532 Y143.179 E622.30517
G1 X22.087 Y143.409 E622.32045
G1 X22.683 Y143.488 E622.33574
G1 X23.279 Y143.409 E622.35104
G1 X23.834 Y143.179 E622.36632
G1 X24.31 Y142.813 E622.38159
G1 X24.676 Y142.337 E622.39686
G1 X24.906 Y141.782 E622.41214
G1 X24.985 Y141.186 E622.42743
G1 X24.906 Y140.59 E622.44272
G1 X24.676 Y140.035 E622.458
G1 X24.31 Y139.559 E622.47328
G1 X23.834 Y139.193 E622.48855
G1 X23.279 Y138.963 E622.50383
G1 X22.683 Y138.884 E622.51912
G1 X22.087 Y138.963 E622.53441
G0 F2800 X21.81 Y139.078
G0 X21.657 Y138.707
G0 X21.477 Y138.18
G0 X21.108 Y138.027
G1 F480 X21.535 Y136.991 E622.56291
G1 X21.682 Y135.879 E622.59144
G1 X21.533 Y134.766 E622.62
G1 X21.104 Y133.731 E622.6485
G1 X20.421 Y132.841 E622.67703
G1 X19.561 Y132.179 E622.70464
G1 X19.471 Y132.132 E622.70722
G1 X18.474 Y131.724 E622.73462
G1 X17.383 Y131.582 E622.7626
G1 X16.304 Y131.72 E622.79027
G1 X16.207 Y131.751 E622.79286
G1 X15.245 Y132.15 E622.81935
