; generated by Slic3r 1.1.7 on 2015-01-22 at 14:27:18

; perimeters extrusion width = 0.51mm
; infill extrusion width = 0.60mm
; solid infill extrusion width = 0.50mm
; top infill extrusion width = 0.48mm

G21 ; set units to millimeters

M301 P34 I4 D113     ; set PID nozzle
M304 P162 I17 D378 ; set PID Bed

;M104 S230                 ; set extruder temp for budaschnozzle
M104 S250                 ; set extruder temp for hex_hot_end
;M140 S100                 ; set bed temp for PET
M140 S105                 ; set bed temp for PEI 

G28                            ; home
G1 Z5 F300                ; move bed down 5mm
M84                            ; disable steppers
G4 S300                     ; wait 5 mins to preheat

G28                            ; home

G90 ; use absolute coordinates
G92 E0
M82 ; use absolute distances for extrusion
M204 S2000
G1 F1500.000 E-1.50000
G92 E0
G1 Z0.350 F9600.000
G1 X47.769 Y52.738 F9600.000
G1 E1.50000 F1500.000
G1 X48.908 Y50.844 E1.56823 F1365.000
G1 X50.643 Y49.474 E1.63646
G1 X53.529 Y48.755 E1.72828
G1 X100.588 Y48.755 E3.18091
G1 X102.762 Y49.152 E3.24914
G1 X104.656 Y50.291 E3.31737 F1365.000
G1 X106.026 Y52.026 E3.38560
G1 X106.745 Y54.912 E3.47742
G1 X106.745 Y223.247 E8.67365
G1 X106.348 Y225.421 E8.74188
G1 X105.209 Y227.315 E8.81011
G1 X103.474 Y228.685 E8.87834
G1 X100.588 Y229.404 E8.97016
G1 X53.529 Y229.404 E10.42279
G1 X51.355 Y229.007 E10.49102
G1 X49.460 Y227.868 E10.55925
G1 X48.091 Y226.133 E10.62748
G1 X47.372 Y223.247 E10.71930
G1 X47.372 Y54.912 E15.91553
G1 X47.755 Y52.812 E15.98144
G1 X48.347 Y52.849 F9600.000
G1 X49.480 Y51.075 E16.04641 F1365.000
G1 X51.188 Y49.849 E16.11133
G1 X53.529 Y49.334 E16.18532
G1 X100.588 Y49.334 E17.63794
G1 X102.653 Y49.730 E17.70286
G1 X104.425 Y50.863 E17.76778 F1365.000
G1 X105.651 Y52.572 E17.83270
G1 X106.166 Y54.912 E17.90668
G1 X106.166 Y223.247 E23.10291
G1 X105.770 Y225.312 E23.16783
G1 X104.637 Y227.084 E23.23275
G1 X102.928 Y228.310 E23.29767
G1 X100.588 Y228.825 E23.37165
G1 X53.529 Y228.825 E24.82428
G1 X51.464 Y228.429 E24.88919
G1 X49.692 Y227.296 E24.95411
G1 X48.465 Y225.588 E25.01903
G1 X47.951 Y223.247 E25.09301
G1 X47.951 Y54.912 E30.28925
G1 X48.332 Y52.923 E30.35179
G1 F1500.000 E28.85179
G92 E0
G1 X94.781 Y66.082 F9600.000
G1 E1.50000 F1500.000
G1 X94.160 Y66.832 E1.53006 F1995.000
G1 X93.372 Y67.405 E1.56013
G1 X92.466 Y67.763 E1.59019
G1 X91.500 Y67.886 E1.62026
G1 X91.357 Y67.868 E1.62470
G1 X90.534 Y67.763 E1.65032
G1 X89.628 Y67.405 E1.68039
G1 X88.840 Y66.832 E1.71045
G1 X88.219 Y66.082 E1.74052
G1 X87.805 Y65.201 E1.77058
G1 X87.622 Y64.244 E1.80065
G1 X87.683 Y63.272 E1.83071
G1 X87.984 Y62.346 E1.86078
G1 X88.506 Y61.523 E1.89085
G1 X89.216 Y60.857 E1.92091
G1 X90.070 Y60.387 E1.95097
G1 X91.013 Y60.145 E1.98104
G1 X91.987 Y60.145 E2.01110
G1 X92.791 Y60.352 E2.03673
G1 X92.930 Y60.387 E2.04117 F1995.000
G1 X93.784 Y60.857 E2.07123
G1 X94.494 Y61.523 E2.10130
G1 X95.016 Y62.346 E2.13136
G1 X95.317 Y63.272 E2.16143
G1 X95.378 Y64.244 E2.19149
G1 X95.195 Y65.201 E2.22156
G1 X94.813 Y66.014 E2.24931
G1 X94.288 Y65.770 F9600.000
G1 X93.761 Y66.407 E2.27486 F1365.000
G1 X93.091 Y66.894 E2.30042
G1 X92.321 Y67.199 E2.32597
G1 X91.500 Y67.302 E2.35152
G1 X90.679 Y67.199 E2.37707
G1 X89.909 Y66.894 E2.40263
G1 X89.239 Y66.407 E2.42818
G1 X88.712 Y65.769 E2.45373
G1 X88.359 Y65.020 E2.47929
G1 X88.204 Y64.207 E2.50484
G1 X88.256 Y63.381 E2.53039
G1 X88.512 Y62.594 E2.55594
G1 X88.955 Y61.895 E2.58150
G1 X89.559 Y61.328 E2.60705
G1 X90.284 Y60.930 E2.63260
G1 X91.086 Y60.724 E2.65816
G1 X91.914 Y60.724 E2.68371 F1365.000
G1 X92.716 Y60.930 E2.70926
G1 X93.441 Y61.328 E2.73481
G1 X94.045 Y61.895 E2.76037
G1 X94.488 Y62.594 E2.78592
G1 X94.744 Y63.381 E2.81147
G1 X94.796 Y64.207 E2.83703
G1 X94.641 Y65.021 E2.86258
G1 X94.320 Y65.702 E2.88582
G1 F1500.000 E1.38582
G92 E0
G1 X90.972 Y60.237 F9600.000
G1 X70.378 Y64.244 F9600.000
G1 E1.50000 F1500.000
G1 X70.195 Y65.201 E1.53007 F1995.000
G1 X69.781 Y66.082 E1.56013
G1 X69.160 Y66.832 E1.59020
G1 X68.488 Y67.320 E1.61582
G1 X68.372 Y67.405 E1.62026
G1 X67.466 Y67.763 E1.65032
G1 X66.500 Y67.886 E1.68039
G1 X66.357 Y67.868 E1.68483
G1 X65.534 Y67.763 E1.71045
G1 X64.628 Y67.405 E1.74052
G1 X63.840 Y66.832 E1.77058
G1 X63.219 Y66.082 E1.80065
G1 X62.805 Y65.201 E1.83071
G1 X62.649 Y64.385 E1.85634
G1 X62.622 Y64.244 E1.86078
G1 X62.683 Y63.272 E1.89084
G1 X62.984 Y62.346 E1.92091
G1 X63.506 Y61.523 E1.95098
G1 X64.216 Y60.857 E1.98104
G1 X65.070 Y60.387 E2.01111
G1 X66.013 Y60.145 E2.04117
G1 X66.987 Y60.145 E2.07123
G1 X67.791 Y60.352 E2.09686
G1 X67.930 Y60.387 E2.10130 F1995.000
G1 X68.784 Y60.857 E2.13136
G1 X69.494 Y61.523 E2.16143
G1 X70.016 Y62.346 E2.19149
G1 X70.317 Y63.272 E2.22156
G1 X70.373 Y64.169 E2.24931
G1 X69.796 Y64.207 F9600.000
G1 X69.641 Y65.021 E2.27486 F1365.000
G1 X69.288 Y65.770 E2.30042
G1 X68.761 Y66.407 E2.32597
G1 X68.091 Y66.894 E2.35152
G1 X67.321 Y67.199 E2.37707
G1 X66.500 Y67.302 E2.40263
G1 X66.430 Y67.294 E2.40481
G1 X65.679 Y67.199 E2.42818
G1 X64.909 Y66.894 E2.45373
G1 X64.239 Y66.407 E2.47929
G1 X63.712 Y65.769 E2.50484
G1 X63.359 Y65.020 E2.53039
G1 X63.204 Y64.207 E2.55594
G1 X63.256 Y63.381 E2.58150
G1 X63.278 Y63.314 E2.58368
G1 X63.512 Y62.594 E2.60705
G1 X63.955 Y61.895 E2.63260
G1 X64.559 Y61.328 E2.65816
G1 X65.284 Y60.930 E2.68371
G1 X66.086 Y60.724 E2.70926
G1 X66.914 Y60.724 E2.73481 F1365.000
G1 X67.647 Y60.912 E2.75818
G1 X67.716 Y60.930 E2.76037
G1 X68.441 Y61.328 E2.78592
G1 X69.045 Y61.895 E2.81147
G1 X69.488 Y62.594 E2.83702
G1 X69.744 Y63.381 E2.86258
G1 X69.791 Y64.133 E2.88582
G1 F1500.000 E1.38582
G92 E0
G1 X65.932 Y60.248 F9600.000
G1 X78.304 Y112.988 F9600.000
G1 E1.50000 F1500.000
G1 X78.899 Y112.900 E1.51856 F1995.000
G1 X79.500 Y112.870 E1.53714
G1 X80.048 Y112.897 E1.55406
G1 X80.696 Y112.988 E1.57426 F1995.000
G1 X81.279 Y113.134 E1.59283
G1 X81.846 Y113.337 E1.61140
G1 X82.389 Y113.594 E1.62996
G1 X82.905 Y113.903 E1.64854
G1 X83.389 Y114.262 E1.66710
G1 X83.834 Y114.666 E1.68567
G1 X84.238 Y115.111 E1.70424
G1 X84.597 Y115.595 E1.72281
G1 X84.906 Y116.110 E1.74138
G1 X85.163 Y116.654 E1.75995
G1 X85.366 Y117.221 E1.77852
G1 X85.512 Y117.804 E1.79708
G1 X85.600 Y118.399 E1.81565
G1 X85.630 Y119.000 E1.83423
G1 X85.600 Y119.601 E1.85278
G1 X85.512 Y120.196 E1.87136
G1 X85.366 Y120.779 E1.88992
G1 X85.163 Y121.346 E1.90850
G1 X84.906 Y121.889 E1.92706
G1 X84.597 Y122.406 E1.94563
G1 X84.238 Y122.889 E1.96420
G1 X83.834 Y123.334 E1.98277
G1 X83.389 Y123.738 E2.00134
G1 X82.905 Y124.097 E2.01991
G1 X82.390 Y124.406 E2.03847
G1 X81.894 Y124.640 E2.05540
G1 X81.279 Y124.866 E2.07560
G1 X80.696 Y125.012 E2.09417
G1 X80.101 Y125.100 E2.11274
G1 X79.500 Y125.130 E2.13131
G1 X78.899 Y125.100 E2.14988
G1 X78.304 Y125.012 E2.16844
G1 X77.721 Y124.866 E2.18701
G1 X77.154 Y124.663 E2.20558
G1 X76.611 Y124.406 E2.22415
G1 X76.095 Y124.097 E2.24272
G1 X75.611 Y123.738 E2.26128
G1 X75.166 Y123.334 E2.27985
G1 X74.762 Y122.889 E2.29842
G1 X74.376 Y122.360 E2.31862
G1 X74.094 Y121.889 E2.33555
G1 X73.837 Y121.346 E2.35412
G1 X73.634 Y120.779 E2.37269
G1 X73.488 Y120.196 E2.39126
G1 X73.400 Y119.601 E2.40982
G1 X73.370 Y119.000 E2.42839
G1 X73.400 Y118.399 E2.44696
G1 X73.488 Y117.804 E2.46553
G1 X73.634 Y117.221 E2.48410
G1 X73.837 Y116.654 E2.50267
G1 X74.094 Y116.111 E2.52123
G1 X74.403 Y115.595 E2.53981
G1 X74.762 Y115.111 E2.55837
G1 X75.166 Y114.666 E2.57694
G1 X75.611 Y114.262 E2.59551
G1 X76.095 Y113.903 E2.61408
G1 X76.610 Y113.594 E2.63264
G1 X77.154 Y113.337 E2.65122
G1 X77.721 Y113.134 E2.66978
G1 X78.232 Y113.006 E2.68604
G1 X78.417 Y113.556 F9600.000
G1 X78.956 Y113.476 E2.70285 F1365.000
G1 X79.475 Y113.451 E2.71890
G1 X80.044 Y113.476 E2.73647 F1365.000
G1 X80.583 Y113.556 E2.75329
G1 X81.111 Y113.689 E2.77010
G1 X81.624 Y113.872 E2.78692
G1 X82.116 Y114.105 E2.80373
G1 X82.584 Y114.385 E2.82054
G1 X83.021 Y114.710 E2.83736
G1 X83.425 Y115.075 E2.85417
G1 X83.790 Y115.479 E2.87098
G1 X84.115 Y115.916 E2.88780
G1 X84.395 Y116.384 E2.90461
G1 X84.628 Y116.876 E2.92143
G1 X84.811 Y117.389 E2.93824
G1 X84.944 Y117.917 E2.95505
G1 X85.024 Y118.456 E2.97187
G1 X85.050 Y119.000 E2.98868
G1 X85.024 Y119.544 E3.00549
G1 X84.944 Y120.083 E3.02231
G1 X84.811 Y120.611 E3.03912
G1 X84.628 Y121.124 E3.05593
G1 X84.395 Y121.616 E3.07275
G1 X84.115 Y122.084 E3.08956
G1 X83.790 Y122.521 E3.10637
G1 X83.425 Y122.925 E3.12319
G1 X83.021 Y123.290 E3.14000
G1 X82.584 Y123.615 E3.15682
G1 X82.116 Y123.895 E3.17363
G1 X81.624 Y124.128 E3.19045
G1 X81.111 Y124.311 E3.20726
G1 X80.583 Y124.444 E3.22407
G1 X80.044 Y124.524 E3.24088
G1 X79.500 Y124.550 E3.25770
G1 X78.956 Y124.524 E3.27451
G1 X78.417 Y124.444 E3.29133
G1 X77.889 Y124.311 E3.30814
G1 X77.376 Y124.128 E3.32495
G1 X76.884 Y123.895 E3.34177
G1 X76.416 Y123.615 E3.35858
G1 X75.979 Y123.290 E3.37539
G1 X75.575 Y122.925 E3.39221
G1 X75.210 Y122.521 E3.40902
G1 X74.872 Y122.062 E3.42659
G1 X74.605 Y121.616 E3.44264
G1 X74.372 Y121.124 E3.45946
G1 X74.189 Y120.611 E3.47627
G1 X74.056 Y120.083 E3.49309
G1 X73.976 Y119.544 E3.50990
G1 X73.950 Y119.000 E3.52671
G1 X73.976 Y118.456 E3.54353
G1 X74.056 Y117.917 E3.56034
G1 X74.189 Y117.389 E3.57715
G1 X74.372 Y116.876 E3.59397
G1 X74.605 Y116.384 E3.61078
G1 X74.885 Y115.916 E3.62760
G1 X75.210 Y115.479 E3.64441
G1 X75.575 Y115.075 E3.66122
G1 X75.979 Y114.710 E3.67804
G1 X76.416 Y114.385 E3.69485
G1 X76.884 Y114.105 E3.71166
G1 X77.376 Y113.872 E3.72848
G1 X77.889 Y113.689 E3.74529
G1 X78.344 Y113.574 E3.75979
G1 X79.717 Y113.013 F9600.000
G1 F1500.000 E2.25979
G92 E0
G1 X79.500 Y149.121 F9600.000
G1 E1.50000 F1500.000
G1 X80.176 Y149.146 E1.52088 F1995.000
G1 X80.972 Y149.231 E1.54561 F1995.000
G1 X81.698 Y149.369 E1.56841
G1 X82.412 Y149.560 E1.59122
G1 X83.109 Y149.804 E1.61402
G1 X83.786 Y150.099 E1.63683
G1 X84.492 Y150.478 E1.66155
G1 X85.065 Y150.837 E1.68243
G1 X85.660 Y151.276 E1.70524
G1 X86.219 Y151.758 E1.72804
G1 X86.742 Y152.280 E1.75085
G1 X87.224 Y152.840 E1.77365
G1 X87.663 Y153.435 E1.79646
G1 X88.056 Y154.060 E1.81926
G1 X88.401 Y154.714 E1.84207
G1 X88.696 Y155.391 E1.86487
G1 X88.940 Y156.088 E1.88768
G1 X89.131 Y156.802 E1.91049
G1 X89.269 Y157.528 E1.93329
G1 X89.345 Y158.200 E1.95417
G1 X89.379 Y159.000 E1.97890
G1 X89.345 Y159.800 E2.00362
G1 X89.269 Y160.472 E2.02450
G1 X89.131 Y161.198 E2.04731
G1 X88.940 Y161.912 E2.07011
G1 X88.696 Y162.609 E2.09292
G1 X88.401 Y163.286 E2.11572
G1 X88.056 Y163.940 E2.13853
G1 X87.663 Y164.565 E2.16133
G1 X87.224 Y165.160 E2.18414
G1 X86.742 Y165.720 E2.20694
G1 X86.220 Y166.242 E2.22975
G1 X85.707 Y166.683 E2.25063
G1 X85.065 Y167.163 E2.27535
G1 X84.440 Y167.556 E2.29816
G1 X83.786 Y167.901 E2.32096
G1 X83.109 Y168.196 E2.34377
G1 X82.412 Y168.440 E2.36657
G1 X81.698 Y168.631 E2.38938
G1 X80.972 Y168.769 E2.41219
G1 X80.238 Y168.852 E2.43499
G1 X79.500 Y168.879 E2.45780
G1 X78.762 Y168.852 E2.48060
G1 X78.028 Y168.769 E2.50341
G1 X77.302 Y168.631 E2.52621
G1 X76.588 Y168.440 E2.54902
G1 X75.891 Y168.196 E2.57182
G1 X75.214 Y167.901 E2.59463
G1 X74.560 Y167.556 E2.61743
G1 X73.935 Y167.163 E2.64024
G1 X73.340 Y166.724 E2.66304
G1 X72.781 Y166.242 E2.68585
G1 X72.258 Y165.720 E2.70865
G1 X71.776 Y165.160 E2.73146
G1 X71.337 Y164.565 E2.75426
G1 X70.978 Y163.992 E2.77515
G1 X70.599 Y163.286 E2.79987
G1 X70.304 Y162.609 E2.82267
G1 X70.060 Y161.912 E2.84548
G1 X69.869 Y161.198 E2.86828
G1 X69.731 Y160.472 E2.89109
G1 X69.655 Y159.800 E2.91197
G1 X69.621 Y159.000 E2.93670
G1 X69.648 Y158.262 E2.95950
G1 X69.731 Y157.528 E2.98230
G1 X69.869 Y156.802 E3.00511
G1 X70.060 Y156.088 E3.02792
G1 X70.304 Y155.391 E3.05072
G1 X70.599 Y154.714 E3.07353
G1 X70.944 Y154.060 E3.09633
G1 X71.337 Y153.435 E3.11914
G1 X71.776 Y152.840 E3.14194
G1 X72.258 Y152.280 E3.16475
G1 X72.781 Y151.758 E3.18756
G1 X73.391 Y151.239 E3.21228
G1 X73.935 Y150.837 E3.23316
G1 X74.560 Y150.444 E3.25596
G1 X75.214 Y150.099 E3.27877
G1 X75.891 Y149.804 E3.30158
G1 X76.588 Y149.560 E3.32438
G1 X77.302 Y149.369 E3.34719
G1 X78.028 Y149.231 E3.36999
G1 X78.762 Y149.148 E3.39280
G1 X79.425 Y149.124 E3.41329
G1 X79.500 Y149.700 F9600.000
G1 X80.195 Y149.726 E3.43475 F1365.000
G1 X80.886 Y149.804 E3.45622
G1 X81.530 Y149.925 E3.47644
G1 X82.241 Y150.113 E3.49916
G1 X82.898 Y150.343 E3.52063
G1 X83.535 Y150.621 E3.54210
G1 X84.150 Y150.946 E3.56356
G1 X84.739 Y151.316 E3.58503
G1 X85.299 Y151.729 E3.60650
G1 X85.826 Y152.182 E3.62797
G1 X86.318 Y152.674 E3.64944
G1 X86.771 Y153.201 E3.67091
G1 X87.184 Y153.761 E3.69238
G1 X87.554 Y154.350 E3.71385
G1 X87.879 Y154.965 E3.73531
G1 X88.157 Y155.602 E3.75678
G1 X88.387 Y156.259 E3.77825
G1 X88.567 Y156.931 E3.79972
G1 X88.696 Y157.614 E3.82119
G1 X88.770 Y158.265 E3.84140
G1 X88.800 Y159.000 E3.86412
G1 X88.770 Y159.735 E3.88685
G1 X88.696 Y160.386 E3.90706
G1 X88.567 Y161.069 E3.92853
G1 X88.387 Y161.741 E3.95000
G1 X88.157 Y162.398 E3.97147
G1 X87.879 Y163.035 E3.99293
G1 X87.554 Y163.650 E4.01440
G1 X87.184 Y164.239 E4.03587
G1 X86.771 Y164.799 E4.05734
G1 X86.318 Y165.326 E4.07881
G1 X85.826 Y165.818 E4.10028
G1 X85.266 Y166.295 E4.12300
G1 X84.739 Y166.684 E4.14321
G1 X84.150 Y167.054 E4.16468
G1 X83.535 Y167.379 E4.18615
G1 X82.898 Y167.657 E4.20762
G1 X82.241 Y167.887 E4.22909
G1 X81.569 Y168.067 E4.25056
G1 X80.886 Y168.196 E4.27203
G1 X80.154 Y168.276 E4.29475
G1 X79.500 Y168.300 E4.31496
G1 X78.805 Y168.274 E4.33643
G1 X78.114 Y168.196 E4.35790
G1 X77.431 Y168.067 E4.37937
G1 X76.759 Y167.887 E4.40083
G1 X76.102 Y167.657 E4.42230
G1 X75.465 Y167.379 E4.44377
G1 X74.850 Y167.054 E4.46524
G1 X74.261 Y166.684 E4.48671
G1 X73.701 Y166.271 E4.50818
G1 X73.174 Y165.818 E4.52965
G1 X72.682 Y165.326 E4.55112
G1 X72.229 Y164.799 E4.57258
G1 X71.816 Y164.239 E4.59405
G1 X71.467 Y163.685 E4.61427
G1 X71.121 Y163.035 E4.63699
G1 X70.843 Y162.398 E4.65846
G1 X70.613 Y161.741 E4.67993
G1 X70.433 Y161.070 E4.70139
G1 X70.304 Y160.386 E4.72286
G1 X70.226 Y159.695 E4.74433
G1 X70.200 Y159.000 E4.76580
G1 X70.224 Y158.346 E4.78601
G1 X70.304 Y157.614 E4.80873
G1 X70.433 Y156.931 E4.83020
G1 X70.613 Y156.259 E4.85167
G1 X70.843 Y155.602 E4.87314
G1 X71.121 Y154.965 E4.89461
G1 X71.446 Y154.350 E4.91608
G1 X71.816 Y153.761 E4.93755
G1 X72.229 Y153.201 E4.95902
G1 X72.682 Y152.674 E4.98049
G1 X73.174 Y152.182 E5.00195
G1 X73.734 Y151.705 E5.02468
G1 X74.261 Y151.316 E5.04489
G1 X74.850 Y150.946 E5.06636
G1 X75.465 Y150.621 E5.08783
G1 X76.102 Y150.343 E5.10930
G1 X76.759 Y150.113 E5.13076
G1 X77.431 Y149.933 E5.15223
G1 X78.114 Y149.804 E5.17370
G1 X78.846 Y149.724 E5.19642
G1 X79.425 Y149.703 E5.21432 F1365.000
G1 X78.833 Y149.224 F9600.000
G1 F1500.000 E3.71432
G92 E0
G1 X66.987 Y210.145 F9600.000
G1 E1.50000 F1500.000
G1 X67.791 Y210.352 E1.52562 F1995.000
G1 X67.930 Y210.387 E1.53006 F1995.000
G1 X68.784 Y210.857 E1.56013
G1 X69.494 Y211.523 E1.59019
G1 X70.016 Y212.346 E1.62026
G1 X70.317 Y213.272 E1.65033
G1 X70.378 Y214.244 E1.68039
G1 X70.195 Y215.201 E1.71046
G1 X69.781 Y216.082 E1.74052
G1 X69.160 Y216.832 E1.77059
G1 X68.372 Y217.405 E1.80065
G1 X67.466 Y217.763 E1.83072
G1 X66.500 Y217.886 E1.86078
G1 X65.534 Y217.763 E1.89085
G1 X64.628 Y217.405 E1.92091
G1 X64.512 Y217.320 E1.92535
G1 X63.840 Y216.832 E1.95097
G1 X63.219 Y216.082 E1.98104
G1 X62.805 Y215.201 E2.01111
G1 X62.649 Y214.385 E2.03673
G1 X62.622 Y214.244 E2.04117
G1 X62.683 Y213.272 E2.07123
G1 X62.984 Y212.346 E2.10130
G1 X63.506 Y211.523 E2.13137
G1 X64.216 Y210.857 E2.16143
G1 X65.070 Y210.387 E2.19150
G1 X66.013 Y210.145 E2.22156
G1 X66.912 Y210.145 E2.24931
G1 X66.914 Y210.724 F9600.000
G1 X67.716 Y210.930 E2.27486 F1365.000
G1 X68.441 Y211.328 E2.30042
G1 X69.045 Y211.895 E2.32597
G1 X69.488 Y212.594 E2.35152
G1 X69.744 Y213.381 E2.37707
G1 X69.796 Y214.207 E2.40263
G1 X69.641 Y215.021 E2.42818
G1 X69.318 Y215.705 E2.45155
G1 X69.288 Y215.770 E2.45373
G1 X68.761 Y216.407 E2.47929
G1 X68.091 Y216.894 E2.50484
G1 X67.321 Y217.199 E2.53039
G1 X66.500 Y217.302 E2.55594
G1 X65.679 Y217.199 E2.58150
G1 X64.909 Y216.894 E2.60705
G1 X64.239 Y216.407 E2.63260
