; generated by Slic3r 1.1.4 on 2014-12-23 at 11:45:35

; perimeters extrusion width = 0.55mm
; infill extrusion width = 0.65mm
; solid infill extrusion width = 0.65mm
; top infill extrusion width = 0.43mm

G21 ; set units to millimeters
M107

M301 P34 I4 D113     ; set PID nozzle
M304 P162 I17 D378 ; set PID Bed

M104 S230                 ; set extruder temp for budaschnozzle
;M104 S240                 ; set extruder temp for hex_hot_end
M140 S110                 ; set bed temp for PEI (reminder heatmod mM140 @10 degree change at @G1 Z2)

G28                            ; home
G1 Z5 F300                ; move bed down 5mm
M84                            ; disable steppers
G4 S300                     ; wait 5 mins to preheat

G28                            ; home

G90 ; use absolute coordinates
G92 E0
M82 ; use absolute distances for extrusion
M204 S2000
G1 F1500.000 E-1.40000
G92 E0
G1 Z0.350 F9600.000
G1 X105.166 Y65.513 F9600.000
G1 E1.40000 F1500.000
G1 X105.786 Y64.571 E1.43718 F1800.000
G1 X106.131 Y64.110 E1.45615
G1 X106.854 Y63.231 E1.49368
G1 X107.238 Y62.816 E1.51230
G1 X108.057 Y62.010 E1.55021
G1 X108.475 Y61.646 E1.56845
G1 X109.382 Y60.923 E1.60671
G1 X109.827 Y60.611 E1.62461
G1 X110.815 Y59.981 E1.66322
G1 X111.280 Y59.724 E1.68075
G1 X112.338 Y59.197 E1.71973
G1 X112.818 Y58.994 E1.73690
G1 X113.936 Y58.577 E1.77624
G1 X114.425 Y58.429 E1.79305
G1 X115.591 Y58.129 E1.83276
G1 X116.081 Y58.035 E1.84919
G1 X117.462 Y57.844 E1.89515
G1 X119.000 Y57.764 E1.94592
G1 X179.326 Y57.773 E3.93451
G1 X179.990 Y57.808 E3.95642
G1 X181.111 Y57.907 E3.99353
G1 X182.181 Y58.083 E4.02925
G1 X182.786 Y58.217 E4.04967
G1 X183.842 Y58.507 E4.08576
G1 X184.418 Y58.701 E4.10582
G1 X185.448 Y59.103 E4.14228
G1 X185.991 Y59.353 E4.16198
G1 X186.983 Y59.866 E4.19878
G1 X187.487 Y60.166 E4.21812
G1 X188.429 Y60.786 E4.25530
G1 X188.890 Y61.131 E4.27428
G1 X189.769 Y61.854 E4.31180
G1 X190.184 Y62.238 E4.33042
G1 X190.990 Y63.057 E4.36832
G1 X191.354 Y63.475 E4.38657
G1 X192.077 Y64.382 E4.42482
G1 X192.389 Y64.827 E4.44272
G1 X193.018 Y65.815 E4.48134
G1 X193.276 Y66.280 E4.49887
G1 X193.804 Y67.339 E4.53786
G1 X194.006 Y67.818 E4.55502
G1 X194.423 Y68.937 E4.59437
G1 X194.571 Y69.424 E4.61117
G1 X194.871 Y70.591 E4.65088
G1 X194.965 Y71.081 E4.66731
G1 X195.156 Y72.462 E4.71327
G1 X195.236 Y74.000 E4.76405
G1 X195.231 Y203.914 E9.04652
G1 X195.193 Y204.993 E9.08209
G1 X194.975 Y206.884 E9.14484
G1 X194.586 Y208.535 E9.20076
G1 X194.028 Y210.137 E9.25666
G1 X193.305 Y211.671 E9.31257
G1 X193.158 Y211.928 E9.32232
G1 X192.426 Y213.122 E9.36849
G1 X191.400 Y214.472 E9.42439
G1 X190.249 Y215.700 E9.47988
G1 X189.645 Y216.245 E9.50667
G1 X188.986 Y216.795 E9.53497
G1 X188.310 Y217.290 E9.56259
G1 X187.618 Y217.754 E9.59006
G1 X186.873 Y218.189 E9.61851
G1 X186.159 Y218.567 E9.64515
G1 X185.350 Y218.934 E9.67443
G1 X184.623 Y219.226 E9.70024
G1 X183.757 Y219.516 E9.73035
G1 X183.028 Y219.723 E9.75533
G1 X182.112 Y219.928 E9.78627
G1 X181.256 Y220.069 E9.81488
G1 X179.490 Y220.222 E9.87329
G1 X178.808 Y220.232 E9.89579
G1 X119.086 Y220.231 E11.86446
G1 X118.007 Y220.193 E11.90003
G1 X116.116 Y219.975 E11.96279
G1 X114.465 Y219.586 E12.01870
G1 X112.863 Y219.028 E12.07462
G1 X111.329 Y218.305 E12.13052
G1 X111.072 Y218.158 E12.14027
G1 X109.878 Y217.426 E12.18644
G1 X108.528 Y216.400 E12.24234
G1 X107.300 Y215.249 E12.29783
G1 X106.755 Y214.645 E12.32462
G1 X106.205 Y213.986 E12.35292
G1 X105.710 Y213.310 E12.38053
G1 X105.246 Y212.618 E12.40801
G1 X104.811 Y211.873 E12.43647
G1 X104.433 Y211.159 E12.46309
G1 X104.066 Y210.350 E12.49237
G1 X103.774 Y209.623 E12.51819
G1 X103.484 Y208.757 E12.54830
G1 X103.277 Y208.028 E12.57329
G1 X103.072 Y207.112 E12.60421
G1 X102.931 Y206.256 E12.63283
G1 X102.778 Y204.490 E12.69124
G1 X102.768 Y203.808 E12.71373
G1 X102.773 Y73.674 E17.00346
G1 X102.808 Y73.010 E17.02537
G1 X102.907 Y71.889 E17.06247
G1 X103.082 Y70.819 E17.09819
G1 X103.217 Y70.214 E17.11862
G1 X103.507 Y69.158 E17.15471
G1 X103.701 Y68.582 E17.17477
G1 X104.103 Y67.552 E17.21123
G1 X104.353 Y67.009 E17.23092
G1 X104.866 Y66.017 E17.26773
G1 X105.127 Y65.577 E17.28459
G1 X105.684 Y65.849 F9600.000
G1 X106.287 Y64.933 E17.32076 F1800.000
G1 X106.611 Y64.499 E17.33862
G1 X107.313 Y63.644 E17.37509
G1 X107.675 Y63.253 E17.39263
G1 X108.470 Y62.469 E17.42945
G1 X108.863 Y62.126 E17.44665
G1 X109.744 Y61.424 E17.48379
G1 X110.163 Y61.129 E17.50067
G1 X111.121 Y60.518 E17.53813
G1 X111.560 Y60.274 E17.55468
G1 X112.586 Y59.763 E17.59247
G1 X113.040 Y59.571 E17.60870
G1 X114.123 Y59.166 E17.64681
G1 X114.584 Y59.026 E17.66272
G1 X115.714 Y58.734 E17.70116
G1 X116.177 Y58.646 E17.71673
G1 X117.502 Y58.460 E17.76080
G1 X119.000 Y58.382 E17.81026
G1 X179.294 Y58.390 E19.79778
G1 X179.950 Y58.425 E19.81945
G1 X181.015 Y58.518 E19.85467
G1 X182.058 Y58.688 E19.88952
G1 X182.626 Y58.814 E19.90868
G1 X183.655 Y59.096 E19.94387
G1 X184.197 Y59.277 E19.96270
G1 X185.201 Y59.669 E19.99821
G1 X185.711 Y59.903 E20.01672
G1 X186.676 Y60.402 E20.05255
G1 X187.151 Y60.684 E20.07073
G1 X188.067 Y61.287 E20.10690
G1 X188.501 Y61.611 E20.12476
G1 X189.356 Y62.314 E20.16124
G1 X189.747 Y62.675 E20.17877
G1 X190.531 Y63.470 E20.21559
G1 X190.874 Y63.863 E20.23279
G1 X191.576 Y64.744 E20.26992
G1 X191.871 Y65.163 E20.28681
G1 X192.482 Y66.121 E20.32427
G1 X192.726 Y66.561 E20.34082
G1 X193.238 Y67.586 E20.37862
G1 X193.429 Y68.040 E20.39484
G1 X193.834 Y69.123 E20.43296
G1 X193.974 Y69.584 E20.44886
G1 X194.266 Y70.714 E20.48730
G1 X194.354 Y71.178 E20.50287
G1 X194.540 Y72.502 E20.54695
G1 X194.618 Y74.000 E20.59641
G1 X194.614 Y203.904 E24.87853
G1 X194.578 Y204.932 E24.91246
G1 X194.369 Y206.761 E24.97313
G1 X193.997 Y208.349 E25.02688
G1 X193.462 Y209.889 E25.08062
G1 X192.768 Y211.364 E25.13437
G1 X192.625 Y211.616 E25.14391
G1 X191.925 Y212.760 E25.18811
G1 X190.941 Y214.059 E25.24185
G1 X189.835 Y215.242 E25.29522
G1 X189.233 Y215.785 E25.32197
G1 X188.622 Y216.296 E25.34822
G1 X187.948 Y216.789 E25.37571
G1 X187.306 Y217.221 E25.40122
G1 X186.567 Y217.653 E25.42947
G1 X185.903 Y218.005 E25.45423
G1 X185.102 Y218.368 E25.48322
G1 X184.426 Y218.640 E25.50723
G1 X183.571 Y218.927 E25.53697
G1 X182.892 Y219.121 E25.56024
G1 X181.990 Y219.323 E25.59073
G1 X181.195 Y219.454 E25.61726
G1 X179.480 Y219.604 E25.67403
G1 X178.808 Y219.615 E25.69618
G1 X119.096 Y219.614 E27.66451
G1 X118.068 Y219.578 E27.69843
G1 X116.239 Y219.369 E27.75911
G1 X114.651 Y218.997 E27.81286
G1 X113.111 Y218.462 E27.86661
G1 X111.636 Y217.768 E27.92035
G1 X111.384 Y217.625 E27.92989
G1 X110.240 Y216.925 E27.97410
G1 X108.941 Y215.941 E28.02783
G1 X107.758 Y214.835 E28.08120
G1 X107.215 Y214.232 E28.10794
G1 X106.704 Y213.622 E28.13420
G1 X106.211 Y212.948 E28.16169
G1 X105.779 Y212.306 E28.18720
G1 X105.347 Y211.566 E28.21546
G1 X104.995 Y210.903 E28.24020
G1 X104.632 Y210.102 E28.26919
G1 X104.360 Y209.426 E28.29321
G1 X104.073 Y208.571 E28.32296
G1 X103.879 Y207.892 E28.34623
G1 X103.677 Y206.990 E28.37669
G1 X103.546 Y206.195 E28.40324
G1 X103.396 Y204.480 E28.46000
G1 X103.385 Y203.808 E28.48215
G1 X103.390 Y73.706 E32.77081
G1 X103.425 Y73.050 E32.79248
G1 X103.518 Y71.985 E32.82770
G1 X103.688 Y70.942 E32.86255
G1 X103.814 Y70.374 E32.88171
G1 X104.096 Y69.345 E32.91690
G1 X104.277 Y68.803 E32.93573
G1 X104.669 Y67.799 E32.97124
G1 X104.903 Y67.289 E32.98975
G1 X105.402 Y66.324 E33.02558
G1 X105.646 Y65.914 E33.04129
G1 F1500.000 E31.64129
G92 E0
G1 X171.922 Y144.975 F9600.000
G1 E1.40000 F1500.000
G1 X171.294 Y145.794 E1.43400 F3000.000
G1 X170.475 Y146.422 E1.46801
G1 X169.523 Y146.816 E1.50200
G1 X168.562 Y146.943 E1.53395
G1 X133.938 Y146.943 E2.67527
G1 X132.977 Y146.816 E2.70722
G1 X132.025 Y146.422 E2.74121
G1 X131.206 Y145.794 E2.77521
G1 X130.578 Y144.975 E2.80922
G1 X130.184 Y144.023 E2.84321
G1 X130.057 Y143.062 E2.87515
G1 X130.057 Y92.438 E4.54390
G1 X130.252 Y90.960 E4.59306
G1 X130.846 Y89.525 E4.64427
G1 X131.792 Y88.292 E4.69548
G1 X133.025 Y87.346 E4.74669
G1 X134.460 Y86.752 E4.79790
G1 X135.938 Y86.557 E4.84705
G1 X166.562 Y86.557 E5.85652
G1 X168.040 Y86.752 E5.90567
G1 X169.475 Y87.346 E5.95688
G1 X170.708 Y88.292 E6.00809
G1 X171.654 Y89.525 E6.05930
G1 X172.248 Y90.960 E6.11051
G1 X172.443 Y92.438 E6.15967
G1 X172.443 Y143.062 E7.82841
G1 X172.316 Y144.023 E7.86036
G1 X171.950 Y144.906 E7.89188
G1 X171.382 Y144.664 F9600.000
G1 X170.853 Y145.353 E7.92052 F2250.000
G1 X170.164 Y145.882 E7.94916
G1 X169.361 Y146.214 E7.97779
G1 X168.521 Y146.325 E8.00572
G1 X133.979 Y146.325 E9.14437
G1 X133.139 Y146.214 E9.17231
G1 X132.336 Y145.882 E9.20094
G1 X131.647 Y145.353 E9.22958
G1 X131.118 Y144.664 E9.25821
G1 X130.786 Y143.861 E9.28685
G1 X130.675 Y143.021 E9.31478
G1 X130.675 Y92.479 E10.98085
G1 X130.854 Y91.121 E11.02599
G1 X131.386 Y89.836 E11.07184
G1 X132.233 Y88.733 E11.11769
G1 X133.336 Y87.886 E11.16353
G1 X134.621 Y87.354 E11.20938
G1 X135.979 Y87.175 E11.25452
G1 X166.521 Y87.175 E12.26132
G1 X167.879 Y87.354 E12.30646
G1 X169.164 Y87.886 E12.35231
G1 X170.267 Y88.733 E12.39815
G1 X171.114 Y89.836 E12.44400
G1 X171.646 Y91.121 E12.48985
G1 X171.825 Y92.479 E12.53499
G1 X171.825 Y143.021 E14.20106
G1 X171.714 Y143.861 E14.22899
G1 X171.411 Y144.595 E14.25515
G1 X171.613 Y145.107 F9600.000
G1 F1500.000 E12.85515
G92 E0
G1 X164.568 Y192.822 F9600.000
G1 E1.40000 F1500.000
G1 X163.540 Y193.248 E1.43668 F3000.000
G1 X162.062 Y193.443 E1.48583
G1 X141.938 Y193.443 E2.14918
G1 X140.460 Y193.248 E2.19834
G1 X139.025 Y192.654 E2.24955
G1 X137.792 Y191.708 E2.30076
G1 X136.846 Y190.475 E2.35197
G1 X136.252 Y189.040 E2.40318
G1 X136.057 Y187.562 E2.45233
G1 X136.057 Y162.938 E3.26402
G1 X136.252 Y161.460 E3.31317
G1 X136.846 Y160.025 E3.36438
G1 X137.792 Y158.792 E3.41559
G1 X139.025 Y157.846 E3.46680
G1 X140.460 Y157.252 E3.51801
G1 X141.938 Y157.057 E3.56717
G1 X162.062 Y157.057 E4.23052
G1 X163.540 Y157.252 E4.27967
G1 X164.975 Y157.846 E4.33088
G1 X166.208 Y158.792 E4.38209
G1 X167.154 Y160.025 E4.43330
G1 X167.748 Y161.460 E4.48451
G1 X167.943 Y162.938 E4.53366
G1 X167.943 Y187.562 E5.34535
G1 X167.748 Y189.040 E5.39451
G1 X167.154 Y190.475 E5.44572
G1 X166.208 Y191.708 E5.49692
G1 X164.568 Y192.966 E5.56506
G1 X164.568 Y192.897 E5.56732
G1 X165.186 Y191.713 F9600.000
G1 X164.664 Y192.114 E5.58902 F2250.000
G1 X163.379 Y192.646 E5.63487
G1 X162.021 Y192.825 E5.68000
G1 X141.979 Y192.825 E6.34068
G1 X140.621 Y192.646 E6.38582
G1 X139.336 Y192.114 E6.43167
G1 X138.233 Y191.267 E6.47752
G1 X137.386 Y190.164 E6.52337
G1 X136.854 Y188.879 E6.56921
G1 X136.675 Y187.521 E6.61435
G1 X136.675 Y162.979 E7.42337
G1 X136.854 Y161.621 E7.46851
G1 X137.386 Y160.336 E7.51435
G1 X138.233 Y159.233 E7.56020
G1 X139.336 Y158.386 E7.60605
G1 X140.621 Y157.854 E7.65190
G1 X141.979 Y157.675 E7.69704
G1 X162.021 Y157.675 E8.35772
G1 X163.379 Y157.854 E8.40285
G1 X164.664 Y158.386 E8.44870
G1 X165.767 Y159.233 E8.49455
G1 X166.614 Y160.336 E8.54040
G1 X167.146 Y161.621 E8.58624
G1 X167.325 Y162.979 E8.63138
G1 X167.325 Y187.521 E9.44040
G1 X167.146 Y188.879 E9.48554
G1 X166.614 Y190.164 E9.53139
G1 X165.767 Y191.267 E9.57723
G1 X165.246 Y191.668 E9.59891
G1 X165.251 Y192.209 F9600.000
G1 F1500.000 E8.19891
G92 E0
G1 X169.896 Y203.057 F9600.000
G1 E1.40000 F1500.000
G1 X128.104 Y203.057 E2.77760 F3000.000
G1 X127.997 Y205.021 E2.84245
G1 X127.846 Y205.934 E2.87294
G1 X127.597 Y206.840 E2.90389
G1 X127.334 Y207.540 E2.92856
G1 X126.923 Y208.385 E2.95952
G1 X126.427 Y209.182 E2.99048
G1 X125.850 Y209.923 E3.02143
G1 X125.200 Y210.601 E3.05239
G1 X124.483 Y211.207 E3.08335
G1 X123.706 Y211.737 E3.11435
G1 X122.878 Y212.184 E3.14537
G1 X122.009 Y212.541 E3.17633
G1 X121.109 Y212.807 E3.20729
G1 X120.196 Y212.976 E3.23788
G1 X119.160 Y213.053 E3.27213
G1 X118.681 Y213.045 E3.28793
G1 X117.485 Y212.928 E3.32754
G1 X116.591 Y212.730 E3.35771
G1 X115.704 Y212.435 E3.38851
G1 X114.853 Y212.051 E3.41931
G1 X114.046 Y211.581 E3.45010
G1 X113.291 Y211.030 E3.48090
G1 X112.596 Y210.404 E3.51173
G1 X111.970 Y209.709 E3.54255
G1 X111.419 Y208.954 E3.57335
G1 X110.949 Y208.147 E3.60415
G1 X110.565 Y207.296 E3.63494
G1 X110.270 Y206.409 E3.66574
G1 X110.105 Y205.678 E3.69046
G1 X110.072 Y205.515 E3.69592
G1 X109.955 Y204.319 E3.73552
G1 X109.947 Y203.840 E3.75132
G1 X110.024 Y202.804 E3.78557
G1 X110.193 Y201.891 E3.81617
G1 X110.459 Y200.991 E3.84713
G1 X110.816 Y200.122 E3.87809
G1 X111.263 Y199.294 E3.90910
G1 X111.793 Y198.517 E3.94011
G1 X112.399 Y197.800 E3.97106
G1 X112.937 Y197.280 E3.99574
G1 X113.077 Y197.150 E4.00202
G1 X113.818 Y196.573 E4.03298
G1 X114.615 Y196.077 E4.06394
G1 X115.460 Y195.666 E4.09489
G1 X116.160 Y195.403 E4.11956
G1 X117.066 Y195.154 E4.15052
G1 X117.979 Y195.003 E4.18101
G1 X119.943 Y194.896 E4.24585
G1 X119.943 Y83.105 E7.93089
G1 X117.963 Y82.995 E7.99626
G1 X117.034 Y82.839 E8.02731
G1 X116.113 Y82.582 E8.05882
G1 X115.398 Y82.307 E8.08407
G1 X114.542 Y81.882 E8.11558
G1 X113.736 Y81.368 E8.14708
G1 X112.989 Y80.773 E8.17859
G1 X112.308 Y80.101 E8.21009
G1 X111.702 Y79.362 E8.24160
G1 X111.178 Y78.563 E8.27311
G1 X110.740 Y77.713 E8.30461
G1 X110.395 Y76.822 E8.33612
G1 X110.145 Y75.899 E8.36763
G1 X109.995 Y74.956 E8.39912
G1 X109.944 Y74.000 E8.43068
G1 X110.004 Y72.968 E8.46474
G1 X110.159 Y72.044 E8.49564
G1 X110.413 Y71.128 E8.52698
G1 X110.688 Y70.411 E8.55228
G1 X111.201 Y69.400 E8.58966
G1 X111.726 Y68.607 E8.62100
G1 X112.332 Y67.875 E8.65235
G1 X112.875 Y67.332 E8.67765
G1 X113.607 Y66.726 E8.70899
G1 X114.400 Y66.201 E8.74033
G1 X115.243 Y65.761 E8.77167
G1 X116.128 Y65.413 E8.80301
G1 X117.044 Y65.159 E8.83436
G1 X117.968 Y65.004 E8.86525
G1 X118.998 Y64.944 E8.89926
G1 X120.010 Y65.001 E8.93266
G1 X121.006 Y65.169 E8.96597
G1 X121.978 Y65.448 E8.99928
G1 X122.912 Y65.833 E9.03260
G1 X123.798 Y66.319 E9.06591
G1 X124.624 Y66.902 E9.09923
G1 X125.380 Y67.573 E9.13254
G1 X125.507 Y67.709 E9.13868
G1 X126.056 Y68.324 E9.16586
G1 X126.645 Y69.145 E9.19917
G1 X127.138 Y70.027 E9.23248
G1 X127.530 Y70.959 E9.26580
G1 X127.815 Y71.928 E9.29911
G1 X127.989 Y72.910 E9.33199
G1 X128.109 Y74.943 E9.39910
G1 X169.891 Y74.943 E10.77642
G1 X170.011 Y72.910 E10.84353
G1 X170.185 Y71.928 E10.87640
G1 X170.413 Y71.136 E10.90358
G1 X170.470 Y70.959 E10.90972
G1 X170.862 Y70.027 E10.94304
G1 X171.355 Y69.145 E10.97635
G1 X171.944 Y68.324 E11.00966
G1 X172.620 Y67.573 E11.04298
G1 X173.376 Y66.902 E11.07629
G1 X174.202 Y66.319 E11.10961
G1 X174.924 Y65.921 E11.13679
G1 X175.088 Y65.833 E11.14292
G1 X176.022 Y65.448 E11.17623
G1 X176.994 Y65.169 E11.20955
G1 X177.990 Y65.001 E11.24285
G1 X179.002 Y64.944 E11.27626
G1 X179.533 Y64.972 E11.29379
G1 X180.032 Y65.004 E11.31026
G1 X180.956 Y65.159 E11.34116
G1 X181.872 Y65.413 E11.37250
G1 X182.589 Y65.688 E11.39780
G1 X183.600 Y66.201 E11.43518
G1 X184.393 Y66.726 E11.46652
G1 X185.125 Y67.332 E11.49787
G1 X185.668 Y67.875 E11.52317
G1 X186.274 Y68.607 E11.55451
G1 X186.890 Y69.559 E11.59189
G1 X187.239 Y70.243 E11.61719
G1 X187.587 Y71.128 E11.64853
G1 X187.841 Y72.044 E11.67987
G1 X187.996 Y72.968 E11.71077
G1 X188.056 Y74.000 E11.74483
G1 X188.005 Y74.956 E11.77639
G1 X187.855 Y75.899 E11.80788
G1 X187.605 Y76.822 E11.83939
G1 X187.330 Y77.537 E11.86465
G1 X187.260 Y77.713 E11.87090
G1 X186.822 Y78.563 E11.90241
G1 X186.298 Y79.362 E11.93391
G1 X185.692 Y80.101 E11.96542
G1 X185.011 Y80.773 E11.99693
G1 X184.264 Y81.368 E12.02843
G1 X183.458 Y81.882 E12.05993
G1 X182.775 Y82.230 E12.08519
G1 X181.887 Y82.582 E12.11670
G1 X180.780 Y82.877 E12.15444
G1 X180.037 Y82.995 E12.17924
G1 X178.057 Y83.105 E12.24462
G1 X178.057 Y194.896 E15.92965
G1 X180.021 Y195.003 E15.99450
G1 X180.747 Y195.116 E16.01871
G1 X181.658 Y195.344 E16.04966
G1 X182.540 Y195.666 E16.08061
G1 X183.437 Y196.103 E16.11350
G1 X184.182 Y196.573 E16.14254
G1 X184.923 Y197.150 E16.17349
G1 X185.601 Y197.800 E16.20445
G1 X186.207 Y198.517 E16.23541
G1 X186.737 Y199.294 E16.26641
G1 X187.184 Y200.122 E16.29743
G1 X187.541 Y200.991 E16.32839
G1 X187.807 Y201.891 E16.35935
G1 X187.976 Y202.804 E16.38994
