;Generated by Cura LulzBot Edition GCodeWriter Version: 3.2.21
;FLAVOR:Marlin
;TIME:9269
;Filament used: 9.02887m
;Layer height: 0.39
;Generated with Cura_SteamEngine 3.2.21
M82 ;absolute extrusion mode
;This G-Code has been generated specifically for the LulzBot Mini 2
M75 					; Start GLCD Print Timer
G26 					; clear potential 'probe fail' condition
G21 					; set units to Millimetres
M107 					; disable fans
G90 					; absolute positioning
M82 					; set extruder to absolute mode
G92 E0 					; set extruder position to 0
M140 S115 	; start bed heating up
G28                       ; Home Axis
G0 X160 F9999             ; Move toolhead to the right
G0 Z5 F6000               ; Move to bottom of printer
G91                       ; Set relative motion mode
M211 S0		  	  ; Turn off soft endstops
M400                      ; Finish moves
G0 Z-15 F500              ; Skip steppers against lower Z mounts
G90                       ; Return to absolute mode
M400                      ; Finish moves
M211 S1			  ; Turn soft endstops back on
M400                      ; Finish moves
G28                       ; Rehome
M117 X-Axis Leveled
G0 X0 Y187 Z156 F200 			; move away from endstops
M117 Mini 2 Wiping...			; progress indicator message on LCD
M109 R170 	; soften filament before retraction
G1 E-15 F75 				; retract filament
M109 R170 	; wait for extruder to reach wiping temp
G1 X45 Y176 F11520 			; move above wiper pad
G1 Z0 F1200 				; push nozzle into wiper
G1 X45 Y178 Z-.5 F4000		; wiping
G1 X55 Y176 Z-.5 F4000		; wiping
G1 X45 Y177 Z0 F4000		; wiping
G1 X55 Y176 F4000		; wiping
G1 X45 Y178 F4000		; wiping
G1 X55 Y176 F4000		; wiping
G1 X45 Y178 F4000		; wiping
G1 X55 Y176 F4000		; wiping
G1 X60 Y178 F4000		; wiping
G1 X80 Y176 F4000		; wiping
G1 X60 Y178 F4000		; wiping
G1 X80 Y176 F4000		; wiping
G1 X60 Y178 F4000		; wiping
G1 X90 Y176 F4000		; wiping
G1 X80 Y178 F4000		; wiping
G1 X100 Y176 F4000		; wiping
G1 X80 Y178 F4000		; wiping
G1 X100 Y176 F4000		; wiping
G1 X80 Y178 F4000		; wiping
G1 X100 Y176 F4000		; wiping
G1 X110 Y178 F4000		; wiping
G1 X100 Y176 F4000		; wiping
G1 X110 Y178 F4000		; wiping
G1 X100 Y176 F4000		; wiping
G1 X110 Y178 F4000		; wiping
G1 X115 Y176 Z-0.5 F1000	; wiping
G1 Z10					; raise extruder
G28 X0 Y0				; home X and Y
M109 R170	; wait for extruder to reach probe temp
M204 S300				; set probing acceleration
G29					; start auto-leveling sequence
M425 Z					; enable backlash compensation
M204 S2000				; restore standard acceleration
G1 X5 Y15 Z10 F5000			; move up off last probe point
G4 S1					; pause
M400					; wait for moves to finish
M117 Heating...				; progress indicator message on LCD
M109 R245	; wait for extruder to reach printing temp
M190 S116 ; wait for bed to reach printing temp
G1 Z2 E0 F75				; prime tiny bit of filment into the nozzle
M117 Mini 2 Printing...		; progress indicator message on LCD

M221 S100
M83 ;relative extrusion mode
;LAYER_COUNT:172
;LAYER:0
M107
M204 S1000
M205 X10 Y10
G0 F2625 X23.83 Y36.294 Z0.42
;TYPE:SKIRT
G1 F900 X24.265 Y36.022 E0.02027
G1 X24.737 Y35.821 E0.02027
G1 X25.235 Y35.695 E0.02029
G1 X25.791 Y35.648 E0.02204
G1 X57.067 Y35.65 E1.23547
G1 X57.579 Y35.69 E0.02029
G1 X58.079 Y35.809 E0.0203
G1 X58.554 Y36.004 E0.02028
G1 X58.888 Y36.198 E0.01526
G1 X64.476 Y39.896 E0.2647
G1 X69.196 Y42.619 E0.21525
G1 X74.091 Y45.086 E0.21653
G1 X79.077 Y47.255 E0.21479
G1 X84.231 Y49.157 E0.21702
G1 X89.47 Y50.76 E0.21642
G1 X94.83 Y52.076 E0.21802
G1 X97.431 Y52.595 E0.10477
G1 X102.858 Y53.447 E0.217
G1 X108.307 Y53.988 E0.21631
G1 X113.793 Y54.221 E0.2169
G1 X136.213 Y54.242 E0.88564
G1 X136.725 Y54.282 E0.02029
G1 X137.224 Y54.402 E0.02027
G1 X137.699 Y54.597 E0.02028
G1 X138.138 Y54.864 E0.0203
G1 X138.53 Y55.195 E0.02027
G1 X138.866 Y55.583 E0.02028
G1 X139.138 Y56.019 E0.0203
G1 X139.338 Y56.492 E0.02029
G1 X139.463 Y56.99 E0.02028
G1 X139.51 Y57.542 E0.02188
G1 X139.508 Y75.034 E0.69097
G1 X139.478 Y75.481 E0.0177
G1 X138.579 Y82.057 E0.26218
G1 X138.168 Y87.516 E0.21625
G1 X138.068 Y92.956 E0.21493
G1 X138.277 Y98.447 E0.21706
G1 X138.793 Y103.892 E0.21605
G1 X139.473 Y108.541 E0.1856
G1 X139.508 Y109.018 E0.01889
G1 X139.509 Y123.052 E0.55437
G1 X139.469 Y123.564 E0.02029
G1 X139.35 Y124.063 E0.02026
G1 X139.155 Y124.538 E0.02028
G1 X138.889 Y124.977 E0.02028
G1 X138.558 Y125.37 E0.0203
G1 X138.17 Y125.706 E0.02028
G1 X137.735 Y125.978 E0.02027
G1 X137.263 Y126.179 E0.02027
G1 X136.765 Y126.305 E0.02029
G1 X136.209 Y126.352 E0.02204
G1 X104.935 Y126.351 E1.23539
G1 X104.423 Y126.311 E0.02029
G1 X103.924 Y126.192 E0.02026
G1 X103.449 Y125.997 E0.02028
G1 X103.077 Y125.778 E0.01705
G1 X99.864 Y123.59 E0.15355
G1 X95.18 Y120.707 E0.21727
G1 X90.377 Y118.115 E0.21559
G1 X85.4 Y115.781 E0.21715
G1 X82.951 Y114.756 E0.10487
G1 X77.769 Y112.843 E0.2182
G1 X72.53 Y111.24 E0.21642
G1 X67.17 Y109.924 E0.21802
G1 X64.569 Y109.405 E0.10477
G1 X59.142 Y108.553 E0.217
G1 X53.693 Y108.012 E0.21631
G1 X48.207 Y107.779 E0.2169
G1 X25.787 Y107.758 E0.88564
G1 X25.275 Y107.718 E0.02029
G1 X24.776 Y107.598 E0.02027
G1 X24.301 Y107.403 E0.02028
G1 X23.862 Y107.136 E0.0203
G1 X23.47 Y106.805 E0.02027
G1 X23.134 Y106.417 E0.02028
G1 X22.862 Y105.981 E0.0203
G1 X22.662 Y105.508 E0.02029
G1 X22.537 Y105.01 E0.02028
G1 X22.49 Y104.458 E0.02188
G1 X22.492 Y86.966 E0.69097
G1 X22.522 Y86.519 E0.0177
G1 X23.421 Y79.943 E0.26218
G1 X23.832 Y74.484 E0.21625
G1 X23.932 Y69.044 E0.21493
G1 X23.723 Y63.553 E0.21706
G1 X23.207 Y58.107 E0.21609
G1 X22.527 Y53.457 E0.18564
G1 X22.492 Y52.98 E0.01889
G1 X22.491 Y38.948 E0.55429
G1 X22.531 Y38.436 E0.02029
G1 X22.65 Y37.937 E0.02026
G1 X22.845 Y37.462 E0.02028
G1 X23.111 Y37.023 E0.02028
G1 X23.442 Y36.63 E0.0203
G1 X23.456 Y36.618 E0.00073
G0 F810 X23.83 Y36.294
G1 F600 E-1
G0 F2625 X57.364 Y38.278
G0 X76.443 Y59.591
G0 X85.561 Y78.961
G0 X85.627 Y79.006
G0 X100.494 Y89.282
G0 X100.531 Y89.307
G0 X101.716 Y90.128
G0 X101.81 Y92.01
;TYPE:WALL-INNER
G1 F600 E1.01955
G1 F900 X102.134 Y92.01 E0.00853
G1 X102.156 Y92.01 E0.00058
G1 X102.53 Y91.969 E0.00991
G1 X102.894 Y91.888 E0.00982
G1 X103.245 Y91.769 E0.00976
G1 X103.263 Y91.761 E0.00052
G1 X103.585 Y91.614 E0.00932
G1 X103.603 Y91.603 E0.00056
G1 X103.908 Y91.42 E0.00937
G1 X104.202 Y91.193 E0.00978
G1 X104.215 Y91.18 E0.00048
G1 X104.455 Y90.956 E0.00865
G1 X104.473 Y90.939 E0.00065
G1 X104.519 Y90.885 E0.00187
G1 X104.519 Y90.939
G1 X104.519 Y91.193
G1 X104.519 Y93.106 E0.05038
G1 X104.519 Y93.493 E0.01019
G1 X104.519 Y93.506 E0.00034
G1 X116.019 Y93.515 E0.30285
G1 X116.019 Y94.546 E0.02715
G1 X116.019 Y94.741 E0.00514
G1 X135.019 Y109.616 E0.63546
G1 X135.019 Y121.861 E0.32247
G1 X105.468 Y121.861 E0.77822
G1 X94.557 Y109.673 E0.43079
G1 X104.072 Y93.836 E0.48655
G1 X104.279 Y93.493 E0.01048
G1 X103.937 Y93.288 E0.0105
G1 X102.064 Y92.163 E0.05575
G1 X101.81 Y92.01
G0 F2625 X101.804 Y91.61
G1 F900 X102.134 Y91.61 E0.00869
G1 X102.464 Y91.574 E0.00874
G1 X102.786 Y91.502 E0.00869
G1 X103.098 Y91.397 E0.00867
G1 X103.398 Y91.26 E0.00869
G1 X103.682 Y91.089 E0.00873
G1 X103.943 Y90.888 E0.00868
G1 X104.183 Y90.663 E0.00866
G1 X104.214 Y90.627 E0.00125
G1 X104.398 Y90.41 E0.00749
G1 X104.583 Y90.136 E0.00871
G1 X104.738 Y89.845 E0.00868
G1 X104.861 Y89.537 E0.00873
G1 X104.919 Y89.324 E0.00581
G1 X104.919 Y89.537
G1 X104.919 Y89.845
G1 X104.919 Y90.136 E0.00271
G1 X104.919 Y90.885 E0.01972
G1 X104.919 Y93.106 E0.05849
G1 X116.419 Y93.115 E0.30285
G1 X116.419 Y93.515 E0.01053
G1 X116.419 Y94.546 E0.02715
G1 X135.419 Y109.421 E0.63546
G1 X135.419 Y109.616 E0.00514
G1 X135.419 Y121.861 E0.32247
G1 X135.419 Y122.261 E0.01053
G1 X135.019 Y122.261 E0.01053
G1 X105.468 Y122.261 E0.77822
G1 X105.289 Y122.261 E0.00471
G1 X94.062 Y109.72 E0.44327
G1 X103.627 Y93.801 E0.48908
G1 X103.73 Y93.63 E0.00526
G1 X103.559 Y93.528 E0.00339
G1 X100.417 Y91.64 E0.09653
G1 X100.34 Y91.594 E0.00236
G1 X100.056 Y91.423 E0.00873
G1 X99.974 Y91.374 E0.00252
G1 X96.936 Y89.549 E0.09333
G1 X88.668 Y103.306 E0.42268
G1 X88.529 Y103.538 E0.00712
G1 X88.349 Y103.336 E0.00426
G1 X87.019 Y101.85 E0.05252
G1 X87.019 Y101.697 E0.00403
G1 X87.019 Y74.356 E0.72002
G1 X86.868 Y74.356 E0.00398
G1 X86.868 Y73.956 E0.01053
G1 X86.868 Y72.198 E0.0463
G1 X86.868 Y70.755 E0.038
G1 X87.61 Y71.991 E0.03796
G1 X96.935 Y87.513 E0.47686
G1 X98.86 Y86.358 E0.05912
G1 X98.861 Y86.357 E0.00004
G1 X101.477 Y84.786 E0.08036
G1 X103.737 Y83.428 E0.06943
G1 X95.923 Y70.437 E0.39923
G1 X95.74 Y70.133 E0.00934
G1 X95.558 Y69.831 E0.00929
G1 X95.91 Y69.831 E0.00523
G1 X95.911 Y69.831 E0.00003
G1 X102.551 Y69.83 E0.17486
G1 X114.051 Y58.331 E0.42828
G1 X114.217 Y58.331 E0.00437
G1 X135.019 Y58.331 E0.54782
G1 X135.419 Y58.331 E0.01053
G1 X135.419 Y58.731 E0.01053
G1 X135.419 Y74.239 E0.4084
G1 X135.419 Y74.503 E0.00695
G1 X135.178 Y74.606 E0.0069
G1 X116.419 Y82.628 E0.53729
G1 X116.419 Y83.547 E0.0242
G1 X116.419 Y83.947 E0.01053
G1 X104.919 Y83.956 E0.30285
G1 X104.919 Y86.242 E0.0602
G1 X104.919 Y86.886 E0.01696
G1 X104.919 Y86.989 E0.00271
G1 X104.919 Y87.283 E0.00774
G1 X104.919 Y87.59 E0.00808
G1 X104.919 Y87.803 E0.00561
G1 X104.861 Y87.59
G1 X104.738 Y87.283
G1 X104.583 Y86.989 E0.00527
G1 X104.525 Y86.904 E0.0025
G1 X104.398 Y86.717 E0.00595
G1 X104.183 Y86.465 E0.00872
G1 X103.943 Y86.237 E0.00872
G1 X103.681 Y86.038 E0.00866
G1 X103.398 Y85.868 E0.00869
G1 X103.099 Y85.729 E0.00868
G1 X102.785 Y85.623 E0.00873
G1 X102.461 Y85.552 E0.00873
G1 X102.133 Y85.517 E0.00869
G1 X101.805 Y85.517 E0.00864
G1 X101.727 Y85.525 E0.00206
G1 X101.477 Y85.552 E0.00662
G1 X101.153 Y85.623 E0.00873
G1 X100.839 Y85.729 E0.00873
G1 X100.54 Y85.867 E0.00867
G1 X100.256 Y86.037 E0.00872
G1 X99.994 Y86.237 E0.00868
G1 X99.754 Y86.465 E0.00872
G1 X99.539 Y86.717 E0.00872
G1 X99.399 Y86.923 E0.00656
G1 X99.354 Y86.99 E0.00213
G1 X99.2 Y87.283 E0.00872
G1 X99.076 Y87.589 E0.00869
G1 X98.989 Y87.909 E0.00873
G1 X98.935 Y88.234 E0.00868
G1 X98.918 Y88.563 E0.00868
G1 X98.935 Y88.893 E0.0087
G1 X98.989 Y89.218 E0.00868
G1 X99.076 Y89.538 E0.00873
G1 X99.201 Y89.846 E0.00875
G1 X99.354 Y90.135 E0.00861
G1 X99.539 Y90.408 E0.00868
G1 X99.754 Y90.663 E0.00878
G1 X99.994 Y90.888 E0.00866
G1 X100.18 Y91.031 E0.00618
G1 X100.256 Y91.089 E0.00248
G1 X100.542 Y91.26 E0.00855
G1 X100.624 Y91.297 E0.00235
G1 X100.84 Y91.397 E0.00627
G1 X101.152 Y91.502 E0.00867
G1 X101.474 Y91.574 E0.00869
G1 X101.672 Y91.596 E0.00525
G0 F810 X101.804 Y91.61
G1 F600 E-1
G0 F2625 X101.716 Y90.128
G0 X100.422 Y88.219
G0 X99.551 Y87.749
;TYPE:WALL-OUTER
G1 F600 E1.0035
G1 F900 X99.478 Y88.016 E0.01093
G1 X99.433 Y88.288 E0.01089
G1 X99.419 Y88.563 E0.01088
G1 X99.433 Y88.839 E0.01092
G1 X99.478 Y89.111 E0.01089
G1 X99.551 Y89.378 E0.01093
G1 X99.655 Y89.635 E0.01095
G1 X99.783 Y89.877 E0.01081
G1 X99.938 Y90.106 E0.01092
G1 X100.117 Y90.318 E0.01096
G1 X100.318 Y90.507 E0.0109
G1 X100.537 Y90.675 E0.0109
G1 X100.775 Y90.817 E0.01095
G1 X101.025 Y90.932 E0.01087
G1 X101.286 Y91.02 E0.01088
G1 X101.556 Y91.08 E0.01093
G1 X101.831 Y91.11 E0.01093
G1 X102.107 Y91.11 E0.0109
G1 X102.382 Y91.08 E0.01093
G1 X102.652 Y91.02 E0.01093
G1 X102.913 Y90.932 E0.01088
G1 X103.164 Y90.817 E0.01091
G1 X103.4 Y90.675 E0.01088
G1 X103.619 Y90.507 E0.0109
G1 X103.82 Y90.318 E0.0109
G1 X103.999 Y90.107 E0.01093
G1 X104.154 Y89.878 E0.01092
G1 X104.284 Y89.634 E0.01092
G1 X104.386 Y89.378 E0.01089
G1 X104.459 Y89.111 E0.01093
G1 X104.504 Y88.84 E0.01085
G1 X104.519 Y88.563 E0.01096
G1 X104.504 Y88.287 E0.01092
G1 X104.459 Y88.016 E0.01085
G1 X104.386 Y87.749 E0.01093
G1 X104.284 Y87.493 E0.01089
G1 X104.154 Y87.248 E0.01096
G1 X103.999 Y87.02 E0.01089
G1 X103.82 Y86.809 E0.01093
G1 X103.619 Y86.619 E0.01093
G1 X103.4 Y86.452 E0.01088
G1 X103.164 Y86.31 E0.01088
G1 X102.913 Y86.194 E0.01092
G1 X102.651 Y86.105 E0.01093
G1 X102.381 Y86.046 E0.01092
G1 X102.107 Y86.017 E0.01088
G1 X101.831 Y86.017 E0.0109
G1 X101.557 Y86.046 E0.01088
G1 X101.287 Y86.105 E0.01092
G1 X101.025 Y86.194 E0.01093
G1 X100.774 Y86.31 E0.01092
G1 X100.537 Y86.452 E0.01091
G1 X100.318 Y86.619 E0.01088
G1 X100.117 Y86.809 E0.01093
G1 X99.938 Y87.02 E0.01093
G1 X99.783 Y87.248 E0.01089
G1 X99.756 Y87.298 E0.00224
G0 F810 X99.654 Y87.493
G0 X99.551 Y87.749
G0 F2625 X99.485 Y87.99
G0 X98.847 Y87.816
G1 F600 E-1
G0 F2625 X100.465 Y88.06
G0 X100.435 Y88.035
G0 X100.402 Y88.006
G0 X97.562 Y85.517
G0 X97.432 Y85.519
G0 X87.138 Y68.372
G0 X85.415 Y68.378
G0 X85.403 Y74.856
G0 X86.519 Y74.856
G1 F600 E1.01955
G1 F900 X86.368 Y74.856 E0.00596
G1 X86.368 Y70.001 E0.19178
G1 X86.368 Y69.331 E0.02647
G1 X86.596 Y69.331 E0.00901
G1 X86.941 Y69.905 E0.01855
G1 X97.106 Y86.827 E0.77979
G1 X102.794 Y83.411 E0.26209
G1 X103.051 Y83.257 E0.01184
G1 X102.897 Y83 E0.00765
G1 X94.947 Y69.785 E0.6092
G1 X94.674 Y69.331 E0.02093
G1 X95.203 Y69.331 E0.0118
G1 X95.204 Y69.331 E0.00004
G1 X102.344 Y69.33 E0.28205
G1 X113.843 Y57.831 E0.64239
G1 X135.919 Y57.831 E0.87205
G1 X135.919 Y74.833 E0.67162
G1 X116.919 Y82.958 E0.81629
G1 X116.919 Y84.447 E0.05882
G1 X105.419 Y84.456 E0.45428
G1 X105.419 Y92.606 E0.32194
G1 X116.919 Y92.615 E0.45428
G1 X116.919 Y94.302 E0.06664
G1 X135.919 Y109.177 E0.95319
G1 X135.919 Y122.761 E0.5366
G1 X105.065 Y122.761 E1.2188
G1 X93.443 Y109.779 E0.68829
G1 X102.89 Y94.058 E0.72451
G1 X103.044 Y93.801 E0.01184
G1 X102.787 Y93.647 E0.00765
G1 X97.107 Y90.235 E0.26174
G1 X88.818 Y104.029 E0.63571
G1 X88.609 Y104.377 E0.01604
G1 X88.339 Y104.075 E0.00956
G1 X86.519 Y102.041 E0.10782
G1 X86.519 Y75.351 E1.05431
G0 F810 X86.519 Y74.856
G0 F2625 X86.368 Y74.856
G0 X86.368 Y74.757
G0 X87.419 Y74.356
;TYPE:WALL-INNER
G1 F600 E0.01955
G1 F900 X87.419 Y73.956 E0.01053
G1 X87.268 Y73.956 E0.00398
G1 X87.268 Y72.919 E0.02731
G1 X87.268 Y72.918 E0.00003
G1 X87.268 Y72.199 E0.01893
G1 X87.268 Y72.198 E0.00003
G1 X87.639 Y72.816 E0.01898
G1 X96.798 Y88.062 E0.46838
G1 X98.505 Y87.038 E0.05242
G1 X98.715 Y86.912 E0.00645
G1 X98.989 Y86.747 E0.00842
G1 X99.068 Y86.699 E0.00243
G1 X99.067 Y86.7 E0.00004
G1 X99.024 Y86.764 E0.00099
G1 X99.01 Y86.784
G1 X98.846 Y87.098 E0.00116
G1 X98.837 Y87.114
G1 X98.745 Y87.342 E0.00521
G1 X98.706 Y87.438 E0.00273
G1 X98.696 Y87.461 E0.00066
G1 X98.603 Y87.806 E0.00941
G1 X98.598 Y87.824 E0.00049
G1 X98.595 Y87.842 E0.00048
G1 X98.541 Y88.169 E0.00873
G1 X98.537 Y88.191 E0.00059
G1 X98.536 Y88.212 E0.00055
G1 X98.519 Y88.542 E0.0087
G1 X98.517 Y88.563 E0.00056
G1 X98.537 Y88.936 E0.00984
G1 X98.598 Y89.303 E0.0098
G1 X98.696 Y89.666 E0.0099
G1 X98.714 Y89.709 E0.00123
G1 X98.838 Y90.015 E0.00869
G1 X98.847 Y90.032 E0.00051
G1 X99.001 Y90.323 E0.00867
G1 X98.746 Y90.17
G1 X98.464 Y90 E0.00641
G1 X96.799 Y89 E0.05115
G1 X88.605 Y102.635 E0.41893
G1 X88.604 Y102.636 E0.00004
G1 X88.466 Y102.867 E0.00709
G1 X88.286 Y102.666 E0.00424
G1 X87.419 Y101.697 E0.03424
G1 X87.419 Y75.098 E0.70048
G0 F810 X87.419 Y74.356
G1 F600 E-1
G0 F2625 X85.403 Y74.356
G0 X85.415 Y68.378
G0 X87.138 Y68.372
G0 X94.668 Y71.193
G0 X96.265 Y70.231
G1 F600 E1.01954
G1 F900 X96.617 Y70.231 E0.00927
G1 X96.618 Y70.231 E0.00003
G1 X102.717 Y70.23 E0.16062
G1 X114.217 Y58.731 E0.42828
G1 X135.019 Y58.731 E0.54782
G1 X135.019 Y74.239 E0.4084
G1 X116.019 Y82.364 E0.54419
G1 X116.019 Y82.628 E0.00695
G1 X116.019 Y83.547 E0.0242
G1 X104.519 Y83.556 E0.30285
G1 X104.519 Y83.956 E0.01053
G1 X104.519 Y85.932 E0.05204
G1 X104.519 Y86.189 E0.00677
G1 X104.519 Y86.242 E0.0014
G1 X104.474 Y86.189
G1 X104.203 Y85.932 E0.00426
G1 X103.906 Y85.706 E0.00983
G1 X103.586 Y85.514 E0.00983
G1 X103.567 Y85.506 E0.00054
G1 X103.269 Y85.367 E0.00866
G1 X103.248 Y85.357 E0.00061
G1 X102.912 Y85.244 E0.00934
G1 X102.892 Y85.237 E0.00056
G1 X102.871 Y85.233 E0.00056
G1 X102.547 Y85.162 E0.00873
G1 X102.525 Y85.157 E0.00059
G1 X102.505 Y85.155 E0.00053
G1 X102.177 Y85.12 E0.00869
G1 X102.154 Y85.117 E0.00061
G1 X102.133 Y85.117 E0.00055
G1 X101.805 Y85.117 E0.00864
G1 X101.784 Y85.117 E0.00055
G1 X101.684 Y85.128 E0.00265
G1 X101.762 Y85.082
G1 X102.033 Y84.918
G1 X104.286 Y83.565 E0.06921
G1 X104.08 Y83.223 E0.01051
G1 X96.446 Y70.533 E0.39
