;Generated by Cura LulzBot Edition GCodeWriter Version: 3.6.5
;FLAVOR:Marlin
;TIME:6109
;Filament used: 3.37804m
;Layer height: 0.28
;Generated with Cura_SteamEngine 3.6.5
M82 ;absolute extrusion mode
M221 S100
;This G-Code has been generated specifically for the LulzBot Mini 2 with SE 0.5mm Tool Head
M73 P0                  ; clear GLCD progress bar
M75 					; Start GLCD Print Timer
G26 					; clear potential 'probe fail' condition
M107 					; disable fans
M420 S0                 ; disable leveling matrix
G90 					; absolute positioning
M82 					; set extruder to absolute mode
G92 E0 					; set extruder position to 0
M140 S115 	; start bed heating up
G28                       ; Home Axis
G0 X160 F9999             ; Move toolhead to the right
G0 Z5 F6000               ; Move to bottom of printer
G91                       ; Set relative motion mode
M211 S0		  	  ; Turn off soft endstops
M400                      ; Finish moves
G0 Z-15 F500              ; Skip steppers against lower Z mounts
G90                       ; Return to absolute mode
M400                      ; Finish moves
M211 S1			  ; Turn soft endstops back on
M400                      ; Finish moves
G28                       ; Rehome
M117 X-Axis LeveledG0 X0 Y187 Z156 F200 			; move away from endstops
M117 Mini 2 Wiping...			; progress indicator message on LCD
M109 R170 	; soften filament before retraction
G1 E-15 F75 				; retract filament
M109 R170 	; wait for extruder to reach wiping temp
G1 X45 Y176 F11520 			; move above wiper pad
G1 Z0 F1200 				; push nozzle into wiper
G1 X45 Y178 Z-.5 F4000		; wiping
G1 X55 Y176 Z-.5 F4000		; wiping
G1 X45 Y177 Z0 F4000		; wiping
G1 X55 Y176 F4000		; wiping
G1 X45 Y178 F4000		; wiping
G1 X55 Y176 F4000		; wiping
G1 X45 Y178 F4000		; wiping
G1 X55 Y176 F4000		; wiping
G1 X60 Y178 F4000		; wiping
G1 X80 Y176 F4000		; wiping
G1 X60 Y178 F4000		; wiping
G1 X80 Y176 F4000		; wiping
G1 X60 Y178 F4000		; wiping
G1 X90 Y176 F4000		; wiping
G1 X80 Y178 F4000		; wiping
G1 X100 Y176 F4000		; wiping
G1 X80 Y178 F4000		; wiping
G1 X100 Y176 F4000		; wiping
G1 X80 Y178 F4000		; wiping
G1 X100 Y176 F4000		; wiping
G1 X110 Y178 F4000		; wiping
G1 X100 Y176 F4000		; wiping
G1 X110 Y178 F4000		; wiping
G1 X100 Y176 F4000		; wiping
G1 X110 Y178 F4000		; wiping
G1 X115 Y176 Z-0.5 F1000	; wiping
G1 Z10					; raise extruder
G28 X0 Y0				; home X and Y
M109 R170	; wait for extruder to reach probe temp
M204 S300				; set probing acceleration
G29					; start auto-leveling sequence
M420 S1                     ; enable leveling matrix
M425 Z			     		; use measured Z backlash for compensation
M425 Z F0		     		; turn off measured Z backlash compensation. (if activated in the quality settings, this command will automatically be ignored)
M204 S2000				; restore standard acceleration
G1 X5 Y15 Z10 F5000			; move up off last probe point
G4 S1					; pause
M400					; wait for moves to finish
M117 Heating...				; progress indicator message on LCD
M109 R250	; wait for extruder to reach initial printing temp
M190 S116 ; wait for bed to reach printing temp
G1 Z2 E0 F75				; prime tiny bit of filment into the nozzle
M117 Mini 2 Printing...		; progress indicator message on LCD
M83 ;relative extrusion mode
G1 F600 E-1
;LAYER_COUNT:18
;LAYER:0
M425 F1.0
M107
M204 S2000
M205 X20 Y20
G0 F2250 X30.378 Y7.994 Z0.4
M204 S800
M205 X10 Y10
;TYPE:SKIRT
G1 F600 E1
G1 F900 X30.691 Y6.995 E0.04103
G1 X30.882 Y6.518 E0.02014
G1 X31.233 Y5.957 E0.02593
G1 X31.882 Y5.119 E0.04154
G1 X32.227 Y4.738 E0.02014
G1 X32.515 Y4.496 E0.01474
G1 X32.957 Y4.165 E0.02164
G1 X33.519 Y3.826 E0.02572
G1 X34.086 Y3.556 E0.02461
G1 X34.716 Y3.331 E0.02622
G1 X35.267 Y3.195 E0.02224
G1 X35.775 Y3.11 E0.02018
G1 X36.06 Y3.098 E0.01118
G1 X125.584 Y3.063 E3.50833
G1 X126.209 Y3.122 E0.0246
G1 X127.127 Y3.298 E0.03663
G1 X127.623 Y3.434 E0.02016
G1 X127.93 Y3.562 E0.01303
G1 X128.481 Y3.825 E0.02393
G1 X128.927 Y4.082 E0.02017
G1 X129.253 Y4.337 E0.01622
G1 X130.046 Y5.041 E0.04156
G1 X130.404 Y5.412 E0.0202
G1 X130.649 Y5.752 E0.01642
G1 X130.98 Y6.277 E0.02432
G1 X131.22 Y6.732 E0.02016
G1 X131.363 Y7.131 E0.01661
G1 X131.655 Y8.149 E0.0415
G1 X131.758 Y8.653 E0.02016
G1 X131.783 Y9.067 E0.01625
G1 X131.771 Y17.618 E0.3351
G1 X131.683 Y18.371 E0.02971
G1 X130.339 Y24.095 E0.23042
G1 X129.842 Y26.733 E0.1052
G1 X129.053 Y32.148 E0.21445
G1 X128.573 Y37.604 E0.21464
G1 X128.401 Y43.056 E0.21376
G1 X128.54 Y48.533 E0.21471
G1 X128.987 Y53.991 E0.21461
G1 X129.74 Y59.398 E0.21394
G1 X130.802 Y64.776 E0.21483
G1 X131.655 Y68.241 E0.13984
G1 X131.733 Y68.691 E0.0179
G1 X131.794 Y69.279 E0.02317
G1 X131.812 Y69.642 E0.01424
G1 X131.749 Y79.72 E0.39495
G1 X131.796 Y92.696 E0.50852
G1 X131.71 Y93.457 E0.03001
G1 X130.34 Y99.358 E0.2374
G1 X129.842 Y102.003 E0.10548
G1 X129.053 Y107.418 E0.21445
G1 X128.573 Y112.874 E0.21464
G1 X128.401 Y118.326 E0.21376
G1 X128.54 Y123.803 E0.21471
G1 X128.987 Y129.261 E0.21461
G1 X129.74 Y134.668 E0.21394
G1 X130.802 Y140.046 E0.21483
G1 X131.655 Y143.511 E0.13984
G1 X131.733 Y143.961 E0.0179
G1 X131.794 Y144.549 E0.02317
G1 X131.812 Y144.901 E0.01381
G1 X131.787 Y152.944 E0.3152
G1 X131.745 Y153.457 E0.02017
G1 X131.654 Y153.864 E0.01634
G1 X131.352 Y154.896 E0.04214
G1 X131.169 Y155.377 E0.02017
G1 X130.909 Y155.833 E0.02057
G1 X130.448 Y156.509 E0.03207
G1 X130.126 Y156.91 E0.02015
G1 X129.82 Y157.197 E0.01644
G1 X129.161 Y157.741 E0.03349
G1 X128.551 Y158.14 E0.02856
G1 X128.145 Y158.346 E0.01784
G1 X127.67 Y158.543 E0.02015
G1 X127.377 Y158.623 E0.0119
G1 X126.364 Y158.852 E0.0407
G1 X125.633 Y158.934 E0.02883
G1 X36.413 Y158.937 E3.49641
G1 X35.974 Y158.908 E0.01724
G1 X35.375 Y158.828 E0.02368
G1 X34.872 Y158.72 E0.02016
G1 X34.619 Y158.634 E0.01047
G1 X33.851 Y158.337 E0.03227
G1 X33.387 Y158.115 E0.02016
G1 X33.121 Y157.943 E0.01241
G1 X32.593 Y157.566 E0.02542
G1 X32.199 Y157.236 E0.02014
G1 X32.003 Y157.026 E0.01126
G1 X31.486 Y156.423 E0.03113
G1 X31.084 Y155.838 E0.02782
G1 X30.84 Y155.385 E0.02016
G1 X30.632 Y154.915 E0.02014
G1 X30.533 Y154.576 E0.01384
G1 X30.293 Y153.56 E0.04091
G1 X30.204 Y152.797 E0.0301
G1 X30.206 Y144.545 E0.32338
G1 X30.292 Y143.795 E0.02958
G1 X31.664 Y137.897 E0.23731
G1 X32.158 Y135.272 E0.10468
G1 X32.947 Y129.852 E0.21464
G1 X33.427 Y124.396 E0.21464
G1 X33.599 Y118.941 E0.21388
G1 X33.46 Y113.467 E0.21459
G1 X33.013 Y108.009 E0.21461
G1 X32.26 Y102.602 E0.21394
G1 X31.198 Y97.224 E0.21483
G1 X30.345 Y93.759 E0.13984
G1 X30.266 Y93.301 E0.01821
G1 X30.205 Y92.699 E0.02371
G1 X30.188 Y92.346 E0.01385
G1 X30.245 Y82.531 E0.38464
G1 X30.206 Y69.286 E0.51906
G1 X30.292 Y68.525 E0.03001
G1 X31.664 Y62.627 E0.23731
G1 X32.158 Y60.002 E0.10468
G1 X32.947 Y54.582 E0.21464
G1 X33.427 Y49.126 E0.21464
G1 X33.599 Y43.671 E0.21388
G1 X33.46 Y38.197 E0.21459
G1 X33.013 Y32.739 E0.21461
G1 X32.26 Y27.332 E0.21394
G1 X31.198 Y21.954 E0.21483
G1 X30.345 Y18.489 E0.13984
G1 X30.266 Y18.031 E0.01821
G1 X30.205 Y17.429 E0.02371
G1 X30.188 Y17.079 E0.01373
G1 X30.226 Y8.969 E0.31782
G1 X30.268 Y8.457 E0.02013
G1 X30.378 Y7.994 E0.01865
M204 S2000
M205 X20 Y20
G1 F600 E-1
;MESH:
G0 F2250 X32.836 Y14.004
G0 X34.506 Y14.004
G0 X34.523 Y14.082
G0 X34.501 Y13.985
M204 S800
M205 X10 Y10
;TYPE:WALL-INNER
G1 F600 E1
G1 F900 X34.78 Y14.193 E0.01091
G1 X34.945 Y14.29 E0.006
G1 X35.184 Y14.43 E0.00868
G1 X35.512 Y14.578 E0.01128
G1 X35.834 Y14.692 E0.01071
G1 X36.059 Y14.754 E0.00732
G1 X36.368 Y14.815 E0.00987
G1 X36.716 Y14.855 E0.01098
G1 X37.057 Y14.864 E0.01069
G1 X37.289 Y14.856 E0.00728
G1 X37.631 Y14.816 E0.0108
G1 X37.947 Y14.754 E0.0101
G1 X38.286 Y14.654 E0.01108
G1 X38.608 Y14.528 E0.01084
G1 X38.812 Y14.431 E0.00708
G1 X39.087 Y14.279 E0.00985
G1 X39.378 Y14.083 E0.011
G1 X39.655 Y13.86 E0.01115
G1 X39.91 Y13.61 E0.0112
G1 X40.14 Y13.344 E0.01102
G1 X40.346 Y13.058 E0.01105
G1 X40.527 Y12.754 E0.01109
G1 X40.681 Y12.433 E0.01116
G1 X40.804 Y12.102 E0.01107
G1 X40.899 Y11.762 E0.01107
G1 X40.963 Y11.412 E0.01115
G1 X40.995 Y11.063 E0.01099
G1 X40.998 Y10.71 E0.01107
G1 X40.969 Y10.355 E0.01117
G1 X40.91 Y10.012 E0.01091
G1 X40.85 Y9.778 E0.00757
G1 X40.699 Y9.341 E0.0145
G1 X40.547 Y9.012 E0.01136
G1 X40.367 Y8.703 E0.01121
G1 X40.164 Y8.416 E0.01102
G1 X39.936 Y8.146 E0.01108
G1 X39.681 Y7.896 E0.0112
G1 X39.619 Y7.845 E0.00252
G1 X39.409 Y7.672 E0.00853
G1 X39.118 Y7.471 E0.01109
G1 X38.934 Y7.368 E0.00661
G1 X39.118 Y7.368 E0.0004
G1 X39.408 Y7.368 E0.00472
G1 X39.681 Y7.368 E0.00698
G1 X122.336 Y7.367 E2.59131
G1 X122.48 Y7.367 E0.00451
G1 X122.764 Y7.366 E0.0089
G1 X123.063 Y7.365 E0.00937
G1 X122.765 Y7.547 E0.00293
G1 X122.481 Y7.757 E0.007
G1 X122.374 Y7.853 E0.00404
G1 X122.225 Y7.985 E0.00624
G1 X122.056 Y8.155 E0.00752
G1 X121.764 Y8.513 E0.01448
G1 X121.631 Y8.709 E0.00743
G1 X121.475 Y8.974 E0.00964
G1 X121.374 Y9.177 E0.00711
G1 X121.254 Y9.462 E0.00969
G1 X121.145 Y9.798 E0.01107
G1 X121.067 Y10.142 E0.01106
G1 X121.017 Y10.492 E0.01108
G1 X121.001 Y10.844 E0.01105
G1 X121.012 Y11.196 E0.01104
G1 X121.058 Y11.55 E0.01119
G1 X121.133 Y11.888 E0.01085
G1 X121.197 Y12.108 E0.00718
G1 X121.306 Y12.402 E0.00983
G1 X121.455 Y12.719 E0.01098
G1 X121.632 Y13.026 E0.01111
G1 X121.836 Y13.314 E0.01106
G1 X122.064 Y13.584 E0.01108
G1 X122.318 Y13.835 E0.0112
G1 X122.586 Y14.054 E0.01085
G1 X122.78 Y14.193 E0.00748
G1 X123.184 Y14.43 E0.01468
G1 X123.512 Y14.578 E0.01128
G1 X123.834 Y14.692 E0.01071
G1 X124.059 Y14.754 E0.00732
G1 X124.368 Y14.815 E0.00987
G1 X124.716 Y14.855 E0.01098
G1 X125.057 Y14.864 E0.01069
G1 X125.289 Y14.856 E0.00728
G1 X125.631 Y14.816 E0.0108
G1 X125.947 Y14.754 E0.0101
G1 X126.286 Y14.654 E0.01108
G1 X126.608 Y14.528 E0.01084
G1 X126.812 Y14.431 E0.00708
G1 X127.024 Y14.314 E0.00759
G1 X127.087 Y14.279 E0.00226
G1 X127.378 Y14.083 E0.011
G1 X127.5 Y13.985 E0.00491
G1 X127.5 Y14.083
G1 X127.5 Y14.279 E0.00259
G1 X127.5 Y14.352 E0.00212
G1 X127.5 Y17.295 E0.09227
G1 X127.492 Y17.357 E0.00196
G1 X127.43 Y17.365 E0.00196
G1 X125.934 Y17.365 E0.0469
G1 X125.479 Y17.425 E0.01439
G1 X124.995 Y17.626 E0.01643
G1 X124.58 Y17.945 E0.01641
G1 X124.261 Y18.36 E0.01641
G1 X124.06 Y18.844 E0.01643
G1 X124 Y19.299 E0.01439
G1 X124 Y67.431 E1.50898
G1 X124.06 Y67.886 E0.01439
G1 X124.261 Y68.37 E0.01643
G1 X124.58 Y68.785 E0.01641
G1 X124.995 Y69.104 E0.01641
G1 X125.479 Y69.305 E0.01643
G1 X125.934 Y69.365 E0.01439
G1 X127.43 Y69.365 E0.0469
G1 X127.492 Y69.373 E0.00196
G1 X127.5 Y69.433 E0.0019
G1 X127.5 Y72.371 E0.09211
G1 X127.5 Y72.471 E0.00314
G1 X127.5 Y72.672 E0.0063
G1 X127.499 Y72.746 E0.00232
G1 X127.409 Y72.672 E0.00119
G1 X127.118 Y72.471 E0.00698
G1 X127.031 Y72.422 E0.00281
G1 X126.808 Y72.297 E0.00801
G1 X126.487 Y72.152 E0.01104
G1 X126.154 Y72.035 E0.01107
G1 X125.807 Y71.947 E0.01122
G1 X125.457 Y71.892 E0.01111
G1 X125.112 Y71.868 E0.01084
G1 X124.759 Y71.87 E0.01107
G1 X124.4 Y71.909 E0.01132
G1 X124.053 Y71.977 E0.01109
G1 X123.716 Y72.075 E0.011
G1 X123.385 Y72.204 E0.01114
G1 X123.066 Y72.363 E0.01117
G1 X122.765 Y72.547 E0.01106
G1 X122.481 Y72.757 E0.01107
G1 X122.225 Y72.985 E0.01075
G1 X122.056 Y73.155 E0.00752
G1 X121.764 Y73.513 E0.01448
G1 X121.631 Y73.709 E0.00743
G1 X121.475 Y73.974 E0.00964
G1 X121.374 Y74.177 E0.00711
G1 X121.254 Y74.462 E0.00969
G1 X121.145 Y74.798 E0.01107
G1 X121.067 Y75.142 E0.01106
G1 X121.017 Y75.492 E0.01108
G1 X121.001 Y75.844 E0.01105
G1 X121.012 Y76.196 E0.01104
G1 X121.058 Y76.55 E0.01119
G1 X121.133 Y76.888 E0.01085
G1 X121.197 Y77.108 E0.00718
G1 X121.306 Y77.402 E0.00983
G1 X121.455 Y77.719 E0.01098
G1 X121.632 Y78.026 E0.01111
G1 X121.836 Y78.314 E0.01106
G1 X122.064 Y78.584 E0.01108
G1 X122.318 Y78.835 E0.0112
G1 X122.378 Y78.884 E0.00243
G1 X122.586 Y79.054 E0.00842
G1 X122.78 Y79.193 E0.00748
G1 X123.068 Y79.362 E0.01047
G1 X122.78 Y79.362 E0.00121
G1 X122.587 Y79.362 E0.00399
G1 X122.318 Y79.362 E0.00691
G1 X39.691 Y79.362 E2.59043
G1 X39.378 Y79.362 E0.00981
G1 X39.088 Y79.362 E0.00909
G1 X38.935 Y79.363 E0.0048
G1 X39.087 Y79.279 E0.00088
G1 X39.378 Y79.083 E0.00485
G1 X39.622 Y78.887 E0.00776
G1 X39.655 Y78.86 E0.00134
G1 X39.91 Y78.61 E0.0112
G1 X40.14 Y78.344 E0.01102
G1 X40.346 Y78.058 E0.01105
G1 X40.527 Y77.754 E0.01109
G1 X40.681 Y77.433 E0.01116
G1 X40.804 Y77.102 E0.01107
G1 X40.899 Y76.762 E0.01107
G1 X40.963 Y76.412 E0.01115
G1 X40.995 Y76.063 E0.01099
G1 X40.998 Y75.71 E0.01107
G1 X40.969 Y75.355 E0.01117
G1 X40.91 Y75.012 E0.01091
G1 X40.85 Y74.778 E0.00757
G1 X40.699 Y74.341 E0.0145
G1 X40.547 Y74.012 E0.01136
G1 X40.367 Y73.703 E0.01121
G1 X40.164 Y73.416 E0.01102
G1 X39.936 Y73.146 E0.01108
G1 X39.681 Y72.896 E0.0112
G1 X39.409 Y72.672 E0.01105
G1 X39.118 Y72.471 E0.01109
G1 X38.808 Y72.297 E0.01115
G1 X38.487 Y72.152 E0.01104
G1 X38.154 Y72.035 E0.01107
G1 X37.807 Y71.947 E0.01122
G1 X37.457 Y71.892 E0.01111
G1 X37.112 Y71.868 E0.01084
G1 X36.759 Y71.87 E0.01107
G1 X36.4 Y71.909 E0.01132
G1 X36.053 Y71.977 E0.01109
G1 X35.716 Y72.075 E0.011
G1 X35.385 Y72.204 E0.01114
G1 X35.066 Y72.363 E0.01117
G1 X34.944 Y72.438 E0.00449
G1 X34.765 Y72.547 E0.00657
G1 X34.501 Y72.742 E0.01029
G1 X34.501 Y72.548 E0.00066
G1 X34.501 Y72.338 E0.00523
G1 X34.5 Y69.634 E0.08477
G1 X34.5 Y69.433 E0.0063
G1 X34.508 Y69.373 E0.0019
G1 X34.57 Y69.365 E0.00196
G1 X34.771 Y69.365 E0.0063
G1 X36.066 Y69.365 E0.0406
G1 X36.521 Y69.305 E0.01439
G1 X37.005 Y69.104 E0.01643
G1 X37.42 Y68.785 E0.01641
G1 X37.739 Y68.37 E0.01641
G1 X37.94 Y67.886 E0.01643
G1 X38 Y67.431 E0.01439
G1 X38 Y19.299 E1.50898
G1 X37.94 Y18.844 E0.01439
G1 X37.739 Y18.36 E0.01643
G1 X37.42 Y17.945 E0.01641
G1 X37.005 Y17.626 E0.01641
G1 X36.521 Y17.425 E0.01643
G1 X36.066 Y17.365 E0.01439
G1 X34.57 Y17.365 E0.0469
G1 X34.508 Y17.357 E0.00196
G1 X34.5 Y17.295 E0.00196
G1 X34.5 Y14.385 E0.09123
G1 X34.5 Y14.193 E0.00323
G1 X34.501 Y13.985 E0.00088
M204 S2000
M205 X20 Y20
G0 F2250 X34.523 Y14.082
G0 X44.511 Y24.211
G0 X44.595 Y24.264
M204 S800
M205 X10 Y10
G1 F900 X44.426 Y24.569 E0.01093
G1 X44.329 Y24.78 E0.00728
G1 X44.204 Y25.102 E0.01083
G1 X44.107 Y25.446 E0.01121
G1 X44.046 Y25.778 E0.01058
G1 X44.014 Y26.012 E0.0074
G1 X44 Y26.344 E0.01042
G1 X44 Y60.386 E1.06725
G1 X44.014 Y60.714 E0.01029
G1 X44.043 Y60.951 E0.00749
G1 X44.108 Y61.286 E0.0107
G1 X44.201 Y61.621 E0.0109
G1 X44.285 Y61.845 E0.0075
G1 X44.423 Y62.155 E0.01064
G1 X44.595 Y62.466 E0.01114
G1 X44.791 Y62.752 E0.01087
G1 X44.937 Y62.939 E0.00744
G1 X45.172 Y63.195 E0.01089
G1 X45.428 Y63.428 E0.01085
G1 X45.611 Y63.573 E0.00732
G1 X45.899 Y63.77 E0.01094
G1 X46.201 Y63.937 E0.01082
G1 X46.412 Y64.036 E0.00731
G1 X46.738 Y64.162 E0.01096
G1 X47.082 Y64.26 E0.01121
G1 X47.414 Y64.319 E0.01057
G1 X47.647 Y64.351 E0.00737
G1 X47.979 Y64.365 E0.01042
G1 X114.021 Y64.365 E2.07048
G1 X114.349 Y64.351 E0.01029
G1 X114.582 Y64.322 E0.00736
G1 X114.919 Y64.259 E0.01075
G1 X115.261 Y64.163 E0.01114
G1 X115.586 Y64.037 E0.01093
G1 X115.801 Y63.937 E0.00743
G1 X116.101 Y63.77 E0.01076
G1 X116.387 Y63.574 E0.01087
G1 X116.573 Y63.428 E0.00741
G1 X116.828 Y63.194 E0.01085
G1 X117.063 Y62.938 E0.01089
G1 X117.208 Y62.753 E0.00737
G1 X117.405 Y62.466 E0.01091
G1 X117.578 Y62.155 E0.01116
G1 X117.713 Y61.846 E0.01057
G1 X117.798 Y61.624 E0.00745
G1 X117.894 Y61.283 E0.01111
G1 X117.954 Y60.953 E0.01052
G1 X117.986 Y60.718 E0.00744
G1 X118 Y60.386 E0.01042
G1 X118 Y26.344 E1.06725
G1 X117.986 Y26.016 E0.01029
G1 X117.957 Y25.78 E0.00745
G1 X117.892 Y25.443 E0.01076
G1 X117.797 Y25.104 E0.01104
G1 X117.672 Y24.782 E0.01083
G1 X117.574 Y24.568 E0.00738
G1 X117.405 Y24.264 E0.0109
G1 X117.209 Y23.976 E0.01092
G1 X117.062 Y23.792 E0.00738
G1 X116.83 Y23.537 E0.01081
G1 X116.574 Y23.303 E0.01087
G1 X116.387 Y23.155 E0.00748
G1 X116.101 Y22.961 E0.01083
G1 X115.797 Y22.791 E0.01092
G1 X115.584 Y22.694 E0.00734
G1 X115.263 Y22.569 E0.0108
G1 X114.919 Y22.472 E0.01121
G1 X114.587 Y22.411 E0.01058
G1 X114.353 Y22.379 E0.0074
G1 X114.021 Y22.365 E0.01042
G1 X47.979 Y22.365 E2.07048
G1 X47.651 Y22.379 E0.01029
G1 X47.415 Y22.408 E0.00745
G1 X47.078 Y22.473 E0.01076
G1 X46.739 Y22.568 E0.01104
G1 X46.416 Y22.693 E0.01086
