;Generated by Cura LulzBot Edition GCodeWriter Version: 3.6.3
;FLAVOR:Marlin
;TIME:9102
;Filament used: 3.39483m
;Layer height: 0.23
;Generated with Cura_SteamEngine 3.6.3
M82 ;absolute extrusion mode
M221 S100
;This G-Code has been generated specifically for the LulzBot Mini 2 with SE 0.5mm Tool Head
M73 P0                  ; clear GLCD progress bar
M75 					; Start GLCD Print Timer
G26 					; clear potential 'probe fail' condition
M107 					; disable fans
M420 S0                 ; disable leveling matrix
G90 					; absolute positioning
M82 					; set extruder to absolute mode
G92 E0 					; set extruder position to 0
M140 S115 	; start bed heating up
G28                       ; Home Axis
G0 X160 F9999             ; Move toolhead to the right
G0 Z5 F6000               ; Move to bottom of printer
G91                       ; Set relative motion mode
M211 S0		  	  ; Turn off soft endstops
M400                      ; Finish moves
G0 Z-15 F500              ; Skip steppers against lower Z mounts
G90                       ; Return to absolute mode
M400                      ; Finish moves
M211 S1			  ; Turn soft endstops back on
M400                      ; Finish moves
G28                       ; Rehome
M117 X-Axis LeveledG0 X0 Y187 Z156 F200 			; move away from endstops
M117 Mini 2 Wiping...			; progress indicator message on LCD
M109 R170 	; soften filament before retraction
G1 E-15 F75 				; retract filament
M109 R170 	; wait for extruder to reach wiping temp
G1 X45 Y176 F11520 			; move above wiper pad
G1 Z0 F1200 				; push nozzle into wiper
G1 X45 Y178 Z-.5 F4000		; wiping
G1 X55 Y176 Z-.5 F4000		; wiping
G1 X45 Y177 Z0 F4000		; wiping
G1 X55 Y176 F4000		; wiping
G1 X45 Y178 F4000		; wiping
G1 X55 Y176 F4000		; wiping
G1 X45 Y178 F4000		; wiping
G1 X55 Y176 F4000		; wiping
G1 X60 Y178 F4000		; wiping
G1 X80 Y176 F4000		; wiping
G1 X60 Y178 F4000		; wiping
G1 X80 Y176 F4000		; wiping
G1 X60 Y178 F4000		; wiping
G1 X90 Y176 F4000		; wiping
G1 X80 Y178 F4000		; wiping
G1 X100 Y176 F4000		; wiping
G1 X80 Y178 F4000		; wiping
G1 X100 Y176 F4000		; wiping
G1 X80 Y178 F4000		; wiping
G1 X100 Y176 F4000		; wiping
G1 X110 Y178 F4000		; wiping
G1 X100 Y176 F4000		; wiping
G1 X110 Y178 F4000		; wiping
G1 X100 Y176 F4000		; wiping
G1 X110 Y178 F4000		; wiping
G1 X115 Y176 Z-0.5 F1000	; wiping
G1 Z10					; raise extruder
G28 X0 Y0				; home X and Y
M109 R170	; wait for extruder to reach probe temp
M204 S300				; set probing acceleration
G29					; start auto-leveling sequence
M420 S1                     ; enable leveling matrix
M425 Z			     		; use measured Z backlash for compensation
M425 Z F0		     		; turn off measured Z backlash compensation. (if activated in the quality settings, this command will automatically be ignored)
M204 S2000				; restore standard acceleration
G1 X5 Y15 Z10 F5000			; move up off last probe point
G4 S1					; pause
M400					; wait for moves to finish
M117 Heating...				; progress indicator message on LCD
M109 R250	; wait for extruder to reach initial printing temp
M190 S116 ; wait for bed to reach printing temp
G1 Z2 E0 F75				; prime tiny bit of filment into the nozzle
M117 Mini 2 Printing...		; progress indicator message on LCD
M83 ;relative extrusion mode
G1 F600 E-1
;LAYER_COUNT:35
;LAYER:0
M425 F1.0
M107
M204 S2000
M205 X20 Y20
G0 F2250 X31.1 Y23.995 Z0.4
M204 S800
M205 X10 Y10
;TYPE:SKIRT
G1 F600 E1
G1 F900 X32.254 Y22.577 E0.07165
G1 X32.511 Y22.297 E0.01489
G1 X33.697 Y21.14 E0.06493
G1 X34.092 Y20.81 E0.02017
G1 X34.533 Y20.546 E0.02014
G1 X35.01 Y20.353 E0.02017
G1 X35.511 Y20.236 E0.02016
G1 X36.024 Y20.198 E0.02016
G1 X36.303 Y20.211 E0.01095
G1 X38.194 Y20.379 E0.0744
G1 X43.666 Y20.665 E0.21473
G1 X49.135 Y20.639 E0.21433
G1 X55.796 Y20.204 E0.26159
G1 X56.169 Y20.201 E0.01462
G1 X60.246 Y20.395 E0.15995
G1 X65.755 Y20.397 E0.21589
G1 X69.848 Y20.201 E0.16058
G1 X70.256 Y20.206 E0.01599
G1 X74.944 Y20.56 E0.18424
G1 X80.413 Y20.691 E0.21438
G1 X85.884 Y20.512 E0.21452
G1 X89.752 Y20.207 E0.15205
G1 X90.168 Y20.201 E0.0163
G1 X94.259 Y20.394 E0.1605
G1 X99.769 Y20.396 E0.21593
G1 X103.832 Y20.201 E0.15941
G1 X104.241 Y20.206 E0.01603
G1 X108.89 Y20.557 E0.18271
G1 X114.362 Y20.69 E0.2145
G1 X119.832 Y20.514 E0.21447
G1 X123.731 Y20.208 E0.15327
G1 X124.245 Y20.208 E0.02014
G1 X124.754 Y20.287 E0.02019
G1 X125.244 Y20.444 E0.02016
G1 X125.703 Y20.675 E0.02014
G1 X126.122 Y20.975 E0.02019
G1 X126.319 Y21.155 E0.01046
G1 X127.86 Y22.678 E0.08491
G1 X128.16 Y23.018 E0.01777
G1 X128.936 Y24.03 E0.04998
G1 X129.216 Y24.461 E0.02014
G1 X129.361 Y24.761 E0.01306
G1 X129.863 Y25.954 E0.05072
G1 X130.025 Y26.442 E0.02015
G1 X130.092 Y26.791 E0.01393
G1 X130.272 Y28.111 E0.05221
G1 X130.299 Y28.409 E0.01173
G1 X130.431 Y31.318 E0.11412
G1 X130.915 Y36.779 E0.21485
G1 X131.71 Y42.227 E0.21576
G1 X132.262 Y45.396 E0.12606
G1 X132.311 Y45.968 E0.0225
G1 X132.3 Y55.538 E0.37504
G1 X132.277 Y55.925 E0.01519
G1 X131.54 Y62.124 E0.24464
G1 X131.212 Y67.575 E0.214
G1 X131.191 Y73.051 E0.2146
G1 X131.482 Y78.521 E0.21467
G1 X131.741 Y81.229 E0.10661
G1 X132.289 Y85.755 E0.17866
G1 X132.313 Y86.165 E0.01609
G1 X132.281 Y95.74 E0.37523
G1 X132.252 Y96.169 E0.01685
G1 X131.821 Y99.387 E0.12724
G1 X131.337 Y104.848 E0.21485
G1 X131.163 Y110.298 E0.21369
G1 X131.298 Y115.779 E0.21486
G1 X131.743 Y121.252 E0.21519
G1 X132.289 Y125.755 E0.17776
G1 X132.313 Y126.165 E0.01609
G1 X132.282 Y135.731 E0.37488
G1 X132.247 Y136.202 E0.01851
G1 X132.17 Y136.726 E0.02076
G1 X132.056 Y137.227 E0.02014
G1 X131.965 Y137.481 E0.01057
G1 X131.672 Y138.209 E0.03075
G1 X131.444 Y138.67 E0.02015
G1 X131.244 Y138.967 E0.01403
G1 X130.772 Y139.593 E0.03072
G1 X130.432 Y139.978 E0.02013
G1 X130.161 Y140.213 E0.01406
G1 X129.549 Y140.689 E0.03038
G1 X129.12 Y140.972 E0.02014
G1 X128.811 Y141.123 E0.01348
G1 X128.096 Y141.427 E0.03045
G1 X127.609 Y141.591 E0.02014
G1 X127.174 Y141.67 E0.01733
G1 X126.109 Y141.791 E0.042
G1 X125.728 Y141.812 E0.01495
G1 X103.038 Y141.762 E0.88919
G1 X102.928 Y141.76 E0.00431
G1 X99.434 Y141.637 E0.13701
G1 X93.903 Y141.71 E0.21677
G1 X91.897 Y141.808 E0.07871
G1 X91.729 Y141.812 E0.00659
G1 X69.038 Y141.762 E0.88923
G1 X68.928 Y141.76 E0.00431
G1 X65.434 Y141.637 E0.13701
G1 X59.903 Y141.71 E0.21677
G1 X57.897 Y141.808 E0.07871
G1 X57.734 Y141.812 E0.00639
G1 X35.964 Y141.8 E0.85314
G1 X35.523 Y141.77 E0.01732
G1 X34.811 Y141.674 E0.02815
G1 X34.308 Y141.566 E0.02016
G1 X34.018 Y141.465 E0.01203
G1 X33.292 Y141.173 E0.03067
G1 X32.831 Y140.944 E0.02017
G1 X32.533 Y140.744 E0.01406
G1 X31.907 Y140.272 E0.03072
G1 X31.522 Y139.932 E0.02013
G1 X31.287 Y139.662 E0.01403
G1 X30.81 Y139.049 E0.03044
G1 X30.527 Y138.619 E0.02017
G1 X30.375 Y138.308 E0.01357
G1 X30.072 Y137.594 E0.0304
G1 X29.909 Y137.106 E0.02016
G1 X29.832 Y136.688 E0.01666
G1 X29.713 Y135.678 E0.03985
G1 X29.691 Y135.214 E0.0182
G1 X29.755 Y132.395 E0.1105
G1 X29.687 Y126.816 E0.21865
G1 X29.687 Y126.773 E0.00169
G1 X29.697 Y108.559 E0.71378
G1 X29.702 Y108.385 E0.00682
G1 X29.821 Y106.154 E0.08755
G1 X29.898 Y100.621 E0.21685
G1 X29.693 Y95.419 E0.20402
G1 X29.691 Y95.213 E0.00807
G1 X29.755 Y92.395 E0.11046
G1 X29.687 Y86.816 E0.21865
G1 X29.687 Y86.773 E0.00169
G1 X29.697 Y68.559 E0.71378
G1 X29.702 Y68.385 E0.00682
G1 X29.821 Y66.154 E0.08755
G1 X29.898 Y60.621 E0.21685
G1 X29.693 Y55.419 E0.20402
G1 X29.691 Y55.213 E0.00807
G1 X29.755 Y52.395 E0.11046
G1 X29.687 Y46.816 E0.21865
G1 X29.687 Y46.769 E0.00184
G1 X29.72 Y28.317 E0.72311
G1 X29.751 Y27.868 E0.01764
G1 X29.893 Y26.843 E0.04055
G1 X30.003 Y26.341 E0.02014
G1 X30.108 Y26.045 E0.01231
G1 X30.603 Y24.833 E0.05131
G1 X30.834 Y24.374 E0.02014
G1 X31.1 Y23.995 E0.01815
M204 S2000
M205 X20 Y20
G1 F600 E-1
;MESH:
G0 F2250 X35.057 Y25.801
G0 X35.036 Y44.464
G0 X56.964 Y44.464
G0 X56.974 Y25.885
G0 X56.942 Y25.791
M204 S800
M205 X10 Y10
;TYPE:WALL-INNER
G1 F600 E1
G1 F900 X57.515 Y26.537 E0.03686
G1 X57.563 Y26.654 E0.00496
G1 X57.917 Y27.508 E0.03623
G1 X58.064 Y28.622 E0.04403
G1 X58.064 Y43.354 E0.57733
G1 X58.105 Y43.665 E0.01229
G1 X58.249 Y44.014 E0.0148
G1 X58.441 Y44.265 E0.01238
G1 X60.064 Y45.888 E0.08995
G1 X60.064 Y55.438 E0.37425
G1 X59.986 Y56.033 E0.02352
G1 X59.781 Y56.529 E0.02103
G1 X59.454 Y56.954 E0.02101
G1 X59.029 Y57.281 E0.02101
G1 X58.533 Y57.486 E0.02103
G1 X57.938 Y57.564 E0.02352
G1 X36.062 Y57.564 E0.85729
G1 X35.467 Y57.486 E0.02352
G1 X34.971 Y57.281 E0.02103
G1 X34.546 Y56.954 E0.02101
G1 X34.381 Y56.74 E0.01059
G1 X34.219 Y56.529 E0.01042
G1 X34.095 Y56.229 E0.01272
G1 X34.014 Y56.033 E0.00831
G1 X33.974 Y55.723 E0.01225
G1 X34.149 Y55.864 E0.00069
G1 X34.429 Y56.09 E0.00823
G1 X34.674 Y56.195 E0.00932
G1 X35.906 Y56.727 E0.05259
G1 X37.437 Y56.936 E0.06055
G1 X53.64 Y56.935 E0.63497
G1 X54.135 Y56.902 E0.01944
G1 X54.413 Y56.866 E0.01099
G1 X54.91 Y56.767 E0.01986
G1 X55.407 Y56.623 E0.02028
G1 X55.892 Y56.435 E0.02038
G1 X56.346 Y56.21 E0.01986
G1 X56.588 Y56.07 E0.01096
G1 X57.012 Y55.787 E0.01998
G1 X57.406 Y55.471 E0.01979
G1 X57.605 Y55.29 E0.01054
G1 X57.79 Y55.104 E0.01028
G1 X57.969 Y54.908 E0.0104
G1 X58.289 Y54.509 E0.02004
G1 X58.57 Y54.088 E0.01984
G1 X58.71 Y53.846 E0.01096
G1 X58.935 Y53.392 E0.01986
G1 X59.123 Y52.907 E0.02038
G1 X59.264 Y52.42 E0.01987
G1 X59.322 Y52.158 E0.01052
G1 X59.367 Y51.902 E0.01019
G1 X59.4 Y51.645 E0.01015
G1 X59.423 Y51.39 E0.01003
G1 X59.435 Y51.131 E0.01016
G1 X59.435 Y50.86 E0.01062
G1 X59.402 Y50.365 E0.01944
G1 X59.366 Y50.087 E0.01099
G1 X59.267 Y49.59 E0.01986
G1 X59.123 Y49.093 E0.02028
G1 X58.935 Y48.608 E0.02038
G1 X58.71 Y48.154 E0.01986
G1 X58.57 Y47.912 E0.01096
G1 X58.287 Y47.488 E0.01998
G1 X57.971 Y47.094 E0.01979
G1 X57.79 Y46.895 E0.01054
G1 X57.604 Y46.71 E0.01028
G1 X57.408 Y46.531 E0.0104
G1 X57.009 Y46.211 E0.02004
G1 X56.588 Y45.93 E0.01984
G1 X56.346 Y45.79 E0.01096
G1 X55.892 Y45.565 E0.01986
G1 X55.407 Y45.377 E0.02038
G1 X54.92 Y45.236 E0.01987
G1 X54.658 Y45.178 E0.01052
G1 X54.402 Y45.133 E0.01019
G1 X54.145 Y45.1 E0.01015
G1 X53.89 Y45.077 E0.01003
G1 X53.631 Y45.065 E0.01016
G1 X37.437 Y45.064 E0.63462
G1 X35.906 Y45.273 E0.06055
G1 X34.52 Y45.871 E0.05916
G1 X34.429 Y45.91 E0.00388
G1 X33.936 Y46.308 E0.02483
G1 X33.936 Y45.91 E0.00449
G1 X33.936 Y45.81 E0.00358
G1 X33.936 Y28.622 E0.67357
G1 X34.083 Y27.508 E0.04403
G1 X34.44 Y26.646 E0.03656
G1 X34.485 Y26.537 E0.00462
G1 X35.063 Y25.783 E0.03723
G1 X35.063 Y26.536 E0.01251
G1 X35.063 Y26.654 E0.00445
G1 X35.064 Y32.436 E0.22659
G1 X36.112 Y32.436 E0.04107
G1 X36.564 Y32.888 E0.02505
G1 X36.564 Y34.564 E0.06568
G1 X35.064 Y34.564 E0.05878
G1 X35.064 Y44.436 E0.38687
G1 X56.936 Y44.436 E0.85713
G1 X56.936 Y34.564 E0.38687
G1 X55.436 Y34.564 E0.05878
G1 X55.436 Y32.888 E0.06568
G1 X55.888 Y32.436 E0.02505
G1 X56.935 Y32.436 E0.04103
G1 X56.941 Y26.664 E0.2262
G1 X56.941 Y26.537 E0.00478
G1 X56.942 Y25.791 E0.01231
M204 S2000
M205 X20 Y20
G0 F2250 X56.974 Y25.885
G0 X56.369 Y24.37
G0 X56.32 Y24.253
M204 S800
M205 X10 Y10
;TYPE:WALL-OUTER
G1 F900 X56.852 Y24.784 E0.02946
G1 X57.301 Y25.233 E0.02488
G1 X58.059 Y26.221 E0.0488
G1 X58.526 Y27.348 E0.04781
G1 X58.688 Y28.579 E0.04866
G1 X58.688 Y43.313 E0.57741
G1 X58.713 Y43.503 E0.00751
G1 X58.794 Y43.7 E0.00835
G1 X58.911 Y43.852 E0.00752
G1 X60.619 Y45.561 E0.09469
G1 X60.662 Y45.617 E0.00277
G1 X60.679 Y45.659 E0.00178
G1 X60.688 Y45.725 E0.00261
G1 X60.688 Y55.482 E0.38236
G1 X60.594 Y56.195 E0.02818
G1 X60.326 Y56.843 E0.02748
G1 X59.899 Y57.399 E0.02747
G1 X59.343 Y57.826 E0.02747
G1 X58.695 Y58.094 E0.02748
G1 X57.982 Y58.188 E0.02818
G1 X36.018 Y58.188 E0.86074
G1 X35.305 Y58.094 E0.02818
G1 X34.657 Y57.826 E0.02748
G1 X34.101 Y57.399 E0.02747
G1 X33.674 Y56.843 E0.02747
G1 X33.406 Y56.195 E0.02748
G1 X33.312 Y55.482 E0.02818
G1 X33.312 Y55.096 E0.01513
G1 X33.312 Y54.792 E0.01191
G1 X33.32 Y54.728 E0.00253
G1 X33.34 Y54.682 E0.00197
G1 X33.371 Y54.642 E0.00198
G1 X33.407 Y54.615 E0.00176
G1 X33.457 Y54.595 E0.00211
G1 X33.505 Y54.59 E0.00189
G1 X33.55 Y54.596 E0.00178
G1 X33.597 Y54.617 E0.00202
G1 X33.833 Y54.808 E0.00939
G1 X34.754 Y55.551 E0.04637
G1 X36.075 Y56.12 E0.05637
G1 X37.479 Y56.312 E0.05553
G1 X53.619 Y56.311 E0.6325
G1 X54.074 Y56.281 E0.01787
G1 X54.311 Y56.25 E0.00937
G1 X54.762 Y56.16 E0.01802
G1 X55.207 Y56.031 E0.01816
G1 X55.64 Y55.863 E0.0182
G1 X56.052 Y55.659 E0.01802
G1 X56.259 Y55.54 E0.00936
G1 X56.642 Y55.284 E0.01805
G1 X57 Y54.996 E0.01801
G1 X57.174 Y54.838 E0.00921
G1 X57.338 Y54.674 E0.00909
G1 X57.494 Y54.502 E0.0091
G1 X57.786 Y54.139 E0.01826
G1 X58.04 Y53.759 E0.01791
G1 X58.159 Y53.552 E0.00936
G1 X58.363 Y53.14 E0.01802
G1 X58.531 Y52.707 E0.0182
G1 X58.659 Y52.265 E0.01803
G1 X58.71 Y52.036 E0.00919
G1 X58.75 Y51.808 E0.00907
G1 X58.78 Y51.578 E0.00909
G1 X58.8 Y51.348 E0.00905
G1 X58.811 Y51.116 E0.0091
G1 X58.811 Y50.881 E0.00921
G1 X58.781 Y50.426 E0.01787
G1 X58.75 Y50.189 E0.00937
G1 X58.66 Y49.738 E0.01802
G1 X58.531 Y49.293 E0.01816
G1 X58.363 Y48.86 E0.0182
G1 X58.159 Y48.448 E0.01802
G1 X58.04 Y48.241 E0.00936
G1 X57.784 Y47.858 E0.01805
G1 X57.496 Y47.5 E0.01801
G1 X57.338 Y47.326 E0.00921
G1 X57.174 Y47.162 E0.00909
G1 X57.002 Y47.006 E0.0091
G1 X56.639 Y46.714 E0.01826
G1 X56.259 Y46.46 E0.01791
G1 X56.052 Y46.341 E0.00936
G1 X55.64 Y46.137 E0.01802
G1 X55.207 Y45.969 E0.0182
G1 X54.765 Y45.841 E0.01803
G1 X54.536 Y45.79 E0.00919
G1 X54.308 Y45.75 E0.00907
G1 X54.078 Y45.72 E0.00909
G1 X53.848 Y45.7 E0.00905
G1 X53.616 Y45.689 E0.0091
G1 X37.479 Y45.688 E0.63239
G1 X36.075 Y45.88 E0.05553
G1 X34.754 Y46.449 E0.05637
G1 X33.833 Y47.192 E0.04637
G1 X33.597 Y47.383 E0.0119
G1 X33.55 Y47.404 E0.00202
G1 X33.505 Y47.41 E0.00178
G1 X33.457 Y47.405 E0.00189
G1 X33.407 Y47.385 E0.00211
G1 X33.371 Y47.358 E0.00176
G1 X33.34 Y47.318 E0.00198
G1 X33.32 Y47.272 E0.00197
G1 X33.312 Y47.208 E0.00253
G1 X33.312 Y46.904 E0.00941
G1 X33.312 Y28.579 E0.71813
G1 X33.474 Y27.348 E0.04866
G1 X33.941 Y26.221 E0.04781
G1 X34.702 Y25.229 E0.049
G1 X35.155 Y24.779 E0.02502
G1 X35.687 Y24.25 E0.0294
G1 X35.687 Y25 E0.01582
G1 X35.687 Y25.001 E0.00004
G1 X35.688 Y31.812 E0.26691
G1 X36.37 Y31.812 E0.02673
G1 X37.188 Y32.63 E0.04533
G1 X37.188 Y35.188 E0.10024
G1 X35.688 Y35.188 E0.05878
G1 X35.688 Y43.812 E0.33796
G1 X56.312 Y43.812 E0.80823
G1 X56.312 Y35.188 E0.33796
G1 X54.812 Y35.188 E0.05878
G1 X54.812 Y32.63 E0.10024
G1 X55.63 Y31.812 E0.04533
G1 X56.312 Y31.812 E0.02673
G1 X56.32 Y25.005 E0.26676
G1 X56.32 Y25.004 E0.00004
G1 X56.32 Y24.253 E0.01583
M204 S2000
M205 X20 Y20
G0 F2250 X56.369 Y24.37
G0 X56.34 Y31.84
G0 X56.144 Y33.05
M204 S800
M205 X10 Y10
;TYPE:SKIN
G1 F900 X57.45 Y33.05 E0.05118
G1 X57.45 Y33.95 E0.03527
G1 X56.05 Y33.95 E0.05486
G1 X56.05 Y33.144 E0.03159
G1 X56.144 Y33.05 E0.00521
M204 S2000
M205 X20 Y20
G0 F2250 X56.964 Y34.536
G0 X57.55 Y43.929
M204 S800
M205 X10 Y10
G1 F900 X57.712 Y44.323 E0.01669
G1 X57.978 Y44.67 E0.01713
G1 X59.45 Y46.143 E0.08161
G1 X59.45 Y48.263 E0.08308
G1 X59.251 Y47.863 E0.01751
G1 X59.092 Y47.587 E0.01248
G1 X58.783 Y47.124 E0.02181
G1 X58.438 Y46.695 E0.02157
G1 X58.234 Y46.47 E0.0119
G1 X58.027 Y46.265 E0.01142
G1 X57.808 Y46.065 E0.01162
G1 X57.373 Y45.715 E0.02188
G1 X56.913 Y45.408 E0.02167
G1 X56.637 Y45.249 E0.01248
G1 X56.237 Y45.05 E0.01751
G1 X57.55 Y45.05 E0.05145
G1 X57.55 Y43.929 E0.04393
M204 S2000
M205 X20 Y20
G0 F2250 X59.305 Y49.583
G0 X59.441 Y50.609
G0 X59.45 Y53.737
M204 S800
M205 X10 Y10
G1 F900 X59.45 Y55.404 E0.06533
G1 X59.388 Y55.873 E0.01854
G1 X59.245 Y56.22 E0.01471
G1 X59.017 Y56.517 E0.01467
G1 X58.72 Y56.745 E0.01467
G1 X58.373 Y56.888 E0.01471
G1 X57.904 Y56.95 E0.01854
G1 X56.237 Y56.95 E0.06533
G1 X56.637 Y56.751 E0.01751
G1 X56.913 Y56.592 E0.01248
G1 X57.376 Y56.283 E0.02181
G1 X57.805 Y55.938 E0.02157
G1 X58.03 Y55.734 E0.0119
G1 X58.235 Y55.527 E0.01142
G1 X58.435 Y55.308 E0.01162
G1 X58.785 Y54.873 E0.02188
G1 X59.092 Y54.413 E0.02167
G1 X59.251 Y54.137 E0.01248
G1 X59.45 Y53.737 E0.01751
M204 S2000
M205 X20 Y20
G0 F2250 X59.442 Y50.37
G0 X59.159 Y49.079
G0 X58.607 Y47.898
G0 X57.814 Y46.863
G0 X57.036 Y46.182
G0 X55.906 Y45.528
