; generated by Slic3r 1.1.7 on 2016-03-17 at 14:53:46

; perimeters extrusion width = 0.55mm
; infill extrusion width = 0.55mm
; solid infill extrusion width = 0.55mm
; top infill extrusion width = 0.55mm

G21 ; set units to millimeters
M107
M301 P34 I4 D113     ; set PID nozzle
M304 P162 I17 D378 ; set PID Bed

M104 S240                 ; set extruder temp for hex_hot_end
M140 S110                 ; set bed temp for PEI

G28                            ; home
G1 Z5 F300                ; move bed down 5mm
M84                            ; disable steppers
G4 S300                     ; wait 5 mins to preheat

G28                            ; home
G90 ; use absolute coordinates
G92 E0
M82 ; use absolute distances for extrusion
G1 F1200.000 E-1.20000
G92 E0
G1 Z0.350 F7800.000
G1 X49.209 Y58.806 F7800.000
G1 E1.20000 F1200.000
G1 X49.899 Y58.301 E1.22818 F900.000
G1 X50.272 Y58.067 E1.24271
G1 X51.013 Y57.670 E1.27040
G1 X51.799 Y57.337 E1.29854
G1 X52.606 Y57.080 E1.32647
G1 X53.445 Y56.897 E1.35477
G1 X54.291 Y56.792 E1.38287
G1 X55.000 Y56.764 E1.40626
G1 X243.144 Y56.766 E7.60819
G1 X243.996 Y56.819 E7.63634 F900.000
G1 X244.838 Y56.950 E7.66442
G1 X245.665 Y57.158 E7.69255
G1 X246.470 Y57.442 E7.72068
G1 X247.245 Y57.798 E7.74880
G1 X247.984 Y58.225 E7.77692
G1 X248.679 Y58.718 E7.80502
G1 X249.327 Y59.273 E7.83314
G1 X249.921 Y59.886 E7.86128
G1 X250.456 Y60.550 E7.88939
G1 X250.927 Y61.262 E7.91751
G1 X251.330 Y62.013 E7.94562
G1 X251.662 Y62.798 E7.97374
G1 X251.921 Y63.611 E8.00184
G1 X252.103 Y64.445 E8.02998
G1 X252.208 Y65.291 E8.05809
G1 X252.236 Y66.000 E8.08147
G1 X252.234 Y212.144 E12.89894
G1 X252.181 Y212.995 E12.92705
G1 X252.126 Y213.418 E12.94111
G1 X252.024 Y213.963 E12.95938
G1 X251.842 Y214.665 E12.98330
G1 X251.710 Y215.071 E12.99736
G1 X251.389 Y215.862 E13.02549
G1 X250.997 Y216.619 E13.05359
G1 X250.537 Y217.337 E13.08171
G1 X250.012 Y218.010 E13.10984
G1 X249.427 Y218.631 E13.13796
G1 X248.788 Y219.196 E13.16607
G1 X248.100 Y219.699 E13.19418
G1 X247.368 Y220.137 E13.22231
G1 X246.987 Y220.330 E13.23637
G1 X246.481 Y220.554 E13.25462
G1 X245.798 Y220.801 E13.27856
G1 X244.974 Y221.022 E13.30668
G1 X244.133 Y221.165 E13.33480
G1 X243.709 Y221.208 E13.34886
G1 X243.000 Y221.236 E13.37224
G1 X54.856 Y221.234 E19.57417
G1 X54.005 Y221.181 E19.60229
G1 X53.570 Y221.124 E19.61676
G1 X52.745 Y220.956 E19.64450
G1 X51.929 Y220.710 E19.67260
G1 X51.138 Y220.389 E19.70072
G1 X50.381 Y219.997 E19.72883
G1 X49.663 Y219.537 E19.75695
G1 X48.991 Y219.013 E19.78502
G1 X48.369 Y218.427 E19.81320
G1 X47.796 Y217.779 E19.84172
G1 X47.302 Y217.101 E19.86937
G1 X47.073 Y216.739 E19.88349
G1 X46.670 Y215.987 E19.91160
G1 X46.337 Y215.201 E19.93974
G1 X46.080 Y214.393 E19.96771
G1 X45.978 Y213.973 E19.98193
G1 X45.835 Y213.134 E20.01001
G1 X45.769 Y212.270 E20.03856
G1 X45.766 Y65.856 E24.86491
G1 X45.819 Y65.004 E24.89306
G1 X45.950 Y64.162 E24.92114
G1 X46.161 Y63.323 E24.94967
G1 X46.442 Y62.530 E24.97741
G1 X46.611 Y62.138 E24.99146
G1 X46.804 Y61.744 E25.00593
G1 X47.225 Y61.016 E25.03365
G1 X47.718 Y60.320 E25.06176
G1 X48.281 Y59.664 E25.09026
G1 X48.573 Y59.368 E25.10396
G1 X49.152 Y58.854 E25.12948
G1 X49.593 Y59.290 F7800.000
G1 X50.237 Y58.819 E25.15577 F900.000
G1 X50.585 Y58.600 E25.16936
G1 X51.275 Y58.229 E25.19517
G1 X52.009 Y57.919 E25.22143
G1 X52.762 Y57.678 E25.24749
G1 X53.544 Y57.507 E25.27389
G1 X54.334 Y57.409 E25.30011
G1 X55.000 Y57.382 E25.32209
G1 X243.129 Y57.384 E31.52355
G1 X243.925 Y57.432 E31.54982 F900.000
G1 X244.710 Y57.554 E31.57602
G1 X245.483 Y57.748 E31.60227
G1 X246.234 Y58.012 E31.62852
G1 X246.957 Y58.345 E31.65476
G1 X247.646 Y58.743 E31.68100
G1 X248.296 Y59.202 E31.70721
G1 X248.900 Y59.720 E31.73345
G1 X249.455 Y60.291 E31.75971
G1 X249.954 Y60.911 E31.78594
G1 X250.394 Y61.575 E31.81218
G1 X250.771 Y62.275 E31.83841
G1 X251.081 Y63.008 E31.86465
G1 X251.323 Y63.766 E31.89087
G1 X251.493 Y64.544 E31.91713
G1 X251.592 Y65.334 E31.94336
G1 X251.618 Y66.000 E31.96533
G1 X251.616 Y212.130 E36.78232
G1 X251.568 Y212.924 E36.80855
G1 X251.419 Y213.835 E36.83899
G1 X251.252 Y214.483 E36.86103
G1 X251.128 Y214.861 E36.87415
G1 X250.830 Y215.599 E36.90040
G1 X250.464 Y216.306 E36.92662
G1 X250.035 Y216.976 E36.95286
G1 X249.546 Y217.604 E36.97911
G1 X249.001 Y218.184 E37.00535
G1 X248.405 Y218.712 E37.03158
G1 X247.763 Y219.182 E37.05781
G1 X247.080 Y219.590 E37.08405
G1 X246.244 Y219.983 E37.11447
G1 X245.615 Y220.211 E37.13653
G1 X244.846 Y220.417 E37.16277
G1 X244.062 Y220.552 E37.18901
G1 X243.666 Y220.592 E37.20212
G1 X243.000 Y220.618 E37.22409
G1 X54.870 Y220.616 E43.42556
G1 X54.076 Y220.568 E43.45179
G1 X53.669 Y220.514 E43.46532
G1 X52.900 Y220.358 E43.49118
G1 X52.139 Y220.128 E43.51739
G1 X51.401 Y219.830 E43.54364
G1 X50.694 Y219.464 E43.56986
G1 X50.024 Y219.035 E43.59610
G1 X49.397 Y218.547 E43.62230
G1 X48.815 Y218.001 E43.64859
G1 X48.281 Y217.395 E43.67523
G1 X47.819 Y216.764 E43.70101
G1 X47.606 Y216.426 E43.71418
G1 X47.229 Y215.725 E43.74041
G1 X46.919 Y214.991 E43.76667
G1 X46.678 Y214.237 E43.79277
G1 X46.583 Y213.846 E43.80603
G1 X46.448 Y213.062 E43.83224
G1 X46.387 Y212.256 E43.85890
G1 X46.384 Y65.871 E48.68431
G1 X46.432 Y65.075 E48.71058
G1 X46.554 Y64.290 E48.73678
G1 X46.752 Y63.506 E48.76343
G1 X47.013 Y62.766 E48.78929
G1 X47.170 Y62.401 E48.80240
G1 X47.351 Y62.032 E48.81593
G1 X47.743 Y61.354 E48.84177
G1 X48.202 Y60.704 E48.86800
G1 X48.728 Y60.091 E48.89462
G1 X48.999 Y59.815 E48.90737
G1 X49.536 Y59.339 E48.93102
G1 F1200.000 E47.73102
G92 E0
G1 X232.748 Y199.387 F7800.000
G1 E1.20000 F1200.000
G1 X232.130 Y199.517 E1.22083 F450.000
G1 X231.518 Y199.561 E1.24105
G1 X165.289 Y199.556 E3.42420
G1 X164.870 Y199.517 E3.43808
G1 X164.456 Y199.440 E3.45198
G1 X164.051 Y199.325 E3.46586
G1 X163.658 Y199.172 E3.47975
G1 X163.281 Y198.985 E3.49363
G1 X162.922 Y198.763 E3.50752
G1 X162.586 Y198.509 E3.52141
G1 X162.275 Y198.225 E3.53530
G1 X161.991 Y197.914 E3.54918
G1 X161.737 Y197.577 E3.56308
G1 X161.515 Y197.219 E3.57696
G1 X161.328 Y196.842 E3.59085
G1 X161.175 Y196.450 E3.60473
G1 X161.060 Y196.044 E3.61862
G1 X160.983 Y195.630 E3.63251
G1 X160.944 Y195.211 E3.64639
G1 X160.944 Y160.789 E4.78106
G1 X161.017 Y160.162 E4.80187
G1 X161.175 Y159.551 E4.82269
G1 X161.417 Y158.967 E4.84351
G1 X161.622 Y158.599 E4.85741
G1 X161.991 Y158.086 E4.87823
G1 X162.305 Y157.746 E4.89349
G1 X162.751 Y157.360 E4.91293
G1 X163.280 Y157.015 E4.93375
G1 X163.658 Y156.828 E4.94764
G1 X164.252 Y156.613 E4.96846
G1 X164.870 Y156.483 E4.98928
G1 X165.482 Y156.439 E5.00951
G1 X231.668 Y156.443 E7.19127
G1 X233.112 Y156.541 E7.23896 F450.000
G1 X233.157 Y156.496 E7.24107
G1 X233.224 Y156.549 E7.24390
G1 X233.378 Y156.560 E7.24897
G1 X233.378 Y156.670 E7.25262
G1 X234.414 Y157.491 E7.29619
G1 X234.725 Y157.775 E7.31007
G1 X235.009 Y158.086 E7.32396
G1 X235.263 Y158.422 E7.33785
G1 X235.485 Y158.781 E7.35174
G1 X235.672 Y159.158 E7.36562
G1 X235.825 Y159.550 E7.37951
G1 X235.940 Y159.956 E7.39339
G1 X236.017 Y160.370 E7.40729
G1 X236.056 Y160.789 E7.42118
G1 X236.061 Y195.018 E8.54948
G1 X236.042 Y195.421 E8.56277
G1 X235.940 Y196.044 E8.58360
G1 X235.753 Y196.648 E8.60442
G1 X235.583 Y197.033 E8.61831
G1 X235.399 Y197.365 E8.63081
G1 X235.009 Y197.914 E8.65301
G1 X234.573 Y198.371 E8.67383
G1 X234.078 Y198.763 E8.69465
G1 X233.533 Y199.083 E8.71548
G1 X233.148 Y199.253 E8.72936
G1 X232.820 Y199.365 E8.74078
G1 X232.579 Y198.793 F7800.000
G1 X232.045 Y198.905 E8.75878 F450.000
G1 X231.511 Y198.943 E8.77642
G1 X165.489 Y198.943 E10.95275
G1 X164.955 Y198.905 E10.97038
G1 X164.421 Y198.793 E10.98839
G1 X163.907 Y198.607 E11.00639
G1 X163.424 Y198.352 E11.02439
G1 X163.003 Y198.051 E11.04148
G1 X162.712 Y197.788 E11.05440
G1 X162.353 Y197.376 E11.07240
G1 X162.069 Y196.943 E11.08948
G1 X161.893 Y196.593 E11.10240
G1 X161.707 Y196.079 E11.12041
G1 X161.624 Y195.725 E11.13241
G1 X161.561 Y195.182 E11.15041
G1 X161.561 Y160.818 E12.28319
G1 X161.595 Y160.455 E12.29519
G1 X161.662 Y160.097 E12.30720
G1 X161.761 Y159.747 E12.31920
G1 X161.893 Y159.407 E12.33121
G1 X162.055 Y159.081 E12.34321
G1 X162.247 Y158.772 E12.35522
G1 X162.467 Y158.481 E12.36723
G1 X162.712 Y158.212 E12.37922
G1 X162.981 Y157.966 E12.39123
G1 X163.272 Y157.747 E12.40324
G1 X163.581 Y157.555 E12.41524
G1 X163.907 Y157.393 E12.42725
G1 X164.247 Y157.261 E12.43926
G1 X164.597 Y157.162 E12.45126
G1 X164.955 Y157.095 E12.46327
G1 X165.489 Y157.057 E12.48091
G1 X231.511 Y157.057 E14.65724 F450.000
G1 X232.760 Y157.136 E14.69850
G1 X232.760 Y157.264 E14.70271
G1 X233.122 Y157.405 E14.71551
G1 X233.205 Y157.322 E14.71939
G1 X234.019 Y157.966 E14.75362
G1 X234.288 Y158.212 E14.76563
G1 X234.534 Y158.481 E14.77763
G1 X234.852 Y158.924 E14.79563
G1 X235.107 Y159.407 E14.81363
G1 X235.247 Y159.774 E14.82656
G1 X235.376 Y160.275 E14.84364
G1 X235.439 Y160.818 E14.86164
G1 X235.443 Y195.011 E15.98877
G1 X235.426 Y195.364 E16.00042
G1 X235.376 Y195.725 E16.01243
G1 X235.239 Y196.253 E16.03043
G1 X235.107 Y196.593 E16.04243
G1 X234.945 Y196.919 E16.05444
G1 X234.647 Y197.376 E16.07244
G1 X234.414 Y197.656 E16.08444
G1 X234.156 Y197.914 E16.09645
G1 X233.728 Y198.253 E16.11445
G1 X233.258 Y198.530 E16.13245
G1 X232.924 Y198.677 E16.14446
G1 X232.651 Y198.770 E16.15399
G1 X232.410 Y198.198 F7800.000
G1 X231.959 Y198.293 E16.16917 F315.000
G1 X231.504 Y198.325 E16.18422
G1 X165.346 Y198.322 E18.36502
G1 X165.041 Y198.293 E18.37514
G1 X164.739 Y198.237 E18.38527
G1 X164.443 Y198.153 E18.39539
G1 X164.157 Y198.042 E18.40552
G1 X163.882 Y197.905 E18.41564
G1 X163.621 Y197.743 E18.42576
G1 X163.376 Y197.558 E18.43589
G1 X163.149 Y197.351 E18.44601
G1 X162.942 Y197.124 E18.45614
G1 X162.757 Y196.879 E18.46626
G1 X162.595 Y196.618 E18.47639
G1 X162.458 Y196.343 E18.48651
G1 X162.347 Y196.057 E18.49663
G1 X162.263 Y195.761 E18.50676
G1 X162.207 Y195.459 E18.51688
G1 X162.175 Y195.004 E18.53194
G1 X162.178 Y160.846 E19.65789
G1 X162.232 Y160.389 E19.67307
G1 X162.347 Y159.943 E19.68825
G1 X162.524 Y159.518 E19.70343
G1 X162.673 Y159.250 E19.71356
G1 X162.942 Y158.876 E19.72874
G1 X163.159 Y158.639 E19.73930
G1 X163.496 Y158.347 E19.75404
G1 X163.882 Y158.095 E19.76922
G1 X164.157 Y157.958 E19.77934
G1 X164.590 Y157.802 E19.79452
G1 X165.041 Y157.707 E19.80970
G1 X165.496 Y157.675 E19.82476
G1 X231.640 Y157.678 E22.00510
G1 X232.142 Y157.712 E22.02170 F315.000
G1 X232.142 Y157.732 E22.02235
G1 X232.557 Y157.847 E22.03653
G1 X232.843 Y157.958 E22.04666
G1 X233.241 Y158.160 E22.06135
G1 X233.253 Y158.148 E22.06191
G1 X233.624 Y158.442 E22.07754
G1 X233.851 Y158.649 E22.08766
G1 X234.058 Y158.876 E22.09778
G1 X234.243 Y159.121 E22.10791
G1 X234.405 Y159.382 E22.11803
G1 X234.542 Y159.657 E22.12816
G1 X234.653 Y159.943 E22.13828
G1 X234.737 Y160.239 E22.14840
G1 X234.793 Y160.541 E22.15853
G1 X234.825 Y160.996 E22.17358
G1 X234.822 Y195.154 E23.29954
G1 X234.768 Y195.611 E23.31472
G1 X234.698 Y195.910 E23.32484
G1 X234.605 Y196.188 E23.33452
G1 X234.405 Y196.618 E23.35014
G1 X234.153 Y197.004 E23.36533
G1 X233.957 Y197.240 E23.37545
G1 X233.740 Y197.457 E23.38557
G1 X233.379 Y197.743 E23.40075
G1 X232.982 Y197.976 E23.41593
G1 X232.482 Y198.176 E23.43369
G1 F1200.000 E22.23369
G92 E0
G1 X231.657 Y157.178 F7800.000
G1 X153.483 Y205.597 F7800.000
G1 E1.20000 F1200.000
G1 X153.483 Y206.051 E1.21495 F450.000
G1 X153.014 Y206.188 E1.23107
G1 X152.561 Y206.355 E1.24700
G1 X152.561 Y204.561 E1.30616
G1 X153.200 Y204.555 E1.32724
G1 X153.458 Y204.526 E1.33581
G1 X153.792 Y204.457 E1.34705
G1 X154.040 Y204.378 E1.35561
G1 X154.354 Y204.246 E1.36685
G1 X154.531 Y204.151 E1.37345
G1 X154.864 Y203.929 E1.38665
G1 X155.121 Y203.706 E1.39789
G1 X155.302 Y203.519 E1.40646
G1 X155.545 Y203.201 E1.41965
G1 X155.746 Y202.854 E1.43286
G1 X155.829 Y202.671 E1.43947
G1 X155.957 Y202.293 E1.45266
G1 X156.003 Y202.097 E1.45927
G1 X156.055 Y201.700 E1.47247
G1 X156.061 Y154.475 E3.02920
G1 X156.035 Y154.100 E3.04157
G1 X155.957 Y153.708 E3.05476
G1 X155.878 Y153.460 E3.06333
G1 X155.746 Y153.146 E3.07456
G1 X155.651 Y152.969 E3.08118
G1 X155.429 Y152.636 E3.09437
G1 X155.302 Y152.481 E3.10098
G1 X155.018 Y152.198 E3.11418
G1 X154.701 Y151.955 E3.12737
G1 X154.531 Y151.849 E3.13399
G1 X154.171 Y151.671 E3.14719
G1 X153.984 Y151.601 E3.15379
G1 X153.792 Y151.543 E3.16039
G1 X153.399 Y151.465 E3.17360
G1 X153.026 Y151.439 E3.18595
G1 X152.561 Y151.439 E3.20128
G1 X152.561 Y149.645 E3.26044
G1 X153.014 Y149.812 E3.27638
G1 X153.401 Y149.927 E3.28967
G1 X153.996 Y150.033 E3.30962
G1 X154.399 Y150.060 E3.32291
G1 X154.802 Y150.051 E3.33622
G1 X155.203 Y150.006 E3.34952
G1 X155.599 Y149.927 E3.36282
G1 X155.986 Y149.812 E3.37612
G1 X156.361 Y149.664 E3.38942
G1 X156.722 Y149.483 E3.40272
G1 X157.027 Y149.296 E3.41451
G1 X157.542 Y148.898 E3.43596
G1 X157.830 Y148.616 E3.44926
G1 X158.093 Y148.310 E3.46256
G1 X158.327 Y147.981 E3.47586
G1 X158.531 Y147.633 E3.48916
G1 X158.793 Y147.037 E3.51062
G1 X158.901 Y146.697 E3.52240
G1 X158.990 Y146.303 E3.53570
G1 X159.043 Y145.903 E3.54900
G1 X159.061 Y145.500 E3.56231
G1 X159.043 Y145.097 E3.57561
G1 X158.990 Y144.697 E3.58890
G1 X158.901 Y144.303 E3.60221
G1 X158.778 Y143.919 E3.61551
G1 X158.622 Y143.547 E3.62881
G1 X158.433 Y143.190 E3.64211
G1 X158.015 Y142.561 E3.66702
G1 X238.985 Y142.561 E6.33607
G1 X238.567 Y143.190 E6.36098
G1 X238.378 Y143.547 E6.37428
G1 X238.222 Y143.919 E6.38759
G1 X238.099 Y144.303 E6.40088
G1 X238.010 Y144.697 E6.41419
G1 X237.957 Y145.097 E6.42748
G1 X237.939 Y145.500 E6.44079
G1 X237.957 Y145.903 E6.45408
G1 X238.010 Y146.303 E6.46739
G1 X238.099 Y146.697 E6.48069
G1 X238.207 Y147.037 E6.49247
G1 X238.469 Y147.633 E6.51393
G1 X238.673 Y147.981 E6.52723
G1 X238.907 Y148.310 E6.54053
G1 X239.170 Y148.616 E6.55383
G1 X239.458 Y148.898 E6.56713
G1 X239.770 Y149.154 E6.58043
G1 X240.104 Y149.381 E6.59373
G1 X240.639 Y149.664 E6.61368
G1 X241.014 Y149.812 E6.62698
G1 X241.401 Y149.927 E6.64028
G1 X241.797 Y150.006 E6.65358
G1 X242.198 Y150.051 E6.66688
G1 X242.601 Y150.060 E6.68018
G1 X243.003 Y150.033 E6.69348
G1 X243.599 Y149.927 E6.71342
G1 X243.986 Y149.812 E6.72672
G1 X244.439 Y149.645 E6.74266
G1 X244.439 Y151.439 E6.80182
G1 X243.974 Y151.439 E6.81715
G1 X243.600 Y151.465 E6.82951
G1 X243.208 Y151.543 E6.84270
G1 X243.016 Y151.601 E6.84931
G1 X242.646 Y151.754 E6.86250
G1 X242.469 Y151.849 E6.86911
G1 X242.299 Y151.954 E6.87571
G1 X241.982 Y152.198 E6.88891
G1 X241.698 Y152.481 E6.90212
G1 X241.571 Y152.636 E6.90872
G1 X241.349 Y152.969 E6.92192
G1 X241.254 Y153.146 E6.92853
G1 X241.122 Y153.460 E6.93977
G1 X241.043 Y153.708 E6.94833
G1 X240.965 Y154.100 E6.96152
G1 X240.939 Y154.475 E6.97389
G1 X240.945 Y201.700 E8.53062
G1 X240.965 Y201.900 E8.53723
G1 X241.043 Y202.292 E8.55043
G1 X241.122 Y202.540 E8.55900
G1 X241.254 Y202.854 E8.57023
G1 X241.455 Y203.201 E8.58344
G1 X241.609 Y203.410 E8.59200
G1 X241.835 Y203.665 E8.60324
G1 X242.136 Y203.929 E8.61643
G1 X242.299 Y204.046 E8.62305
G1 X242.646 Y204.246 E8.63625
G1 X243.016 Y204.399 E8.64944
G1 X243.208 Y204.457 E8.65605
G1 X243.403 Y204.503 E8.66265
G1 X243.800 Y204.555 E8.67585
G1 X244.439 Y204.561 E8.69694
G1 X244.439 Y206.355 E8.75610
G1 X243.986 Y206.188 E8.77204
G1 X243.599 Y206.073 E8.78533
G1 X243.004 Y205.967 E8.80528
G1 X242.601 Y205.940 E8.81858
G1 X242.197 Y205.949 E8.83188
G1 X241.796 Y205.994 E8.84518
G1 X241.401 Y206.073 E8.85848
G1 X241.014 Y206.188 E8.87178
G1 X240.639 Y206.336 E8.88508
G1 X240.278 Y206.517 E8.89838
G1 X239.973 Y206.704 E8.91016
G1 X239.458 Y207.102 E8.93162
G1 X239.170 Y207.384 E8.94492
G1 X238.907 Y207.690 E8.95822
G1 X238.673 Y208.019 E8.97152
G1 X238.469 Y208.367 E8.98482
G1 X238.222 Y208.919 E9.00477
G1 X238.099 Y209.303 E9.01807
G1 X238.010 Y209.697 E9.03137
G1 X237.957 Y210.097 E9.04467
G1 X237.939 Y210.500 E9.05798
G1 X237.957 Y210.903 E9.07127
G1 X238.010 Y211.303 E9.08458
G1 X238.099 Y211.697 E9.09788
G1 X238.222 Y212.081 E9.11118
G1 X238.378 Y212.453 E9.12448
G1 X238.567 Y212.810 E9.13778
G1 X238.985 Y213.439 E9.16269
G1 X158.015 Y213.439 E11.83174
