; generated by Slic3r 1.1.7 on 2015-07-08 at 12:54:42

; perimeters extrusion width = 0.50mm
; infill extrusion width = 0.60mm
; solid infill extrusion width = 0.60mm
; top infill extrusion width = 0.43mm

G21 ; set units to millimeters
G21                                      ; metric values
G90                                      ; absolute positioning
M82                                      ; set extruder to absolute mode
M107                                    ; start with the fan off
G92 E0                                 ; set extruder position to 0
M140 S110                           ; get bed heating up
G28                                      ; home all
M109 S150                           ; set to cleaning temp and wait
G1 Z150 E-30 F75                ; suck up XXmm of filament
M109 S170                           ; heat up rest of way
G1 X45 Y174 F11520           ; move behind scraper
G1 Z0  F1200                       ; CRITICAL: set Z to height of top of scraper
G1 X45 Y174 Z-.5 F4000      ; wiping ; plunge into wipe pad
G1 X55 Y172 Z-.5 F4000      ; wiping
G1 X45 Y174 Z0 F4000        ; wiping
G1 X55 Y172 F4000             ; wiping
G1 X45 Y174 F4000             ; wiping
G1 X55 Y172 F4000             ; wiping
G1 X45 Y174 F4000             ; wiping
G1 X55 Y172 F4000             ; wiping
G1 X60 Y174 F4000             ; wiping
G1 X80 Y172 F4000             ; wiping
G1 X60 Y174 F4000             ; wiping
G1 X80 Y172 F4000             ; wiping
G1 X60 Y174 F4000             ; wiping
G1 X90 Y172 F4000             ; wiping
G1 X80 Y174 F4000             ; wiping
G1 X100 Y172 F4000           ; wiping
G1 X80 Y174 F4000             ; wiping
G1 X100 Y172 F4000           ; wiping
G1 X80 Y174 F4000             ; wiping
G1 X100 Y172 F4000           ; wiping
G1 X110 Y174 F4000           ; wiping
G1 X100 Y172 F4000           ; wiping
G1 X110 Y174 F4000           ; wiping
G1 X100 Y172 F4000           ; wiping
G1 X110 Y174 F4000           ; wiping
G1 X115 Y172 Z-0.5 F1000  ; wipe slower and bury noz in cleanish area
G1 Z10                                 ; raise z
G28 X0 Y0                            ; home x and y
M109 S170                           ; set to probing temp
M204 S300                           ; set accel for probing
G29                                      ; Probe
M204 S2000                         ; set accel back to normal
G1 X5 Y15 Z10 F5000          ; get out the way
M400                                    ; clear buffer
G4 S1                                   ; pause
M109 S250                           ; set extruder temp and wait
G4 S25                                 ; wait for bed to temp up
G1 Z2 E0 F75                       ; extrude filament back into nozzle
M140 S110                           ; get bed temping up during first layer
G90 ; use absolute coordinates
G92 E0
M82 ; use absolute distances for extrusion
M204 S2000
G1 F600.000 E-1.00000
G92 E0
G1 Z0.350 F10500.000
G1 X28.292 Y21.628 F10500.000
G1 E1.00000 F600.000
G1 X29.257 Y20.365 E1.05240 F1500.000
G1 X31.067 Y19.280 E1.12197
G1 X32.315 Y18.979 E1.16429
G1 X76.315 Y13.576 E2.62559
G1 X77.685 Y13.576 E2.67072
G1 X96.935 Y15.940 E3.31004
G1 X121.685 Y18.979 E4.13202 F1500.000
G1 X123.694 Y19.625 E4.20159
G1 X125.323 Y20.967 E4.27116
G1 X126.025 Y22.042 E4.31348
G1 X132.025 Y34.040 E4.75567
G1 X132.618 Y36.552 E4.84077
G1 X132.618 Y119.552 E7.57677
G1 X132.221 Y121.625 E7.64634
G1 X131.088 Y123.406 E7.71591
G1 X128.921 Y124.832 E7.80142
G1 X83.308 Y141.420 E9.40133
G1 X82.206 Y141.757 E9.43932
G1 X81.711 Y141.888 E9.45622
G1 X80.079 Y142.219 E9.51109
G1 X78.936 Y142.365 E9.54908
G1 X78.426 Y142.410 E9.56597
G1 X77.274 Y142.459 E9.60397
G1 X76.762 Y142.460 E9.62086
G1 X75.099 Y142.369 E9.67573
G1 X73.451 Y142.138 E9.73060
G1 X71.828 Y141.768 E9.78548
G1 X70.416 Y141.327 E9.83424
G1 X25.079 Y124.832 E11.42456
G1 X23.267 Y123.750 E11.49413
G1 X21.981 Y122.076 E11.56370
G1 X21.382 Y119.552 E11.64921
G1 X21.382 Y36.552 E14.38521
G1 X21.975 Y34.040 E14.47032
G1 X27.975 Y22.042 E14.91250
G1 X28.246 Y21.688 E14.92720
G1 F600.000 E13.92720
G92 E0
G1 X111.241 Y103.124 F10500.000
G1 E1.00000 F600.000
G1 X110.448 Y104.158 E1.04297 F1500.000
G1 X109.776 Y104.891 E1.07575
G1 X109.795 Y104.910 E1.07664
G1 X108.544 Y106.047 E1.13237
G1 X107.571 Y106.794 E1.17278
G1 X106.472 Y107.494 E1.21575
G1 X105.315 Y108.096 E1.25872
G1 X104.111 Y108.595 E1.30170
G1 X102.868 Y108.987 E1.34467
G1 X101.595 Y109.269 E1.38765
G1 X100.302 Y109.439 E1.43062
G1 X99.000 Y109.496 E1.47359
G1 X97.698 Y109.439 E1.51657
G1 X96.405 Y109.269 E1.55954
G1 X95.132 Y108.987 E1.60251
G1 X93.889 Y108.595 E1.64549
G1 X92.685 Y108.096 E1.68846
G1 X91.528 Y107.494 E1.73144
G1 X90.429 Y106.794 E1.77441
G1 X89.394 Y106.000 E1.81738
G1 X88.433 Y105.119 E1.86036
G1 X87.552 Y104.158 E1.90333
G1 X86.759 Y103.124 E1.94631
G1 X86.058 Y102.024 E1.98928
G1 X85.456 Y100.868 E2.03225
G1 X84.958 Y99.663 E2.07523
G1 X84.565 Y98.420 E2.11820
G1 X84.283 Y97.147 E2.16118
G1 X84.113 Y95.855 E2.20415
G1 X84.057 Y94.573 E2.24644
G1 X84.057 Y64.532 E3.23671
G1 X84.113 Y63.250 E3.27901
G1 X84.283 Y61.957 E3.32198
G1 X84.565 Y60.685 E3.36496
G1 X84.958 Y59.441 E3.40793
G1 X85.456 Y58.237 E3.45091
G1 X86.058 Y57.081 E3.49388
G1 X86.759 Y55.981 E3.53685
G1 X87.552 Y54.947 E3.57983
G1 X88.433 Y53.986 E3.62280
G1 X89.394 Y53.105 E3.66578
G1 X90.429 Y52.311 E3.70875
G1 X91.528 Y51.611 E3.75172
G1 X92.685 Y51.009 E3.79470
G1 X93.889 Y50.510 E3.83767
G1 X95.132 Y50.118 E3.88065
G1 X96.405 Y49.836 E3.92362
G1 X97.698 Y49.666 E3.96659
G1 X99.078 Y49.612 E4.01213
G1 X100.302 Y49.666 E4.05253 F1500.000
G1 X101.595 Y49.836 E4.09551
G1 X102.868 Y50.118 E4.13848
G1 X104.111 Y50.510 E4.18145
G1 X105.315 Y51.009 E4.22443
G1 X106.472 Y51.611 E4.26740
G1 X107.571 Y52.311 E4.31037
G1 X108.606 Y53.105 E4.35335
G1 X109.567 Y53.986 E4.39632
G1 X110.448 Y54.947 E4.43930
G1 X111.241 Y55.981 E4.48227
G1 X111.942 Y57.081 E4.52525
G1 X112.573 Y58.309 E4.57078
G1 X113.042 Y59.441 E4.61118
G1 X113.435 Y60.685 E4.65416
G1 X113.717 Y61.957 E4.69713
G1 X113.887 Y63.250 E4.74011
G1 X113.943 Y64.532 E4.78240
G1 X113.943 Y94.573 E5.77267
G1 X113.887 Y95.855 E5.81497
G1 X113.717 Y97.147 E5.85794
G1 X113.435 Y98.420 E5.90091
G1 X113.042 Y99.663 E5.94389
G1 X112.544 Y100.868 E5.98686
G1 X111.942 Y102.024 E6.02984
G1 X111.281 Y103.061 E6.07034
G1 X110.735 Y102.769 F10500.000
G1 X109.974 Y103.761 E6.11153 F1500.000
G1 X109.130 Y104.682 E6.15273
G1 X108.168 Y105.557 E6.19560
G1 X107.217 Y106.287 E6.23511
G1 X106.163 Y106.958 E6.27631
G1 X105.054 Y107.536 E6.31750
G1 X103.900 Y108.014 E6.35870
G1 X102.708 Y108.390 E6.39990
G1 X101.488 Y108.660 E6.44109
G1 X100.249 Y108.823 E6.48229
G1 X99.000 Y108.878 E6.52348
G1 X97.751 Y108.823 E6.56468
G1 X96.512 Y108.660 E6.60587
G1 X95.292 Y108.390 E6.64707
G1 X94.100 Y108.014 E6.68826
G1 X92.946 Y107.536 E6.72946
G1 X91.837 Y106.958 E6.77066
G1 X90.783 Y106.287 E6.81185
G1 X89.792 Y105.526 E6.85305
G1 X88.870 Y104.682 E6.89424
G1 X87.995 Y103.720 E6.93711
G1 X87.265 Y102.769 E6.97663
G1 X86.594 Y101.715 E7.01782
G1 X86.017 Y100.607 E7.05902
G1 X85.539 Y99.452 E7.10021
G1 X85.163 Y98.260 E7.14141
G1 X84.892 Y97.040 E7.18261
G1 X84.729 Y95.801 E7.22380
G1 X84.675 Y94.559 E7.26476
G1 X84.675 Y64.545 E8.25414
G1 X84.729 Y63.304 E8.29511
G1 X84.892 Y62.065 E8.33630
G1 X85.163 Y60.845 E8.37750
G1 X85.539 Y59.653 E8.41869
G1 X86.017 Y58.498 E8.45989
G1 X86.594 Y57.390 E8.50108
G1 X87.265 Y56.336 E8.54228
G1 X88.026 Y55.344 E8.58347
G1 X88.870 Y54.423 E8.62467
G1 X89.792 Y53.579 E8.66587
G1 X90.783 Y52.818 E8.70706
G1 X91.837 Y52.146 E8.74826
G1 X92.946 Y51.569 E8.78945
G1 X94.100 Y51.091 E8.83065
G1 X95.292 Y50.715 E8.87184
G1 X96.512 Y50.445 E8.91304
G1 X97.802 Y50.279 E8.95591
G1 X99.000 Y50.227 E8.99542 F1500.000
G1 X100.249 Y50.282 E9.03662
G1 X101.488 Y50.445 E9.07782
G1 X102.708 Y50.715 E9.11901
G1 X103.900 Y51.091 E9.16021
G1 X105.054 Y51.569 E9.20140
G1 X106.163 Y52.146 E9.24260
G1 X107.217 Y52.818 E9.28379
G1 X108.208 Y53.579 E9.32499
G1 X109.130 Y54.423 E9.36618
G1 X109.974 Y55.344 E9.40738
G1 X110.735 Y56.336 E9.44858
G1 X111.406 Y57.390 E9.48977
G1 X111.983 Y58.498 E9.53097
G1 X112.461 Y59.653 E9.57216
G1 X112.837 Y60.845 E9.61336
G1 X113.108 Y62.065 E9.65455
G1 X113.271 Y63.304 E9.69575
G1 X113.325 Y64.545 E9.73671
G1 X113.325 Y94.559 E10.72609
G1 X113.271 Y95.801 E10.76705
G1 X113.108 Y97.040 E10.80825
G1 X112.837 Y98.260 E10.84945
G1 X112.461 Y99.452 E10.89064
G1 X111.983 Y100.607 E10.93184
G1 X111.406 Y101.715 E10.97303
G1 X110.775 Y102.706 E11.01176
G1 F600.000 E10.01176
G92 E0
G1 X97.745 Y49.783 F10500.000
G1 X69.717 Y97.147 F10500.000
G1 E1.00000 F600.000
G1 X69.435 Y98.420 E1.04297 F1500.000
G1 X69.042 Y99.663 E1.08595
G1 X68.544 Y100.868 E1.12892
G1 X67.942 Y102.024 E1.17190
G1 X67.241 Y103.124 E1.21487
G1 X66.448 Y104.158 E1.25784
G1 X65.509 Y105.172 E1.30338
G1 X64.606 Y106.000 E1.34378
G1 X63.571 Y106.794 E1.38676
G1 X62.472 Y107.494 E1.42973
G1 X61.315 Y108.096 E1.47270
G1 X60.111 Y108.595 E1.51568
G1 X58.868 Y108.987 E1.55865
G1 X57.595 Y109.269 E1.60163
G1 X56.302 Y109.439 E1.64460
G1 X55.000 Y109.496 E1.68757
G1 X53.698 Y109.439 E1.73055
G1 X52.405 Y109.269 E1.77352
G1 X51.132 Y108.987 E1.81650
G1 X49.889 Y108.595 E1.85947
G1 X48.685 Y108.096 E1.90244
G1 X47.528 Y107.494 E1.94542
G1 X46.429 Y106.794 E1.98839
G1 X45.394 Y106.000 E2.03137
G1 X44.433 Y105.119 E2.07434
G1 X43.552 Y104.158 E2.11731
G1 X42.759 Y103.124 E2.16029
G1 X42.058 Y102.024 E2.20326
G1 X41.456 Y100.868 E2.24623
G1 X40.958 Y99.663 E2.28921
G1 X40.565 Y98.420 E2.33218
G1 X40.283 Y97.147 E2.37516
G1 X40.113 Y95.855 E2.41813
G1 X40.057 Y94.573 E2.46043
G1 X40.057 Y64.532 E3.45070
G1 X40.113 Y63.250 E3.49299
G1 X40.283 Y61.957 E3.53596
G1 X40.565 Y60.685 E3.57894
G1 X40.958 Y59.441 E3.62191
G1 X41.456 Y58.237 E3.66489
G1 X42.058 Y57.081 E3.70786
G1 X42.759 Y55.981 E3.75083
G1 X43.552 Y54.947 E3.79381
G1 X44.433 Y53.986 E3.83678
G1 X45.394 Y53.105 E3.87976
G1 X46.429 Y52.311 E3.92273
G1 X47.528 Y51.611 E3.96570
G1 X48.684 Y51.009 E4.00868
G1 X49.889 Y50.510 E4.05165
G1 X51.132 Y50.118 E4.09463
G1 X52.405 Y49.836 E4.13760
G1 X53.698 Y49.666 E4.18057
G1 X55.078 Y49.612 E4.22611
G1 X56.302 Y49.666 E4.26651 F1500.000
G1 X57.595 Y49.836 E4.30949
G1 X58.868 Y50.118 E4.35246
G1 X60.111 Y50.510 E4.39544
G1 X61.315 Y51.009 E4.43841
G1 X62.472 Y51.611 E4.48138
G1 X63.571 Y52.311 E4.52436
G1 X64.606 Y53.105 E4.56733
G1 X65.567 Y53.986 E4.61030
G1 X66.448 Y54.947 E4.65328
G1 X67.241 Y55.981 E4.69625
G1 X67.942 Y57.081 E4.73923
G1 X68.573 Y58.309 E4.78476
G1 X69.042 Y59.441 E4.82516
G1 X69.435 Y60.685 E4.86814
G1 X69.717 Y61.957 E4.91111
G1 X69.887 Y63.250 E4.95409
G1 X69.943 Y64.532 E4.99638
G1 X69.943 Y94.573 E5.98665
G1 X69.887 Y95.855 E6.02895
G1 X69.726 Y97.073 E6.06945
G1 X69.108 Y97.040 F10500.000
G1 X68.837 Y98.260 E6.11064 F1500.000
G1 X68.461 Y99.452 E6.15184
G1 X67.983 Y100.607 E6.19303
G1 X67.406 Y101.715 E6.23423
G1 X66.735 Y102.769 E6.27543
G1 X65.974 Y103.761 E6.31662
G1 X65.092 Y104.716 E6.35949
G1 X64.208 Y105.526 E6.39901
G1 X63.217 Y106.287 E6.44020
G1 X62.163 Y106.958 E6.48140
G1 X61.054 Y107.536 E6.52259
G1 X59.900 Y108.014 E6.56379
G1 X58.708 Y108.390 E6.60498
G1 X57.488 Y108.660 E6.64618
G1 X56.249 Y108.823 E6.68738
G1 X55.000 Y108.878 E6.72857
G1 X53.751 Y108.823 E6.76977
G1 X52.512 Y108.660 E6.81096
G1 X51.292 Y108.390 E6.85216
G1 X50.100 Y108.014 E6.89335
G1 X48.946 Y107.536 E6.93455
G1 X47.837 Y106.958 E6.97575
G1 X46.783 Y106.287 E7.01694
G1 X45.792 Y105.526 E7.05814
G1 X44.870 Y104.682 E7.09933
G1 X44.026 Y103.761 E7.14053
G1 X43.265 Y102.769 E7.18172
G1 X42.594 Y101.715 E7.22292
G1 X42.017 Y100.607 E7.26411
G1 X41.539 Y99.452 E7.30531
G1 X41.163 Y98.260 E7.34651
G1 X40.892 Y97.040 E7.38770
G1 X40.729 Y95.801 E7.42890
G1 X40.675 Y94.559 E7.46986
G1 X40.675 Y64.545 E8.45924
G1 X40.729 Y63.304 E8.50020
G1 X40.892 Y62.065 E8.54140
G1 X41.163 Y60.845 E8.58259
G1 X41.539 Y59.653 E8.62379
G1 X42.017 Y58.498 E8.66498
G1 X42.621 Y57.347 E8.70786
G1 X43.265 Y56.336 E8.74737
G1 X44.026 Y55.344 E8.78856
G1 X44.870 Y54.423 E8.82976
G1 X45.792 Y53.579 E8.87096
G1 X46.783 Y52.818 E8.91215
G1 X47.837 Y52.146 E8.95335
G1 X48.946 Y51.569 E8.99454
G1 X50.100 Y51.091 E9.03574
G1 X51.292 Y50.715 E9.07693
G1 X52.512 Y50.445 E9.11813
G1 X53.802 Y50.279 E9.16100
G1 X55.000 Y50.227 E9.20051 F1500.000
G1 X56.249 Y50.282 E9.24171
G1 X57.488 Y50.445 E9.28290
G1 X58.708 Y50.715 E9.32410
G1 X59.900 Y51.091 E9.36530
G1 X61.054 Y51.569 E9.40649
G1 X62.163 Y52.146 E9.44769
G1 X63.217 Y52.818 E9.48888
G1 X64.208 Y53.579 E9.53008
G1 X65.130 Y54.423 E9.57127
G1 X65.974 Y55.344 E9.61247
G1 X66.735 Y56.336 E9.65367
G1 X67.406 Y57.390 E9.69486
G1 X67.983 Y58.498 E9.73606
G1 X68.461 Y59.653 E9.77725
G1 X68.837 Y60.845 E9.81845
G1 X69.108 Y62.065 E9.85964
G1 X69.271 Y63.304 E9.90084
G1 X69.325 Y64.545 E9.94180
G1 X69.325 Y94.559 E10.93118
G1 X69.271 Y95.801 E10.97214
G1 X69.117 Y96.966 E11.01087
G1 F600.000 E10.01087
G92 E0
G1 X53.734 Y49.784 F10500.000
G1 X76.212 Y124.212 F10500.000
G1 E1.00000 F600.000
G1 X76.735 Y124.120 E1.01749 F1500.000
G1 X77.047 Y124.111 E1.02777
G1 X77.528 Y124.155 E1.04372 F1500.000
G1 X77.788 Y124.212 E1.05248
G1 X78.286 Y124.394 E1.06996
G1 X78.746 Y124.659 E1.08746
G1 X79.152 Y125.000 E1.10495
G1 X79.493 Y125.407 E1.12243
G1 X79.758 Y125.866 E1.13992
G1 X79.940 Y126.365 E1.15741
G1 X80.032 Y126.887 E1.17490
G1 X80.043 Y130.173 E1.28322
G1 X79.997 Y130.681 E1.30002
G1 X79.860 Y131.193 E1.31751
G1 X79.636 Y131.674 E1.33501
G1 X79.493 Y131.898 E1.34376
G1 X79.152 Y132.305 E1.36124
G1 X78.956 Y132.484 E1.37000
G1 X78.746 Y132.646 E1.37876
G1 X78.286 Y132.911 E1.39624
G1 X77.997 Y133.027 E1.40652
G1 X77.528 Y133.150 E1.42248
G1 X77.000 Y133.196 E1.43997
G1 X76.735 Y133.185 E1.44872
G1 X76.426 Y133.140 E1.45901
G1 X75.959 Y133.013 E1.47496
G1 X75.714 Y132.911 E1.48371
G1 X75.254 Y132.646 E1.50120
G1 X74.848 Y132.305 E1.51870
G1 X74.669 Y132.109 E1.52744
G1 X74.482 Y131.859 E1.53773
G1 X74.241 Y131.439 E1.55368
G1 X74.140 Y131.193 E1.56243
G1 X74.003 Y130.681 E1.57993
G1 X73.957 Y130.173 E1.59674
G1 X73.957 Y127.132 E1.69699
G1 X74.003 Y126.624 E1.71379
G1 X74.140 Y126.111 E1.73129
G1 X74.364 Y125.631 E1.74877
G1 X74.507 Y125.407 E1.75753
G1 X74.848 Y125.000 E1.77502
G1 X75.081 Y124.792 E1.78530
G1 X75.478 Y124.516 E1.80125
G1 X75.714 Y124.394 E1.81000
G1 X76.141 Y124.235 E1.82503
G1 X76.372 Y124.810 F10500.000
G1 X76.808 Y124.735 E1.83961 F1500.000
G1 X77.211 Y124.736 E1.85289 F1500.000
G1 X77.421 Y124.764 E1.85987
G1 X77.830 Y124.873 E1.87380
G1 X78.213 Y125.052 E1.88774
G1 X78.559 Y125.294 E1.90167
G1 X78.858 Y125.593 E1.91561
G1 X79.100 Y125.940 E1.92955
G1 X79.206 Y126.146 E1.93717
G1 X79.343 Y126.525 E1.95046
G1 X79.416 Y126.941 E1.96439
G1 X79.425 Y130.160 E2.07049
G1 X79.388 Y130.574 E2.08419
G1 X79.279 Y130.982 E2.09812
G1 X79.100 Y131.365 E2.11206
G1 X78.987 Y131.544 E2.11903
G1 X78.715 Y131.867 E2.13297
G1 X78.559 Y132.010 E2.13994
G1 X78.391 Y132.139 E2.14692
G1 X78.025 Y132.350 E2.16085
G1 X77.811 Y132.437 E2.16847
G1 X77.421 Y132.541 E2.18176
G1 X77.000 Y132.578 E2.19570
G1 X76.560 Y132.537 E2.21028
G1 X76.170 Y132.431 E2.22356
G1 X75.975 Y132.350 E2.23054
G1 X75.609 Y132.139 E2.24447
G1 X75.285 Y131.867 E2.25841
G1 X75.013 Y131.544 E2.27234
G1 X74.900 Y131.365 E2.27932
G1 X74.721 Y130.982 E2.29326
G1 X74.612 Y130.574 E2.30719
G1 X74.575 Y130.159 E2.32089
G1 X74.575 Y127.145 E2.42025
G1 X74.612 Y126.731 E2.43396
G1 X74.657 Y126.525 E2.44093
G1 X74.721 Y126.323 E2.44790
G1 X74.900 Y125.940 E2.46184
G1 X75.142 Y125.593 E2.47577
G1 X75.285 Y125.437 E2.48275
G1 X75.457 Y125.283 E2.49037
G1 X75.787 Y125.052 E2.50366
G1 X75.975 Y124.954 E2.51063
G1 X76.301 Y124.832 E2.52210
G1 X76.980 Y124.371 F10500.000
G1 F600.000 E1.52210
G92 E0
G1 X27.943 Y118.610 F10500.000
G1 E1.00000 F600.000
G1 X27.943 Y37.421 E3.67628 F1500.000
G1 X28.219 Y37.388 E3.68543
G1 X28.763 Y37.268 E3.70380
G1 X29.409 Y37.063 E3.72614
G1 X29.954 Y36.836 E3.74562
G1 X30.436 Y36.585 E3.76352
G1 X30.988 Y36.236 E3.78505
