; generated by Slic3r 1.1.7 on 2015-05-05 at 14:43:01

; perimeters extrusion width = 0.42mm
; infill extrusion width = 0.58mm
; solid infill extrusion width = 0.55mm
; top infill extrusion width = 0.48mm

G21 ; set units to millimeters
M107

M301 P34 I4 D113     ; set PID nozzle
M304 P162 I17 D378 ; set PID Bed

M104 S230                 ; set extruder temp for budaschnozzle
;M104 S250                 ; set extruder temp for hex_hot_end
;M140 S100                 ; set bed temp for PET
M140 S110                 ; set bed temp for PEI (reminder ~G1 Z2 ~ M140 S(@-10 degree change) ;if -m is present in file name)

G28                            ; home
G1 Z5 F300                ; move bed down 5mm
M84                            ; disable steppers
G4 S300                     ; wait 5 mins to preheat

G28                            ; home

G90 ; use absolute coordinates
G92 E0
M82 ; use absolute distances for extrusion
G1 F1500.000 E-1.20000
G92 E0
G1 Z0.350 F9000.000
G1 X116.918 Y115.867 F9000.000
G1 E1.20000 F1500.000
G1 X118.156 Y114.853 E1.25273 F1080.000
G1 X119.416 Y114.059 E1.30185
G1 X171.591 Y87.173 E3.23664
G1 X174.431 Y86.481 E3.33300
G1 X180.692 Y86.478 E3.53938
G1 X182.879 Y86.882 E3.61271 F1080.000
G1 X184.785 Y88.029 E3.68604
G1 X186.168 Y89.772 E3.75936
G1 X186.905 Y92.713 E3.85931
G1 X186.905 Y165.826 E6.26940
G1 X186.508 Y168.015 E6.34273
G1 X185.967 Y169.115 E6.38314
G1 X185.585 Y169.703 E6.40625
G1 X184.907 Y170.497 E6.44066
G1 X183.589 Y171.703 E6.49956
G1 X183.073 Y172.043 E6.51992
G1 X181.376 Y172.939 E6.58320
G1 X128.135 Y193.101 E8.45984
G1 X126.624 Y193.566 E8.51194
G1 X125.068 Y193.845 E8.56405
G1 X124.258 Y193.914 E8.59087
G1 X123.491 Y193.934 E8.61615
G1 X121.913 Y193.832 E8.66828
G1 X120.359 Y193.542 E8.72038
G1 X119.577 Y193.319 E8.74720
G1 X118.852 Y193.065 E8.77251
G1 X117.413 Y192.411 E8.82461
G1 X116.706 Y192.007 E8.85146
G1 X116.064 Y191.588 E8.87674
G1 X114.823 Y190.609 E8.92884
G1 X113.710 Y189.487 E8.98095
G1 X112.740 Y188.239 E9.03305
G1 X111.921 Y186.869 E9.08566
G1 X111.233 Y185.283 E9.14264
G1 X110.916 Y184.258 E9.17800
G1 X110.681 Y183.184 E9.21425
G1 X110.545 Y182.120 E9.24962
G1 X110.498 Y181.030 E9.28557
G1 X113.052 Y124.356 E11.15567
G1 X113.208 Y122.798 E11.20727
G1 X113.572 Y121.240 E11.26000
G1 X114.137 Y119.744 E11.31273
G1 X114.911 Y118.305 E11.36659
G1 X115.824 Y117.034 E11.41818
G1 X116.867 Y115.922 E11.46845
G1 X117.326 Y116.331 F9000.000
G1 X118.499 Y115.367 E11.51851 F1080.000
G1 X119.699 Y114.608 E11.56532
G1 X171.874 Y87.722 E13.50012
G1 X174.433 Y87.098 E13.58693
G1 X180.690 Y87.095 E13.79318
G1 X182.761 Y87.499 E13.86275 F1080.000
G1 X184.537 Y88.639 E13.93232
G1 X185.768 Y90.354 E14.00189
G1 X186.287 Y92.713 E14.08153
G1 X186.287 Y165.826 E16.49161
G1 X185.442 Y168.789 E16.59318
G1 X185.084 Y169.342 E16.61489
G1 X184.472 Y170.058 E16.64591
G1 X183.225 Y171.205 E16.70178
G1 X182.759 Y171.511 E16.72015
G1 X181.157 Y172.361 E16.77995
G1 X127.937 Y192.516 E18.65588
G1 X126.498 Y192.961 E18.70553
G1 X125.016 Y193.229 E18.75517
G1 X124.205 Y193.298 E18.78199
G1 X123.513 Y193.317 E18.80482
G1 X122.009 Y193.222 E18.85448
G1 X120.528 Y192.947 E18.90413
G1 X119.746 Y192.725 E18.93095
G1 X119.091 Y192.496 E18.95380
G1 X117.719 Y191.875 E19.00344
G1 X117.012 Y191.471 E19.03028
G1 X116.432 Y191.093 E19.05311
G1 X115.249 Y190.161 E19.10276
G1 X114.186 Y189.094 E19.15240
G1 X113.260 Y187.906 E19.20205
G1 X112.477 Y186.602 E19.25220
G1 X111.823 Y185.100 E19.30619
G1 X111.506 Y184.076 E19.34154
G1 X111.294 Y183.106 E19.37426
G1 X111.157 Y182.041 E19.40964
G1 X111.115 Y181.058 E19.44209
G1 X113.669 Y124.396 E21.31177
G1 X113.814 Y122.919 E21.36071
G1 X114.157 Y121.439 E21.41078
G1 X114.691 Y120.017 E21.46084
G1 X115.424 Y118.648 E21.51204
G1 X116.289 Y117.441 E21.56097
G1 X117.275 Y116.386 E21.60857
G1 F1500.000 E20.40857
G92 E0
G1 X175.215 Y160.574 F9000.000
G1 E1.20000 F1500.000
M204 S1800
G1 X153.830 Y153.994 E1.93757 F1710.000
G1 X153.830 Y141.855 E2.33772
G1 X168.303 Y141.855 E2.81483
G1 X169.179 Y141.912 E2.84375
G1 X170.070 Y142.090 E2.87370
G1 X170.930 Y142.382 E2.90364
G1 X171.745 Y142.783 E2.93359
G1 X172.500 Y143.288 E2.96353
G1 X173.183 Y143.887 E2.99348
G1 X173.782 Y144.570 E3.02343
G1 X174.287 Y145.325 E3.05337
G1 X174.689 Y146.140 E3.08331
G1 X174.981 Y147.000 E3.11325
G1 X175.158 Y147.891 E3.14321
G1 X175.215 Y148.767 E3.17213
G1 X175.215 Y160.499 E3.55887
M204 S1200
G1 X174.597 Y159.738 F9000.000
M204 S1800
G1 X154.447 Y153.538 E4.25383 F1260.000
G1 X154.447 Y142.473 E4.61857
G1 X168.283 Y142.473 E5.07465
G1 X169.098 Y142.526 E5.10157
G1 X169.910 Y142.688 E5.12885
G1 X170.693 Y142.954 E5.15612
G1 X171.435 Y143.320 E5.18340
G1 X172.123 Y143.779 E5.21067
G1 X172.745 Y144.325 E5.23795
G1 X173.291 Y144.947 E5.26523
G1 X173.751 Y145.635 E5.29250
G1 X174.117 Y146.377 E5.31977
G1 X174.383 Y147.160 E5.34705
G1 X174.544 Y147.972 E5.37433
G1 X174.597 Y148.787 E5.40125
G1 X174.597 Y159.663 E5.75975
M204 S1200
G1 X174.499 Y160.228 F9000.000
G1 F1500.000 E4.55975
G92 E0
G1 X167.316 Y162.281 F9000.000
G1 E1.20000 F1500.000
M204 S1800
G1 X167.447 Y163.276 E1.23309 F1260.000
G1 X167.447 Y166.319 E1.33339
G1 X167.316 Y167.314 E1.36648
G1 X166.924 Y168.262 E1.40028
G1 X166.300 Y169.075 E1.43408
G1 X165.486 Y169.699 E1.46788
G1 X165.346 Y169.758 E1.47290
G1 X164.539 Y170.092 E1.50168
G1 X163.522 Y170.226 E1.53548
G1 X162.506 Y170.092 E1.56928
G1 X161.699 Y169.758 E1.59805
G1 X161.559 Y169.699 E1.60308
G1 X160.745 Y169.075 E1.63688
G1 X160.121 Y168.262 E1.67068
G1 X159.728 Y167.314 E1.70448
G1 X159.597 Y166.319 E1.73757
G1 X159.597 Y163.276 E1.83786
G1 X159.728 Y162.281 E1.87096
G1 X160.121 Y161.334 E1.90476
G1 X160.745 Y160.520 E1.93856
G1 X161.559 Y159.896 E1.97236
G1 X162.506 Y159.504 E2.00616
G1 X163.522 Y159.370 E2.03996
G1 X164.388 Y159.484 E2.06873
M204 S1200
M204 S1800
G1 X164.539 Y159.504 E2.07376 F1260.000
G1 X165.486 Y159.896 E2.10756
G1 X166.300 Y160.520 E2.14135
G1 X166.924 Y161.334 E2.17516
G1 X167.288 Y162.212 E2.20648
M204 S1200
G1 F1500.000 E1.00648
G92 E0
G1 X164.354 Y159.335 F9000.000
G1 X139.687 Y154.444 F9000.000
G1 E1.20000 F1500.000
M204 S1800
G1 X139.295 Y155.391 E1.23380 F1260.000
G1 X138.671 Y156.204 E1.26760
G1 X137.857 Y156.829 E1.30140
G1 X136.910 Y157.221 E1.33520
G1 X135.893 Y157.355 E1.36900
G1 X134.877 Y157.221 E1.40280
G1 X133.929 Y156.829 E1.43660
G1 X133.116 Y156.204 E1.47040
G1 X132.492 Y155.391 E1.50420
G1 X132.099 Y154.444 E1.53800
G1 X131.968 Y153.448 E1.57109
G1 X131.968 Y150.406 E1.67139
G1 X132.099 Y149.410 E1.70448
G1 X132.492 Y148.463 E1.73828
G1 X133.116 Y147.650 E1.77208
G1 X133.929 Y147.025 E1.80588
G1 X134.877 Y146.633 E1.83968
G1 X135.893 Y146.499 E1.87348
G1 X136.759 Y146.613 E1.90225
M204 S1200
M204 S1800
G1 X136.910 Y146.633 E1.90728 F1260.000
G1 X137.857 Y147.025 E1.94108
G1 X138.671 Y147.650 E1.97488
G1 X139.295 Y148.463 E2.00868
G1 X139.687 Y149.410 E2.04248
G1 X139.818 Y150.406 E2.07557
G1 X139.818 Y153.448 E2.17586
G1 X139.697 Y154.369 E2.20648
M204 S1200
G1 F1500.000 E1.00648
G92 E0
G1 X136.751 Y146.461 F9000.000
G1 X124.986 Y174.655 F9000.000
G1 E1.20000 F1500.000
M204 S1800
G1 X125.800 Y175.279 E1.23380 F1260.000
G1 X126.424 Y176.092 E1.26760
G1 X126.816 Y177.040 E1.30140
G1 X126.947 Y178.035 E1.33449
G1 X126.947 Y181.077 E1.43479
G1 X126.816 Y182.073 E1.46788
G1 X126.424 Y183.020 E1.50168
G1 X125.800 Y183.834 E1.53548
G1 X124.986 Y184.458 E1.56928
G1 X124.039 Y184.850 E1.60308
G1 X123.888 Y184.870 E1.60810
G1 X123.022 Y184.984 E1.63688
G1 X122.006 Y184.850 E1.67068
G1 X121.059 Y184.458 E1.70448
G1 X120.245 Y183.834 E1.73828
G1 X119.621 Y183.020 E1.77208
G1 X119.228 Y182.073 E1.80588
G1 X119.097 Y181.077 E1.83897
G1 X119.097 Y178.035 E1.93926
G1 X119.228 Y177.040 E1.97236
G1 X119.621 Y176.092 E2.00616
G1 X120.245 Y175.279 E2.03996
G1 X121.059 Y174.655 E2.07376
G1 X122.006 Y174.262 E2.10756
G1 X123.022 Y174.128 E2.14135
G1 X123.888 Y174.242 E2.17013
M204 S1200
M204 S1800
G1 X124.039 Y174.262 E2.17515 F1260.000
G1 X124.917 Y174.626 E2.20648
M204 S1200
G1 X123.830 Y174.101 F9000.000
G1 F1500.000 E1.00648
G92 E0
G1 X118.544 Y177.077 F9000.000
G1 E1.20000 F1500.000
M204 S1800
G1 X118.127 Y176.967 E1.21422 F1710.000
G1 X118.477 Y174.116 E1.30893
G1 X119.102 Y167.870 E1.51583
G1 X119.589 Y161.613 E1.72272
G1 X119.937 Y155.346 E1.92961
G1 X120.146 Y149.074 E2.13650
G1 X120.215 Y142.803 E2.34322
G1 X120.215 Y124.829 E2.93572
G1 X120.261 Y124.138 E2.95853
G1 X120.390 Y123.489 E2.98033
G1 X120.602 Y122.863 E3.00213
G1 X120.895 Y122.270 E3.02393
G1 X121.262 Y121.720 E3.04573
G1 X121.698 Y121.223 E3.06752
G1 X122.195 Y120.787 E3.08932
G1 X122.745 Y120.420 E3.11112
G1 X123.338 Y120.127 E3.13291
G1 X123.964 Y119.915 E3.15471
G1 X124.613 Y119.786 E3.17651
G1 X125.303 Y119.741 E3.19933
G1 X135.064 Y119.741 E3.52109
G1 X134.500 Y120.211 E3.54529
G1 X133.610 Y121.098 E3.58673
G1 X132.809 Y122.067 E3.62817
G1 X132.105 Y123.109 E3.66961
G1 X131.505 Y124.213 E3.71105
G1 X131.013 Y125.370 E3.75249
G1 X130.635 Y126.569 E3.79393
G1 X130.373 Y127.799 E3.83537
G1 X130.231 Y129.048 E3.87680
G1 X130.210 Y130.305 E3.91824
G1 X130.310 Y131.558 E3.95968
G1 X130.529 Y132.796 E4.00112
G1 X130.866 Y134.007 E4.04256
G1 X131.319 Y135.180 E4.08400
G1 X131.881 Y136.304 E4.12544
G1 X132.549 Y137.368 E4.16688
G1 X133.317 Y138.364 E4.20832
G1 X134.176 Y139.282 E4.24976
G1 X135.120 Y140.112 E4.29120
G1 X136.139 Y140.848 E4.33264
G1 X137.224 Y141.483 E4.37407
G1 X138.365 Y142.010 E4.41551
G1 X139.552 Y142.426 E4.45695
G1 X140.544 Y142.669 E4.49064
G1 X140.773 Y142.725 E4.49839
G1 X142.017 Y142.906 E4.53983
G1 X143.272 Y142.967 E4.58127
G1 X144.528 Y142.906 E4.62271
G1 X145.772 Y142.725 E4.66415
G1 X146.993 Y142.426 E4.70558
G1 X148.179 Y142.010 E4.74702
G1 X149.321 Y141.483 E4.78846
G1 X150.406 Y140.848 E4.82990
G1 X151.425 Y140.112 E4.87134
G1 X151.602 Y139.957 E4.87909
G1 X152.368 Y139.282 E4.91278
G1 X153.228 Y138.364 E4.95422
G1 X153.995 Y137.368 E4.99566
G1 X154.664 Y136.304 E5.03710
G1 X155.226 Y135.180 E5.07854
G1 X155.312 Y134.960 E5.08629
G1 X155.678 Y134.007 E5.11998
G1 X156.016 Y132.796 E5.16142
G1 X156.235 Y131.558 E5.20286
G1 X156.335 Y130.305 E5.24430
G1 X156.313 Y129.048 E5.28573
G1 X156.288 Y128.814 E5.29348
G1 X156.171 Y127.799 E5.32717
G1 X155.910 Y126.569 E5.36861
G1 X155.532 Y125.370 E5.41005
G1 X155.040 Y124.213 E5.45149
G1 X154.929 Y124.006 E5.45924
G1 X154.439 Y123.109 E5.49293
G1 X153.735 Y122.067 E5.53437
G1 X152.935 Y121.098 E5.57581
G1 X152.045 Y120.211 E5.61725
G1 X151.480 Y119.741 E5.64145
G1 X168.303 Y119.741 E6.19600
G1 X169.179 Y119.683 E6.22492
G1 X170.070 Y119.506 E6.25487
G1 X170.930 Y119.214 E6.28481
G1 X171.745 Y118.812 E6.31475
G1 X172.500 Y118.307 E6.34470
G1 X173.183 Y117.708 E6.37465
G1 X173.782 Y117.025 E6.40459
G1 X174.287 Y116.270 E6.43454
G1 X174.689 Y115.455 E6.46448
G1 X174.981 Y114.595 E6.49442
G1 X175.158 Y113.704 E6.52437
G1 X175.215 Y112.829 E6.55330
G1 X175.215 Y93.657 E7.18527
G1 X179.726 Y93.653 E7.33397
G1 X179.726 Y165.524 E9.70314
G1 X179.329 Y165.917 E9.72156
G1 X178.788 Y166.237 E9.74228
G1 X178.128 Y166.431 E9.76496
G1 X177.827 Y166.480 E9.77499
G1 X166.248 Y170.416 E10.17815
G1 X166.050 Y170.046 E10.19198
G1 X166.740 Y169.516 E10.22067
G1 X167.464 Y168.573 E10.25983
G1 X167.918 Y167.476 E10.29900
G1 X168.065 Y166.360 E10.33610
G1 X168.065 Y163.236 E10.43907
G1 X167.918 Y162.120 E10.47618
G1 X167.464 Y161.022 E10.51534
G1 X166.740 Y160.080 E10.55450
G1 X165.798 Y159.357 E10.59366
G1 X164.700 Y158.902 E10.63282
G1 X163.522 Y158.747 E10.67199
G1 X162.345 Y158.902 E10.71115
G1 X161.247 Y159.357 E10.75031
G1 X160.304 Y160.080 E10.78947
G1 X159.581 Y161.022 E10.82864
G1 X159.127 Y162.120 E10.86780
G1 X158.980 Y163.236 E10.90491
G1 X158.980 Y166.360 E11.00787
G1 X159.005 Y166.554 E11.01433
G1 X158.598 Y166.672 E11.02832
G1 X157.938 Y165.254 E11.07989
G1 X157.266 Y164.082 E11.12442
G1 X156.498 Y162.971 E11.16895
G1 X155.638 Y161.929 E11.21348
G1 X154.694 Y160.963 E11.25801
G1 X153.671 Y160.081 E11.30254
G1 X152.576 Y159.289 E11.34707
G1 X151.419 Y158.592 E11.39160
G1 X150.207 Y157.995 E11.43613
G1 X148.949 Y157.504 E11.48066
G1 X147.654 Y157.120 E11.52518
G1 X146.330 Y156.848 E11.56972
G1 X144.989 Y156.689 E11.61425
G1 X143.639 Y156.643 E11.65878
G1 X142.290 Y156.713 E11.70331
G1 X140.951 Y156.896 E11.74784
G1 X139.633 Y157.192 E11.79237
G1 X138.676 Y157.493 E11.82544
G1 X138.485 Y157.125 E11.83911
G1 X139.111 Y156.645 E11.86513
G1 X139.834 Y155.702 E11.90429
G1 X140.289 Y154.605 E11.94345
G1 X140.436 Y153.489 E11.98056
G1 X140.436 Y150.365 E12.08353
G1 X140.289 Y149.249 E12.12063
G1 X139.834 Y148.151 E12.15980
G1 X139.111 Y147.209 E12.19896
G1 X138.169 Y146.486 E12.23812
G1 X137.071 Y146.031 E12.27728
G1 X136.839 Y146.001 E12.28499
G1 X135.893 Y145.876 E12.31644
G1 X134.715 Y146.031 E12.35561
G1 X133.618 Y146.486 E12.39477
G1 X132.675 Y147.209 E12.43393
G1 X131.952 Y148.151 E12.47309
G1 X131.497 Y149.249 E12.51225
G1 X131.350 Y150.365 E12.54936
G1 X131.350 Y153.489 E12.65233
G1 X131.497 Y154.605 E12.68943
G1 X131.952 Y155.702 E12.72860
G1 X132.675 Y156.645 E12.76776
G1 X133.618 Y157.368 E12.80692
G1 X134.715 Y157.823 E12.84608
G1 X135.893 Y157.978 E12.88524
G1 X136.656 Y157.877 E12.91060
G1 X136.780 Y158.274 E12.92430
G1 X135.894 Y158.730 E12.95712
G1 X134.750 Y159.447 E13.00165
G1 X133.670 Y160.259 E13.04618
G1 X132.662 Y161.159 E13.09071
G1 X131.735 Y162.141 E13.13524
G1 X130.894 Y163.198 E13.17977
G1 X130.146 Y164.323 E13.22430
G1 X129.495 Y165.506 E13.26882
G1 X128.947 Y166.741 E13.31336
G1 X128.505 Y168.018 E13.35788
G1 X128.173 Y169.327 E13.40242
G1 X127.954 Y170.660 E13.44695
G1 X127.847 Y172.007 E13.49148
G1 X127.855 Y173.358 E13.53601
G1 X127.978 Y174.703 E13.58054
G1 X128.214 Y176.033 E13.62507
G1 X128.561 Y177.338 E13.66959
G1 X129.247 Y179.286 E13.73767
G1 X129.393 Y179.986 E13.76121
G1 X129.454 Y180.697 E13.78476
G1 X129.429 Y181.411 E13.80831
G1 X129.317 Y182.117 E13.83185
G1 X129.122 Y182.804 E13.85540
G1 X128.845 Y183.462 E13.87894
G1 X128.491 Y184.083 E13.90249
G1 X128.065 Y184.656 E13.92604
G1 X127.572 Y185.173 E13.94958
G1 X127.021 Y185.628 E13.97313
G1 X126.419 Y186.012 E13.99667
G1 X125.775 Y186.322 E14.02022
G1 X125.099 Y186.551 E14.04377
G1 X124.400 Y186.697 E14.06731
G1 X123.688 Y186.758 E14.09086
G1 X122.974 Y186.733 E14.11440
G1 X122.269 Y186.621 E14.13795
G1 X121.582 Y186.426 E14.16150
G1 X120.923 Y186.149 E14.18504
G1 X120.303 Y185.795 E14.20859
G1 X119.730 Y185.369 E14.23213
G1 X119.212 Y184.876 E14.25568
G1 X118.758 Y184.325 E14.27923
G1 X118.373 Y183.723 E14.30278
G1 X118.069 Y183.091 E14.32591
G1 X117.791 Y182.193 E14.35690
G1 X117.673 Y181.272 E14.38748
G1 X117.718 Y180.299 E14.41959
G1 X118.015 Y177.876 E14.50008
G1 X118.480 Y177.904 E14.51541
G1 X118.480 Y181.118 E14.62135
G1 X118.627 Y182.234 E14.65846
G1 X119.081 Y183.332 E14.69762
G1 X119.804 Y184.274 E14.73678
G1 X120.747 Y184.997 E14.77594
G1 X121.845 Y185.452 E14.81510
G1 X123.022 Y185.607 E14.85427
G1 X124.200 Y185.452 E14.89343
G1 X125.298 Y184.997 E14.93259
G1 X126.240 Y184.274 E14.97175
G1 X126.964 Y183.332 E15.01091
G1 X127.418 Y182.234 E15.05008
G1 X127.565 Y181.118 E15.08719
G1 X127.565 Y177.994 E15.19015
G1 X127.418 Y176.878 E15.22726
G1 X126.964 Y175.781 E15.26642
G1 X126.240 Y174.838 E15.30558
G1 X125.298 Y174.115 E15.34474
G1 X125.082 Y174.025 E15.35245
G1 X124.200 Y173.660 E15.38391
G1 X123.022 Y173.505 E15.42307
G1 X121.845 Y173.660 E15.46223
G1 X120.963 Y174.025 E15.49369
G1 X120.747 Y174.115 E15.50139
G1 X119.804 Y174.838 E15.54055
G1 X119.081 Y175.781 E15.57972
G1 X118.573 Y177.008 E15.62350
M204 S1200
G1 F1500.000 E14.42350
G92 E0
G1 X136.488 Y119.473 F9000.000
G1 E1.20000 F1500.000
M204 S1800
G1 X135.842 Y119.908 E1.22565 F1260.000
G1 X134.917 Y120.668 E1.26513
G1 X134.068 Y121.513 E1.30462
G1 X133.305 Y122.437 E1.34409
G1 X132.635 Y123.429 E1.38358
G1 X132.062 Y124.481 E1.42306
G1 X131.594 Y125.583 E1.46254
G1 X131.233 Y126.725 E1.50202
G1 X130.984 Y127.897 E1.54150
G1 X130.849 Y129.087 E1.58098
G1 X130.828 Y130.284 E1.62046
G1 X130.923 Y131.478 E1.65994
