; generated by Slic3r 1.1.7 on 2015-09-03 at 13:34:34

; perimeters extrusion width = 0.43mm
; infill extrusion width = 0.49mm
; solid infill extrusion width = 0.43mm
; top infill extrusion width = 0.42mm

G21 ; set units to millimeters

M301 P34 I4 D113     ; set PID nozzle
M304 P162 I17 D378 ; set PID Bed

;M104 S230                 ; set extruder temp for budaschnozzle
M104 S250                 ; set extruder temp for hex_hot_end
M140 S110                 ; set bed temp for PEI (reminder ~G1 Z2 ~ M140 S(@-10 degree change) ;if -m is present in file name)

G28                            ; home
G1 Z5 F300                ; move bed down 5mm
M84                            ; disable steppers
G4 S300                     ; wait 5 mins to preheat

G28                            ; home

G90 ; use absolute coordinates
G92 E0
M82 ; use absolute distances for extrusion
G1 F1200.000 E-1.20000
G92 E0
G1 Z0.350 F9600.000
G1 X104.934 Y109.359 F9600.000
G1 E1.20000 F1200.000
G1 X135.932 Y80.894 E2.58728 F1080.000
G1 X137.812 Y79.705 E2.66060
G1 X140.149 Y79.251 E2.73909
G1 X146.164 Y79.251 E2.93734
G1 X157.865 Y79.278 E3.32306 F1080.000
G1 X160.053 Y79.680 E3.39638
G1 X162.074 Y80.926 E3.47465
G1 X193.071 Y109.460 E4.86346
G1 X194.413 Y111.234 E4.93678
G1 X195.084 Y114.048 E5.03212
G1 X195.084 Y164.048 E6.68031
G1 X194.687 Y166.237 E6.75364
G1 X193.066 Y168.641 E6.84922
G1 X162.068 Y197.106 E8.23650
G1 X160.188 Y198.295 E8.30983
G1 X157.851 Y198.749 E8.38831
G1 X140.135 Y198.722 E8.97228
G1 X137.947 Y198.320 E9.04560
G1 X135.926 Y197.074 E9.12387
G1 X104.929 Y168.540 E10.51268
G1 X103.587 Y166.766 E10.58601
G1 X102.916 Y163.952 E10.68134
G1 X102.916 Y113.952 E12.32953
G1 X103.313 Y111.763 E12.40286
G1 X104.892 Y109.422 E12.49597
G1 X105.352 Y109.814 F9600.000
G1 X136.350 Y81.349 E13.88325 F1080.000
G1 X138.145 Y80.239 E13.95282
G1 X140.149 Y79.869 E14.02002
G1 X146.162 Y79.869 E14.21823
G1 X157.863 Y79.896 E14.60394 F1080.000
G1 X159.935 Y80.297 E14.67351
G1 X161.655 Y81.380 E14.74051
G1 X192.653 Y109.915 E16.12932
G1 X193.909 Y111.610 E16.19889
G1 X194.466 Y114.048 E16.28131
G1 X194.466 Y164.048 E17.92950
G1 X194.069 Y166.121 E17.99907
G1 X192.648 Y168.186 E18.08171
G1 X161.650 Y196.651 E19.46898
G1 X159.855 Y197.761 E19.53855
G1 X157.851 Y198.131 E19.60576
G1 X140.137 Y198.104 E20.18968
G1 X138.065 Y197.703 E20.25925
G1 X136.345 Y196.620 E20.32625
G1 X105.347 Y168.085 E21.71506
G1 X104.091 Y166.390 E21.78463
G1 X103.534 Y163.952 E21.86705
G1 X103.534 Y113.952 E23.51524
G1 X103.931 Y111.879 E23.58481
G1 X105.310 Y109.876 E23.66497
G1 F1200.000 E22.46497
G92 E0
G1 X171.631 Y173.622 F9600.000
G1 E1.20000 F1200.000
M204 S2000
G1 X170.938 Y174.414 E1.23471 F1710.000
G1 X170.164 Y175.129 E1.26942
G1 X169.319 Y175.757 E1.30413
G1 X168.412 Y176.291 E1.33884
G1 X167.453 Y176.726 E1.37355
G1 X166.453 Y177.057 E1.40826
G1 X165.424 Y177.280 E1.44297
G1 X164.377 Y177.392 E1.47768
G1 X163.324 Y177.392 E1.51239
G1 X162.277 Y177.280 E1.54710
G1 X161.248 Y177.057 E1.58180
G1 X160.436 Y176.788 E1.61001
G1 X160.248 Y176.726 E1.61651
G1 X159.289 Y176.291 E1.65122
G1 X158.382 Y175.757 E1.68593
G1 X157.537 Y175.129 E1.72064
G1 X156.763 Y174.414 E1.75535
G1 X156.070 Y173.622 E1.79006
G1 X155.465 Y172.760 E1.82477
G1 X154.954 Y171.839 E1.85948
G1 X154.545 Y170.869 E1.89419
G1 X154.241 Y169.861 E1.92890
G1 X154.083 Y169.020 E1.95710
G1 X154.046 Y168.826 E1.96361
G1 X153.962 Y167.777 E1.99832
G1 X153.990 Y166.724 E2.03303
G1 X154.130 Y165.681 E2.06774
G1 X154.380 Y164.658 E2.10245
G1 X154.737 Y163.667 E2.13716
G1 X155.111 Y162.898 E2.16536
G1 X155.197 Y162.720 E2.17187
G1 X155.756 Y161.828 E2.20658
G1 X156.406 Y160.999 E2.24129
G1 X157.141 Y160.245 E2.27600
G1 X157.951 Y159.573 E2.31070
G1 X158.829 Y158.991 E2.34541
G1 X159.763 Y158.505 E2.38012
G1 X160.744 Y158.122 E2.41483
G1 X161.760 Y157.845 E2.44954
G1 X162.799 Y157.677 E2.48425
G1 X163.851 Y157.621 E2.51896
G1 X164.705 Y157.667 E2.54716
M204 S1500
M204 S2000
G1 X164.902 Y157.677 E2.55367 F1710.000
G1 X165.942 Y157.845 E2.58838
G1 X166.957 Y158.122 E2.62309
G1 X167.938 Y158.505 E2.65780
G1 X168.872 Y158.991 E2.69251
G1 X169.750 Y159.573 E2.72722
G1 X170.560 Y160.245 E2.76193
G1 X171.157 Y160.858 E2.79013
G1 X171.295 Y160.999 E2.79664
G1 X171.945 Y161.828 E2.83135
G1 X172.504 Y162.720 E2.86606
G1 X172.964 Y163.667 E2.90077
G1 X173.321 Y164.658 E2.93548
G1 X173.571 Y165.681 E2.97019
G1 X173.685 Y166.529 E2.99839
G1 X173.711 Y166.724 E3.00490
G1 X173.739 Y167.777 E3.03961
G1 X173.655 Y168.826 E3.07432
G1 X173.460 Y169.861 E3.10902
G1 X173.156 Y170.869 E3.14373
G1 X172.747 Y171.839 E3.17844
G1 X172.236 Y172.760 E3.21315
G1 X171.674 Y173.561 E3.24539
M204 S1500
G1 X171.145 Y173.240 F9600.000
M204 S2000
G1 X170.495 Y173.983 E3.27793 F1080.000
G1 X169.769 Y174.652 E3.31047
G1 X168.977 Y175.241 E3.34301
G1 X168.126 Y175.742 E3.37555
G1 X167.228 Y176.150 E3.40808
G1 X166.290 Y176.460 E3.44062
G1 X165.326 Y176.669 E3.47316
G1 X164.344 Y176.774 E3.50570
G1 X163.357 Y176.774 E3.53824
G1 X162.375 Y176.669 E3.57078
G1 X161.411 Y176.460 E3.60332
G1 X160.630 Y176.202 E3.63043
G1 X160.474 Y176.150 E3.63585
G1 X159.575 Y175.742 E3.66839
G1 X158.724 Y175.241 E3.70093
G1 X157.932 Y174.652 E3.73347
G1 X157.207 Y173.983 E3.76601
G1 X156.557 Y173.240 E3.79855
G1 X155.989 Y172.432 E3.83109
G1 X155.511 Y171.569 E3.86363
G1 X155.127 Y170.659 E3.89616
G1 X154.842 Y169.714 E3.92870
G1 X154.659 Y168.744 E3.96124
G1 X154.580 Y167.760 E3.99378
G1 X154.607 Y166.774 E4.02632
G1 X154.738 Y165.795 E4.05886
G1 X154.972 Y164.836 E4.09140
G1 X155.307 Y163.908 E4.12393
G1 X155.738 Y163.020 E4.15647
G1 X156.262 Y162.183 E4.18901
G1 X156.872 Y161.407 E4.22155
G1 X157.446 Y160.817 E4.24867
G1 X157.560 Y160.700 E4.25409
G1 X158.320 Y160.070 E4.28663
G1 X159.143 Y159.524 E4.31917
G1 X160.019 Y159.069 E4.35171
G1 X160.938 Y158.709 E4.38424
G1 X161.890 Y158.450 E4.41678
G1 X162.865 Y158.293 E4.44932
G1 X163.686 Y158.249 E4.47644
M204 S1500
M204 S2000
G1 X163.851 Y158.240 E4.48186 F1080.000
G1 X164.836 Y158.293 E4.51440
G1 X165.811 Y158.450 E4.54694
G1 X166.763 Y158.709 E4.57948
G1 X167.682 Y159.069 E4.61202
G1 X168.558 Y159.524 E4.64455
G1 X169.381 Y160.070 E4.67709
G1 X170.141 Y160.700 E4.70963
G1 X170.715 Y161.289 E4.73675
G1 X170.829 Y161.407 E4.74217
G1 X171.439 Y162.183 E4.77471
G1 X171.963 Y163.020 E4.80725
G1 X172.394 Y163.908 E4.83979
G1 X172.729 Y164.836 E4.87232
G1 X172.963 Y165.795 E4.90486
G1 X173.073 Y166.611 E4.93198
G1 X173.094 Y166.774 E4.93740
G1 X173.121 Y167.760 E4.96994
G1 X173.042 Y168.744 E5.00248
G1 X172.859 Y169.714 E5.03502
G1 X172.574 Y170.659 E5.06756
G1 X172.190 Y171.569 E5.10010
G1 X171.712 Y172.432 E5.13263
G1 X171.188 Y173.179 E5.16270
M204 S1500
G1 F1200.000 E3.96270
G92 E0
G1 X163.652 Y158.088 F9600.000
G1 X154.669 Y182.571 F9600.000
G1 E1.20000 F1200.000
M204 S2000
G1 X154.669 Y190.456 E1.45994 F1710.000
G1 X156.908 Y190.456 E1.53373
G1 X156.908 Y191.571 E1.57047
G1 X152.793 Y191.571 E1.70609
G1 X152.793 Y143.456 E3.29213
G1 X156.908 Y143.456 E3.42775
G1 X156.908 Y144.571 E3.46449
G1 X154.669 Y144.571 E3.53828
G1 X154.669 Y152.456 E3.79822
G1 X156.908 Y152.456 E3.87202
G1 X156.908 Y153.365 E3.90198
G1 X156.956 Y153.963 E3.92174
G1 X157.109 Y154.581 E3.94275
G1 X157.360 Y155.167 E3.96376
G1 X157.702 Y155.706 E3.98479
G1 X158.126 Y156.182 E4.00580
G1 X158.621 Y156.583 E4.02681
G1 X159.175 Y156.900 E4.04783
G1 X159.772 Y157.123 E4.06886
G1 X160.398 Y157.247 E4.08987
G1 X161.035 Y157.269 E4.11088
G1 X163.043 Y156.989 E4.17771
G1 X164.433 Y156.974 E4.22353
G1 X165.813 Y157.142 E4.26935
G1 X167.158 Y157.490 E4.31518
G1 X168.447 Y158.012 E4.36100
G1 X169.656 Y158.698 E4.40682
G1 X170.764 Y159.537 E4.45264
G1 X171.752 Y160.515 E4.49847
G1 X172.603 Y161.614 E4.54429
G1 X173.303 Y162.815 E4.59011
G1 X173.838 Y164.098 E4.63593
G1 X174.200 Y165.440 E4.68176
G1 X174.383 Y166.818 E4.72758
G1 X174.383 Y168.208 E4.77340
G1 X174.200 Y169.586 E4.81922
G1 X173.838 Y170.929 E4.86505
G1 X173.303 Y172.211 E4.91087
G1 X172.603 Y173.413 E4.95669
G1 X171.752 Y174.512 E5.00251
G1 X170.764 Y175.489 E5.04833
G1 X169.656 Y176.329 E5.09416
G1 X168.447 Y177.015 E5.13998
G1 X167.158 Y177.537 E5.18580
G1 X165.813 Y177.885 E5.23162
G1 X164.433 Y178.053 E5.27745
G1 X163.043 Y178.038 E5.32327
G1 X161.035 Y177.758 E5.39010
G1 X160.397 Y177.780 E5.41112
G1 X159.772 Y177.904 E5.43213
G1 X159.175 Y178.127 E5.45315
G1 X158.621 Y178.444 E5.47416
G1 X158.126 Y178.845 E5.49518
G1 X157.702 Y179.321 E5.51619
G1 X157.360 Y179.859 E5.53721
G1 X157.109 Y180.446 E5.55823
G1 X156.956 Y181.064 E5.57924
G1 X156.908 Y181.662 E5.59900
G1 X156.908 Y182.571 E5.62896
G1 X154.744 Y182.571 E5.70029
M204 S1500
G1 X155.287 Y183.188 F9600.000
M204 S2000
G1 X155.287 Y189.838 E5.91949 F1080.000
G1 X157.526 Y189.838 E5.99329
G1 X157.526 Y192.188 E6.07075
G1 X152.176 Y192.188 E6.24711
G1 X152.176 Y142.838 E7.87387
G1 X157.526 Y142.838 E8.05023
G1 X157.526 Y145.188 E8.12769
G1 X155.287 Y145.188 E8.20149
G1 X155.287 Y151.838 E8.42070
G1 X157.526 Y151.838 E8.49449
G1 X157.526 Y153.340 E8.54400
G1 X157.568 Y153.863 E8.56128
G1 X157.697 Y154.384 E8.57899
G1 X157.908 Y154.878 E8.59671
G1 X158.197 Y155.332 E8.61442
G1 X158.554 Y155.733 E8.63214
G1 X158.972 Y156.072 E8.64985
G1 X159.438 Y156.338 E8.66757
G1 X159.942 Y156.527 E8.68528
G1 X160.469 Y156.631 E8.70300
G1 X161.006 Y156.650 E8.72071
G1 X162.995 Y156.372 E8.78693
G1 X164.467 Y156.356 E8.83544
G1 X165.928 Y156.534 E8.88395
G1 X167.353 Y156.902 E8.93246
G1 X168.717 Y157.454 E8.98097
G1 X169.996 Y158.181 E9.02948
G1 X171.169 Y159.070 E9.07799
G1 X172.216 Y160.105 E9.12650
G1 X173.117 Y161.268 E9.17501
G1 X173.857 Y162.540 E9.22352
G1 X174.424 Y163.898 E9.27203
G1 X174.807 Y165.319 E9.32054
G1 X175.001 Y166.778 E9.36906
G1 X175.001 Y168.249 E9.41757
G1 X174.807 Y169.708 E9.46607
G1 X174.424 Y171.129 E9.51459
G1 X173.857 Y172.487 E9.56310
G1 X173.117 Y173.759 E9.61161
G1 X172.216 Y174.922 E9.66012
G1 X171.169 Y175.957 E9.70863
G1 X169.996 Y176.846 E9.75714
G1 X168.717 Y177.573 E9.80565
G1 X167.353 Y178.125 E9.85416
G1 X165.928 Y178.493 E9.90267
G1 X164.467 Y178.671 E9.95118
G1 X162.995 Y178.655 E9.99969
G1 X161.006 Y178.377 E10.06591
G1 X160.469 Y178.396 E10.08363
G1 X159.977 Y178.493 E10.10016
G1 X159.438 Y178.688 E10.11904
G1 X158.972 Y178.955 E10.13675
G1 X158.582 Y179.271 E10.15329
G1 X158.197 Y179.695 E10.17217
G1 X157.908 Y180.148 E10.18988
G1 X157.697 Y180.642 E10.20760
G1 X157.568 Y181.164 E10.22531
G1 X157.526 Y181.687 E10.24259
G1 X157.526 Y183.188 E10.29210
G1 X155.362 Y183.188 E10.36342
M204 S1500
G1 X154.787 Y183.188 F9600.000
G1 F1200.000 E9.16342
G92 E0
G1 X158.258 Y178.188 F9600.000
G1 E1.20000 F1200.000
M204 S2000
G1 X153.221 Y173.152 E1.43478 F1800.000
G1 X153.221 Y172.254 E1.46437
G1 X158.810 Y177.843 E1.72491
G1 X159.437 Y177.572 E1.74743
G1 X157.497 Y175.632 E1.83789
M204 S1500
G1 F1200.000 E0.63789
G92 E0
G1 X155.689 Y173.824 F9600.000
G1 E1.20000 F1200.000
M204 S2000
G1 X153.221 Y171.356 E1.31503 F1800.000
G1 X154.408 Y171.646 E1.35531
G1 X153.221 Y170.459 E1.41066
G1 X153.912 Y170.252 E1.43443
G1 X153.221 Y169.561 E1.46663
G1 X153.663 Y169.106 E1.48755
G1 X153.619 Y169.061 E1.48962
M204 S1500
G1 F1200.000 E0.28962
G92 E0
G1 X153.221 Y174.049 F9600.000
G1 E1.20000 F1200.000
M204 S2000
G1 X157.772 Y178.600 E1.41214 F1800.000
G1 X157.351 Y179.076 E1.43310
G1 X153.221 Y174.947 E1.62561
G1 X153.221 Y175.844 E1.65520
G1 X157.002 Y179.625 E1.83145
G1 X156.728 Y180.249 E1.85390
G1 X153.221 Y176.742 E2.01739
G1 X153.221 Y177.639 E2.04697
G1 X156.541 Y180.959 E2.20175
G1 X156.480 Y181.795 E2.22938
G1 X153.221 Y178.537 E2.38129
G1 X153.221 Y179.434 E2.41088
G1 X155.930 Y182.143 E2.53713
G1 X155.032 Y182.143 E2.56672
G1 X153.221 Y180.332 E2.65113
G1 X153.221 Y181.230 E2.68072
G1 X154.241 Y182.250 E2.72827
G1 X154.241 Y183.147 E2.75785
G1 X153.221 Y182.127 E2.80540
G1 X153.221 Y183.025 E2.83499
G1 X154.241 Y184.045 E2.88254
G1 X154.241 Y184.942 E2.91212
G1 X153.221 Y183.922 E2.95967
G1 X153.221 Y184.820 E2.98926
G1 X154.241 Y185.840 E3.03681
G1 X154.241 Y186.737 E3.06639
G1 X153.221 Y185.717 E3.11394
G1 X153.221 Y186.615 E3.14353
G1 X154.241 Y187.635 E3.19108
G1 X154.241 Y188.532 E3.22066
G1 X153.221 Y187.512 E3.26821
G1 X153.221 Y188.410 E3.29780
G1 X154.241 Y189.430 E3.34534
G1 X154.241 Y190.328 E3.37493
G1 X153.221 Y189.308 E3.42248
G1 X153.221 Y190.205 E3.45207
G1 X153.932 Y190.916 E3.48521
G1 X153.261 Y191.143 E3.50856
G1 X153.221 Y191.103 E3.51043
M204 S1500
G1 F1200.000 E2.31043
G92 E0
G1 X160.154 Y177.392 F9600.000
G1 E1.20000 F1200.000
M204 S2000
G1 X159.718 Y176.956 E1.22034 F1800.000
M204 S1500
G1 F1200.000 E0.02034
G92 E0
G1 X153.411 Y168.641 F9600.000
G1 E1.20000 F1200.000
G1 X153.378 Y167.778 E1.22587 F720.000
G1 X153.395 Y166.474 E1.26490
G1 X153.221 Y166.004 F9600.000
M204 S2000
G1 X153.262 Y166.044 E1.26678 F1800.000
G1 X153.707 Y165.613 E1.28722
G1 X153.221 Y165.127 E1.30986
G1 X153.878 Y164.908 E1.33269
G1 X153.221 Y164.251 E1.36331
G1 X153.221 Y163.374 E1.39221
G1 X154.078 Y164.231 E1.43217
G1 X154.311 Y163.587 E1.45475
G1 X153.221 Y162.498 E1.50554
G1 X153.221 Y161.621 E1.53443
G1 X154.590 Y162.990 E1.59825
G1 X154.887 Y162.410 E1.61973
G1 X153.221 Y160.744 E1.69737
G1 X153.221 Y159.868 E1.72627
G1 X155.224 Y161.871 E1.81963
G1 X155.584 Y161.354 E1.84039
G1 X153.221 Y158.991 E1.95053
G1 X153.221 Y158.115 E1.97942
G1 X155.969 Y160.863 E2.10753
G1 X156.388 Y160.405 E2.12798
G1 X153.221 Y157.238 E2.27560
G1 X153.221 Y156.362 E2.30449
G1 X156.820 Y159.961 E2.47227
G1 X157.296 Y159.560 E2.49278
G1 X153.221 Y155.485 E2.68275
G1 X153.221 Y154.608 E2.71164
G1 X157.783 Y159.171 E2.92432
G1 X158.310 Y158.821 E2.94517
G1 X153.221 Y153.732 E3.18242
G1 X153.221 Y152.855 E3.21131
G1 X158.859 Y158.493 E3.47413
G1 X159.436 Y158.193 E3.49556
G1 X153.221 Y151.979 E3.78526
G1 X154.241 Y152.122 E3.81921
G1 X153.221 Y151.102 E3.86676
G1 X153.221 Y150.226 E3.89565
G1 X154.241 Y151.246 E3.94320
G1 X154.241 Y150.369 E3.97210
G1 X153.221 Y149.349 E4.01965
G1 X153.221 Y148.472 E4.04854
G1 X154.241 Y149.492 E4.09609
G1 X154.241 Y148.616 E4.12498
G1 X153.221 Y147.596 E4.17253
G1 X153.221 Y146.719 E4.20143
G1 X154.241 Y147.739 E4.24897
G1 X154.241 Y146.863 E4.27787
G1 X153.221 Y145.843 E4.32542
G1 X153.221 Y144.966 E4.35431
G1 X154.241 Y145.986 E4.40186
G1 X154.241 Y145.110 E4.43076
G1 X153.221 Y144.090 E4.47830
G1 X153.932 Y143.924 E4.50237
G1 X153.892 Y143.884 E4.50423
M204 S1500
G1 F1200.000 E3.30423
G92 E0
G1 X156.489 Y153.493 F9600.000
G1 E1.20000 F1200.000
M204 S2000
G1 X155.880 Y152.884 E1.22839 F1800.000
G1 X155.003 Y152.884 E1.25729
G1 X156.658 Y154.539 E1.33443
M204 S1500
G1 F1200.000 E0.13443
G92 E0
G1 X159.655 Y157.536 F9600.000
G1 E1.20000 F1200.000
M204 S2000
G1 X160.052 Y157.933 E1.21851 F1800.000
M204 S1500
G1 F1200.000 E0.01851
G92 E0
G1 X156.599 Y144.013 F9600.000
G1 E1.20000 F1200.000
G1 X154.360 Y144.013 E1.26701 F720.000
G1 F1200.000 E0.06701
G92 E0
G1 X154.360 Y191.013 F9600.000
G1 E1.20000 F1200.000
G1 X156.599 Y191.013 E1.26701 F720.000
G1 F1200.000 E0.06701
G92 E0
G1 X137.256 Y119.878 F9600.000
G1 E1.20000 F1200.000
M204 S2000
G1 X136.240 Y120.155 E1.23471 F1710.000
G1 X135.201 Y120.323 E1.26942
G1 X134.149 Y120.379 E1.30413
G1 X133.098 Y120.323 E1.33884
G1 X132.058 Y120.155 E1.37355
G1 X131.043 Y119.878 E1.40826
G1 X130.062 Y119.495 E1.44297
G1 X129.128 Y119.009 E1.47768
G1 X128.415 Y118.536 E1.50588
G1 X128.250 Y118.427 E1.51239
G1 X127.440 Y117.755 E1.54710
G1 X126.705 Y117.001 E1.58180
G1 X126.055 Y116.172 E1.61651
G1 X125.496 Y115.280 E1.65122
G1 X125.036 Y114.333 E1.68593
G1 X124.679 Y113.342 E1.72064
G1 X124.429 Y112.319 E1.75535
G1 X124.289 Y111.276 E1.79006
G1 X124.261 Y110.223 E1.82477
G1 X124.345 Y109.174 E1.85948
G1 X124.540 Y108.139 E1.89419
G1 X124.844 Y107.131 E1.92890
G1 X125.253 Y106.161 E1.96361
G1 X125.764 Y105.240 E1.99832
G1 X126.369 Y104.378 E2.03303
G1 X127.062 Y103.586 E2.06774
G1 X127.836 Y102.871 E2.10245
G1 X128.681 Y102.243 E2.13716
G1 X129.588 Y101.709 E2.17187
G1 X130.547 Y101.274 E2.20658
G1 X131.547 Y100.943 E2.24129
