; generated by Slic3r 1.1.7 on 2016-03-14 at 17:50:11

; perimeters extrusion width = 0.75mm
; infill extrusion width = 0.75mm
; solid infill extrusion width = 0.75mm
; top infill extrusion width = 0.75mm

G26                                    ; clear potential 'probe fail' condition
G21                                    ; set units to Millimetres
M107                                  ; disable fans
G90                                    ; absolute positioning
M82                                    ; set extruder to absolute mode
G92 E0                               ; set extruder position to 0
M140 S110                         ; get bed heating up
G28 XY                               ; home X and Y
G1 X-19 Y258 F1000          ; move to safe homing position
M109 S170                         ; soften filament for z homing
G28 Z                                 ; home Z
M104 S170                         ; wipe temp
G1 E-30 F100                     ; suck up XXmm of filament
G1 X-15 Y100 F3000          ; move above wiper pad
G1 Z1                                 ; push nozzle into wiper
G1 X-17 Y95 F1000            ; slow wipe
G1 X-17 Y90 F1000            ; slow wipe
G1 X-17 Y85 F1000            ; slow wipe
G1 X-15 Y90 F1000            ; slow wipe
G1 X-17 Y80 F1000            ; slow wipe
G1 X-15 Y95 F1000            ; slow wipe
G1 X-17 Y75 F2000            ; fast wipe
G1 X-15 Y65 F2000            ; fast wipe
G1 X-17 Y70 F2000            ; fast wipe
G1 X-15 Y60 F2000            ; fast wipe
G1 X-17 Y55 F2000            ; fast wipe
G1 X-15 Y50 F2000            ; fast wipe
G1 X-17 Y40 F2000            ; fast wipe
G1 X-15 Y45 F2000            ; fast wipe
G1 X-17 Y35 F2000            ; fast wipe
G1 X-15 Y40 F2000            ; fast wipe
G1 X-17 Y70 F2000            ; fast wipe
G1 X-15 Y30 Z2 F2000       ; fast wipe
G1 X-17 Y35 F2000            ; fast wipe
G1 X-15 Y25 F2000            ; fast wipe
G1 X-17 Y30 F2000            ; fast wipe
G1 X-15 Y25 Z1.5 F1000    ; slow wipe
G1 X-17 Y23 F1000            ; slow wipe
G1 Z10                               ; raise extruder
M109 S170                         ; heat to probe temp
G1 X-11 Y-8                        ; move above probe
M204 S100                         ; set accel for probing
G29                                    ; probe sequence (for auto-leveling)
M204 S500                         ; set accel back to normal
G1 X0 Y0 Z15 F5000          ; get out the way
M400                                  ; clear buffer
G4 S1                                 ; pause
M117 Heating...                 ; LCD status message
M140 S110                         ; get bed heating up
M109 S245                         ; set extruder temp and wait
M190 S110                         ; get bed temping up during first layer
G1 Z2 E0 F75                     ; extrude filament back into nozzle
M117 TAZ Printing...          ; LCD status message
G90 ; use absolute coordinates
G92 E0
M82 ; use absolute distances for extrusion
G1 F1200.000 E-1.20000
G92 E0
G1 Z0.350 F7800.000
G1 X86.485 Y63.006 F7800.000
G1 E1.20000 F1200.000
G1 X87.212 Y62.165 E1.24130 F2520.000
G1 X88.036 Y61.419 E1.28260
G1 X88.948 Y60.775 E1.32406
G1 X89.928 Y60.250 E1.36538
G1 X90.964 Y59.847 E1.40670
G1 X92.055 Y59.570 E1.44851
G1 X93.155 Y59.431 E1.48971
G1 X93.472 Y59.419 E1.50150
G1 X189.750 Y59.411 E5.07864
G1 X196.674 Y59.425 E5.33591
G1 X197.406 Y59.485 E5.36318 F2520.000
G1 X197.862 Y59.559 E5.38033
G1 X198.546 Y59.705 E5.40632
G1 X199.022 Y59.846 E5.42476
G1 X199.650 Y60.068 E5.44952
G1 X200.134 Y60.282 E5.46919
G1 X200.697 Y60.567 E5.49263
G1 X201.180 Y60.859 E5.51362
G1 X201.678 Y61.198 E5.53598
G1 X202.142 Y61.568 E5.55804
G1 X202.566 Y61.945 E5.57913
G1 X203.003 Y62.397 E5.60248
G1 X203.351 Y62.798 E5.62221
G1 X203.749 Y63.331 E5.64690
G1 X204.024 Y63.746 E5.66543
G1 X204.366 Y64.353 E5.69132
G1 X204.570 Y64.769 E5.70850
G1 X204.845 Y65.448 E5.73574
G1 X204.982 Y65.855 E5.75169
G1 X205.176 Y66.596 E5.78016
G1 X205.254 Y66.986 E5.79491
G1 X205.356 Y67.778 E5.82458
G1 X205.379 Y68.140 E5.83807
G1 X205.393 Y68.554 E5.85346
G1 X205.380 Y195.456 E10.56842
G1 X205.256 Y196.610 E10.61154
G1 X204.986 Y197.740 E10.65471
G1 X204.576 Y198.826 E10.69785
G1 X204.029 Y199.854 E10.74109
G1 X203.358 Y200.802 E10.78424
G1 X202.573 Y201.657 E10.82739
G1 X201.685 Y202.405 E10.87052
G1 X200.709 Y203.035 E10.91369
G1 X199.660 Y203.537 E10.95690
G1 X198.765 Y203.843 E10.99204
G1 X169.929 Y212.293 E12.10848
G1 X168.788 Y212.514 E12.15164
G1 X168.393 Y212.552 E12.16638
G1 X167.630 Y212.588 E12.19479
G1 X122.175 Y212.585 E13.88361
G1 X121.539 Y212.570 E13.90727
G1 X121.039 Y212.520 E13.92592
G1 X120.433 Y212.431 E13.94868
G1 X119.442 Y212.185 E13.98662
G1 X90.980 Y203.766 E15.08941
G1 X90.461 Y203.581 E15.10988
G1 X89.940 Y203.364 E15.13086
G1 X89.427 Y203.106 E15.15220
G1 X88.961 Y202.841 E15.17212
G1 X88.459 Y202.506 E15.19451
G1 X88.048 Y202.199 E15.21359
G1 X87.574 Y201.791 E15.23683
G1 X87.222 Y201.453 E15.25493
G1 X86.785 Y200.971 E15.27915
G1 X86.493 Y200.612 E15.29631
G1 X86.103 Y200.059 E15.32147
G1 X85.871 Y199.688 E15.33771
G1 X85.540 Y199.070 E15.36377
G1 X85.366 Y198.694 E15.37916
G1 X85.105 Y198.018 E15.40608
G1 X84.986 Y197.649 E15.42048
G1 X84.804 Y196.921 E15.44838
G1 X84.736 Y196.561 E15.46197
G1 X84.641 Y195.794 E15.49071
G1 X84.607 Y195.054 E15.51821
G1 X84.619 Y68.170 E20.23253
G1 X84.734 Y67.059 E20.27402
G1 X85.004 Y65.904 E20.31807
G1 X85.401 Y64.838 E20.36036
G1 X85.864 Y63.933 E20.39812
G1 X86.443 Y63.068 E20.43680
G1 X87.033 Y63.436 F7800.000
G1 X87.705 Y62.657 E20.47498 F2520.000
G1 X88.465 Y61.967 E20.51317
G1 X89.308 Y61.371 E20.55149
G1 X90.214 Y60.884 E20.58970
G1 X91.172 Y60.511 E20.62791
G1 X92.180 Y60.255 E20.66655
G1 X93.197 Y60.126 E20.70464
G1 X93.481 Y60.116 E20.71520
G1 X196.629 Y60.120 E24.54759
G1 X197.318 Y60.176 E24.57329 F2520.000
G1 X197.726 Y60.242 E24.58863
G1 X198.372 Y60.379 E24.61319
G1 X198.798 Y60.505 E24.62967
G1 X199.393 Y60.715 E24.65313
G1 X199.826 Y60.906 E24.67071
G1 X200.362 Y61.177 E24.69300
G1 X200.793 Y61.438 E24.71176
G1 X201.268 Y61.761 E24.73308
G1 X201.683 Y62.092 E24.75279
G1 X202.089 Y62.453 E24.77298
G1 X202.480 Y62.856 E24.79384
G1 X202.815 Y63.242 E24.81283
G1 X203.170 Y63.717 E24.83488
G1 X203.436 Y64.119 E24.85279
G1 X203.741 Y64.661 E24.87591
G1 X203.940 Y65.065 E24.89263
G1 X204.185 Y65.672 E24.91695
G1 X204.320 Y66.070 E24.93256
G1 X204.493 Y66.732 E24.95799
G1 X204.570 Y67.116 E24.97253
G1 X204.661 Y67.823 E24.99902
G1 X204.684 Y68.184 E25.01244
G1 X204.685 Y195.412 E29.73954
G1 X204.572 Y196.480 E29.77941
G1 X204.324 Y197.525 E29.81933
G1 X203.946 Y198.530 E29.85923
G1 X203.442 Y199.480 E29.89921
G1 X202.822 Y200.358 E29.93911
G1 X202.096 Y201.149 E29.97901
G1 X201.276 Y201.842 E30.01890
G1 X200.373 Y202.425 E30.05881
G1 X199.403 Y202.889 E30.09878
G1 X198.569 Y203.175 E30.13154
G1 X169.756 Y211.618 E31.24710
G1 X168.701 Y211.823 E31.28702
G1 X167.630 Y211.892 E31.32691
G1 X122.184 Y211.889 E33.01540
G1 X121.581 Y211.874 E33.03782
G1 X120.559 Y211.746 E33.07610
G1 X119.640 Y211.517 E33.11128
G1 X91.187 Y203.102 E34.21370
G1 X90.723 Y202.936 E34.23199
G1 X90.226 Y202.729 E34.25202
G1 X89.767 Y202.499 E34.27108
G1 X89.321 Y202.245 E34.29017
G1 X88.873 Y201.946 E34.31017
G1 X88.477 Y201.651 E34.32851
G1 X88.054 Y201.286 E34.34927
G1 X87.715 Y200.961 E34.36673
G1 X87.324 Y200.530 E34.38836
G1 X87.041 Y200.182 E34.40499
G1 X86.693 Y199.688 E34.42745
G1 X86.467 Y199.327 E34.44327
G1 X86.171 Y198.775 E34.46654
G1 X86.001 Y198.408 E34.48159
G1 X85.768 Y197.804 E34.50562
G1 X85.651 Y197.441 E34.51979
G1 X85.488 Y196.791 E34.54470
G1 X85.421 Y196.436 E34.55814
G1 X85.336 Y195.750 E34.58380
G1 X85.304 Y195.054 E34.60969
G1 X85.314 Y68.212 E39.32245
G1 X85.418 Y67.184 E39.36081
G1 X85.667 Y66.118 E39.40149
G1 X86.032 Y65.132 E39.44056
G1 X86.460 Y64.293 E39.47554
G1 X86.991 Y63.498 E39.51108
G1 F1200.000 E38.31108
G92 E0
G1 X165.481 Y204.446 F7800.000
G1 E1.20000 F1200.000
G1 X163.265 Y204.446 E1.28235 F2940.000
G1 X163.426 Y204.040 E1.29858
G1 X163.501 Y203.446 E1.32082
G1 X163.426 Y202.852 E1.34307
G1 X163.265 Y202.446 E1.35930
G1 X165.481 Y202.446 E1.44165
G1 X165.316 Y202.885 E1.45907
G1 X165.249 Y203.413 E1.47886
G1 X165.316 Y204.007 E1.50108
G1 X165.454 Y204.376 E1.51572
G1 F1200.000 E0.31572
G92 E0
G1 X158.981 Y204.446 F7800.000
G1 E1.20000 F1200.000
G1 X156.765 Y204.446 E1.28235 F2940.000
G1 X156.926 Y204.040 E1.29858
G1 X157.001 Y203.446 E1.32082
G1 X156.926 Y202.852 E1.34307
G1 X156.765 Y202.446 E1.35930
G1 X158.981 Y202.446 E1.44165
G1 X158.816 Y202.885 E1.45907
G1 X158.749 Y203.413 E1.47886
G1 X158.816 Y204.007 E1.50108
G1 X158.954 Y204.376 E1.51572
G1 F1200.000 E0.31572
G92 E0
G1 X152.481 Y204.446 F7800.000
G1 E1.20000 F1200.000
G1 X150.265 Y204.446 E1.28235 F2940.000
G1 X150.426 Y204.040 E1.29858
G1 X150.501 Y203.446 E1.32082
G1 X150.426 Y202.852 E1.34307
G1 X150.265 Y202.446 E1.35930
G1 X152.481 Y202.446 E1.44165
G1 X152.316 Y202.885 E1.45907
G1 X152.249 Y203.413 E1.47886
G1 X152.316 Y204.007 E1.50108
G1 X152.454 Y204.376 E1.51572
G1 F1200.000 E0.31572
G92 E0
G1 X145.981 Y204.446 F7800.000
G1 E1.20000 F1200.000
G1 X143.765 Y204.446 E1.28235 F2940.000
G1 X143.926 Y204.040 E1.29858
G1 X144.001 Y203.446 E1.32082
G1 X143.926 Y202.852 E1.34307
G1 X143.765 Y202.446 E1.35930
G1 X145.981 Y202.446 E1.44165
G1 X145.816 Y202.885 E1.45907
G1 X145.749 Y203.413 E1.47886
G1 X145.816 Y204.007 E1.50108
G1 X145.954 Y204.376 E1.51572
G1 F1200.000 E0.31572
G92 E0
G1 X139.481 Y204.446 F7800.000
G1 E1.20000 F1200.000
G1 X137.265 Y204.446 E1.28235 F2940.000
G1 X137.426 Y204.040 E1.29858
G1 X137.501 Y203.446 E1.32082
G1 X137.426 Y202.852 E1.34307
G1 X137.265 Y202.446 E1.35930
G1 X139.481 Y202.446 E1.44165
G1 X139.316 Y202.885 E1.45907
G1 X139.249 Y203.413 E1.47886
G1 X139.316 Y204.007 E1.50108
G1 X139.454 Y204.376 E1.51572
G1 F1200.000 E0.31572
G92 E0
G1 X132.981 Y204.446 F7800.000
G1 E1.20000 F1200.000
G1 X130.765 Y204.446 E1.28235 F2940.000
G1 X130.926 Y204.040 E1.29858
G1 X131.001 Y203.446 E1.32082
G1 X130.926 Y202.852 E1.34307
G1 X130.765 Y202.446 E1.35930
G1 X132.981 Y202.446 E1.44165
G1 X132.816 Y202.885 E1.45907
G1 X132.749 Y203.413 E1.47886
G1 X132.816 Y204.007 E1.50108
G1 X132.954 Y204.376 E1.51572
G1 F1200.000 E0.31572
G92 E0
G1 X126.481 Y204.446 F7800.000
G1 E1.20000 F1200.000
G1 X124.265 Y204.446 E1.28235 F2940.000
G1 X124.426 Y204.040 E1.29858
G1 X124.501 Y203.446 E1.32082
G1 X124.426 Y202.852 E1.34307
G1 X124.265 Y202.446 E1.35930
G1 X126.481 Y202.446 E1.44165
G1 X126.316 Y202.885 E1.45907
G1 X126.249 Y203.413 E1.47886
G1 X126.316 Y204.007 E1.50108
G1 X126.454 Y204.376 E1.51572
G1 F1200.000 E0.31572
G92 E0
G1 X131.004 Y204.821 F7800.000
G1 E1.20000 F1200.000
G1 X130.657 Y205.007 E1.21464 F2940.000
G1 X130.209 Y205.200 E1.23276
G1 X129.816 Y205.498 E1.25110
G1 X129.529 Y205.632 E1.26286
G1 X129.238 Y205.739 E1.27438
G1 X128.623 Y205.820 E1.29742
G1 X128.008 Y205.739 E1.32046
G1 X127.717 Y205.632 E1.33198
G1 X127.398 Y205.478 E1.34515
G1 X127.036 Y205.200 E1.36211
G1 X126.589 Y205.007 E1.38021
G1 X126.242 Y204.821 E1.39484
G1 F1200.000 E0.19484
G92 E0
G1 X137.504 Y204.821 F7800.000
G1 E1.20000 F1200.000
G1 X137.157 Y205.007 E1.21464 F2940.000
G1 X136.709 Y205.200 E1.23276
G1 X136.316 Y205.498 E1.25110
G1 X136.029 Y205.632 E1.26286
G1 X135.738 Y205.739 E1.27438
G1 X135.123 Y205.820 E1.29742
G1 X134.508 Y205.739 E1.32046
G1 X134.217 Y205.632 E1.33198
G1 X133.898 Y205.478 E1.34515
G1 X133.536 Y205.200 E1.36211
G1 X133.089 Y205.007 E1.38021
G1 X132.742 Y204.821 E1.39484
G1 F1200.000 E0.19484
G92 E0
G1 X144.004 Y204.821 F7800.000
G1 E1.20000 F1200.000
G1 X143.657 Y205.007 E1.21464 F2940.000
G1 X143.209 Y205.200 E1.23276
G1 X142.816 Y205.498 E1.25109
G1 X142.529 Y205.632 E1.26286
G1 X142.238 Y205.739 E1.27438
G1 X141.623 Y205.820 E1.29742
G1 X141.008 Y205.739 E1.32046
G1 X140.717 Y205.632 E1.33198
G1 X140.398 Y205.478 E1.34515
G1 X140.036 Y205.200 E1.36211
G1 X139.589 Y205.007 E1.38021
G1 X139.242 Y204.821 E1.39484
G1 F1200.000 E0.19484
G92 E0
G1 X150.504 Y204.821 F7800.000
G1 E1.20000 F1200.000
G1 X150.157 Y205.007 E1.21464 F2940.000
G1 X149.709 Y205.200 E1.23276
G1 X149.316 Y205.498 E1.25110
G1 X149.029 Y205.632 E1.26286
G1 X148.738 Y205.739 E1.27438
G1 X148.123 Y205.820 E1.29742
G1 X147.508 Y205.739 E1.32046
G1 X147.217 Y205.632 E1.33198
G1 X146.898 Y205.478 E1.34514
G1 X146.536 Y205.200 E1.36211
G1 X146.089 Y205.007 E1.38021
G1 X145.742 Y204.821 E1.39484
G1 F1200.000 E0.19484
G92 E0
G1 X157.004 Y204.821 F7800.000
G1 E1.20000 F1200.000
G1 X156.657 Y205.007 E1.21464 F2940.000
G1 X156.209 Y205.200 E1.23276
G1 X155.816 Y205.498 E1.25110
G1 X155.529 Y205.632 E1.26286
G1 X155.238 Y205.739 E1.27438
G1 X154.623 Y205.820 E1.29742
G1 X154.008 Y205.739 E1.32046
G1 X153.717 Y205.632 E1.33198
G1 X153.398 Y205.478 E1.34515
G1 X153.036 Y205.200 E1.36211
G1 X152.589 Y205.007 E1.38021
G1 X152.242 Y204.821 E1.39484
G1 F1200.000 E0.19484
G92 E0
G1 X163.504 Y204.821 F7800.000
G1 E1.20000 F1200.000
G1 X163.157 Y205.007 E1.21464 F2940.000
G1 X162.709 Y205.200 E1.23276
G1 X162.316 Y205.498 E1.25110
G1 X162.029 Y205.632 E1.26286
G1 X161.738 Y205.739 E1.27438
G1 X161.123 Y205.820 E1.29742
G1 X160.508 Y205.739 E1.32046
G1 X160.217 Y205.632 E1.33198
G1 X159.898 Y205.478 E1.34515
G1 X159.536 Y205.200 E1.36211
G1 X159.089 Y205.007 E1.38021
G1 X158.742 Y204.821 E1.39484
G1 F1200.000 E0.19484
G92 E0
G1 X167.623 Y200.696 F7800.000
G1 E1.20000 F1200.000
G1 X167.623 Y201.072 E1.21397 F2940.000
G1 X167.932 Y201.100 E1.22549
G1 X168.238 Y201.153 E1.23701
G1 X168.810 Y201.390 E1.26004
G1 X169.302 Y201.767 E1.28307
G1 X169.679 Y202.258 E1.30610
G1 X169.917 Y202.831 E1.32913
G1 X169.998 Y203.446 E1.35217
G1 X169.917 Y204.061 E1.37521
G1 X169.679 Y204.633 E1.39824
G1 X169.302 Y205.125 E1.42127
G1 X168.810 Y205.502 E1.44429
G1 X168.238 Y205.739 E1.46732
G1 X167.932 Y205.792 E1.47884
G1 X167.623 Y205.820 E1.49036
G1 X167.314 Y205.792 E1.50189
G1 X167.009 Y205.739 E1.51341
G1 X166.718 Y205.632 E1.52493
G1 X166.388 Y205.472 E1.53853
G1 X166.036 Y205.200 E1.55509
G1 X165.589 Y205.007 E1.57316
G1 X165.242 Y204.821 E1.58780
G1 F1200.000 E0.38780
G92 E0
G1 X165.242 Y202.071 F7800.000
G1 E1.20000 F1200.000
G1 X165.589 Y201.885 E1.21464 F2940.000
G1 X166.036 Y201.692 E1.23271
G1 X166.437 Y201.391 E1.25135
G1 X166.718 Y201.259 E1.26287
G1 X167.009 Y201.153 E1.27439
G1 X167.569 Y201.074 E1.29542
G1 X168.939 Y201.035 E1.34634
G1 F1200.000 E0.14634
G92 E0
G1 X124.488 Y204.845 F7800.000
G1 E1.20000 F1200.000
G1 X123.710 Y205.200 E1.23178 F2940.000
G1 X123.361 Y205.472 E1.24821
G1 X122.823 Y205.714 E1.27014
G1 X122.534 Y205.776 E1.28112
G1 X122.219 Y205.817 E1.29291
G1 X121.654 Y205.769 E1.31400
G1 X121.369 Y205.691 E1.32497
G1 X121.011 Y205.540 E1.33942
G1 X120.838 Y205.436 E1.34691
G1 X120.455 Y205.132 E1.36507
G1 X120.201 Y204.828 E1.37979
G1 X120.065 Y204.626 E1.38884
G1 X119.920 Y204.311 E1.40174
G1 X119.823 Y204.032 E1.41271
G1 X119.775 Y203.740 E1.42369
G1 X119.752 Y203.387 E1.43683
G1 X119.823 Y202.860 E1.45660
G1 X119.920 Y202.581 E1.46757
G1 X120.074 Y202.250 E1.48115
G1 X120.385 Y201.833 E1.50046
G1 X120.601 Y201.632 E1.51143
G1 X120.838 Y201.456 E1.52240
G1 X121.011 Y201.352 E1.52988
G1 X121.369 Y201.201 E1.54433
G1 X121.596 Y201.133 E1.55315
G1 X121.946 Y201.085 E1.56627
G1 X122.219 Y201.075 E1.57642
G1 X123.666 Y201.175 E1.63029
G1 X124.488 Y202.046 F7800.000
G1 X123.710 Y201.692 E1.66207 F2940.000
G1 X123.361 Y201.420 E1.67850
G1 X123.096 Y201.289 E1.68947
G1 X122.754 Y201.159 E1.70308
G1 X122.241 Y201.077 E1.72237
G1 X122.260 Y200.699 E1.73640
G1 F1200.000 E0.53640
G92 E0
G1 X163.504 Y202.071 F7800.000
G1 E1.20000 F1200.000
G1 X163.157 Y201.885 E1.21464 F2940.000
G1 X162.709 Y201.692 E1.23276
G1 X162.316 Y201.394 E1.25109
G1 X162.029 Y201.260 E1.26286
G1 X161.738 Y201.153 E1.27438
G1 X161.123 Y201.071 E1.29742
G1 X161.123 Y200.696 E1.31137
G1 F1200.000 E0.11137
G92 E0
G1 X158.742 Y202.071 F7800.000
G1 E1.20000 F1200.000
G1 X159.089 Y201.885 E1.21464 F2940.000
G1 X159.536 Y201.692 E1.23273
