; generated by Slic3r 1.1.4 on 2014-07-17 at 18:18:32

; perimeters extrusion width = 0.39mm
; infill extrusion width = 0.60mm
; solid infill extrusion width = 0.60mm
; top infill extrusion width = 0.40mm

G21 ; set units to millimeters
M107
G28 ; home all axes
G90 ; use absolute coordinates
G92 E0
M82 ; use absolute distances for extrusion
M204 S2000
G1 F2280.000 E-1.70000
G92 E0
G1 Z0.350 F9000.000
G1 X23.682 Y206.227 F9000.000
G1 E1.70000 F2280.000
G1 X25.349 Y204.810 E1.76754 F2520.000
G1 X27.228 Y203.689 E1.83508
G1 X29.267 Y202.896 E1.90262
G1 X30.207 Y202.655 E1.93259
G1 X31.409 Y202.451 E1.97022
G1 X33.000 Y202.343 E2.01944
G1 X73.596 Y202.368 E3.27257
G1 X74.564 Y202.449 E3.30255
G1 X75.766 Y202.648 E3.34017
G1 X77.859 Y203.285 E3.40771
G1 X78.746 Y203.678 E3.43766
G1 X79.818 Y204.260 E3.47530
G1 X80.628 Y204.795 E3.50528
G1 X81.588 Y205.547 E3.54290
G1 X82.298 Y206.209 E3.57287
G1 X83.119 Y207.109 E3.61050
G1 X83.710 Y207.879 E3.64046
G1 X84.371 Y208.904 E3.67810
G1 X85.308 Y210.881 E3.74564
G1 X85.614 Y211.802 E3.77558
G1 X85.903 Y212.987 E3.81324
G1 X86.142 Y215.074 E3.87809
G1 X86.057 Y246.026 E4.83354
G1 X85.908 Y246.985 E4.86348
G1 X85.623 Y248.171 E4.90114
G1 X85.317 Y249.091 E4.93108
G1 X84.839 Y250.214 E4.96873
G1 X83.727 Y252.098 E5.03628
G1 X83.137 Y252.868 E5.06622
G1 X82.318 Y253.772 E5.10387
G1 X81.609 Y254.433 E5.13381
G1 X80.651 Y255.190 E5.17147
G1 X79.842 Y255.724 E5.20141
G1 X78.772 Y256.311 E5.23907
G1 X77.885 Y256.703 E5.26903
G1 X76.733 Y257.104 E5.30667
G1 X74.591 Y257.549 E5.37421
G1 X73.000 Y257.657 E5.42343
G1 X32.404 Y257.632 E6.67656
G1 X31.438 Y257.552 E6.70649
G1 X30.234 Y257.352 E6.74415
G1 X29.294 Y257.112 E6.77410
G1 X28.141 Y256.715 E6.81175
G1 X26.182 Y255.740 E6.87929
G1 X24.412 Y254.453 E6.94683
G1 X22.880 Y252.891 E7.01438
G1 X21.629 Y251.096 E7.08192
G1 X21.174 Y250.239 E7.11186
G1 X20.692 Y249.119 E7.14952
G1 X20.386 Y248.197 E7.17949
G1 X20.097 Y247.013 E7.21711
G1 X19.858 Y244.926 E7.28196
G1 X19.943 Y213.974 E8.23742
G1 X20.092 Y213.015 E8.26736
G1 X20.377 Y211.829 E8.30502
G1 X21.161 Y209.786 E8.37256
G1 X21.616 Y208.929 E8.40250
G1 X22.273 Y207.902 E8.44015
G1 X23.633 Y206.285 E8.50538
G1 X24.076 Y206.651 F9000.000
G1 X25.667 Y205.293 E8.56995 F2520.000
G1 X27.462 Y204.218 E8.63453
G1 X29.410 Y203.456 E8.69910
G1 X30.350 Y203.216 E8.72906
G1 X31.457 Y203.027 E8.76372
G1 X33.000 Y202.921 E8.81146
G1 X73.547 Y202.944 E10.06310
G1 X74.515 Y203.025 E10.09308
G1 X75.623 Y203.209 E10.12772
G1 X77.625 Y203.814 E10.19229
G1 X78.512 Y204.207 E10.22224
G1 X79.499 Y204.743 E10.25692
G1 X80.309 Y205.278 E10.28688
G1 X81.193 Y205.970 E10.32154
G1 X81.904 Y206.632 E10.35151
G1 X82.660 Y207.461 E10.38617
G1 X83.251 Y208.231 E10.41612
G1 X83.860 Y209.175 E10.45079
G1 X84.759 Y211.064 E10.51536
G1 X85.065 Y211.984 E10.54530
G1 X85.332 Y213.076 E10.57999
G1 X85.563 Y215.074 E10.64209
G1 X85.485 Y245.937 E11.59479
G1 X85.336 Y246.896 E11.62474
G1 X85.074 Y247.988 E11.65942
G1 X84.768 Y248.909 E11.68936
G1 X84.328 Y249.943 E11.72404
G1 X83.268 Y251.746 E11.78862
G1 X82.678 Y252.516 E11.81855
G1 X81.924 Y253.349 E11.85324
G1 X81.214 Y254.010 E11.88318
G1 X80.333 Y254.707 E11.91787
G1 X79.523 Y255.241 E11.94780
G1 X78.538 Y255.782 E11.98249
G1 X77.651 Y256.174 E12.01245
G1 X76.590 Y256.544 E12.04711
G1 X74.543 Y256.973 E12.11169
G1 X73.000 Y257.079 E12.15942
G1 X32.453 Y257.056 E13.41106
G1 X31.486 Y256.975 E13.44100
G1 X30.378 Y256.791 E13.47569
G1 X29.438 Y256.551 E13.50563
G1 X28.375 Y256.186 E13.54031
G1 X26.501 Y255.257 E13.60488
G1 X24.807 Y254.030 E13.66945
G1 X23.340 Y252.539 E13.73403
G1 X22.140 Y250.825 E13.79860
G1 X21.686 Y249.968 E13.82854
G1 X21.241 Y248.936 E13.86322
G1 X20.935 Y248.015 E13.89319
G1 X20.668 Y246.924 E13.92785
G1 X20.437 Y244.926 E13.98995
G1 X20.515 Y214.063 E14.94265
G1 X20.664 Y213.104 E14.97260
G1 X20.926 Y212.012 E15.00728
G1 X21.672 Y210.057 E15.07185
G1 X22.127 Y209.200 E15.10180
G1 X22.732 Y208.254 E15.13647
G1 X24.028 Y206.708 E15.19873
G1 F2280.000 E13.49873
G92 E0
G1 X35.208 Y246.353 F9000.000
G1 E1.70000 F2280.000
G1 X34.852 Y246.708 E1.71550 F3990.000
G1 X34.441 Y246.996 E1.73101
G1 X33.986 Y247.208 E1.74652
G1 X33.501 Y247.338 E1.76202
G1 X33.000 Y247.382 E1.77753
G1 X32.500 Y247.338 E1.79304
G1 X32.014 Y247.208 E1.80854
G1 X31.559 Y246.996 E1.82405
G1 X31.148 Y246.708 E1.83955
G1 X30.792 Y246.352 E1.85506
G1 X30.737 Y246.273 E1.85806
G1 X30.504 Y245.941 E1.87057
G1 X30.292 Y245.486 E1.88608
G1 X30.162 Y245.001 E1.90158
G1 X30.118 Y244.500 E1.91709
G1 X30.162 Y244.000 E1.93260
G1 X30.292 Y243.514 E1.94810
G1 X30.504 Y243.059 E1.96361
G1 X30.792 Y242.647 E1.97912
G1 X31.148 Y242.292 E1.99462
G1 X31.559 Y242.004 E2.01013
G1 X32.014 Y241.792 E2.02564
G1 X32.499 Y241.662 E2.04114
G1 X33.000 Y241.618 E2.05665
G1 X33.500 Y241.662 E2.07216
G1 X33.986 Y241.792 E2.08766
G1 X34.441 Y242.004 E2.10317
G1 X34.852 Y242.292 E2.11867
G1 X35.208 Y242.648 E2.13418
G1 X35.263 Y242.727 E2.13719
G1 X35.496 Y243.059 E2.14969
G1 X35.708 Y243.514 E2.16520
G1 X35.838 Y243.999 E2.18070
G1 X35.882 Y244.500 E2.19621
G1 X35.838 Y245.000 E2.21172
G1 X35.708 Y245.486 E2.22722
G1 X35.496 Y245.941 E2.24273
G1 X35.251 Y246.291 E2.25593
G1 X34.763 Y245.979 F9000.000
G1 X34.479 Y246.263 E2.26831 F2940.000
G1 X34.151 Y246.493 E2.28069
G1 X33.787 Y246.662 E2.29307
G1 X33.400 Y246.766 E2.30545
G1 X33.000 Y246.801 E2.31784
G1 X32.600 Y246.766 E2.33022
G1 X32.213 Y246.662 E2.34260
G1 X31.849 Y246.493 E2.35498
G1 X31.521 Y246.263 E2.36736
G1 X31.237 Y245.979 E2.37974
G1 X31.007 Y245.651 E2.39213
G1 X30.838 Y245.287 E2.40451
G1 X30.734 Y244.900 E2.41689
G1 X30.699 Y244.500 E2.42927
G1 X30.734 Y244.100 E2.44165
G1 X30.838 Y243.713 E2.45404
G1 X31.007 Y243.349 E2.46642
G1 X31.237 Y243.021 E2.47880
G1 X31.521 Y242.737 E2.49118
G1 X31.849 Y242.507 E2.50356
G1 X32.213 Y242.338 E2.51595
G1 X32.600 Y242.234 E2.52833
G1 X33.000 Y242.199 E2.54071
G1 X33.400 Y242.234 E2.55309
G1 X33.787 Y242.338 E2.56547
G1 X34.151 Y242.507 E2.57785
G1 X34.479 Y242.737 E2.59023
G1 X34.790 Y243.059 E2.60404
G1 X34.993 Y243.349 E2.61498
G1 X35.162 Y243.713 E2.62736
G1 X35.266 Y244.100 E2.63974
G1 X35.301 Y244.500 E2.65213
G1 X35.266 Y244.900 E2.66451
G1 X35.162 Y245.287 E2.67689
G1 X34.993 Y245.651 E2.68927
G1 X34.806 Y245.918 E2.69934
G1 X34.889 Y246.360 F9000.000
G1 F2280.000 E0.99934
G92 E0
G1 X33.000 Y218.382 F9000.000
G1 E1.70000 F2280.000
G1 X32.500 Y218.338 E1.71550 F3990.000
G1 X32.406 Y218.313 E1.71850
G1 X32.014 Y218.208 E1.73101
G1 X31.559 Y217.996 E1.74652
G1 X31.148 Y217.708 E1.76202
G1 X30.792 Y217.352 E1.77753
G1 X30.504 Y216.941 E1.79304
G1 X30.292 Y216.486 E1.80854
G1 X30.162 Y216.001 E1.82405
G1 X30.118 Y215.500 E1.83956
G1 X30.162 Y215.000 E1.85506
G1 X30.292 Y214.514 E1.87057
G1 X30.504 Y214.059 E1.88608
G1 X30.792 Y213.648 E1.90158
G1 X31.148 Y213.292 E1.91709
G1 X31.559 Y213.004 E1.93260
G1 X32.014 Y212.792 E1.94811
G1 X32.499 Y212.662 E1.96361
G1 X33.000 Y212.618 E1.97912
G1 X33.500 Y212.662 E1.99462
G1 X33.986 Y212.792 E2.01013
G1 X34.441 Y213.004 E2.02564
G1 X34.852 Y213.292 E2.04114
G1 X34.921 Y213.361 E2.04415
G1 X35.208 Y213.648 E2.05665
G1 X35.496 Y214.059 E2.07216
G1 X35.708 Y214.514 E2.08767
G1 X35.838 Y214.999 E2.10317
G1 X35.882 Y215.500 E2.11868
G1 X35.838 Y216.000 E2.13419
G1 X35.708 Y216.486 E2.14969
G1 X35.496 Y216.941 E2.16520
G1 X35.208 Y217.353 E2.18071
G1 X34.852 Y217.708 E2.19621
G1 X34.441 Y217.996 E2.21172
G1 X33.986 Y218.208 E2.22723
G1 X33.501 Y218.338 E2.24273
G1 X33.075 Y218.375 E2.25593
G1 X33.000 Y217.801 F9000.000
G1 X32.555 Y217.754 E2.26973 F2940.000
G1 X32.213 Y217.662 E2.28067
G1 X31.849 Y217.493 E2.29305
G1 X31.521 Y217.263 E2.30543
G1 X31.237 Y216.979 E2.31782
G1 X31.007 Y216.651 E2.33020
G1 X30.838 Y216.287 E2.34258
G1 X30.734 Y215.900 E2.35496
G1 X30.699 Y215.500 E2.36734
G1 X30.734 Y215.100 E2.37972
G1 X30.838 Y214.713 E2.39211
G1 X31.007 Y214.349 E2.40449
G1 X31.237 Y214.021 E2.41687
G1 X31.521 Y213.737 E2.42925
G1 X31.849 Y213.507 E2.44163
G1 X32.213 Y213.338 E2.45402
G1 X32.600 Y213.234 E2.46640
G1 X33.000 Y213.199 E2.47878
G1 X33.400 Y213.234 E2.49116
G1 X33.787 Y213.338 E2.50354
G1 X34.151 Y213.507 E2.51593
G1 X34.512 Y213.770 E2.52973
G1 X34.763 Y214.021 E2.54067
G1 X34.993 Y214.349 E2.55305
G1 X35.162 Y214.713 E2.56543
G1 X35.266 Y215.100 E2.57781
G1 X35.301 Y215.500 E2.59020
G1 X35.266 Y215.900 E2.60258
G1 X35.162 Y216.287 E2.61496
G1 X34.993 Y216.651 E2.62734
G1 X34.763 Y216.979 E2.63973
G1 X34.479 Y217.263 E2.65211
G1 X34.151 Y217.493 E2.66449
G1 X33.787 Y217.662 E2.67687
G1 X33.400 Y217.766 E2.68925
G1 X33.075 Y217.795 E2.69932
G1 X32.761 Y218.179 F9000.000
G1 F2280.000 E0.99932
G92 E0
G1 X70.118 Y215.500 F9000.000
G1 E1.70000 F2280.000
G1 X70.162 Y215.000 E1.71551 F3990.000
G1 X70.292 Y214.514 E1.73102
G1 X70.333 Y214.426 E1.73401
G1 X70.504 Y214.059 E1.74652
G1 X70.792 Y213.648 E1.76203
G1 X71.148 Y213.292 E1.77754
G1 X71.559 Y213.004 E1.79305
G1 X72.014 Y212.792 E1.80855
G1 X72.499 Y212.662 E1.82405
G1 X73.000 Y212.618 E1.83957
G1 X73.500 Y212.662 E1.85507
G1 X73.986 Y212.792 E1.87057
G1 X74.441 Y213.004 E1.88608
G1 X74.853 Y213.292 E1.90159
G1 X75.208 Y213.648 E1.91710
G1 X75.496 Y214.059 E1.93261
G1 X75.708 Y214.514 E1.94811
G1 X75.838 Y214.999 E1.96361
G1 X75.847 Y215.096 E1.96661
G1 X75.882 Y215.500 E1.97913
G1 X75.838 Y216.000 E1.99463
G1 X75.708 Y216.486 E2.01013
G1 X75.496 Y216.941 E2.02564
G1 X75.208 Y217.352 E2.04115
G1 X74.852 Y217.708 E2.05666
G1 X74.441 Y217.996 E2.07217
G1 X73.986 Y218.208 E2.08767
G1 X73.501 Y218.338 E2.10317
G1 X73.000 Y218.382 E2.11869
G1 X72.500 Y218.338 E2.13419
G1 X72.014 Y218.208 E2.14970
G1 X71.559 Y217.996 E2.16520
G1 X71.148 Y217.708 E2.18071
G1 X70.792 Y217.352 E2.19622
G1 X70.504 Y216.941 E2.21173
G1 X70.292 Y216.486 E2.22723
G1 X70.162 Y216.000 E2.24274
G1 X70.125 Y215.575 E2.25593
G1 X70.699 Y215.500 F9000.000
G1 X70.734 Y215.100 E2.26831 F2940.000
G1 X70.838 Y214.713 E2.28069
G1 X71.007 Y214.349 E2.29307
G1 X71.237 Y214.021 E2.30545
G1 X71.521 Y213.737 E2.31784
G1 X71.849 Y213.507 E2.33022
G1 X72.213 Y213.338 E2.34260
G1 X72.600 Y213.234 E2.35498
G1 X73.000 Y213.199 E2.36737
G1 X73.400 Y213.234 E2.37975
G1 X73.787 Y213.338 E2.39213
G1 X74.151 Y213.507 E2.40451
G1 X74.479 Y213.737 E2.41689
G1 X74.763 Y214.021 E2.42927
G1 X74.993 Y214.349 E2.44166
G1 X75.162 Y214.713 E2.45404
G1 X75.270 Y215.147 E2.46784
G1 X75.301 Y215.500 E2.47878
G1 X75.266 Y215.900 E2.49116
G1 X75.162 Y216.287 E2.50354
G1 X74.993 Y216.651 E2.51593
G1 X74.763 Y216.979 E2.52831
G1 X74.479 Y217.263 E2.54069
G1 X74.151 Y217.493 E2.55307
G1 X73.787 Y217.662 E2.56545
G1 X73.400 Y217.766 E2.57783
G1 X73.000 Y217.801 E2.59022
G1 X72.600 Y217.766 E2.60260
G1 X72.213 Y217.662 E2.61498
G1 X71.849 Y217.493 E2.62736
G1 X71.521 Y217.263 E2.63975
G1 X71.237 Y216.979 E2.65213
G1 X71.007 Y216.651 E2.66451
G1 X70.838 Y216.287 E2.67689
G1 X70.734 Y215.900 E2.68927
G1 X70.705 Y215.575 E2.69934
G1 X70.357 Y215.289 F9000.000
G1 F2280.000 E0.99934
G92 E0
G1 X73.000 Y241.618 F9000.000
G1 E1.70000 F2280.000
G1 X73.500 Y241.662 E1.71550 F3990.000
G1 X73.986 Y241.792 E1.73101
G1 X74.441 Y242.004 E1.74652
G1 X74.852 Y242.292 E1.76202
G1 X75.208 Y242.648 E1.77753
G1 X75.496 Y243.059 E1.79304
G1 X75.708 Y243.514 E1.80854
G1 X75.838 Y243.999 E1.82405
G1 X75.882 Y244.500 E1.83956
G1 X75.838 Y245.000 E1.85506
G1 X75.708 Y245.486 E1.87057
G1 X75.496 Y245.941 E1.88608
G1 X75.208 Y246.352 E1.90158
G1 X74.852 Y246.708 E1.91709
G1 X74.441 Y246.996 E1.93260
G1 X73.986 Y247.208 E1.94810
G1 X73.501 Y247.338 E1.96361
G1 X73.404 Y247.347 E1.96661
G1 X73.000 Y247.382 E1.97912
G1 X72.500 Y247.338 E1.99462
G1 X72.014 Y247.208 E2.01013
G1 X71.559 Y246.996 E2.02564
G1 X71.148 Y246.708 E2.04114
G1 X70.792 Y246.352 E2.05665
G1 X70.504 Y245.941 E2.07216
G1 X70.292 Y245.486 E2.08766
G1 X70.162 Y245.000 E2.10317
G1 X70.118 Y244.500 E2.11868
G1 X70.162 Y244.000 E2.13419
G1 X70.292 Y243.514 E2.14969
G1 X70.504 Y243.059 E2.16520
G1 X70.792 Y242.648 E2.18070
G1 X71.148 Y242.292 E2.19621
G1 X71.559 Y242.004 E2.21172
G1 X72.014 Y241.792 E2.22723
G1 X72.499 Y241.662 E2.24273
G1 X72.925 Y241.625 E2.25593
G1 X73.000 Y242.199 F9000.000
G1 X73.400 Y242.234 E2.26831 F2940.000
G1 X73.787 Y242.338 E2.28069
G1 X74.151 Y242.507 E2.29307
G1 X74.479 Y242.737 E2.30545
G1 X74.763 Y243.021 E2.31783
G1 X74.993 Y243.349 E2.33022
G1 X75.162 Y243.713 E2.34260
G1 X75.266 Y244.100 E2.35498
G1 X75.301 Y244.500 E2.36736
G1 X75.266 Y244.900 E2.37974
G1 X75.162 Y245.287 E2.39213
G1 X74.993 Y245.651 E2.40451
G1 X74.763 Y245.979 E2.41689
G1 X74.479 Y246.263 E2.42927
G1 X74.151 Y246.493 E2.44165
G1 X73.787 Y246.662 E2.45404
G1 X73.353 Y246.770 E2.46783
G1 X73.000 Y246.801 E2.47878
G1 X72.600 Y246.766 E2.49116
G1 X72.213 Y246.662 E2.50354
G1 X71.849 Y246.493 E2.51593
G1 X71.521 Y246.263 E2.52831
G1 X71.237 Y245.979 E2.54069
G1 X71.007 Y245.651 E2.55307
G1 X70.838 Y245.287 E2.56545
G1 X70.734 Y244.900 E2.57784
G1 X70.699 Y244.500 E2.59022
G1 X70.734 Y244.100 E2.60260
G1 X70.838 Y243.713 E2.61498
G1 X71.007 Y243.349 E2.62736
G1 X71.237 Y243.021 E2.63974
G1 X71.521 Y242.737 E2.65213
G1 X71.849 Y242.507 E2.66451
G1 X72.213 Y242.338 E2.67689
G1 X72.600 Y242.234 E2.68927
G1 X72.925 Y242.205 E2.69934
G1 X73.211 Y241.857 F9000.000
G1 F2280.000 E0.99934
G92 E0
G1 X75.407 Y239.421 F9000.000
G1 E1.70000 F2280.000
G1 X77.237 Y241.629 E1.78852 F3990.000
G1 X77.655 Y242.372 E1.81482
G1 X77.943 Y243.173 E1.84112
G1 X78.095 Y244.011 E1.86742
G1 X78.105 Y244.863 E1.89371
G1 X77.975 Y245.705 E1.92001
G1 X77.706 Y246.514 E1.94631
G1 X77.307 Y247.266 E1.97261
G1 X76.788 Y247.942 E1.99891
G1 X76.165 Y248.523 E2.02520
G1 X75.454 Y248.992 E2.05150
G1 X74.674 Y249.337 E2.07780
G1 X73.849 Y249.548 E2.10410
G1 X72.963 Y249.621 E2.13153
G1 X33.037 Y249.621 E3.36401
G1 X32.151 Y249.548 E3.39144
G1 X31.326 Y249.337 E3.41774
G1 X30.546 Y248.992 E3.44404
G1 X29.835 Y248.523 E3.47034
G1 X29.212 Y247.942 E3.49664
G1 X28.693 Y247.266 E3.52293
G1 X28.294 Y246.514 E3.54923
G1 X28.026 Y245.705 E3.57553
G1 X27.895 Y244.863 E3.60183
G1 X27.905 Y244.011 E3.62813
G1 X28.057 Y243.173 E3.65442
G1 X28.345 Y242.372 E3.68072
G1 X28.763 Y241.629 E3.70702
G1 X30.593 Y239.421 E3.79554
G1 X31.684 Y237.726 E3.85777
G1 X32.551 Y235.906 E3.91999
G1 X33.180 Y233.991 E3.98222
G1 X33.541 Y232.121 E4.04101
G1 X33.562 Y232.012 E4.04445
G1 X33.690 Y230.000 E4.10667
G1 X33.562 Y227.988 E4.16890
G1 X33.180 Y226.009 E4.23112
G1 X32.551 Y224.094 E4.29335
G1 X31.684 Y222.274 E4.35558
G1 X30.593 Y220.579 E4.41780
G1 X28.763 Y218.371 E4.50632
G1 X28.345 Y217.628 E4.53262
G1 X28.057 Y216.827 E4.55892
G1 X27.905 Y215.989 E4.58522
G1 X27.895 Y215.137 E4.61151
G1 X28.025 Y214.295 E4.63781
G1 X28.294 Y213.486 E4.66411
G1 X28.693 Y212.734 E4.69041
G1 X29.212 Y212.058 E4.71671
G1 X29.835 Y211.477 E4.74301
G1 X30.546 Y211.008 E4.76930
G1 X31.326 Y210.663 E4.79560
G1 X32.151 Y210.453 E4.82190
G1 X33.037 Y210.379 E4.84934
G1 X72.963 Y210.379 E6.08181
G1 X73.849 Y210.452 E6.10924
G1 X74.674 Y210.663 E6.13554
G1 X75.454 Y211.008 E6.16184
G1 X76.165 Y211.477 E6.18814
G1 X76.788 Y212.058 E6.21444
G1 X77.307 Y212.734 E6.24073
G1 X77.706 Y213.486 E6.26703
G1 X77.975 Y214.295 E6.29333
G1 X78.105 Y215.137 E6.31963
G1 X78.095 Y215.989 E6.34593
G1 X77.943 Y216.827 E6.37223
G1 X77.655 Y217.628 E6.39852
G1 X77.237 Y218.371 E6.42482
G1 X75.407 Y220.579 E6.51334
G1 X74.316 Y222.274 E6.57557
G1 X73.449 Y224.094 E6.63780
G1 X72.820 Y226.009 E6.70002
G1 X72.438 Y227.988 E6.76225
G1 X72.310 Y230.000 E6.82447
G1 X72.438 Y232.012 E6.88670
G1 X72.820 Y233.991 E6.94893
G1 X73.449 Y235.906 E7.01115
G1 X74.316 Y237.726 E7.07338
G1 X75.366 Y239.358 E7.13329
G1 X75.873 Y239.077 F9000.000
G1 X77.109 Y240.548 E7.19256 F2940.000
G1 X77.718 Y241.303 E7.22252
G1 X78.183 Y242.130 E7.25180
G1 X78.504 Y243.023 E7.28109
G1 X78.673 Y243.956 E7.31037
G1 X78.685 Y244.905 E7.33965
G1 X78.539 Y245.842 E7.36893
G1 X78.239 Y246.742 E7.39821
G1 X77.795 Y247.580 E7.42749
G1 X77.218 Y248.333 E7.45677
G1 X76.524 Y248.979 E7.48605
G1 X75.732 Y249.502 E7.51533
G1 X74.864 Y249.885 E7.54461
