; generated by Slic3r 1.1.4 on 2014-07-17 at 18:18:32

; perimeters extrusion width = 0.39mm
; infill extrusion width = 0.60mm
; solid infill extrusion width = 0.60mm
; top infill extrusion width = 0.40mm

G21 ; set units to millimeters
M107
G28 ; home all axes
G90 ; use absolute coordinates
G92 E0
M82 ; use absolute distances for extrusion
M204 S2000
G1 F2280.000 E-1.70000
G92 E0
G1 Z0.350 F9000.000
G1 X119.682 Y26.227 F9000.000
G1 E1.70000 F2280.000
G1 X121.349 Y24.810 E1.76754 F2520.000
G1 X123.228 Y23.689 E1.83508
G1 X125.267 Y22.896 E1.90262
G1 X126.207 Y22.655 E1.93259
G1 X127.409 Y22.451 E1.97022
G1 X129.000 Y22.343 E2.01944
G1 X169.596 Y22.368 E3.27257
G1 X170.564 Y22.449 E3.30255
G1 X171.766 Y22.648 E3.34017
G1 X173.859 Y23.285 E3.40771
G1 X174.746 Y23.678 E3.43766
G1 X175.818 Y24.260 E3.47530
G1 X176.628 Y24.795 E3.50528
G1 X177.588 Y25.547 E3.54290
G1 X178.298 Y26.209 E3.57287
G1 X179.119 Y27.109 E3.61050
G1 X179.710 Y27.879 E3.64046
G1 X180.371 Y28.904 E3.67810
G1 X181.308 Y30.881 E3.74564
G1 X181.614 Y31.802 E3.77558
G1 X181.903 Y32.987 E3.81324
G1 X182.142 Y35.074 E3.87809
G1 X182.057 Y66.026 E4.83354
G1 X181.908 Y66.985 E4.86348
G1 X181.623 Y68.171 E4.90114
G1 X181.317 Y69.091 E4.93108
G1 X180.839 Y70.214 E4.96873
G1 X179.727 Y72.098 E5.03628
G1 X179.137 Y72.868 E5.06622
G1 X178.318 Y73.772 E5.10387
G1 X177.609 Y74.433 E5.13381
G1 X176.651 Y75.190 E5.17147
G1 X175.842 Y75.724 E5.20141
G1 X174.772 Y76.311 E5.23907
G1 X173.885 Y76.703 E5.26903
G1 X172.733 Y77.104 E5.30667
G1 X170.591 Y77.549 E5.37421
G1 X169.000 Y77.657 E5.42343
G1 X128.404 Y77.632 E6.67656
G1 X127.438 Y77.552 E6.70649
G1 X126.234 Y77.352 E6.74415
G1 X125.294 Y77.112 E6.77410
G1 X124.141 Y76.715 E6.81175
G1 X122.182 Y75.740 E6.87929
G1 X120.412 Y74.453 E6.94683
G1 X118.880 Y72.891 E7.01438
G1 X117.629 Y71.096 E7.08192
G1 X117.174 Y70.239 E7.11186
G1 X116.692 Y69.119 E7.14952
G1 X116.386 Y68.197 E7.17949
G1 X116.097 Y67.013 E7.21711
G1 X115.858 Y64.926 E7.28196
G1 X115.943 Y33.974 E8.23742
G1 X116.092 Y33.015 E8.26736
G1 X116.377 Y31.829 E8.30502
G1 X117.161 Y29.786 E8.37256
G1 X117.616 Y28.929 E8.40250
G1 X118.273 Y27.902 E8.44015
G1 X119.633 Y26.285 E8.50538
G1 X120.076 Y26.651 F9000.000
G1 X121.667 Y25.293 E8.56995 F2520.000
G1 X123.462 Y24.218 E8.63453
G1 X125.410 Y23.456 E8.69910
G1 X126.350 Y23.216 E8.72906
G1 X127.457 Y23.027 E8.76372
G1 X129.000 Y22.921 E8.81146
G1 X169.547 Y22.944 E10.06310
G1 X170.515 Y23.025 E10.09308
G1 X171.623 Y23.209 E10.12772
G1 X173.625 Y23.814 E10.19229
G1 X174.512 Y24.207 E10.22224
G1 X175.499 Y24.743 E10.25692
G1 X176.309 Y25.278 E10.28688
G1 X177.193 Y25.970 E10.32154
G1 X177.904 Y26.632 E10.35151
G1 X178.660 Y27.461 E10.38617
G1 X179.251 Y28.231 E10.41612
G1 X179.860 Y29.175 E10.45079
G1 X180.759 Y31.064 E10.51536
G1 X181.065 Y31.984 E10.54530
G1 X181.332 Y33.076 E10.57999
G1 X181.563 Y35.074 E10.64209
G1 X181.485 Y65.937 E11.59479
G1 X181.336 Y66.896 E11.62474
G1 X181.074 Y67.988 E11.65942
G1 X180.768 Y68.909 E11.68936
G1 X180.328 Y69.943 E11.72404
G1 X179.268 Y71.746 E11.78862
G1 X178.678 Y72.516 E11.81855
G1 X177.924 Y73.349 E11.85324
G1 X177.214 Y74.010 E11.88318
G1 X176.333 Y74.707 E11.91787
G1 X175.523 Y75.241 E11.94780
G1 X174.538 Y75.782 E11.98249
G1 X173.651 Y76.174 E12.01245
G1 X172.590 Y76.544 E12.04711
G1 X170.543 Y76.973 E12.11169
G1 X169.000 Y77.079 E12.15942
G1 X128.453 Y77.056 E13.41106
G1 X127.486 Y76.975 E13.44100
G1 X126.378 Y76.791 E13.47569
G1 X125.438 Y76.551 E13.50563
G1 X124.375 Y76.186 E13.54031
G1 X122.501 Y75.257 E13.60488
G1 X120.807 Y74.030 E13.66945
G1 X119.340 Y72.539 E13.73403
G1 X118.140 Y70.825 E13.79860
G1 X117.686 Y69.968 E13.82854
G1 X117.241 Y68.936 E13.86322
G1 X116.935 Y68.015 E13.89319
G1 X116.668 Y66.924 E13.92785
G1 X116.437 Y64.926 E13.98995
G1 X116.515 Y34.063 E14.94265
G1 X116.664 Y33.104 E14.97260
G1 X116.926 Y32.012 E15.00728
G1 X117.672 Y30.057 E15.07185
G1 X118.127 Y29.200 E15.10180
G1 X118.732 Y28.254 E15.13647
G1 X120.028 Y26.708 E15.19873
G1 F2280.000 E13.49873
G92 E0
G1 X131.208 Y66.353 F9000.000
G1 E1.70000 F2280.000
G1 X130.852 Y66.708 E1.71550 F3990.000
G1 X130.441 Y66.996 E1.73101
G1 X129.986 Y67.208 E1.74652
G1 X129.501 Y67.338 E1.76202
G1 X129.000 Y67.382 E1.77753
G1 X128.500 Y67.338 E1.79304
G1 X128.014 Y67.208 E1.80854
G1 X127.559 Y66.996 E1.82405
G1 X127.148 Y66.708 E1.83955
G1 X126.792 Y66.352 E1.85506
G1 X126.737 Y66.273 E1.85806
G1 X126.504 Y65.941 E1.87057
G1 X126.292 Y65.486 E1.88608
G1 X126.162 Y65.001 E1.90158
G1 X126.118 Y64.500 E1.91709
G1 X126.162 Y64.000 E1.93260
G1 X126.292 Y63.514 E1.94810
G1 X126.504 Y63.059 E1.96361
G1 X126.792 Y62.647 E1.97912
G1 X127.148 Y62.292 E1.99462
G1 X127.559 Y62.004 E2.01013
G1 X128.014 Y61.792 E2.02564
G1 X128.499 Y61.662 E2.04114
G1 X129.000 Y61.618 E2.05665
G1 X129.500 Y61.662 E2.07216
G1 X129.986 Y61.792 E2.08766
G1 X130.441 Y62.004 E2.10317
G1 X130.852 Y62.292 E2.11867
G1 X131.208 Y62.648 E2.13418
G1 X131.263 Y62.727 E2.13719
G1 X131.496 Y63.059 E2.14969
G1 X131.708 Y63.514 E2.16520
G1 X131.838 Y63.999 E2.18070
G1 X131.882 Y64.500 E2.19621
G1 X131.838 Y65.000 E2.21172
G1 X131.708 Y65.486 E2.22722
G1 X131.496 Y65.941 E2.24273
G1 X131.251 Y66.291 E2.25593
G1 X130.763 Y65.979 F9000.000
G1 X130.479 Y66.263 E2.26831 F2940.000
G1 X130.151 Y66.493 E2.28069
G1 X129.787 Y66.662 E2.29307
G1 X129.400 Y66.766 E2.30545
G1 X129.000 Y66.801 E2.31784
G1 X128.600 Y66.766 E2.33022
G1 X128.213 Y66.662 E2.34260
G1 X127.849 Y66.493 E2.35498
G1 X127.521 Y66.263 E2.36736
G1 X127.237 Y65.979 E2.37974
G1 X127.007 Y65.651 E2.39213
G1 X126.838 Y65.287 E2.40451
G1 X126.734 Y64.900 E2.41689
G1 X126.699 Y64.500 E2.42927
G1 X126.734 Y64.100 E2.44165
G1 X126.838 Y63.713 E2.45404
G1 X127.007 Y63.349 E2.46642
G1 X127.237 Y63.021 E2.47880
G1 X127.521 Y62.737 E2.49118
G1 X127.849 Y62.507 E2.50356
G1 X128.213 Y62.338 E2.51595
G1 X128.600 Y62.234 E2.52833
G1 X129.000 Y62.199 E2.54071
G1 X129.400 Y62.234 E2.55309
G1 X129.787 Y62.338 E2.56547
G1 X130.151 Y62.507 E2.57785
G1 X130.479 Y62.737 E2.59023
G1 X130.790 Y63.059 E2.60404
G1 X130.993 Y63.349 E2.61498
G1 X131.162 Y63.713 E2.62736
G1 X131.266 Y64.100 E2.63974
G1 X131.301 Y64.500 E2.65213
G1 X131.266 Y64.900 E2.66451
G1 X131.162 Y65.287 E2.67689
G1 X130.993 Y65.651 E2.68927
G1 X130.806 Y65.918 E2.69934
G1 X130.889 Y66.360 F9000.000
G1 F2280.000 E0.99934
G92 E0
G1 X129.000 Y38.382 F9000.000
G1 E1.70000 F2280.000
G1 X128.500 Y38.338 E1.71550 F3990.000
G1 X128.406 Y38.313 E1.71850
G1 X128.014 Y38.208 E1.73101
G1 X127.559 Y37.996 E1.74652
G1 X127.148 Y37.708 E1.76202
G1 X126.792 Y37.352 E1.77753
G1 X126.504 Y36.941 E1.79304
G1 X126.292 Y36.486 E1.80854
G1 X126.162 Y36.001 E1.82405
G1 X126.118 Y35.500 E1.83956
G1 X126.162 Y35.000 E1.85506
G1 X126.292 Y34.514 E1.87057
G1 X126.504 Y34.059 E1.88608
G1 X126.792 Y33.648 E1.90158
G1 X127.148 Y33.292 E1.91709
G1 X127.559 Y33.004 E1.93260
G1 X128.014 Y32.792 E1.94811
G1 X128.499 Y32.662 E1.96361
G1 X129.000 Y32.618 E1.97912
G1 X129.500 Y32.662 E1.99462
G1 X129.986 Y32.792 E2.01013
G1 X130.441 Y33.004 E2.02564
G1 X130.852 Y33.292 E2.04114
G1 X130.921 Y33.361 E2.04415
G1 X131.208 Y33.648 E2.05665
G1 X131.496 Y34.059 E2.07216
G1 X131.708 Y34.514 E2.08767
G1 X131.838 Y34.999 E2.10317
G1 X131.882 Y35.500 E2.11868
G1 X131.838 Y36.000 E2.13419
G1 X131.708 Y36.486 E2.14969
G1 X131.496 Y36.941 E2.16520
G1 X131.208 Y37.353 E2.18071
G1 X130.852 Y37.708 E2.19621
G1 X130.441 Y37.996 E2.21172
G1 X129.986 Y38.208 E2.22723
G1 X129.501 Y38.338 E2.24273
G1 X129.075 Y38.375 E2.25593
G1 X129.000 Y37.801 F9000.000
G1 X128.555 Y37.754 E2.26973 F2940.000
G1 X128.213 Y37.662 E2.28067
G1 X127.849 Y37.493 E2.29305
G1 X127.521 Y37.263 E2.30543
G1 X127.237 Y36.979 E2.31782
G1 X127.007 Y36.651 E2.33020
G1 X126.838 Y36.287 E2.34258
G1 X126.734 Y35.900 E2.35496
G1 X126.699 Y35.500 E2.36734
G1 X126.734 Y35.100 E2.37972
G1 X126.838 Y34.713 E2.39211
G1 X127.007 Y34.349 E2.40449
G1 X127.237 Y34.021 E2.41687
G1 X127.521 Y33.737 E2.42925
G1 X127.849 Y33.507 E2.44163
G1 X128.213 Y33.338 E2.45402
G1 X128.600 Y33.234 E2.46640
G1 X129.000 Y33.199 E2.47878
G1 X129.400 Y33.234 E2.49116
G1 X129.787 Y33.338 E2.50354
G1 X130.151 Y33.507 E2.51593
G1 X130.512 Y33.770 E2.52973
G1 X130.763 Y34.021 E2.54067
G1 X130.993 Y34.349 E2.55305
G1 X131.162 Y34.713 E2.56543
G1 X131.266 Y35.100 E2.57781
G1 X131.301 Y35.500 E2.59020
G1 X131.266 Y35.900 E2.60258
G1 X131.162 Y36.287 E2.61496
G1 X130.993 Y36.651 E2.62734
G1 X130.763 Y36.979 E2.63973
G1 X130.479 Y37.263 E2.65211
G1 X130.151 Y37.493 E2.66449
G1 X129.787 Y37.662 E2.67687
G1 X129.400 Y37.766 E2.68925
G1 X129.075 Y37.795 E2.69932
G1 X128.761 Y38.179 F9000.000
G1 F2280.000 E0.99932
G92 E0
G1 X166.118 Y35.500 F9000.000
G1 E1.70000 F2280.000
G1 X166.162 Y35.000 E1.71551 F3990.000
G1 X166.292 Y34.514 E1.73102
G1 X166.333 Y34.426 E1.73401
G1 X166.504 Y34.059 E1.74652
G1 X166.792 Y33.648 E1.76203
G1 X167.148 Y33.292 E1.77754
G1 X167.559 Y33.004 E1.79305
G1 X168.014 Y32.792 E1.80855
G1 X168.499 Y32.662 E1.82405
G1 X169.000 Y32.618 E1.83957
G1 X169.500 Y32.662 E1.85507
G1 X169.986 Y32.792 E1.87057
G1 X170.441 Y33.004 E1.88608
G1 X170.853 Y33.292 E1.90159
G1 X171.208 Y33.648 E1.91710
G1 X171.496 Y34.059 E1.93261
G1 X171.708 Y34.514 E1.94811
G1 X171.838 Y34.999 E1.96361
G1 X171.847 Y35.096 E1.96661
G1 X171.882 Y35.500 E1.97913
G1 X171.838 Y36.000 E1.99463
G1 X171.708 Y36.486 E2.01013
G1 X171.496 Y36.941 E2.02564
G1 X171.208 Y37.352 E2.04115
G1 X170.852 Y37.708 E2.05666
G1 X170.441 Y37.996 E2.07217
G1 X169.986 Y38.208 E2.08767
G1 X169.501 Y38.338 E2.10317
G1 X169.000 Y38.382 E2.11869
G1 X168.500 Y38.338 E2.13419
G1 X168.014 Y38.208 E2.14970
G1 X167.559 Y37.996 E2.16520
G1 X167.148 Y37.708 E2.18071
G1 X166.792 Y37.352 E2.19622
G1 X166.504 Y36.941 E2.21173
G1 X166.292 Y36.486 E2.22723
G1 X166.162 Y36.000 E2.24274
G1 X166.125 Y35.575 E2.25593
G1 X166.699 Y35.500 F9000.000
G1 X166.734 Y35.100 E2.26831 F2940.000
G1 X166.838 Y34.713 E2.28069
G1 X167.007 Y34.349 E2.29307
G1 X167.237 Y34.021 E2.30545
G1 X167.521 Y33.737 E2.31784
G1 X167.849 Y33.507 E2.33022
G1 X168.213 Y33.338 E2.34260
G1 X168.600 Y33.234 E2.35498
G1 X169.000 Y33.199 E2.36737
G1 X169.400 Y33.234 E2.37975
G1 X169.787 Y33.338 E2.39213
G1 X170.151 Y33.507 E2.40451
G1 X170.479 Y33.737 E2.41689
G1 X170.763 Y34.021 E2.42927
G1 X170.993 Y34.349 E2.44166
G1 X171.162 Y34.713 E2.45404
G1 X171.270 Y35.147 E2.46784
G1 X171.301 Y35.500 E2.47878
G1 X171.266 Y35.900 E2.49116
G1 X171.162 Y36.287 E2.50354
G1 X170.993 Y36.651 E2.51593
G1 X170.763 Y36.979 E2.52831
G1 X170.479 Y37.263 E2.54069
G1 X170.151 Y37.493 E2.55307
G1 X169.787 Y37.662 E2.56545
G1 X169.400 Y37.766 E2.57783
G1 X169.000 Y37.801 E2.59022
G1 X168.600 Y37.766 E2.60260
G1 X168.213 Y37.662 E2.61498
G1 X167.849 Y37.493 E2.62736
G1 X167.521 Y37.263 E2.63975
G1 X167.237 Y36.979 E2.65213
G1 X167.007 Y36.651 E2.66451
G1 X166.838 Y36.287 E2.67689
G1 X166.734 Y35.900 E2.68927
G1 X166.705 Y35.575 E2.69934
G1 X166.357 Y35.289 F9000.000
G1 F2280.000 E0.99934
G92 E0
G1 X169.000 Y61.618 F9000.000
G1 E1.70000 F2280.000
G1 X169.500 Y61.662 E1.71550 F3990.000
G1 X169.986 Y61.792 E1.73101
G1 X170.441 Y62.004 E1.74652
G1 X170.852 Y62.292 E1.76202
G1 X171.208 Y62.648 E1.77753
G1 X171.496 Y63.059 E1.79304
G1 X171.708 Y63.514 E1.80854
G1 X171.838 Y63.999 E1.82405
G1 X171.882 Y64.500 E1.83956
G1 X171.838 Y65.000 E1.85506
G1 X171.708 Y65.486 E1.87057
G1 X171.496 Y65.941 E1.88608
G1 X171.208 Y66.352 E1.90158
G1 X170.852 Y66.708 E1.91709
G1 X170.441 Y66.996 E1.93260
G1 X169.986 Y67.208 E1.94810
G1 X169.501 Y67.338 E1.96361
G1 X169.404 Y67.347 E1.96661
G1 X169.000 Y67.382 E1.97912
G1 X168.500 Y67.338 E1.99462
G1 X168.014 Y67.208 E2.01013
G1 X167.559 Y66.996 E2.02564
G1 X167.148 Y66.708 E2.04114
G1 X166.792 Y66.352 E2.05665
G1 X166.504 Y65.941 E2.07216
G1 X166.292 Y65.486 E2.08766
G1 X166.162 Y65.000 E2.10317
G1 X166.118 Y64.500 E2.11868
G1 X166.162 Y64.000 E2.13419
G1 X166.292 Y63.514 E2.14969
G1 X166.504 Y63.059 E2.16520
G1 X166.792 Y62.648 E2.18070
G1 X167.148 Y62.292 E2.19621
G1 X167.559 Y62.004 E2.21172
G1 X168.014 Y61.792 E2.22723
G1 X168.499 Y61.662 E2.24273
G1 X168.925 Y61.625 E2.25593
G1 X169.000 Y62.199 F9000.000
G1 X169.400 Y62.234 E2.26831 F2940.000
G1 X169.787 Y62.338 E2.28069
G1 X170.151 Y62.507 E2.29307
G1 X170.479 Y62.737 E2.30545
G1 X170.763 Y63.021 E2.31783
G1 X170.993 Y63.349 E2.33022
G1 X171.162 Y63.713 E2.34260
G1 X171.266 Y64.100 E2.35498
G1 X171.301 Y64.500 E2.36736
G1 X171.266 Y64.900 E2.37974
G1 X171.162 Y65.287 E2.39213
G1 X170.993 Y65.651 E2.40451
G1 X170.763 Y65.979 E2.41689
G1 X170.479 Y66.263 E2.42927
G1 X170.151 Y66.493 E2.44165
G1 X169.787 Y66.662 E2.45404
G1 X169.353 Y66.770 E2.46783
G1 X169.000 Y66.801 E2.47878
G1 X168.600 Y66.766 E2.49116
G1 X168.213 Y66.662 E2.50354
G1 X167.849 Y66.493 E2.51593
G1 X167.521 Y66.263 E2.52831
G1 X167.237 Y65.979 E2.54069
G1 X167.007 Y65.651 E2.55307
G1 X166.838 Y65.287 E2.56545
G1 X166.734 Y64.900 E2.57784
G1 X166.699 Y64.500 E2.59022
G1 X166.734 Y64.100 E2.60260
G1 X166.838 Y63.713 E2.61498
G1 X167.007 Y63.349 E2.62736
G1 X167.237 Y63.021 E2.63974
G1 X167.521 Y62.737 E2.65213
G1 X167.849 Y62.507 E2.66451
G1 X168.213 Y62.338 E2.67689
G1 X168.600 Y62.234 E2.68927
G1 X168.925 Y62.205 E2.69934
G1 X169.211 Y61.857 F9000.000
G1 F2280.000 E0.99934
G92 E0
G1 X171.407 Y59.421 F9000.000
G1 E1.70000 F2280.000
G1 X173.237 Y61.629 E1.78852 F3990.000
G1 X173.655 Y62.372 E1.81482
G1 X173.943 Y63.173 E1.84112
G1 X174.095 Y64.011 E1.86742
G1 X174.105 Y64.863 E1.89371
G1 X173.975 Y65.705 E1.92001
G1 X173.706 Y66.514 E1.94631
G1 X173.307 Y67.266 E1.97261
G1 X172.788 Y67.942 E1.99891
G1 X172.165 Y68.523 E2.02520
G1 X171.454 Y68.992 E2.05150
G1 X170.674 Y69.337 E2.07780
G1 X169.849 Y69.548 E2.10410
G1 X168.963 Y69.621 E2.13153
G1 X129.037 Y69.621 E3.36401
G1 X128.151 Y69.548 E3.39144
G1 X127.326 Y69.337 E3.41774
G1 X126.546 Y68.992 E3.44404
G1 X125.835 Y68.523 E3.47034
G1 X125.212 Y67.942 E3.49664
G1 X124.693 Y67.266 E3.52293
G1 X124.294 Y66.514 E3.54923
G1 X124.026 Y65.705 E3.57553
G1 X123.895 Y64.863 E3.60183
G1 X123.905 Y64.011 E3.62813
G1 X124.057 Y63.173 E3.65442
G1 X124.345 Y62.372 E3.68072
G1 X124.763 Y61.629 E3.70702
G1 X126.593 Y59.421 E3.79554
G1 X127.684 Y57.726 E3.85777
G1 X128.551 Y55.906 E3.91999
G1 X129.180 Y53.991 E3.98222
G1 X129.541 Y52.121 E4.04101
G1 X129.562 Y52.012 E4.04445
G1 X129.690 Y50.000 E4.10667
G1 X129.562 Y47.988 E4.16890
G1 X129.180 Y46.009 E4.23112
G1 X128.551 Y44.094 E4.29335
G1 X127.684 Y42.274 E4.35558
G1 X126.593 Y40.579 E4.41780
G1 X124.763 Y38.371 E4.50632
G1 X124.345 Y37.628 E4.53262
G1 X124.057 Y36.827 E4.55892
G1 X123.905 Y35.989 E4.58522
G1 X123.895 Y35.137 E4.61151
G1 X124.025 Y34.295 E4.63781
G1 X124.294 Y33.486 E4.66411
G1 X124.693 Y32.734 E4.69041
G1 X125.212 Y32.058 E4.71671
G1 X125.835 Y31.477 E4.74301
G1 X126.546 Y31.008 E4.76930
G1 X127.326 Y30.663 E4.79560
G1 X128.151 Y30.453 E4.82190
G1 X129.037 Y30.379 E4.84934
G1 X168.963 Y30.379 E6.08181
G1 X169.849 Y30.452 E6.10924
G1 X170.674 Y30.663 E6.13554
G1 X171.454 Y31.008 E6.16184
G1 X172.165 Y31.477 E6.18814
G1 X172.788 Y32.058 E6.21444
G1 X173.307 Y32.734 E6.24073
G1 X173.706 Y33.486 E6.26703
G1 X173.975 Y34.295 E6.29333
G1 X174.105 Y35.137 E6.31963
G1 X174.095 Y35.989 E6.34593
G1 X173.943 Y36.827 E6.37223
G1 X173.655 Y37.628 E6.39852
G1 X173.237 Y38.371 E6.42482
G1 X171.407 Y40.579 E6.51334
G1 X170.316 Y42.274 E6.57557
G1 X169.449 Y44.094 E6.63780
G1 X168.820 Y46.009 E6.70002
G1 X168.438 Y47.988 E6.76225
G1 X168.310 Y50.000 E6.82447
G1 X168.438 Y52.012 E6.88670
G1 X168.820 Y53.991 E6.94893
G1 X169.449 Y55.906 E7.01115
G1 X170.316 Y57.726 E7.07338
G1 X171.366 Y59.358 E7.13329
G1 X171.873 Y59.077 F9000.000
G1 X173.109 Y60.548 E7.19256 F2940.000
G1 X173.718 Y61.303 E7.22252
G1 X174.183 Y62.130 E7.25180
G1 X174.504 Y63.023 E7.28109
G1 X174.673 Y63.956 E7.31037
G1 X174.685 Y64.905 E7.33965
G1 X174.539 Y65.842 E7.36893
G1 X174.239 Y66.742 E7.39821
G1 X173.795 Y67.580 E7.42749
G1 X173.218 Y68.333 E7.45677
G1 X172.524 Y68.979 E7.48605
G1 X171.732 Y69.502 E7.51533
G1 X170.864 Y69.885 E7.54461
