;Generated by Cura LulzBot Edition GCodeWriter Version: 3.6.3
;FLAVOR:Marlin
;TIME:1207
;Filament used: 0.748439m
;Layer height: 0.4
;Generated with Cura_SteamEngine 3.6.3
M82 ;absolute extrusion mode
M221 S100
;This G-Code has been generated specifically for the LulzBot Mini 2 with SE 0.5mm Tool Head
M73 P0                  ; clear GLCD progress bar
M75 					; Start GLCD Print Timer
G26 					; clear potential 'probe fail' condition
M107 					; disable fans
M420 S0                 ; disable leveling matrix
G90 					; absolute positioning
M82 					; set extruder to absolute mode
G92 E0 					; set extruder position to 0
M140 S115 	; start bed heating up
G28                       ; Home Axis
G0 X160 F9999             ; Move toolhead to the right
G0 Z5 F6000               ; Move to bottom of printer
G91                       ; Set relative motion mode
M211 S0		  	  ; Turn off soft endstops
M400                      ; Finish moves
G0 Z-15 F500              ; Skip steppers against lower Z mounts
G90                       ; Return to absolute mode
M400                      ; Finish moves
M211 S1			  ; Turn soft endstops back on
M400                      ; Finish moves
G28                       ; Rehome
M117 X-Axis LeveledG0 X0 Y187 Z156 F200 			; move away from endstops
M117 Mini 2 Wiping...			; progress indicator message on LCD
M109 R170 	; soften filament before retraction
G1 E-15 F75 				; retract filament
M109 R170 	; wait for extruder to reach wiping temp
G1 X45 Y176 F11520 			; move above wiper pad
G1 Z0 F1200 				; push nozzle into wiper
G1 X45 Y178 Z-.5 F4000		; wiping
G1 X55 Y176 Z-.5 F4000		; wiping
G1 X45 Y177 Z0 F4000		; wiping
G1 X55 Y176 F4000		; wiping
G1 X45 Y178 F4000		; wiping
G1 X55 Y176 F4000		; wiping
G1 X45 Y178 F4000		; wiping
G1 X55 Y176 F4000		; wiping
G1 X60 Y178 F4000		; wiping
G1 X80 Y176 F4000		; wiping
G1 X60 Y178 F4000		; wiping
G1 X80 Y176 F4000		; wiping
G1 X60 Y178 F4000		; wiping
G1 X90 Y176 F4000		; wiping
G1 X80 Y178 F4000		; wiping
G1 X100 Y176 F4000		; wiping
G1 X80 Y178 F4000		; wiping
G1 X100 Y176 F4000		; wiping
G1 X80 Y178 F4000		; wiping
G1 X100 Y176 F4000		; wiping
G1 X110 Y178 F4000		; wiping
G1 X100 Y176 F4000		; wiping
G1 X110 Y178 F4000		; wiping
G1 X100 Y176 F4000		; wiping
G1 X110 Y178 F4000		; wiping
G1 X115 Y176 Z-0.5 F1000	; wiping
G1 Z10					; raise extruder
G28 X0 Y0				; home X and Y
M109 R170	; wait for extruder to reach probe temp
M204 S300				; set probing acceleration
G29					; start auto-leveling sequence
M420 S1                     ; enable leveling matrix
M425 Z			     		; use measured Z backlash for compensation
M425 Z F0		     		; turn off measured Z backlash compensation. (if activated in the quality settings, this command will automatically be ignored)
M204 S2000				; restore standard acceleration
G1 X5 Y15 Z10 F5000			; move up off last probe point
G4 S1					; pause
M400					; wait for moves to finish
M117 Heating...				; progress indicator message on LCD
M109 R250	; wait for extruder to reach initial printing temp
M190 S116 ; wait for bed to reach printing temp
G1 Z2 E0 F75				; prime tiny bit of filment into the nozzle
M117 Mini 2 Printing...		; progress indicator message on LCD
M83 ;relative extrusion mode

;LAYER:0
M425 F1.0
M107
M204 S2000
M205 X20 Y20
G0 F2250 X17.892 Y18.69 Z0.4
M204 S800
M205 X10 Y10
;TYPE:SKIRT
G1 F600 E1
G1 F900 X21.049 Y15.296 E0.18165
G1 X21.428 Y14.947 E0.02019
G1 X21.856 Y14.662 E0.02015
G1 X22.323 Y14.446 E0.02016
G1 X22.723 Y14.325 E0.01638
G1 X24.049 Y14.016 E0.05336
G1 X24.421 Y13.952 E0.01479
G1 X25.607 Y13.815 E0.04679
G1 X25.928 Y13.794 E0.01261
G1 X27.099 Y13.773 E0.0459
G1 X27.42 Y13.782 E0.01258
G1 X28.603 Y13.876 E0.04651
G1 X28.804 Y13.899 E0.00793
G1 X32.973 Y14.487 E0.16499
G1 X38.456 Y15.001 E0.21581
G1 X43.928 Y15.201 E0.21458
G1 X49.385 Y15.093 E0.21389
G1 X54.845 Y14.675 E0.2146
G1 X61.42 Y13.821 E0.25983
G1 X61.788 Y13.794 E0.01446
G1 X62.958 Y13.773 E0.04586
G1 X63.277 Y13.782 E0.01251
G1 X64.469 Y13.876 E0.04686
G1 X64.672 Y13.898 E0.008
G1 X68.768 Y14.476 E0.16211
G1 X74.224 Y14.984 E0.21474
G1 X79.697 Y15.184 E0.21462
G1 X85.154 Y15.074 E0.2139
G1 X90.604 Y14.655 E0.21421
G1 X97.062 Y13.82 E0.25519
G1 X97.428 Y13.794 E0.01438
G1 X98.598 Y13.773 E0.04586
G1 X98.919 Y13.782 E0.01258
G1 X100.115 Y13.877 E0.04702
G1 X100.316 Y13.899 E0.00792
G1 X104.454 Y14.483 E0.16377
G1 X109.913 Y14.993 E0.21486
G1 X115.386 Y15.193 E0.21462
G1 X120.842 Y15.083 E0.21386
G1 X126.289 Y14.665 E0.21409
G1 X132.811 Y13.82 E0.25772
G1 X133.178 Y13.794 E0.01442
G1 X134.349 Y13.773 E0.0459
G1 X134.746 Y13.789 E0.01557
G1 X136.51 Y13.97 E0.06949
G1 X136.981 Y14.053 E0.01874
G1 X138.688 Y14.483 E0.06898
G1 X139.07 Y14.604 E0.0157
G1 X140.181 Y15.032 E0.04666
G1 X140.47 Y15.16 E0.01239
G1 X141.513 Y15.681 E0.04569
G1 X141.795 Y15.84 E0.01269
G1 X142.825 Y16.487 E0.04767
G1 X143.087 Y16.669 E0.0125
G1 X144.006 Y17.378 E0.04549
G1 X144.307 Y17.64 E0.01564
G1 X145.557 Y18.871 E0.06875
G1 X145.871 Y19.229 E0.01866
G1 X146.948 Y20.648 E0.06981
G1 X147.173 Y20.986 E0.01591
G1 X147.773 Y22.018 E0.04678
G1 X147.951 Y22.37 E0.01546
G1 X148.646 Y23.98 E0.06872
G1 X148.784 Y24.363 E0.01595
G1 X149.122 Y25.518 E0.04716
G1 X149.195 Y25.819 E0.01214
G1 X149.417 Y26.967 E0.04582
G1 X149.463 Y27.29 E0.01279
G1 X149.572 Y28.467 E0.04632
G1 X149.585 Y28.865 E0.01561
G1 X149.536 Y30.636 E0.06943
G1 X149.513 Y30.945 E0.01214
G1 X148.697 Y37.634 E0.26408
G1 X148.357 Y43.094 E0.21438
G1 X148.328 Y48.552 E0.21389
G1 X148.606 Y54.012 E0.21425
G1 X149.285 Y60.101 E0.2401
G1 X149.564 Y62.49 E0.09426
G1 X149.585 Y62.966 E0.01867
G1 X149.536 Y64.736 E0.06939
G1 X149.513 Y65.045 E0.01214
G1 X148.697 Y71.734 E0.26408
G1 X148.357 Y77.194 E0.21438
G1 X148.328 Y82.652 E0.21389
G1 X148.606 Y88.112 E0.21425
G1 X149.285 Y94.201 E0.2401
G1 X149.564 Y96.59 E0.09426
G1 X149.585 Y97.066 E0.01867
G1 X149.536 Y98.836 E0.06939
G1 X149.513 Y99.145 E0.01214
G1 X148.707 Y105.752 E0.26084
G1 X148.366 Y111.213 E0.21443
G1 X148.335 Y116.672 E0.21393
G1 X148.612 Y122.126 E0.21401
G1 X149.522 Y129.976 E0.30969
G1 X149.541 Y130.21 E0.0092
G1 X149.595 Y131.421 E0.0475
G1 X149.593 Y131.742 E0.01258
G1 X149.532 Y132.908 E0.04576
G1 X149.487 Y133.307 E0.01574
G1 X149.177 Y135.075 E0.07034
G1 X149.062 Y135.537 E0.01866
G1 X148.52 Y137.187 E0.06806
G1 X148.339 Y137.627 E0.01864
G1 X147.553 Y139.209 E0.06923
G1 X147.354 Y139.555 E0.01564
G1 X146.697 Y140.554 E0.04686
G1 X146.505 Y140.817 E0.01276
G1 X145.758 Y141.741 E0.04656
G1 X145.55 Y141.975 E0.01227
G1 X144.737 Y142.806 E0.04556
G1 X144.437 Y143.077 E0.01584
G1 X143.044 Y144.19 E0.06987
G1 X142.719 Y144.42 E0.0156
G1 X141.71 Y145.044 E0.04649
G1 X141.357 Y145.233 E0.01569
G1 X139.748 Y145.977 E0.06947
G1 X139.297 Y146.147 E0.01889
G1 X137.598 Y146.649 E0.06943
G1 X137.191 Y146.742 E0.01636
G1 X135.925 Y146.948 E0.05027
G1 X135.541 Y146.988 E0.01513
G1 X133.885 Y147.062 E0.06496
G1 X133.325 Y147.039 E0.02196
G1 X127.261 Y146.278 E0.2395
G1 X121.787 Y145.801 E0.21533
G1 X116.331 Y145.635 E0.21391
G1 X110.857 Y145.779 E0.21459
G1 X105.389 Y146.232 E0.21502
G1 X99.78 Y146.993 E0.22182
G1 X99.434 Y147.022 E0.01361
G1 X98.067 Y147.063 E0.05359
G1 X97.559 Y147.039 E0.01993
G1 X91.148 Y146.241 E0.25318
G1 X85.668 Y145.787 E0.21549
G1 X80.195 Y145.645 E0.21455
G1 X74.74 Y145.812 E0.21387
G1 X69.28 Y146.289 E0.21479
G1 X64.144 Y146.992 E0.20315
G1 X63.794 Y147.022 E0.01377
G1 X62.427 Y147.063 E0.05359
G1 X62.082 Y147.055 E0.01352
G1 X60.912 Y146.968 E0.04598
G1 X60.671 Y146.941 E0.0095
G1 X58.416 Y146.606 E0.08934
G1 X52.932 Y145.98 E0.21631
G1 X47.466 Y145.667 E0.21456
G1 X42.01 Y145.663 E0.21381
G1 X36.54 Y145.97 E0.2147
G1 X31.043 Y146.591 E0.21679
G1 X27.801 Y147.022 E0.12817
G1 X27.331 Y147.051 E0.01845
G1 X25.87 Y147.036 E0.05726
G1 X25.508 Y147.012 E0.01422
G1 X24.346 Y146.872 E0.04587
G1 X24.023 Y146.817 E0.01284
G1 X22.849 Y146.556 E0.04713
G1 X22.469 Y146.447 E0.01549
G1 X20.805 Y145.862 E0.06912
G1 X20.364 Y145.67 E0.01885
G1 X18.779 Y144.838 E0.07015
G1 X18.432 Y144.628 E0.01589
G1 X17.471 Y143.962 E0.04582
G1 X17.223 Y143.773 E0.01222
G1 X16.328 Y143.019 E0.04586
G1 X16.093 Y142.8 E0.01259
G1 X15.255 Y141.942 E0.047
G1 X15.042 Y141.702 E0.01258
G1 X14.318 Y140.801 E0.0453
G1 X14.133 Y140.546 E0.01235
G1 X13.474 Y139.544 E0.047
G1 X13.31 Y139.267 E0.01262
G1 X12.766 Y138.233 E0.04579
G1 X12.631 Y137.943 E0.01254
G1 X12.18 Y136.839 E0.04674
G1 X12.052 Y136.463 E0.01557
G1 X11.586 Y134.765 E0.069
G1 X11.503 Y134.366 E0.01597
G1 X11.331 Y133.187 E0.04669
G1 X11.3 Y132.875 E0.01229
G1 X11.241 Y131.698 E0.04618
G1 X11.241 Y131.379 E0.0125
G1 X11.295 Y130.209 E0.0459
G1 X11.321 Y129.919 E0.01141
G1 X11.776 Y126.548 E0.1333
G1 X12.305 Y121.052 E0.21638
G1 X12.521 Y115.615 E0.21324
G1 X12.426 Y110.122 E0.2153
G1 X12.025 Y104.677 E0.21396
G1 X11.322 Y99.135 E0.21892
G1 X11.3 Y98.884 E0.00987
G1 X11.241 Y97.708 E0.04614
G1 X11.241 Y97.389 E0.0125
G1 X11.295 Y96.219 E0.0459
G1 X11.321 Y95.929 E0.01141
G1 X11.8 Y92.377 E0.14046
G1 X12.319 Y86.913 E0.21509
G1 X12.53 Y81.422 E0.21534
G1 X12.431 Y75.983 E0.21318
G1 X12.019 Y70.496 E0.21563
G1 X11.323 Y65.037 E0.21566
G1 X11.3 Y64.784 E0.00996
G1 X11.241 Y63.608 E0.04614
G1 X11.241 Y63.289 E0.0125
G1 X11.295 Y62.119 E0.0459
G1 X11.321 Y61.829 E0.01141
G1 X11.8 Y58.277 E0.14046
G1 X12.319 Y52.813 E0.21509
G1 X12.53 Y47.322 E0.21534
G1 X12.431 Y41.883 E0.21318
G1 X12.019 Y36.396 E0.21563
G1 X11.323 Y30.937 E0.21566
G1 X11.3 Y30.684 E0.00996
G1 X11.241 Y29.508 E0.04614
G1 X11.241 Y29.189 E0.0125
G1 X11.295 Y28.019 E0.0459
G1 X11.348 Y27.563 E0.01799
G1 X11.75 Y25.415 E0.08564
G1 X11.883 Y24.918 E0.02016
G1 X12.092 Y24.448 E0.02016
G1 X12.371 Y24.016 E0.02015
G1 X12.749 Y23.598 E0.02209
G1 X15.95 Y20.62 E0.17134
G1 X17.892 Y18.69 E0.1073
M204 S2000
M205 X20 Y20
G1 F600 E-1


G92 E0
G1 F600 E-1
;LAYER_COUNT:6
;LAYER:0
M425 F1.0
M107
M204 S2000
M205 X20 Y20
;MESH:
G0 F2250 X61.238 Y52.198
G0 F2250 Z0.4
M204 S800
M205 X10 Y10
;TYPE:WALL-INNER
G1 F600 E1
G1 F900 X61.742 Y52.146 E0.01986
G1 X62.001 Y52.132 E0.01016
G1 X62.293 Y52.115 E0.01146
G1 X62.838 Y52.11 E0.02136
G1 X63.366 Y52.132 E0.02071
G1 X63.943 Y52.183 E0.0227
G1 X64.458 Y52.253 E0.02037
G1 X65.002 Y52.356 E0.0217
G1 X65.529 Y52.48 E0.02122
G1 X66.065 Y52.636 E0.02188
G1 X66.563 Y52.806 E0.02062
G1 X67.094 Y53.017 E0.02239
G1 X67.561 Y53.229 E0.0201
G1 X68.063 Y53.486 E0.0221
G1 X68.538 Y53.76 E0.02149
G1 X68.989 Y54.049 E0.02099
G1 X69.427 Y54.362 E0.0211
G1 X69.88 Y54.718 E0.02258
G1 X70.273 Y55.06 E0.02042
G1 X70.668 Y55.438 E0.02143
G1 X71.042 Y55.831 E0.02126
G1 X71.399 Y56.246 E0.02145
G1 X71.734 Y56.676 E0.02136
G1 X72.068 Y57.149 E0.02269
G1 X72.342 Y57.579 E0.01998
G1 X72.607 Y58.045 E0.02101
G1 X72.867 Y58.559 E0.02257
G1 X73.092 Y59.061 E0.02156
G1 X73.278 Y59.537 E0.02003
G1 X73.466 Y60.097 E0.02315
G1 X73.603 Y60.581 E0.01971
G1 X73.732 Y61.131 E0.02214
G1 X73.831 Y61.675 E0.02167
G1 X73.9 Y62.206 E0.02098
G1 X73.945 Y62.744 E0.02116
G1 X73.966 Y63.324 E0.02274
G1 X73.958 Y63.851 E0.02065
G1 X73.924 Y64.397 E0.02144
G1 X73.867 Y64.925 E0.02081
G1 X73.779 Y65.482 E0.0221
G1 X73.672 Y65.987 E0.02023
G1 X73.53 Y66.537 E0.02226
G1 X73.37 Y67.047 E0.02095
G1 X73.174 Y67.583 E0.02237
G1 X72.967 Y68.072 E0.02081
G1 X72.739 Y68.548 E0.02068
G1 X72.482 Y69.025 E0.02123
G1 X72.2 Y69.492 E0.02138
G1 X71.878 Y69.97 E0.02259
G1 X71.552 Y70.408 E0.0214
G1 X71.215 Y70.817 E0.02077
G1 X70.848 Y71.222 E0.02142
G1 X70.452 Y71.618 E0.02195
G1 X70.048 Y71.984 E0.02136
G1 X69.629 Y72.329 E0.02127
G1 X69.2 Y72.649 E0.02097
G1 X68.742 Y72.958 E0.02165
G1 X68.27 Y73.243 E0.02161
G1 X67.795 Y73.5 E0.02116
G1 X67.303 Y73.736 E0.02138
G1 X66.799 Y73.949 E0.02144
G1 X66.284 Y74.137 E0.02148
G1 X65.775 Y74.297 E0.02091
G1 X65.219 Y74.442 E0.02252
G1 X64.71 Y74.549 E0.02038
G1 X64.166 Y74.635 E0.02158
G1 X63.905 Y74.667 E0.0103
G1 X63.338 Y74.715 E0.0223
G1 X63.082 Y74.728 E0.01005
G1 X62.542 Y74.736 E0.02116
G1 X61.978 Y74.715 E0.02212
G1 X61.436 Y74.67 E0.02131
G1 X60.904 Y74.601 E0.02102
G1 X60.371 Y74.504 E0.02123
G1 X59.829 Y74.377 E0.02182
G1 X59.311 Y74.231 E0.02109
G1 X58.775 Y74.051 E0.02216
G1 X58.287 Y73.861 E0.02052
G1 X57.783 Y73.634 E0.02166
G1 X57.293 Y73.386 E0.02152
G1 X56.8 Y73.106 E0.02222
G1 X56.378 Y72.837 E0.01961
G1 X55.906 Y72.504 E0.02264
G1 X55.483 Y72.174 E0.02102
G1 X55.06 Y71.81 E0.02187
G1 X54.668 Y71.438 E0.02118
G1 X54.283 Y71.036 E0.02181
G1 X53.938 Y70.638 E0.02064
G1 X53.596 Y70.203 E0.02168
G1 X53.28 Y69.759 E0.02136
G1 X52.986 Y69.302 E0.0213
G1 X52.72 Y68.842 E0.02082
G1 X52.462 Y68.337 E0.02222
G1 X52.238 Y67.843 E0.02126
G1 X52.036 Y67.333 E0.0215
G1 X51.858 Y66.81 E0.02165
G1 X51.705 Y66.281 E0.02158
G1 X51.584 Y65.765 E0.02077
G1 X51.483 Y65.228 E0.02141
G1 X51.413 Y64.712 E0.02041
G1 X51.362 Y64.144 E0.02235
G1 X51.34 Y63.58 E0.02212
G1 X51.345 Y63.063 E0.02026
G1 X51.362 Y62.772 E0.01142
G1 X51.375 Y62.519 E0.00993
G1 X51.428 Y62.008 E0.02013
G1 X51.656 Y62.236 E0.00249
G1 X51.834 Y62.414 E0.00822
G1 X52.719 Y63.299 E0.04905
G1 X52.716 Y63.43 E0.00514
G1 X52.732 Y63.991 E0.02199
G1 X52.78 Y64.548 E0.02191
G1 X52.859 Y65.104 E0.02201
G1 X52.97 Y65.653 E0.02195
G1 X53.111 Y66.195 E0.02195
G1 X53.282 Y66.729 E0.02197
G1 X53.484 Y67.252 E0.02197
G1 X53.714 Y67.762 E0.02192
G1 X53.973 Y68.26 E0.022
G1 X54.26 Y68.742 E0.02198
G1 X54.574 Y69.208 E0.02202
G1 X54.913 Y69.654 E0.02195
G1 X55.276 Y70.079 E0.0219
G1 X55.663 Y70.484 E0.02195
G1 X56.071 Y70.868 E0.02196
G1 X56.503 Y71.228 E0.02204
G1 X56.953 Y71.562 E0.02196
G1 X57.421 Y71.87 E0.02196
G1 X57.905 Y72.151 E0.02193
G1 X58.404 Y72.405 E0.02194
G1 X58.919 Y72.631 E0.02204
G1 X59.437 Y72.824 E0.02166
G1 X59.716 Y72.915 E0.0115
G1 X60.25 Y73.064 E0.02173
G1 X60.797 Y73.184 E0.02195
G1 X61.351 Y73.273 E0.02199
G1 X61.908 Y73.33 E0.02194
G1 X62.467 Y73.357 E0.02193
G1 X63.029 Y73.352 E0.02202
G1 X63.589 Y73.314 E0.022
G1 X64.145 Y73.246 E0.02195
G1 X64.695 Y73.146 E0.02191
G1 X65.24 Y73.016 E0.02196
G1 X65.778 Y72.854 E0.02202
G1 X66.304 Y72.663 E0.02193
G1 X66.819 Y72.443 E0.02195
G1 X67.322 Y72.194 E0.02199
G1 X67.81 Y71.916 E0.02201
G1 X68.279 Y71.611 E0.02192
G1 X68.733 Y71.282 E0.02197
G1 X69.166 Y70.927 E0.02194
G1 X69.579 Y70.547 E0.02199
G1 X69.97 Y70.144 E0.022
G1 X70.337 Y69.722 E0.02192
G1 X70.679 Y69.279 E0.02193
G1 X70.997 Y68.816 E0.02201
G1 X71.288 Y68.337 E0.02196
G1 X71.551 Y67.843 E0.02193
G1 X71.787 Y67.333 E0.02202
G1 X71.992 Y66.812 E0.02194
G1 X72.169 Y66.281 E0.02193
G1 X72.314 Y65.74 E0.02195
G1 X72.43 Y65.192 E0.02195
G1 X72.515 Y64.636 E0.02204
G1 X72.567 Y64.079 E0.02192
G1 X72.588 Y63.519 E0.02196
G1 X72.579 Y62.959 E0.02195
G1 X72.536 Y62.398 E0.02205
G1 X72.462 Y61.843 E0.02194
G1 X72.358 Y61.292 E0.02197
G1 X72.222 Y60.749 E0.02194
G1 X72.056 Y60.213 E0.02199
G1 X71.861 Y59.689 E0.02191
G1 X71.635 Y59.174 E0.02204
G1 X71.381 Y58.675 E0.02194
G1 X71.1 Y58.191 E0.02193
G1 X70.792 Y57.723 E0.02196
G1 X70.458 Y57.273 E0.02196
G1 X70.098 Y56.841 E0.02204
G1 X69.714 Y56.433 E0.02196
G1 X69.309 Y56.046 E0.02195
G1 X68.884 Y55.683 E0.0219
G1 X68.438 Y55.344 E0.02195
G1 X67.972 Y55.03 E0.02202
G1 X67.49 Y54.743 E0.02198
G1 X66.992 Y54.484 E0.022
G1 X66.482 Y54.254 E0.02192
G1 X65.959 Y54.052 E0.02197
G1 X65.425 Y53.881 E0.02197
G1 X64.883 Y53.74 E0.02195
G1 X64.334 Y53.629 E0.02195
G1 X63.778 Y53.55 E0.02201
G1 X63.221 Y53.502 E0.02191
G1 X62.66 Y53.486 E0.02199
G1 X62.529 Y53.489 E0.00514
G1 X61.647 Y52.607 E0.04888
G1 X61.464 Y52.424 E0.00586
G1 X61.238 Y52.198 E0.00243
M204 S2000
M205 X20 Y20
G0 F2250 X61.334 Y52.232
G0 X60.071 Y51.774
G0 X59.952 Y51.795
M204 S800
M205 X10 Y10
;TYPE:WALL-OUTER
G1 F900 X60.557 Y51.67 E0.02421
G1 X60.662 Y51.654 E0.00416
G1 X61.118 Y51.583 E0.01809
G1 X61.684 Y51.524 E0.0223
G1 X62.274 Y51.491 E0.02316
G1 X62.838 Y51.486 E0.0221
G1 X63.421 Y51.51 E0.02287
G1 X64 Y51.561 E0.02278
G1 X64.555 Y51.637 E0.02195
G1 X65.13 Y51.745 E0.02293
G1 X65.69 Y51.877 E0.02255
G1 X66.25 Y52.04 E0.02286
G1 X66.785 Y52.223 E0.02216
G1 X67.324 Y52.437 E0.02273
G1 X67.841 Y52.671 E0.02224
