; generated by Slic3r 1.1.7 on 2015-08-03 at 10:24:30

; perimeters extrusion width = 0.55mm
; infill extrusion width = 0.55mm
; solid infill extrusion width = 0.55mm
; top infill extrusion width = 0.55mm

G21 ; set units to millimeters
M107
;Basic settings: Layer height: {layer_height} Walls: {wall_thickness} Fill: {fill_density}
;Print time: {print_time}
;Filament used: {filament_amount}m {filament_weight}g
;Filament cost: {filament_cost}
G21                          ; metric values
G90                          ; absolute positioning
M82                          ; set extruder to absolute mode
M107                         ; start with the fan off
G92 E0                       ; set extruder position to 0
M140 S110                     ; get bed heating up
G28                               ; home all
M109 S150                     ; set to cleaning temp and wait
G1 Z150 E-30 F75           ; suck up XXmm of filament
M109 S170                     ; heat up rest of way
G1 X45 Y174 F11520       ; move behind scraper
G1 Z0  F1200                  ; CRITICAL: set Z to height of top of scraper
G1 X45 Y174 Z-.5 F4000   ; wiping ; plunge into wipe pad
G1 X55 Y172 Z-.5 F4000       ; wiping
G1 X45 Y174 Z0 F4000         ; wiping
G1 X55 Y172 F4000            ; wiping
G1 X45 Y174 F4000            ; wiping
G1 X55 Y172 F4000            ; wiping
G1 X45 Y174 F4000            ; wiping
G1 X55 Y172 F4000            ; wiping
G1 X60 Y174 F4000            ; wiping
G1 X80 Y172 F4000            ; wiping
G1 X60 Y174 F4000            ; wiping
G1 X80 Y172 F4000            ; wiping
G1 X60 Y174 F4000            ; wiping
G1 X90 Y172 F4000            ; wiping
G1 X80 Y174 F4000            ; wiping
G1 X100 Y172 F4000           ; wiping
G1 X80 Y174 F4000            ; wiping
G1 X100 Y172 F4000           ; wiping
G1 X80 Y174 F4000            ; wiping
G1 X100 Y172 F4000           ; wiping
G1 X110 Y174 F4000           ; wiping
G1 X100 Y172 F4000           ; wiping
G1 X110 Y174 F4000           ; wiping
G1 X100 Y172 F4000           ; wiping
G1 X110 Y174 F4000           ; wiping
G1 X115 Y172 Z-0.5 F1000     ; wipe slower and bury noz in cleanish area
G1 Z10                       ; raise z
G28 X0 Y0                    ; home x and y
M109 S170                    ; set to probing temp
M204 S300                    ; set accel for probing
G29                          ; Probe
M204 S2000                   ; set accel back to normal
G1 X5 Y15 Z10 F5000          ; get out the way
M400                         ; clear buffer
G4 S1                        ; pause
M109 S240    ; set extruder temp and wait
G4 S25                       ; wait for bed to temp up
G1 Z2 E0 F75                 ; extrude filament back into nozzle
M140 S110; get bed temping up during first layer
G90 ; use absolute coordinates
G92 E0
M82 ; use absolute distances for extrusion
G1 F1800.000 E-1.00000
G92 E0
G1 Z0.350 F7800.000
G1 X24.722 Y24.578 F7800.000
G1 E1.00000 F1800.000
G1 X25.750 Y23.652 E1.04560 F900.000
G1 X27.610 Y22.301 E1.12141
G1 X28.808 Y21.609 E1.16702
G1 X30.909 Y20.674 E1.24282
G1 X32.225 Y20.246 E1.28842
G1 X34.474 Y19.768 E1.36423
G1 X35.850 Y19.623 E1.40983
G1 X122.150 Y19.623 E4.25460
G1 X123.526 Y19.768 E4.30020
G1 X125.775 Y20.246 E4.37600 F900.000
G1 X127.091 Y20.674 E4.42161
G1 X129.192 Y21.609 E4.49741
G1 X130.390 Y22.301 E4.54302
G1 X132.250 Y23.652 E4.61883
G1 X133.278 Y24.578 E4.66443
G1 X134.817 Y26.287 E4.74023
G1 X135.630 Y27.406 E4.78584
G1 X136.780 Y29.398 E4.86164
G1 X137.343 Y30.662 E4.90725
G1 X138.054 Y32.849 E4.98306
G1 X138.341 Y34.202 E5.02866
G1 X138.539 Y36.089 E5.09120
G1 X138.618 Y37.181 E5.12729
G1 X138.582 Y121.511 E7.90712
G1 X138.341 Y123.798 E7.98293
G1 X138.054 Y125.151 E8.02853
G1 X137.343 Y127.338 E8.10433
G1 X136.780 Y128.602 E8.14994
G1 X135.630 Y130.594 E8.22574
G1 X134.817 Y131.713 E8.27135
G1 X133.278 Y133.422 E8.34716
G1 X132.250 Y134.348 E8.39276
G1 X130.390 Y135.699 E8.46856
G1 X129.192 Y136.391 E8.51417
G1 X127.091 Y137.326 E8.58998
G1 X125.775 Y137.754 E8.63558
G1 X123.526 Y138.232 E8.71139
G1 X122.150 Y138.377 E8.75699
G1 X35.850 Y138.377 E11.60175
G1 X34.474 Y138.232 E11.64735
G1 X32.225 Y137.754 E11.72316
G1 X30.909 Y137.326 E11.76876
G1 X28.808 Y136.391 E11.84457
G1 X27.610 Y135.699 E11.89018
G1 X25.750 Y134.348 E11.96598
G1 X24.722 Y133.422 E12.01158
G1 X23.183 Y131.713 E12.08739
G1 X22.370 Y130.594 E12.13300
G1 X22.168 Y130.245 E12.14626
G1 X21.220 Y128.602 E12.20880
G1 X20.657 Y127.338 E12.25441
G1 X19.946 Y125.151 E12.33021
G1 X19.659 Y123.798 E12.37581
G1 X19.382 Y120.819 E12.47443
G1 X19.418 Y36.489 E15.25427
G1 X19.659 Y34.202 E15.33007
G1 X19.946 Y32.849 E15.37567
G1 X20.657 Y30.662 E15.45148
G1 X21.220 Y29.398 E15.49708
G1 X22.370 Y27.406 E15.57289
G1 X23.183 Y26.287 E15.61849
G1 X24.671 Y24.634 E15.69183
G1 F1800.000 E14.69183
G92 E0
G1 X122.079 Y73.945 F7800.000
G1 E1.00000 F1800.000
G1 X119.921 Y73.945 E1.07112 F450.000
G1 X117.826 Y73.428 E1.14224
G1 X115.916 Y72.426 E1.21336
G1 X114.301 Y70.995 E1.28448
G1 X113.075 Y69.219 E1.35560
G1 X112.310 Y67.202 E1.42673
G1 X112.050 Y65.060 E1.49785
G1 X112.310 Y62.919 E1.56897
G1 X113.075 Y60.901 E1.64009
G1 X114.301 Y59.126 E1.71121
G1 X115.916 Y57.695 E1.78233
G1 X117.826 Y56.692 E1.85345
G1 X119.921 Y56.176 E1.92457
G1 X122.079 Y56.176 E1.99569
G1 X123.735 Y56.584 E2.05191
G1 X124.174 Y56.692 E2.06681 F450.000
G1 X126.084 Y57.695 E2.13793
G1 X127.699 Y59.126 E2.20905
G1 X128.925 Y60.901 E2.28017
G1 X129.690 Y62.919 E2.35129
G1 X129.950 Y65.060 E2.42241
G1 X129.690 Y67.202 E2.49354
G1 X129.004 Y69.010 E2.55728
G1 X129.069 Y69.010 E2.55942
G1 X127.699 Y70.995 E2.63893
G1 X126.084 Y72.426 E2.71005
G1 X124.174 Y73.428 E2.78117
G1 X122.152 Y73.927 E2.84982
G1 X122.004 Y73.327 F7800.000
G1 X119.996 Y73.327 E2.91599 F315.000
G1 X118.047 Y72.847 E2.98217
G1 X116.270 Y71.914 E3.04834
G1 X114.767 Y70.582 E3.11452
G1 X113.627 Y68.930 E3.18069
G1 X112.915 Y67.053 E3.24687
G1 X112.673 Y65.060 E3.31304
G1 X112.915 Y63.067 E3.37922
G1 X113.627 Y61.190 E3.44539
G1 X114.767 Y59.538 E3.51157
G1 X116.270 Y58.207 E3.57774
G1 X118.047 Y57.274 E3.64392
G1 X119.996 Y56.794 E3.71009
G1 X122.004 Y56.794 E3.77627 F315.000
G1 X123.953 Y57.274 E3.84244
G1 X125.730 Y58.207 E3.90862
G1 X127.233 Y59.538 E3.97479
G1 X128.373 Y61.190 E4.04097
G1 X129.085 Y63.067 E4.10714
G1 X129.327 Y65.060 E4.17332
G1 X129.085 Y67.053 E4.23949
G1 X128.373 Y68.930 E4.30567
G1 X127.233 Y70.582 E4.37184
G1 X125.730 Y71.914 E4.43802
G1 X123.953 Y72.847 E4.50420
G1 X122.077 Y73.309 E4.56790
G1 F1800.000 E3.56790
G92 E0
G1 X119.956 Y56.295 F7800.000
G1 X122.358 Y74.992 F7800.000
G1 E1.00000 F1800.000
G1 X122.051 Y75.057 E1.01034 F450.000
G1 X119.949 Y75.057 E1.07961
G1 X117.894 Y74.620 E1.14889
G1 X115.974 Y73.766 E1.21816
G1 X114.274 Y72.530 E1.28743
G1 X112.868 Y70.969 E1.35670
G1 X111.817 Y69.149 E1.42597
G1 X111.168 Y67.150 E1.49524
G1 X110.948 Y65.060 E1.56451
G1 X111.168 Y62.970 E1.63378
G1 X111.817 Y60.972 E1.70306
G1 X112.868 Y59.152 E1.77233
G1 X114.274 Y57.590 E1.84160
G1 X115.974 Y56.355 E1.91087
G1 X117.894 Y55.500 E1.98014
G1 X119.949 Y55.063 E2.04941
G1 X122.051 Y55.063 E2.11868 F450.000
G1 X124.106 Y55.500 E2.18796
G1 X126.026 Y56.355 E2.25723
G1 X127.726 Y57.590 E2.32650
G1 X129.132 Y59.152 E2.39577
G1 X130.183 Y60.972 E2.46504
G1 X130.832 Y62.970 E2.53431
G1 X131.052 Y65.060 E2.60358
G1 X130.832 Y67.150 E2.67285
G1 X130.183 Y69.149 E2.74213
G1 X129.132 Y70.969 E2.81140
G1 X127.726 Y72.530 E2.88067
G1 X126.026 Y73.766 E2.94994
G1 X124.106 Y74.620 E3.01921
G1 X122.431 Y74.976 E3.07567
G1 X122.486 Y75.596 F7800.000
G1 X122.116 Y75.675 E3.08815 F315.000
G1 X119.884 Y75.675 E3.16170
G1 X117.702 Y75.211 E3.23526
G1 X115.663 Y74.304 E3.30881
G1 X113.858 Y72.992 E3.38236
G1 X112.365 Y71.334 E3.45591
G1 X111.250 Y69.401 E3.52946
G1 X110.560 Y67.279 E3.60302
G1 X110.327 Y65.060 E3.67657
G1 X110.560 Y62.841 E3.75012
G1 X111.250 Y60.719 E3.82367
G1 X112.365 Y58.787 E3.89722
G1 X113.858 Y57.129 E3.97078
G1 X115.663 Y55.817 E4.04433
G1 X117.702 Y54.910 E4.11788
G1 X119.884 Y54.446 E4.19144
G1 X122.116 Y54.446 E4.26499
G1 X123.998 Y54.846 E4.32843
G1 X124.298 Y54.910 E4.33854 F315.000
G1 X126.337 Y55.817 E4.41209
G1 X128.142 Y57.129 E4.48564
G1 X129.635 Y58.787 E4.55920
G1 X130.750 Y60.719 E4.63275
G1 X131.440 Y62.841 E4.70630
G1 X131.673 Y65.060 E4.77985
G1 X131.440 Y67.279 E4.85341
G1 X130.750 Y69.401 E4.92696
G1 X129.635 Y71.334 E5.00051
G1 X128.142 Y72.992 E5.07406
G1 X126.337 Y74.304 E5.14762
G1 X124.298 Y75.211 E5.22117
G1 X122.559 Y75.581 E5.27976
G1 F1800.000 E4.27976
G92 E0
G1 X124.241 Y55.033 F7800.000
G1 X122.227 Y74.466 F7800.000
G1 E1.00000 F1800.000
G1 X121.992 Y74.501 E1.00710 F300.000
G1 X120.008 Y74.501 E1.06650
G1 X119.828 Y74.479 E1.07191
G1 X118.071 Y74.075 E1.12589
G1 X117.613 Y73.915 E1.14039
G1 X116.265 Y73.262 E1.18525
G1 X115.596 Y72.843 E1.20885
G1 X114.666 Y72.096 E1.24459
G1 X113.926 Y71.362 E1.27577
G1 X113.340 Y70.625 E1.30394
G1 X112.621 Y69.488 E1.34423
G1 X112.345 Y68.914 E1.36329
G1 X111.797 Y67.357 E1.41270
G1 X111.722 Y67.032 E1.42267
G1 X111.502 Y65.031 E1.48292
G1 X111.722 Y63.088 E1.54146 F300.000
G1 X111.797 Y62.764 E1.55142
G1 X112.345 Y61.207 E1.60083
G1 X112.621 Y60.633 E1.61989
G1 X113.340 Y59.495 E1.66018
G1 X113.926 Y58.759 E1.68835
G1 X114.666 Y58.025 E1.71953
G1 X115.596 Y57.277 E1.75527
G1 X116.265 Y56.859 E1.77888
G1 X117.613 Y56.205 E1.82373
G1 X118.071 Y56.045 E1.83824
G1 X119.884 Y55.633 E1.89389
G1 X121.992 Y55.620 E1.95701
G1 X122.172 Y55.642 E1.96242
G1 X123.929 Y56.045 E2.01639
G1 X124.387 Y56.205 E2.03090
G1 X125.735 Y56.859 E2.07575
G1 X126.404 Y57.277 E2.09936
G1 X127.334 Y58.025 E2.13510
G1 X128.074 Y58.759 E2.16628
G1 X128.660 Y59.495 E2.19445
G1 X129.379 Y60.633 E2.23474
G1 X129.655 Y61.207 E2.25380
G1 X130.218 Y62.817 E2.30485
G1 X130.278 Y63.088 E2.31317
G1 X130.500 Y65.060 E2.37258
G1 X130.278 Y67.032 E2.43198
G1 X130.203 Y67.357 E2.44195
G1 X129.803 Y68.492 E2.47798
G1 X129.831 Y68.645 E2.48262
G1 X129.796 Y68.797 E2.48728
G1 X129.723 Y68.944 E2.49220
G1 X128.660 Y70.625 E2.55175
G1 X128.109 Y71.323 E2.57837
G1 X127.334 Y72.096 E2.61109
G1 X126.404 Y72.843 E2.64683
G1 X125.735 Y73.262 E2.67044
G1 X124.337 Y73.936 E2.71689
G1 X123.929 Y74.075 E2.72980
G1 X122.300 Y74.449 E2.77984
G1 F1800.000 E1.77984
G92 E0
G1 X101.690 Y67.202 F7800.000
G1 E1.00000 F1800.000
G1 X100.925 Y69.219 E1.07112 F450.000
G1 X99.699 Y70.995 E1.14224
G1 X98.084 Y72.426 E1.21336
G1 X96.174 Y73.428 E1.28448
G1 X94.079 Y73.945 E1.35560
G1 X91.921 Y73.945 E1.42673
G1 X89.826 Y73.428 E1.49784
G1 X87.916 Y72.426 E1.56896
G1 X86.301 Y70.995 E1.64009
G1 X85.075 Y69.219 E1.71121
G1 X84.310 Y67.202 E1.78233
G1 X84.050 Y65.060 E1.85345
G1 X84.310 Y62.919 E1.92457
G1 X85.075 Y60.901 E1.99569
G1 X86.301 Y59.126 E2.06681
G1 X87.916 Y57.695 E2.13793
G1 X89.826 Y56.692 E2.20905
G1 X91.921 Y56.176 E2.28017
G1 X94.079 Y56.176 E2.35129
G1 X95.735 Y56.584 E2.40752
G1 X96.174 Y56.692 E2.42241 F450.000
G1 X98.084 Y57.695 E2.49353
G1 X99.699 Y59.126 E2.56466
G1 X100.925 Y60.901 E2.63578
G1 X101.690 Y62.919 E2.70690
G1 X101.950 Y65.060 E2.77802
G1 X101.699 Y67.128 E2.84667
G1 X101.085 Y67.053 F7800.000
G1 X100.373 Y68.930 E2.91284 F315.000
G1 X99.233 Y70.582 E2.97902
G1 X97.730 Y71.914 E3.04519
G1 X95.953 Y72.847 E3.11137
G1 X94.004 Y73.327 E3.17754
G1 X91.996 Y73.327 E3.24372
G1 X90.047 Y72.847 E3.30989
G1 X88.270 Y71.914 E3.37607
G1 X86.767 Y70.582 E3.44224
G1 X85.627 Y68.930 E3.50842
G1 X84.915 Y67.053 E3.57459
G1 X84.673 Y65.060 E3.64077
G1 X84.915 Y63.067 E3.70694
G1 X85.627 Y61.190 E3.77312
G1 X86.767 Y59.538 E3.83929
G1 X88.270 Y58.207 E3.90547
G1 X90.047 Y57.274 E3.97164
G1 X91.996 Y56.794 E4.03782
G1 X94.004 Y56.794 E4.10399 F315.000
G1 X95.953 Y57.274 E4.17017
G1 X97.730 Y58.207 E4.23634
G1 X99.233 Y59.538 E4.30252
G1 X100.373 Y61.190 E4.36869
G1 X101.085 Y63.067 E4.43487
G1 X101.327 Y65.060 E4.50104
G1 X101.094 Y66.979 E4.56475
G1 F1800.000 E3.56475
G92 E0
G1 X91.857 Y56.313 F7800.000
G1 X102.694 Y67.576 F7800.000
G1 E1.00000 F1800.000
G1 X102.183 Y69.149 E1.05452 F450.000
G1 X101.132 Y70.969 E1.12379
G1 X99.726 Y72.530 E1.19306
G1 X98.026 Y73.766 E1.26233
G1 X96.106 Y74.620 E1.33160
G1 X94.051 Y75.057 E1.40088
G1 X91.949 Y75.057 E1.47015
G1 X89.894 Y74.620 E1.53942
G1 X87.974 Y73.766 E1.60869
G1 X86.274 Y72.530 E1.67796
G1 X84.868 Y70.969 E1.74723
G1 X83.817 Y69.149 E1.81650
G1 X83.168 Y67.150 E1.88578
G1 X82.948 Y65.060 E1.95505
G1 X83.168 Y62.970 E2.02432
G1 X83.817 Y60.972 E2.09359
G1 X84.868 Y59.152 E2.16286
G1 X86.274 Y57.590 E2.23213
G1 X87.974 Y56.355 E2.30140
G1 X89.894 Y55.500 E2.37067
G1 X91.949 Y55.063 E2.43995
G1 X94.051 Y55.063 E2.50922 F450.000
G1 X96.106 Y55.500 E2.57849
G1 X98.026 Y56.355 E2.64776
G1 X99.726 Y57.590 E2.71703
G1 X101.132 Y59.152 E2.78630
G1 X102.183 Y60.972 E2.85557
G1 X102.832 Y62.970 E2.92485
G1 X103.052 Y65.060 E2.99412
G1 X102.832 Y67.150 E3.06339
G1 X102.717 Y67.504 E3.07567
G1 X103.282 Y67.767 F7800.000
G1 X102.750 Y69.401 E3.13233 F315.000
G1 X101.635 Y71.334 E3.20588
G1 X100.142 Y72.992 E3.27943
G1 X98.337 Y74.304 E3.35299
G1 X96.298 Y75.211 E3.42654
G1 X94.116 Y75.675 E3.50009
G1 X91.884 Y75.675 E3.57364
G1 X89.702 Y75.211 E3.64719
G1 X87.663 Y74.304 E3.72075
G1 X85.858 Y72.992 E3.79430
G1 X84.365 Y71.334 E3.86785
G1 X83.250 Y69.401 E3.94140
G1 X82.560 Y67.279 E4.01496
G1 X82.327 Y65.060 E4.08851
G1 X82.560 Y62.841 E4.16206
G1 X83.250 Y60.719 E4.23561
G1 X84.365 Y58.787 E4.30916
G1 X85.858 Y57.129 E4.38272
G1 X87.663 Y55.817 E4.45627
G1 X89.702 Y54.910 E4.52982
G1 X91.884 Y54.446 E4.60337
G1 X94.116 Y54.446 E4.67693
G1 X95.998 Y54.846 E4.74037
G1 X96.298 Y54.910 E4.75048 F315.000
G1 X98.337 Y55.817 E4.82403
G1 X100.142 Y57.129 E4.89758
G1 X101.635 Y58.787 E4.97114
G1 X102.750 Y60.719 E5.04469
G1 X103.440 Y62.841 E5.11824
G1 X103.673 Y65.060 E5.19179
G1 X103.440 Y67.279 E5.26534
G1 X103.305 Y67.695 E5.27976
G1 F1800.000 E4.27976
G92 E0
G1 X96.270 Y54.988 F7800.000
G1 X102.193 Y67.384 F7800.000
G1 E1.00000 F1800.000
G1 X101.655 Y68.914 E1.04855 F300.000
G1 X101.379 Y69.488 E1.06761
G1 X100.660 Y70.625 E1.10790
G1 X100.074 Y71.362 E1.13607
G1 X99.334 Y72.096 E1.16725
G1 X98.361 Y72.873 E1.20454
G1 X97.735 Y73.262 E1.22659
G1 X96.387 Y73.915 E1.27145
G1 X95.929 Y74.075 E1.28596
G1 X94.172 Y74.479 E1.33993
G1 X93.992 Y74.501 E1.34534
G1 X91.884 Y74.488 E1.40846
G1 X90.071 Y74.075 E1.46411
G1 X89.613 Y73.915 E1.47862
G1 X88.265 Y73.262 E1.52347
G1 X87.596 Y72.843 E1.54708
G1 X86.666 Y72.096 E1.58282
G1 X85.891 Y71.323 E1.61555
G1 X85.340 Y70.625 E1.64217
G1 X84.621 Y69.488 E1.68246
G1 X84.345 Y68.914 E1.70152
G1 X83.797 Y67.357 E1.75093
G1 X83.722 Y67.032 E1.76089
G1 X83.502 Y65.031 E1.82114
G1 X83.722 Y63.088 E1.87968 F300.000
G1 X83.797 Y62.764 E1.88965
G1 X84.345 Y61.207 E1.93906
G1 X84.621 Y60.633 E1.95812
G1 X85.340 Y59.495 E1.99841
G1 X85.926 Y58.759 E2.02658
G1 X86.666 Y58.025 E2.05776
G1 X87.596 Y57.277 E2.09350
G1 X88.266 Y56.858 E2.11715
G1 X89.613 Y56.205 E2.16196
G1 X90.071 Y56.045 E2.17646
G1 X91.828 Y55.642 E2.23044
G1 X92.008 Y55.620 E2.23585
G1 X94.116 Y55.633 E2.29897
G1 X95.929 Y56.045 E2.35462
G1 X96.387 Y56.205 E2.36913
G1 X97.735 Y56.859 E2.41398
G1 X98.404 Y57.277 E2.43759
G1 X99.334 Y58.025 E2.47333
G1 X100.074 Y58.759 E2.50451
G1 X100.660 Y59.495 E2.53268
G1 X101.379 Y60.633 E2.57297
G1 X101.655 Y61.207 E2.59203
G1 X102.203 Y62.764 E2.64144
G1 X102.278 Y63.088 E2.65140
G1 X102.500 Y65.060 E2.71081
G1 X102.278 Y67.032 E2.77021
G1 X102.216 Y67.312 E2.77879
G1 F1800.000 E1.77879
G92 E0
G1 X73.950 Y65.060 F7800.000
G1 E1.00000 F1800.000
G1 X73.690 Y67.202 E1.07112 F450.000
G1 X72.925 Y69.219 E1.14224
G1 X71.699 Y70.995 E1.21336
G1 X70.084 Y72.426 E1.28448
G1 X68.174 Y73.428 E1.35560
G1 X66.079 Y73.945 E1.42672
G1 X63.921 Y73.945 E1.49785
G1 X61.826 Y73.428 E1.56897
G1 X59.916 Y72.426 E1.64008
G1 X58.301 Y70.995 E1.71121
G1 X57.075 Y69.219 E1.78233
G1 X56.310 Y67.202 E1.85345
G1 X56.050 Y65.060 E1.92457
G1 X56.310 Y62.919 E1.99569
G1 X57.075 Y60.901 E2.06681
G1 X58.301 Y59.126 E2.13793
G1 X59.916 Y57.695 E2.20905
