; generated by Slic3r 1.1.7 on 2015-02-16 at 10:27:09

; perimeters extrusion width = 0.56mm
; infill extrusion width = 0.60mm
; solid infill extrusion width = 0.55mm
; top infill extrusion width = 0.43mm

G21 ; set units to millimeters
M107

M301 P34 I4 D113     ; set PID nozzle
M304 P162 I17 D378 ; set PID Bed

;M104 S230                  ; set extruder temp for budaschnozzle
M104 S250                 ; set extruder temp for hex_hot_end
;M140 S100                    ; set bed temp for PET
M140 S110                 ; set bed temp for PEI (reminder ~G1 Z2 ~ M140 S(@-10 degree change) ;if -m is present in file name)

;G28                            ; home
;G1 Z5 F300                ; move bed down 5mm
;M84                            ; disable steppers
;G4 S300                     ; wait 5 mins to preheat

G28                            ; home

G90 ; use absolute coordinates
G92 E0
M82 ; use absolute distances for extrusion
G1 F1500.000 E-1.20000
G92 E0
G1 Z0.350 F9600.000
G1 X174.768 Y66.066 F9600.000
G1 E1.20000 F1500.000
G1 X176.496 Y63.963 E1.28946 F1260.000
G1 X178.248 Y62.469 E1.36513
G1 X180.486 Y61.129 E1.45083
G1 X182.115 Y60.434 E1.50902
G1 X184.184 Y59.946 E1.57888
G1 X184.625 Y59.931 E1.59336
G1 X190.303 Y59.931 E1.77996
G1 X192.748 Y60.430 E1.86195
G1 X194.073 Y60.995 E1.90926 F1260.000
G1 X195.018 Y61.497 E1.94442
G1 X197.163 Y62.994 E2.03038
G1 X198.084 Y63.844 E2.07157
G1 X198.766 Y64.582 E2.10458
G1 X200.621 Y66.947 E2.20334
G1 X200.898 Y67.326 E2.21878
G1 X220.880 Y97.112 E3.39733
G1 X221.769 Y99.150 E3.47040
G1 X221.937 Y100.583 E3.51783
G1 X221.937 Y130.154 E4.48951
G1 X221.181 Y133.129 E4.59034
G1 X213.841 Y146.642 E5.09566
G1 X212.448 Y148.376 E5.16873
G1 X210.535 Y149.510 E5.24180
G1 X208.365 Y149.900 E5.31425
G1 X189.030 Y149.900 E5.94959
G1 X186.842 Y149.503 E6.02266
G1 X184.932 Y148.363 E6.09574
G1 X183.545 Y146.625 E6.16881
G1 X182.874 Y144.637 E6.23775
G1 X172.115 Y75.991 E8.52094
G1 X172.073 Y74.588 E8.56706
G1 X172.127 Y73.375 E8.60696
G1 X172.584 Y70.799 E8.69291
G1 X173.015 Y69.464 E8.73903
G1 X173.473 Y68.339 E8.77892
G1 X174.191 Y66.969 E8.82976
G1 X174.727 Y66.129 E8.86249
G1 X175.256 Y66.441 F9600.000
G1 X176.913 Y64.415 E8.94849 F1260.000
G1 X178.583 Y62.986 E9.02071
G1 X180.728 Y61.695 E9.10296
G1 X182.357 Y61.001 E9.16115
G1 X184.221 Y60.561 E9.22410
G1 X184.625 Y60.547 E9.23736
G1 X190.303 Y60.547 E9.42396
G1 X192.507 Y60.997 E9.49785
G1 X193.831 Y61.562 E9.54515 F1260.000
G1 X194.683 Y62.014 E9.57687
G1 X196.745 Y63.446 E9.65937
G1 X197.666 Y64.297 E9.70056
G1 X198.282 Y64.962 E9.73033
G1 X200.137 Y67.326 E9.82909
G1 X200.386 Y67.670 E9.84302
G1 X220.368 Y97.455 E11.02158
G1 X221.194 Y99.397 E11.09092
G1 X221.321 Y100.583 E11.13013
G1 X221.321 Y130.154 E12.10181
G1 X220.640 Y132.835 E12.19268
G1 X213.300 Y146.348 E12.69799
G1 X211.963 Y147.980 E12.76733
G1 X210.117 Y149.004 E12.83667
G1 X208.365 Y149.284 E12.89497
G1 X189.030 Y149.284 E13.53030
G1 X186.957 Y148.887 E13.59964
G1 X185.177 Y147.754 E13.66898
G1 X183.941 Y146.044 E13.73831
G1 X183.482 Y144.542 E13.78993
G1 X172.731 Y75.972 E16.07059
G1 X172.688 Y74.569 E16.11670
G1 X172.737 Y73.461 E16.15314
G1 X173.170 Y70.988 E16.23564
G1 X173.601 Y69.653 E16.28176
G1 X174.018 Y68.625 E16.31819
G1 X174.736 Y67.256 E16.36901
G1 X175.216 Y66.504 E16.39830
G1 F1500.000 E15.19830
G92 E0
G1 X192.112 Y78.731 F9600.000
G1 E1.20000 F1500.000
M204 S800
G1 X191.348 Y79.494 E1.23548 F1890.000
G1 X190.464 Y80.113 E1.27095
G1 X189.485 Y80.570 E1.30642
G1 X188.443 Y80.849 E1.34190
G1 X187.368 Y80.943 E1.37736
G1 X186.292 Y80.849 E1.41283
G1 X185.249 Y80.570 E1.44831
G1 X185.165 Y80.530 E1.45136
G1 X184.271 Y80.114 E1.48377
G1 X183.386 Y79.494 E1.51925
G1 X182.623 Y78.731 E1.55472
G1 X182.570 Y78.655 E1.55777
G1 X182.004 Y77.847 E1.59020
G1 X181.548 Y76.868 E1.62567
G1 X181.268 Y75.825 E1.66115
G1 X181.174 Y74.750 E1.69662
G1 X181.268 Y73.674 E1.73210
G1 X181.548 Y72.632 E1.76756
G1 X182.004 Y71.653 E1.80304
G1 X182.623 Y70.769 E1.83851
G1 X183.387 Y70.006 E1.87398
G1 X184.214 Y69.412 E1.90744
G1 X185.202 Y68.952 E1.94327
G1 X186.254 Y68.661 E1.97911
G1 X187.411 Y68.561 E2.01729
M204 S800
M204 S800
G1 X188.412 Y68.649 E2.05031 F1890.000
G1 X189.406 Y68.908 E2.08407
G1 X189.539 Y68.955 E2.08870
G1 X190.486 Y69.402 E2.12308
G1 X191.348 Y70.006 E2.15769
G1 X192.112 Y70.769 E2.19316
G1 X192.731 Y71.653 E2.22864
G1 X193.187 Y72.632 E2.26410
G1 X193.211 Y72.721 E2.26715
G1 X193.467 Y73.675 E2.29959
G1 X193.561 Y74.750 E2.33505
G1 X193.466 Y75.826 E2.37053
G1 X193.187 Y76.868 E2.40600
G1 X192.731 Y77.847 E2.44148
G1 X192.155 Y78.669 E2.47448
M204 S800
G1 X191.638 Y78.334 F9600.000
M204 S800
G1 X190.951 Y79.021 E2.50642 F1470.000
G1 X190.155 Y79.578 E2.53834
G1 X189.274 Y79.989 E2.57028
G1 X188.335 Y80.240 E2.60221
G1 X187.329 Y80.322 E2.63540
G1 X186.399 Y80.240 E2.66605
G1 X185.461 Y79.989 E2.69798
G1 X184.580 Y79.578 E2.72991
G1 X183.784 Y79.021 E2.76185
G1 X183.097 Y78.334 E2.79378
G1 X182.539 Y77.537 E2.82571
G1 X182.129 Y76.657 E2.85764
G1 X181.877 Y75.718 E2.88958
G1 X181.792 Y74.750 E2.92151
G1 X181.877 Y73.782 E2.95344
G1 X182.129 Y72.843 E2.98537
G1 X182.539 Y71.962 E3.01731
G1 X183.097 Y71.166 E3.04924
G1 X183.784 Y70.479 E3.08117
G1 X184.573 Y69.925 E3.11286
G1 X185.500 Y69.500 E3.14637
G1 X186.384 Y69.264 E3.17642
G1 X187.337 Y69.177 E3.20789
M204 S800
M204 S800
G1 X188.349 Y69.263 E3.24126 F1470.000
G1 X189.271 Y69.511 E3.27263
G1 X190.162 Y69.927 E3.30494
G1 X190.951 Y70.479 E3.33658
G1 X191.638 Y71.166 E3.36851
G1 X192.196 Y71.963 E3.40044
G1 X192.616 Y72.881 E3.43364
G1 X192.858 Y73.782 E3.46429
G1 X192.942 Y74.750 E3.49622
G1 X192.858 Y75.718 E3.52815
G1 X192.606 Y76.657 E3.56008
G1 X192.195 Y77.538 E3.59202
G1 X191.681 Y78.272 E3.62148
M204 S800
G1 F1500.000 E2.42148
G92 E0
G1 X187.278 Y68.681 F9600.000
G1 X196.383 Y90.799 F9600.000
G1 E1.20000 F1500.000
M204 S800
G1 X197.360 Y90.537 E1.23321 F1890.000
G1 X198.367 Y90.449 E1.26645
G1 X198.459 Y90.457 E1.26947
M204 S800
M204 S800
G1 X199.375 Y90.537 E1.29967 F1890.000
G1 X200.352 Y90.799 E1.33290
G1 X201.268 Y91.226 E1.36612
G1 X202.096 Y91.806 E1.39936
G1 X202.811 Y92.521 E1.43259
G1 X203.391 Y93.349 E1.46581
G1 X203.819 Y94.266 E1.49905
G1 X204.080 Y95.243 E1.53226
G1 X204.168 Y96.250 E1.56549
G1 X204.080 Y97.257 E1.59871
G1 X203.819 Y98.234 E1.63195
G1 X203.391 Y99.150 E1.66517
G1 X202.811 Y99.979 E1.69840
G1 X202.096 Y100.694 E1.73163
G1 X201.268 Y101.274 E1.76485
G1 X200.351 Y101.701 E1.79809
G1 X199.375 Y101.963 E1.83131
G1 X198.367 Y102.051 E1.86453
G1 X197.360 Y101.963 E1.89776
G1 X196.383 Y101.701 E1.93099
G1 X195.467 Y101.274 E1.96422
G1 X194.639 Y100.694 E1.99744
G1 X193.924 Y99.979 E2.03066
G1 X193.344 Y99.151 E2.06389
G1 X192.916 Y98.234 E2.09711
G1 X192.654 Y97.257 E2.13035
G1 X192.566 Y96.250 E2.16358
G1 X192.654 Y95.243 E2.19680
G1 X192.916 Y94.266 E2.23004
G1 X193.343 Y93.350 E2.26325
G1 X193.924 Y92.521 E2.29649
G1 X194.639 Y91.806 E2.32972
G1 X195.467 Y91.226 E2.36294
G1 X196.315 Y90.830 E2.39371
M204 S800
G1 X196.595 Y91.380 F9600.000
M204 S800
G1 X197.467 Y91.146 E2.42339 F1470.000
G1 X198.290 Y91.074 E2.45052
M204 S800
M204 S800
G1 X199.267 Y91.146 E2.48273 F1470.000
G1 X200.140 Y91.380 E2.51241
G1 X200.959 Y91.761 E2.54210
G1 X201.699 Y92.280 E2.57179
G1 X202.338 Y92.919 E2.60147
G1 X202.856 Y93.659 E2.63116
G1 X203.238 Y94.477 E2.66085
G1 X203.472 Y95.350 E2.69053
G1 X203.550 Y96.250 E2.72022
G1 X203.462 Y97.187 E2.75114
G1 X203.238 Y98.023 E2.77957
G1 X202.856 Y98.841 E2.80925
G1 X202.338 Y99.582 E2.83894
G1 X201.699 Y100.220 E2.86863
G1 X200.959 Y100.739 E2.89831
G1 X200.140 Y101.120 E2.92800
G1 X199.267 Y101.354 E2.95769
G1 X198.367 Y101.433 E2.98737
G1 X197.467 Y101.354 E3.01706
G1 X196.595 Y101.120 E3.04675
G1 X195.776 Y100.739 E3.07643
G1 X195.036 Y100.220 E3.10612
G1 X194.397 Y99.582 E3.13580
G1 X193.879 Y98.841 E3.16549
G1 X193.497 Y98.023 E3.19517
G1 X193.263 Y97.150 E3.22486
G1 X193.184 Y96.250 E3.25455
G1 X193.263 Y95.350 E3.28423
G1 X193.497 Y94.477 E3.31392
G1 X193.879 Y93.659 E3.34360
G1 X194.397 Y92.918 E3.37329
G1 X195.036 Y92.280 E3.40298
G1 X195.776 Y91.761 E3.43267
G1 X196.527 Y91.411 E3.45989
M204 S800
G1 F1500.000 E2.25989
G92 E0
G1 X198.522 Y90.631 F9600.000
G1 X191.178 Y103.460 F9600.000
G1 E1.20000 F1500.000
M204 S800
G1 X213.557 Y103.460 E1.93536 F1890.000
G1 X213.557 Y126.040 E2.67729
G1 X191.178 Y126.040 E3.41265
G1 X191.178 Y103.535 E4.15211
M204 S800
G1 X191.794 Y104.076 F9600.000
M204 S800
G1 X212.941 Y104.076 E4.84700 F1470.000
G1 X212.941 Y125.424 E5.54846
G1 X191.794 Y125.424 E6.24334
G1 X191.794 Y104.151 E6.94234
M204 S800
G1 X191.794 Y103.576 F9600.000
G1 F1500.000 E5.74234
G92 E0
G1 X189.969 Y142.728 F9600.000
G1 E1.20000 F1500.000
M204 S800
G1 X189.969 Y107.660 E2.35232 F1890.000
G1 X189.922 Y107.095 E2.37093
G1 X189.782 Y106.547 E2.38954
G1 X179.677 Y77.443 E3.40186
G1 X179.571 Y77.112 E3.41327
G1 X179.281 Y75.692 E3.46090
G1 X179.239 Y74.301 E3.50663
G1 X179.434 Y72.923 E3.55236
G1 X179.861 Y71.599 E3.59809
G1 X180.507 Y70.366 E3.64382
G1 X181.419 Y69.177 E3.69305
G1 X182.212 Y68.445 E3.72850
G1 X183.374 Y67.694 E3.77397
G1 X184.761 Y67.102 E3.82353
G1 X190.111 Y67.102 E3.99934
G1 X191.190 Y67.562 E4.03785
G1 X192.358 Y68.318 E4.08358
G1 X193.171 Y69.068 E4.11993
G1 X194.962 Y71.351 E4.21527
G1 X214.765 Y100.869 E5.38328
G1 X214.765 Y129.916 E6.33771
G1 X207.806 Y142.728 E6.81682
G1 X190.044 Y142.728 E7.40045
M204 S800
G1 X189.354 Y143.344 F9600.000
M204 S800
G1 X189.354 Y107.686 E8.57216 F1470.000
G1 X189.313 Y107.198 E8.58823
G1 X189.192 Y106.725 E8.60430
G1 X179.093 Y77.638 E9.61602
G1 X178.975 Y77.269 E9.62877
G1 X178.667 Y75.764 E9.67924
G1 X178.622 Y74.267 E9.72844
G1 X178.832 Y72.785 E9.77764
G1 X179.291 Y71.359 E9.82684
G1 X179.986 Y70.033 E9.87604
G1 X180.963 Y68.761 E9.92875
G1 X181.833 Y67.957 E9.96767
G1 X183.083 Y67.148 E10.01661
G1 X184.635 Y66.486 E10.07204
G1 X190.237 Y66.486 E10.25612
G1 X191.480 Y67.016 E10.30051
G1 X192.737 Y67.830 E10.34971
G1 X193.625 Y68.649 E10.38942
G1 X195.461 Y70.989 E10.48713
G1 X215.381 Y100.682 E11.66205
G1 X215.381 Y130.072 E12.62778
G1 X208.173 Y143.344 E13.12407
G1 X189.429 Y143.344 E13.73998
M204 S800
G1 X189.604 Y142.911 F9600.000
G1 X190.396 Y142.270 F9600.000
M204 S750
G1 X190.451 Y142.302 E13.74205 F1890.000
G1 X191.688 Y142.302 E13.78271
G1 X190.396 Y141.556 E13.83172
G1 X190.396 Y140.842 E13.85520
G1 X192.925 Y142.302 E13.95116
G1 X194.162 Y142.302 E13.99182
G1 X190.396 Y140.127 E14.13473
G1 X190.396 Y139.413 E14.15820
G1 X195.400 Y142.302 E14.34806
G1 X196.637 Y142.302 E14.38871
G1 X190.396 Y138.699 E14.62552
G1 X190.396 Y137.984 E14.64899
G1 X197.874 Y142.302 E14.93274
G1 X199.112 Y142.302 E14.97339
G1 X190.396 Y137.270 E15.30408
G1 X190.396 Y136.556 E15.32756
G1 X200.349 Y142.302 E15.70520
G1 X201.586 Y142.302 E15.74585
G1 X190.396 Y135.841 E16.17044
G1 X190.396 Y135.127 E16.19391
G1 X202.824 Y142.302 E16.66544
G1 X204.061 Y142.302 E16.70610
G1 X190.396 Y134.413 E17.22457
G1 X190.396 Y133.698 E17.24804
G1 X205.298 Y142.302 E17.81347
G1 X206.535 Y142.302 E17.85412
G1 X190.396 Y132.984 E18.46649
G1 X190.396 Y132.270 E18.48996
G1 X207.590 Y142.197 E19.14234
G1 X207.899 Y141.661 E19.16267
G1 X190.396 Y131.555 E19.82679
G1 X190.396 Y130.841 E19.85026
G1 X208.196 Y141.118 E20.52563
G1 X208.491 Y140.574 E20.54597
G1 X190.396 Y130.126 E21.23255
G1 X190.396 Y129.412 E21.25602
G1 X208.787 Y140.030 E21.95380
G1 X209.082 Y139.486 E21.97414
G1 X190.396 Y128.698 E22.68313
G1 X190.396 Y127.983 E22.70660
G1 X209.377 Y138.942 E23.42680
G1 X209.673 Y138.399 E23.44713
G1 X190.396 Y127.269 E24.17853
G1 X190.776 Y126.774 E24.19904
G1 X209.968 Y137.855 E24.92724
G1 X210.263 Y137.311 E24.94758
G1 X191.480 Y126.466 E25.66028
G1 X192.717 Y126.466 E25.70093
G1 X210.559 Y136.767 E26.37789
G1 X210.854 Y136.223 E26.39823
G1 X193.954 Y126.466 E27.03945
G1 X195.192 Y126.466 E27.08011
G1 X211.149 Y135.679 E27.68559
G1 X211.445 Y135.136 E27.70592
G1 X196.429 Y126.466 E28.27567
G1 X197.666 Y126.466 E28.31633
G1 X211.740 Y134.592 E28.85033
G1 X212.036 Y134.048 E28.87067
G1 X198.903 Y126.466 E29.36893
G1 X200.141 Y126.466 E29.40959
G1 X212.331 Y133.504 E29.87212
G1 X212.626 Y132.960 E29.89245
G1 X201.378 Y126.466 E30.31924
G1 X202.615 Y126.466 E30.35990
G1 X212.922 Y132.416 E30.75095
G1 X213.217 Y131.873 E30.77128
G1 X203.853 Y126.466 E31.12660
G1 X205.090 Y126.466 E31.16725
G1 X213.512 Y131.329 E31.48682
G1 X213.808 Y130.785 E31.50716
G1 X206.327 Y126.466 E31.79099
G1 X207.564 Y126.466 E31.83165
G1 X214.103 Y130.241 E32.07974
G1 X214.339 Y129.663 E32.10026
G1 X208.802 Y126.466 E32.31036
G1 X210.039 Y126.466 E32.35101
G1 X214.339 Y128.949 E32.51416
G1 X214.339 Y128.234 E32.53763
G1 X211.276 Y126.466 E32.65383
G1 X212.514 Y126.466 E32.69449
G1 X214.339 Y127.520 E32.76374
G1 X214.339 Y126.806 E32.78721
G1 X214.284 Y126.774 E32.78929
M204 S800
G1 X214.161 Y126.347 F9600.000
G1 X214.161 Y103.152 E33.23677 F945.000
G1 F1500.000 E32.03677
G92 E0
G1 X199.789 Y102.695 F9600.000
G1 E1.20000 F1500.000
G1 X198.333 Y102.756 E1.26968 F945.000
G1 X196.946 Y102.695 E1.33606
G1 F1500.000 E0.13606
G92 E0
G1 X191.117 Y103.400 F9600.000
G1 X190.560 Y107.310 F9600.000
G1 E1.20000 F1500.000
G1 X190.574 Y107.647 E1.20651 F945.000
G1 X190.574 Y126.347 E1.56728
G1 F1500.000 E0.36728
G92 E0
G1 X190.358 Y106.892 F9600.000
G1 E1.20000 F1500.000
M204 S750
G1 X190.302 Y106.859 E1.20215 F1890.000
G1 X190.041 Y105.994 E1.23182
G1 X190.751 Y106.404 E1.25876
G1 X190.751 Y105.690 E1.28223
G1 X189.731 Y105.101 E1.32094
G1 X189.421 Y104.208 E1.35201
G1 X190.751 Y104.976 E1.40249
G1 X190.751 Y104.261 E1.42595
G1 X189.111 Y103.314 E1.48820
G1 X188.801 Y102.421 E1.51927
G1 X190.751 Y103.547 E1.59328
G1 X191.099 Y103.034 E1.61366
G1 X188.491 Y101.528 E1.71264
G1 X188.180 Y100.634 E1.74371
G1 X192.337 Y103.034 E1.90141
G1 X193.574 Y103.034 E1.94206
G1 X187.870 Y99.741 E2.15845
G1 X187.560 Y98.848 E2.18952
G1 X194.811 Y103.034 E2.46463
G1 X196.048 Y103.034 E2.50528
G1 X187.250 Y97.955 E2.83909
M204 S800
G1 F1500.000 E1.63909
G92 E0
G1 X196.523 Y102.594 F9600.000
G1 E1.20000 F1500.000
M204 S750
G1 X186.940 Y97.061 E1.56362 F1890.000
G1 X186.630 Y96.168 E1.59469
G1 X193.520 Y100.146 E1.85612
G1 X192.814 Y99.024 E1.89967
G1 X186.320 Y95.275 E2.14608
G1 X186.010 Y94.381 E2.17715
G1 X192.437 Y98.092 E2.42101
G1 X192.226 Y97.256 E2.44933
G1 X185.699 Y93.488 E2.69697
G1 X185.389 Y92.595 E2.72805
G1 X192.160 Y96.504 E2.98496
G1 X192.178 Y95.800 E3.00811
G1 X185.079 Y91.701 E3.27744
G1 X184.769 Y90.808 E3.30851
G1 X192.245 Y95.124 E3.59216
G1 X192.410 Y94.506 E3.61320
G1 X184.459 Y89.915 E3.91490
G1 X184.149 Y89.022 E3.94597
G1 X192.612 Y93.908 E4.26711
G1 X192.875 Y93.345 E4.28751
G1 X183.839 Y88.128 E4.63037
G1 X183.528 Y87.235 E4.66144
G1 X193.196 Y92.817 E5.02825
G1 X193.552 Y92.308 E5.04865
G1 X183.218 Y86.342 E5.44074
G1 X182.908 Y85.448 E5.47181
G1 X193.993 Y91.848 E5.89240
G1 X194.465 Y91.407 E5.91365
G1 X182.598 Y84.555 E6.36392
G1 X182.288 Y83.662 E6.39499
G1 X195.024 Y91.015 E6.87824
G1 X195.658 Y90.667 E6.90200
G1 X181.978 Y82.769 E7.42104
G1 X181.668 Y81.875 E7.45211
G1 X196.367 Y90.362 E8.00983
G1 X197.212 Y90.135 E8.03857
G1 X181.357 Y80.982 E8.64011
G1 X181.047 Y80.089 E8.67118
G1 X198.266 Y90.030 E9.32449
M204 S800
G1 X199.827 Y90.217 F9600.000
M204 S750
G1 X180.737 Y79.195 E10.04879 F1890.000
M204 S800
G1 F1500.000 E8.84879
G92 E0
G1 X183.353 Y79.991 F9600.000
G1 E1.20000 F1500.000
M204 S750
G1 X180.427 Y78.302 E1.31100 F1890.000
G1 X180.117 Y77.409 E1.34207
G1 X181.896 Y78.436 E1.40957
G1 X181.320 Y77.389 E1.44883
G1 X179.895 Y76.566 E1.50290
G1 X179.729 Y75.757 E1.53006
G1 X181.006 Y76.493 E1.57849
G1 X180.827 Y75.676 E1.60598
G1 X179.687 Y75.018 E1.64923
G1 X179.670 Y74.294 E1.67303
G1 X180.761 Y74.924 E1.71442
G1 X180.792 Y74.227 E1.73733
G1 X179.764 Y73.634 E1.77633
G1 X179.864 Y72.978 E1.79815
G1 X180.860 Y73.552 E1.83590
G1 X181.025 Y72.934 E1.85694
G1 X180.059 Y72.375 E1.89362
G1 X180.253 Y71.773 E1.91441
G1 X181.218 Y72.330 E1.95102
G1 X181.480 Y71.768 E1.97143
G1 X180.539 Y71.224 E2.00714
