; generated by Slic3r 1.1.4 on 2014-10-20 at 11:55:47

; perimeters extrusion width = 0.40mm
; infill extrusion width = 0.66mm
; solid infill extrusion width = 0.60mm
; top infill extrusion width = 0.40mm

G21 ; set units to millimeters

M301 P34 I4 D113     ; set PID nozzle
M304 P162 I17 D378 ; set PID Bed

M104 S230                 ; set extruder temp for budaschnozzle
;M104 S250                 ; set extruder temp for hex_hot_end
;M140 S100                 ; set bed temp for PET
M140 S105                 ; set bed temp for PEI (reminder ~G1 Z2 ~ M140 S(@-10 degree change) ;if -m is present in file name) 

G28                            ; home
G1 Z5 F300                ; move bed down 5mm
M84                            ; disable steppers
G4 S300                     ; wait 5 mins to preheat

G28                            ; home

G90 ; use absolute coordinates
G92 E0
M82 ; use absolute distances for extrusion
M204 S1500
G1 F1500.000 E-1.40000
G92 E0
G1 Z0.300 F8100.000
G1 X162.579 Y140.035 F8100.000
G1 E1.40000 F1500.000
G1 X164.105 Y138.577 E1.45586 F1260.000
G1 X166.867 Y136.225 E1.55185
G1 X168.561 Y135.003 E1.60711
G1 X171.585 Y133.060 E1.70222
G1 X173.452 Y132.056 E1.75831
G1 X176.344 Y130.688 E1.84296
G1 X177.236 Y130.310 E1.86857
G1 X178.692 Y129.786 E1.90952
G1 X181.771 Y128.811 E1.99498
G1 X182.913 Y128.502 E2.02627
G1 X184.186 Y128.236 E2.06068
G1 X187.402 Y127.679 E2.14703
G1 X188.786 Y127.502 E2.18395
G1 X189.837 Y127.432 E2.21183
G1 X193.134 Y127.311 E2.29912
G1 X194.740 Y127.329 E2.34162
G1 X195.544 Y127.388 E2.36295
G1 X198.865 Y127.716 E2.45124
G1 X200.661 Y127.986 E2.49930
G1 X204.542 Y128.901 E2.60479
G1 X206.723 Y129.568 E2.66514
G1 X209.908 Y130.799 E2.75549
G1 X211.991 Y131.753 E2.81611
G1 X215.021 Y133.423 E2.90767
G1 X216.898 Y134.617 E2.96651
G1 X219.737 Y136.710 E3.05983
G1 X221.381 Y138.107 E3.11691
G1 X223.971 Y140.601 E3.21205
G1 X225.370 Y142.170 E3.26768
G1 X227.622 Y145.003 E3.36344
G1 X228.793 Y146.743 E3.41892
G1 X230.629 Y149.823 E3.51379
G1 X231.575 Y151.729 E3.57010
G1 X232.847 Y154.673 E3.65494
G1 X233.214 Y155.626 E3.68197
G1 X233.667 Y157.041 E3.72129
G1 X234.540 Y160.160 E3.80698
G1 X234.822 Y161.363 E3.83966
G1 X235.033 Y162.584 E3.87245
G1 X235.483 Y165.826 E3.95905
G1 X235.617 Y167.267 E3.99735
G1 X235.648 Y168.259 E4.02359
G1 X235.657 Y171.567 E4.11114
G1 X235.582 Y173.225 E4.15504
G1 X235.502 Y173.964 E4.17472
G1 X235.042 Y177.380 E4.26590
G1 X234.597 Y179.599 E4.32579
G1 X233.690 Y182.900 E4.41637
G1 X232.950 Y185.063 E4.47686
G1 X231.607 Y188.215 E4.56751
G1 X230.590 Y190.249 E4.62769
G1 X228.813 Y193.237 E4.71965
G1 X227.564 Y195.058 E4.77808
G1 X225.369 Y197.840 E4.87185
G1 X223.927 Y199.423 E4.92849
G1 X221.338 Y201.941 E5.02407
G1 X219.728 Y203.278 E5.07944
G1 X216.827 Y205.430 E5.17500
G1 X215.044 Y206.546 E5.23067
G1 X211.911 Y208.274 E5.32533
G1 X209.968 Y209.160 E5.38184
G1 X206.975 Y210.336 E5.46691
G1 X205.959 Y210.687 E5.49536
G1 X204.589 Y211.074 E5.53303
G1 X201.433 Y211.844 E5.61897
G1 X200.170 Y212.094 E5.65305
G1 X199.003 Y212.254 E5.68421
G1 X195.739 Y212.595 E5.77103
G1 X194.242 Y212.682 E5.81071
G1 X193.311 Y212.679 E5.83534
G1 X189.996 Y212.576 E5.92311
G1 X188.289 Y212.440 E5.96842
G1 X187.614 Y212.343 E5.98645
G1 X184.222 Y211.769 E6.07748
G1 X182.013 Y211.250 E6.13752
G1 X178.770 Y210.242 E6.22736
G1 X176.771 Y209.496 E6.28382
G1 X173.493 Y207.969 E6.37951
G1 X171.508 Y206.890 E6.43928
G1 X168.567 Y205.007 E6.53169
G1 X166.804 Y203.706 E6.58966
G1 X164.082 Y201.410 E6.68388
G1 X162.563 Y199.927 E6.74004
G1 X160.119 Y197.243 E6.83609
G1 X158.844 Y195.595 E6.89122
G1 X156.796 Y192.631 E6.98654
G1 X155.734 Y190.804 E7.04246
G1 X154.273 Y187.967 E7.12689
G1 X153.888 Y187.137 E7.15108
G1 X153.292 Y185.644 E7.19363
G1 X152.216 Y182.606 E7.27891
G1 X151.883 Y181.527 E7.30878
G1 X151.559 Y180.203 E7.34484
G1 X150.895 Y177.016 E7.43097
G1 X150.679 Y175.692 E7.46647
G1 X150.566 Y174.583 E7.49598
G1 X150.335 Y171.300 E7.58304
G1 X150.298 Y169.747 E7.62415
G1 X150.331 Y168.880 E7.64711
G1 X150.547 Y165.560 E7.73512
G1 X150.748 Y163.807 E7.78183
G1 X151.544 Y159.831 E7.88912
G1 X152.137 Y157.634 E7.94931
G1 X153.256 Y154.420 E8.03937
G1 X154.134 Y152.314 E8.09973
G1 X155.707 Y149.221 E8.19155
G1 X156.845 Y147.290 E8.25085
G1 X158.833 Y144.397 E8.34372
G1 X160.183 Y142.693 E8.40125
G1 X162.528 Y140.091 E8.49394
G1 X162.981 Y140.452 F8100.000
G1 X164.483 Y139.015 E8.54894 F1260.000
G1 X167.208 Y136.693 E8.64367
G1 X168.877 Y135.488 E8.69813
G1 X171.862 Y133.568 E8.79204
G1 X173.700 Y132.578 E8.84726
G1 X176.580 Y131.216 E8.93155
G1 X177.433 Y130.854 E8.95609
G1 X178.867 Y130.338 E8.99641
G1 X181.931 Y129.367 E9.08144
G1 X183.033 Y129.068 E9.11166
G1 X184.285 Y128.806 E9.14551
G1 X187.482 Y128.252 E9.23136
G1 X188.826 Y128.079 E9.26721
G1 X189.859 Y128.010 E9.29460
G1 X193.134 Y127.890 E9.38131
G1 X194.700 Y127.906 E9.42274
G1 X195.488 Y127.963 E9.44366
G1 X198.784 Y128.289 E9.53129
G1 X200.541 Y128.552 E9.57828
G1 X204.378 Y129.456 E9.68259
G1 X206.516 Y130.108 E9.74172
G1 X209.672 Y131.328 E9.83127
G1 X211.714 Y132.260 E9.89064
G1 X214.715 Y133.914 E9.98131
G1 X216.557 Y135.085 E10.03905
G1 X219.365 Y137.153 E10.13134
G1 X220.982 Y138.526 E10.18747
G1 X223.541 Y140.988 E10.28142
G1 X224.920 Y142.533 E10.33621
G1 X227.144 Y145.329 E10.43073
G1 X228.298 Y147.042 E10.48539
G1 X230.112 Y150.083 E10.57908
G1 X231.044 Y151.959 E10.63450
G1 X232.311 Y154.890 E10.71897
G1 X232.663 Y155.805 E10.74493
G1 X233.110 Y157.198 E10.78363
G1 X233.979 Y160.300 E10.86888
G1 X234.252 Y161.463 E10.90048
G1 X234.460 Y162.664 E10.93273
G1 X234.908 Y165.886 E11.01880
G1 X235.039 Y167.287 E11.05604
G1 X235.070 Y168.261 E11.08181
G1 X235.079 Y171.547 E11.16876
G1 X235.007 Y173.164 E11.21159
G1 X234.928 Y173.889 E11.23088
G1 X234.474 Y177.271 E11.32117
G1 X234.039 Y179.447 E11.37988
G1 X233.141 Y182.718 E11.46963
G1 X232.417 Y184.838 E11.52890
G1 X231.087 Y187.961 E11.61872
G1 X230.092 Y189.956 E11.67769
G1 X228.334 Y192.913 E11.76872
G1 X227.108 Y194.702 E11.82609
G1 X224.939 Y197.453 E11.91879
G1 X223.521 Y199.010 E11.97451
G1 X220.966 Y201.498 E12.06887
G1 X219.380 Y202.816 E12.12342
G1 X216.518 Y204.941 E12.21776
G1 X214.762 Y206.041 E12.27259
G1 X211.668 Y207.749 E12.36609
G1 X209.756 Y208.622 E12.42170
G1 X206.777 Y209.792 E12.50637
G1 X205.799 Y210.131 E12.53375
G1 X204.451 Y210.512 E12.57082
G1 X201.313 Y211.278 E12.65629
G1 X200.089 Y211.521 E12.68930
G1 X198.942 Y211.679 E12.71994
G1 X195.699 Y212.018 E12.80622
G1 X194.242 Y212.104 E12.84483
G1 X193.328 Y212.101 E12.86902
G1 X190.036 Y211.999 E12.95617
G1 X188.369 Y211.867 E13.00041
G1 X187.709 Y211.772 E13.01806
G1 X184.349 Y211.205 E13.10821
G1 X182.183 Y210.697 E13.16707
G1 X178.968 Y209.699 E13.25614
G1 X177.007 Y208.968 E13.31152
G1 X173.765 Y207.458 E13.40615
G1 X171.818 Y206.401 E13.46475
G1 X168.907 Y204.539 E13.55620
G1 X167.174 Y203.262 E13.61314
G1 X164.484 Y200.994 E13.70625
G1 X162.988 Y199.534 E13.76153
G1 X160.575 Y196.887 E13.85633
G1 X159.318 Y195.263 E13.91066
G1 X157.295 Y192.338 E14.00476
G1 X156.248 Y190.539 E14.05983
G1 X154.793 Y187.713 E14.14392
G1 X154.425 Y186.921 E14.16704
G1 X153.837 Y185.450 E14.20894
G1 X152.766 Y182.427 E14.29381
G1 X152.445 Y181.387 E14.32260
G1 X152.125 Y180.085 E14.35808
G1 X151.464 Y176.916 E14.44373
G1 X151.254 Y175.632 E14.47816
G1 X151.143 Y174.541 E14.50716
G1 X150.913 Y171.280 E14.59366
G1 X150.876 Y169.767 E14.63370
G1 X150.909 Y168.916 E14.65623
G1 X151.122 Y165.621 E14.74361
G1 X151.318 Y163.907 E14.78925
G1 X152.104 Y159.976 E14.89531
G1 X152.684 Y157.823 E14.95431
G1 X153.793 Y154.637 E15.04358
G1 X154.650 Y152.575 E15.10267
G1 X156.208 Y149.510 E15.19362
G1 X157.323 Y147.615 E15.25179
G1 X159.289 Y144.753 E15.34366
G1 X160.615 Y143.078 E15.40020
G1 X162.930 Y140.507 E15.49174
G1 F1500.000 E14.09174
G92 E0
G1 X220.682 Y177.693 F8100.000
G1 E1.40000 F1500.000
G1 X220.093 Y178.210 E1.42072 F2100.000
G1 X219.468 Y178.682 E1.44143
G1 X218.809 Y179.107 E1.46220
G1 X218.097 Y179.492 E1.48361
G1 X217.410 Y179.803 E1.50358
G1 X216.674 Y180.073 E1.52430
G1 X215.921 Y180.287 E1.54503
G1 X215.155 Y180.445 E1.56573
G1 X214.378 Y180.546 E1.58644
G1 X213.597 Y180.589 E1.60716
G1 X212.813 Y180.575 E1.62791
G1 X212.019 Y180.500 E1.64900
G1 X211.262 Y180.373 E1.66931
G1 X210.502 Y180.187 E1.69002
G1 X209.757 Y179.945 E1.71074
G1 X209.032 Y179.649 E1.73146
G1 X208.331 Y179.300 E1.75217
G1 X207.658 Y178.900 E1.77289
G1 X207.015 Y178.451 E1.79363
G1 X206.398 Y177.946 E1.81473
G1 X205.840 Y177.419 E1.83504
G1 X205.313 Y176.840 E1.85575
G1 X204.830 Y176.224 E1.87647
G1 X204.393 Y175.574 E1.89718
G1 X204.006 Y174.894 E1.91790
G1 X203.670 Y174.186 E1.93862
G1 X203.387 Y173.455 E1.95936
G1 X203.155 Y172.692 E1.98046
G1 X202.987 Y171.943 E2.00077
G1 X202.871 Y171.169 E2.02148
G1 X202.814 Y170.388 E2.04220
G1 X202.814 Y169.605 E2.06291
G1 X202.871 Y168.825 E2.08363
G1 X202.987 Y168.050 E2.10434
G1 X203.159 Y167.286 E2.12508
G1 X203.392 Y166.525 E2.14612
G1 X203.670 Y165.807 E2.16649
G1 X204.006 Y165.100 E2.18721
G1 X204.393 Y164.420 E2.20793
G1 X204.830 Y163.770 E2.22864
G1 X205.313 Y163.154 E2.24935
G1 X205.841 Y162.574 E2.27010
G1 X206.419 Y162.029 E2.29113
G1 X207.016 Y161.542 E2.31150
G1 X207.658 Y161.094 E2.33222
G1 X208.331 Y160.694 E2.35293
G1 X209.032 Y160.345 E2.37365
G1 X209.757 Y160.049 E2.39437
G1 X210.502 Y159.807 E2.41509
G1 X211.262 Y159.621 E2.43580
G1 X212.036 Y159.491 E2.45657
G1 X212.842 Y159.418 E2.47798
G1 X213.597 Y159.404 E2.49795
G1 X214.378 Y159.448 E2.51866
G1 X215.155 Y159.549 E2.53938
G1 X215.923 Y159.707 E2.56015
G1 X216.701 Y159.931 E2.58156
G1 X217.410 Y160.190 E2.60152
G1 X218.123 Y160.513 E2.62224
G1 X218.811 Y160.888 E2.64296
G1 X219.468 Y161.312 E2.66367
G1 X220.093 Y161.784 E2.68439
G1 X220.682 Y162.301 E2.70511
G1 X221.230 Y162.859 E2.72582
G1 X221.736 Y163.457 E2.74654
G1 X222.196 Y164.091 E2.76726
G1 X222.608 Y164.756 E2.78797
G1 X222.970 Y165.451 E2.80869
G1 X223.280 Y166.170 E2.82940
G1 X223.535 Y166.910 E2.85012
G1 X223.736 Y167.667 E2.87084
G1 X223.880 Y168.436 E2.89155
G1 X223.966 Y169.214 E2.91227
G1 X223.995 Y169.998 E2.93301
G1 X223.965 Y170.795 E2.95411
G1 X223.880 Y171.557 E2.97441
G1 X223.736 Y172.327 E2.99513
G1 X223.535 Y173.084 E3.01585
G1 X223.280 Y173.824 E3.03656
G1 X222.970 Y174.543 E3.05728
G1 X222.608 Y175.237 E3.07800
G1 X222.196 Y175.903 E3.09871
G1 X221.736 Y176.537 E3.11942
G1 X221.230 Y177.134 E3.14014
G1 X220.734 Y177.639 E3.15887
G1 X220.284 Y177.272 F8100.000
G1 X219.728 Y177.761 E3.17846 F2100.000
G1 X219.137 Y178.207 E3.19805
G1 X218.514 Y178.609 E3.21766
G1 X217.840 Y178.974 E3.23794
G1 X217.191 Y179.268 E3.25679
G1 X216.496 Y179.522 E3.27638
G1 X215.783 Y179.725 E3.29598
G1 X215.059 Y179.874 E3.31554
G1 X214.325 Y179.970 E3.33513
G1 X213.586 Y180.011 E3.35471
G1 X212.845 Y179.997 E3.37432
G1 X212.094 Y179.926 E3.39428
G1 X211.379 Y179.806 E3.41347
G1 X210.660 Y179.630 E3.43305
G1 X209.956 Y179.401 E3.45263
G1 X209.271 Y179.121 E3.47222
G1 X208.608 Y178.791 E3.49180
G1 X207.972 Y178.413 E3.51139
G1 X207.365 Y177.989 E3.53099
G1 X206.780 Y177.512 E3.55095
G1 X206.254 Y177.013 E3.57014
G1 X205.755 Y176.466 E3.58972
G1 X205.298 Y175.884 E3.60931
G1 X204.885 Y175.269 E3.62889
G1 X204.519 Y174.626 E3.64847
G1 X204.202 Y173.957 E3.66806
G1 X203.934 Y173.267 E3.68766
G1 X203.715 Y172.545 E3.70762
G1 X203.556 Y171.837 E3.72681
G1 X203.447 Y171.105 E3.74639
G1 X203.392 Y170.367 E3.76598
G1 X203.392 Y169.627 E3.78556
G1 X203.447 Y168.889 E3.80515
G1 X203.556 Y168.157 E3.82473
G1 X203.719 Y167.434 E3.84433
G1 X203.939 Y166.715 E3.86423
G1 X204.202 Y166.036 E3.88348
G1 X204.519 Y165.368 E3.90306
G1 X204.885 Y164.724 E3.92265
G1 X205.298 Y164.110 E3.94223
G1 X205.755 Y163.528 E3.96182
G1 X206.254 Y162.980 E3.98142
G1 X206.801 Y162.464 E4.00132
G1 X207.365 Y162.004 E4.02057
G1 X207.972 Y161.580 E4.04015
G1 X208.608 Y161.202 E4.05974
G1 X209.271 Y160.873 E4.07932
G1 X209.956 Y160.592 E4.09890
G1 X210.660 Y160.364 E4.11849
G1 X211.379 Y160.188 E4.13807
G1 X212.110 Y160.065 E4.15769
G1 X212.873 Y159.996 E4.17797
G1 X213.586 Y159.983 E4.19682
G1 X214.325 Y160.024 E4.21641
G1 X215.059 Y160.120 E4.23599
G1 X215.785 Y160.269 E4.25561
G1 X216.522 Y160.481 E4.27589
G1 X217.191 Y160.726 E4.29474
G1 X217.865 Y161.031 E4.31433
G1 X218.515 Y161.386 E4.33391
G1 X219.137 Y161.787 E4.35349
G1 X219.728 Y162.233 E4.37308
G1 X220.284 Y162.721 E4.39266
G1 X220.802 Y163.249 E4.41225
G1 X221.280 Y163.815 E4.43183
G1 X221.715 Y164.413 E4.45142
G1 X222.105 Y165.043 E4.47100
G1 X222.447 Y165.699 E4.49058
G1 X222.740 Y166.379 E4.51017
G1 X222.982 Y167.078 E4.52975
G1 X223.171 Y167.794 E4.54934
G1 X223.307 Y168.522 E4.56892
G1 X223.389 Y169.257 E4.58850
G1 X223.416 Y169.998 E4.60811
G1 X223.387 Y170.751 E4.62807
G1 X223.307 Y171.472 E4.64726
G1 X223.171 Y172.200 E4.66684
G1 X222.982 Y172.915 E4.68642
G1 X222.740 Y173.615 E4.70601
G1 X222.447 Y174.295 E4.72559
G1 X222.105 Y174.951 E4.74518
G1 X221.715 Y175.580 E4.76476
G1 X221.280 Y176.179 E4.78434
G1 X220.802 Y176.744 E4.80393
G1 X220.336 Y177.219 E4.82153
G1 X219.886 Y176.852 F8100.000
G1 X219.362 Y177.312 E4.83998 F1260.000
G1 X218.805 Y177.732 E4.85843
G1 X218.219 Y178.111 E4.87689
G1 X217.583 Y178.455 E4.89604
G1 X216.972 Y178.732 E4.91379
G1 X216.317 Y178.972 E4.93224
G1 X215.645 Y179.162 E4.95070
G1 X214.963 Y179.303 E4.96914
G1 X214.271 Y179.393 E4.98759
G1 X213.575 Y179.432 E5.00605
G1 X212.878 Y179.419 E5.02451
G1 X212.169 Y179.352 E5.04334
G1 X211.496 Y179.239 E5.06140
G1 X210.818 Y179.073 E5.07985
G1 X210.155 Y178.858 E5.09831
G1 X209.509 Y178.594 E5.11676
G1 X208.885 Y178.283 E5.13521
G1 X208.286 Y177.927 E5.15366
G1 X207.714 Y177.527 E5.17212
G1 X207.163 Y177.077 E5.19095
G1 X206.667 Y176.608 E5.20902
G1 X206.197 Y176.092 E5.22747
G1 X205.766 Y175.544 E5.24592
G1 X205.378 Y174.965 E5.26437
G1 X205.033 Y174.358 E5.28283
G1 X204.733 Y173.729 E5.30128
G1 X204.481 Y173.078 E5.31974
G1 X204.275 Y172.397 E5.33857
G1 X204.125 Y171.731 E5.35663
G1 X204.022 Y171.041 E5.37508
G1 X203.971 Y170.346 E5.39354
G1 X203.971 Y169.648 E5.41199
G1 X204.022 Y168.953 E5.43044
G1 X204.125 Y168.263 E5.44889
G1 X204.278 Y167.582 E5.46735
G1 X204.486 Y166.904 E5.48612
G1 X204.733 Y166.265 E5.50425
G1 X205.033 Y165.635 E5.52270
G1 X205.378 Y165.029 E5.54115
G1 X205.766 Y164.450 E5.55960
G1 X206.197 Y163.902 E5.57805
G1 X206.667 Y163.386 E5.59651
G1 X207.183 Y162.899 E5.61528
G1 X207.714 Y162.466 E5.63341
G1 X208.286 Y162.067 E5.65186
G1 X208.885 Y161.711 E5.67032
G1 X209.509 Y161.400 E5.68877
G1 X210.155 Y161.136 E5.70722
G1 X210.818 Y160.921 E5.72567
G1 X211.496 Y160.755 E5.74412
G1 X212.184 Y160.639 E5.76259
G1 X212.905 Y160.574 E5.78173
G1 X213.575 Y160.562 E5.79948
G1 X214.271 Y160.601 E5.81793
G1 X214.963 Y160.691 E5.83638
G1 X215.646 Y160.831 E5.85484
G1 X216.342 Y161.031 E5.87399
G1 X216.972 Y161.262 E5.89174
G1 X217.607 Y161.550 E5.91019
G1 X218.219 Y161.883 E5.92864
G1 X218.805 Y162.261 E5.94709
G1 X219.362 Y162.682 E5.96554
G1 X219.886 Y163.142 E5.98400
G1 X220.375 Y163.639 E6.00245
G1 X220.825 Y164.172 E6.02090
G1 X221.235 Y164.736 E6.03935
G1 X221.602 Y165.329 E6.05780
G1 X221.924 Y165.947 E6.07626
G1 X222.200 Y166.588 E6.09471
G1 X222.428 Y167.247 E6.11316
G1 X222.606 Y167.921 E6.13161
G1 X222.734 Y168.607 E6.15006
G1 X222.812 Y169.300 E6.16852
G1 X222.837 Y169.997 E6.18698
G1 X222.810 Y170.708 E6.20581
G1 X222.734 Y171.387 E6.22387
G1 X222.606 Y172.072 E6.24232
G1 X222.428 Y172.747 E6.26078
G1 X222.200 Y173.406 E6.27923
G1 X221.924 Y174.046 E6.29768
G1 X221.602 Y174.665 E6.31613
G1 X221.235 Y175.258 E6.33458
G1 X220.825 Y175.822 E6.35304
G1 X220.375 Y176.354 E6.37149
G1 X219.938 Y176.798 E6.38796
G1 X219.996 Y177.340 F8100.000
G1 F1500.000 E4.98796
G92 E0
G1 X205.997 Y158.808 F8100.000
G1 E1.40000 F1500.000
G1 X205.373 Y159.280 E1.42072 F2100.000
G1 X204.715 Y159.704 E1.44143
G1 X204.027 Y160.079 E1.46215
G1 X203.314 Y160.402 E1.48286
G1 X202.578 Y160.672 E1.50361
G1 X201.810 Y160.889 E1.52471
G1 X201.059 Y161.043 E1.54501
G1 X200.282 Y161.145 E1.56573
G1 X199.499 Y161.188 E1.58647
