;Generated by Cura 2 GCodeWriter Version: 2.6.25
;FLAVOR:RepRap
;TIME:4571
;Filament used: 4.15462m
;Layer height: 0.38
;Generated with Cura_SteamEngine 2.6.25
;This G-Code has been generated specifically for the LulzBot Mini with standard extruder
G26                                ; clear potential 'probe fail' condition
G21                                ; set units to Millimetres
M107                               ; disable fans
G90                                ; absolute positioning
M82                                ; set extruder to absolute mode
G92 E0                             ; set extruder position to 0
M140 S112   ; start bed heating up
G28                                ; home all axes
M109 R170  ; wait for extruder to reach wiping temp
G1 Z150 E-30 F75                   ; retract filament
G1 X45 Y174 F11520                 ; move above wiper pad
G1 Z0  F1200                       ; push nozzle into wiper
G1 X45 Y174 Z-.5 F4000             ; wiping
G1 X55 Y172 Z-.5 F4000             ; wiping
G1 X45 Y174 Z0 F4000               ; wiping
G1 X55 Y172 F4000                  ; wiping
G1 X45 Y174 F4000                  ; wiping
G1 X55 Y172 F4000                  ; wiping
G1 X45 Y174 F4000                  ; wiping
G1 X55 Y172 F4000                  ; wiping
G1 X60 Y174 F4000                  ; wiping
G1 X80 Y172 F4000                  ; wiping
G1 X60 Y174 F4000                  ; wiping
G1 X80 Y172 F4000                  ; wiping
G1 X60 Y174 F4000                  ; wiping
G1 X90 Y172 F4000                  ; wiping
G1 X80 Y174 F4000                  ; wiping
G1 X100 Y172 F4000                 ; wiping
G1 X80 Y174 F4000                  ; wiping
G1 X100 Y172 F4000                 ; wiping
G1 X80 Y174 F4000                  ; wiping
G1 X100 Y172 F4000                 ; wiping
G1 X110 Y174 F4000                 ; wiping
G1 X100 Y172 F4000                 ; wiping
G1 X110 Y174 F4000                 ; wiping
G1 X100 Y172 F4000                 ; wiping
G1 X110 Y174 F4000                 ; wiping
G1 X115 Y172 Z-0.5 F1000           ; wiping
G1 Z10                             ; raise extruder
G28 X0 Y0                          ; home X and Y
M109 R170 ; wait for extruder to reach probe temp
M204 S300                          ; set probing acceleration
G29                                ; start auto-leveling sequence
M204 S2000                         ; restore standard acceleration
G1 X5 Y15 Z10 F5000                ; move up off last probe point
G4 S1                              ; pause
M400                               ; wait for moves to finish
M117 Heating...                    ; progress indicator message on LCD
M109 R240 ; wait for extruder to reach printing temp
M190 S112   ; wait for bed to reach printing temp
G1 Z2 E0 F75                       ; prime tiny bit of filment into the nozzle
M117 Mini Printing...              ; progress indicator message on LCD

;LAYER_COUNT:31
;LAYER:0
M106 S25.5
G0 F2625 X31.792 Y35.654 Z0.425
G0 X32.147 Y35.362
;TYPE:SKIRT
G1 F900 X33.178 Y34.563 E0.04345
G1 X33.824 Y34.113 E0.06967
G1 X34.512 Y33.731 E0.09589
G1 X34.917 Y33.547 E0.1107
G1 X36.116 Y33.042 E0.15404
G1 X37.118 Y32.698 E0.18933
G1 X60.33 Y26.478 E0.98981
G1 X61.326 Y26.28 E1.02364
G1 X62.589 Y26.114 E1.06607
G1 X63.374 Y26.051 E1.0923
G1 X64.488 Y26.099 E1.12944
G1 X68.006 Y26.505 E1.24741
G1 X73.259 Y26.892 E1.42286
G1 X78.479 Y26.98 E1.59677
G1 X83.684 Y26.773 E1.77028
G1 X90.162 Y26.123 E1.98715
G1 X90.948 Y26.084 E2.01337
G1 X92.037 Y26.163 E2.04974
G1 X93.598 Y26.387 E2.10227
G1 X94.506 Y26.573 E2.13314
G1 X117.443 Y32.728 E2.92421
G1 X118.395 Y33.051 E2.9577
G1 X119.573 Y33.538 E3.00016
G1 X120.284 Y33.875 E3.02637
G1 X120.957 Y34.283 E3.05258
G1 X121.295 Y34.525 E3.06643
G1 X122.326 Y35.307 E3.10953
G1 X122.929 Y35.814 E3.13578
G1 X123.476 Y36.38 E3.162
G1 X123.764 Y36.729 E3.17707
G1 X124.57 Y37.767 E3.22084
G1 X125.021 Y38.412 E3.24706
G1 X125.404 Y39.1 E3.27329
G1 X125.592 Y39.513 E3.28841
G1 X126.093 Y40.703 E3.33141
G1 X126.361 Y41.443 E3.35763
G1 X126.553 Y42.206 E3.38384
G1 X126.628 Y42.659 E3.39913
G1 X126.806 Y43.96 E3.44287
G1 X126.873 Y44.745 E3.46912
G1 X126.86 Y45.532 E3.49534
G1 X126.799 Y46.117 E3.51493
G1 X126.573 Y47.684 E3.56767
G1 X126.388 Y48.582 E3.59821
G1 X125.332 Y52.525 E3.73418
G1 X124.08 Y57.789 E3.91442
G1 X123.59 Y60.314 E4.00009
G1 X123.182 Y62.813 E4.08444
G1 X122.547 Y68.057 E4.26039
G1 X122.213 Y73.251 E4.43377
G1 X122.176 Y78.471 E4.60765
G1 X122.432 Y83.687 E4.78161
G1 X122.983 Y88.876 E4.95543
G1 X123.835 Y94.074 E5.13088
G1 X124.346 Y96.541 E5.2148
G1 X125.313 Y100.487 E5.35014
G1 X126.983 Y106.929 E5.57181
G1 X127.175 Y107.946 E5.60629
G1 X127.277 Y108.792 E5.63467
G1 X127.332 Y109.578 E5.66092
G1 X127.274 Y110.678 E5.69761
G1 X127.112 Y111.978 E5.74125
G1 X126.975 Y112.754 E5.7675
G1 X126.76 Y113.511 E5.79371
G1 X126.595 Y113.953 E5.80943
G1 X126.104 Y115.154 E5.85265
G1 X125.769 Y115.866 E5.87886
G1 X125.364 Y116.541 E5.90508
G1 X125.1 Y116.911 E5.92022
G1 X124.308 Y117.953 E5.96382
G1 X123.8 Y118.554 E5.99003
G1 X123.235 Y119.101 E6.01623
G1 X122.88 Y119.393 E6.03154
G1 X121.855 Y120.186 E6.07471
G1 X121.209 Y120.635 E6.10091
G1 X120.521 Y121.017 E6.12713
G1 X120.118 Y121.2 E6.14187
G1 X118.908 Y121.709 E6.1856
G1 X117.912 Y122.05 E6.22066
G1 X95.395 Y128.095 E6.99727
G1 X94.713 Y128.245 E7.02053
G1 X92.763 Y128.584 E7.08646
G1 X91.982 Y128.68 E7.11267
G1 X91.195 Y128.695 E7.13889
G1 X90.649 Y128.659 E7.15712
G1 X87.384 Y128.326 E7.26644
G1 X82.111 Y128.026 E7.44237
G1 X76.908 Y128.024 E7.61569
G1 X71.709 Y128.318 E7.78914
G1 X64.933 Y129.116 E8.01641
G1 X64.147 Y129.168 E8.04265
G1 X63.361 Y129.14 E8.06885
G1 X62.924 Y129.09 E8.0835
G1 X61.364 Y128.866 E8.136
G1 X60.457 Y128.68 E8.16684
G1 X37.52 Y122.525 E8.95791
G1 X36.571 Y122.203 E8.99129
G1 X35.394 Y121.717 E9.03371
G1 X34.683 Y121.38 E9.05992
G1 X34.009 Y120.973 E9.08615
G1 X33.662 Y120.724 E9.10037
G1 X32.62 Y119.932 E9.14397
G1 X32.019 Y119.424 E9.17018
G1 X31.472 Y118.859 E9.19638
G1 X31.181 Y118.505 E9.21164
G1 X30.387 Y117.479 E9.25486
G1 X29.937 Y116.833 E9.28108
G1 X29.556 Y116.145 E9.30728
G1 X29.371 Y115.737 E9.3222
G1 X28.867 Y114.537 E9.36556
G1 X28.599 Y113.797 E9.39177
G1 X28.408 Y113.033 E9.41801
G1 X28.334 Y112.587 E9.43307
G1 X28.158 Y111.301 E9.4763
G1 X28.091 Y110.517 E9.50251
G1 X28.103 Y109.73 E9.52873
G1 X28.179 Y109.051 E9.55149
G1 X28.457 Y107.275 E9.61137
G1 X28.617 Y106.508 E9.63747
G1 X30.404 Y99.691 E9.87222
G1 X31.489 Y94.486 E10.04933
G1 X31.887 Y92.057 E10.13132
G1 X32.521 Y86.813 E10.30727
G1 X32.855 Y81.613 E10.48084
G1 X32.892 Y76.393 E10.65472
G1 X32.636 Y71.18 E10.82858
G1 X32.083 Y65.98 E11.00277
G1 X31.234 Y60.797 E11.17772
G1 X30.723 Y58.331 E11.26161
G1 X29.753 Y54.374 E11.39732
G1 X28.049 Y47.791 E11.62383
G1 X27.856 Y46.766 E11.65857
G1 X27.757 Y45.935 E11.68645
G1 X27.704 Y45.149 E11.71269
G1 X27.764 Y44.049 E11.74938
G1 X27.926 Y42.764 E11.79253
G1 X28.064 Y41.989 E11.81875
G1 X28.28 Y41.232 E11.84497
G1 X28.442 Y40.8 E11.86034
G1 X28.938 Y39.587 E11.90399
G1 X29.272 Y38.874 E11.93022
G1 X29.677 Y38.199 E11.95644
G1 X29.937 Y37.836 E11.97131
G1 X30.72 Y36.804 E12.01446
G1 X31.227 Y36.202 E12.04068
G1 X31.792 Y35.654 E12.0669
G1 X32.147 Y35.362 E12.08221
G0 F2625 X32.453 Y35.757
G1 F900 X33.484 Y34.958 E12.12566
G1 X34.109 Y34.524 E12.15101
G1 X35.111 Y34.007 E12.18856
G1 X36.31 Y33.502 E12.2319
G1 X37.247 Y33.181 E12.26489
G1 X60.459 Y26.961 E13.06537
G1 X61.391 Y26.776 E13.09702
G1 X62.654 Y26.61 E13.13946
G1 X63.413 Y26.55 E13.16482
G1 X64.431 Y26.596 E13.19876
G1 X67.961 Y27.004 E13.31713
G1 X73.231 Y27.391 E13.49315
G1 X78.49 Y27.481 E13.66835
G1 X83.704 Y27.273 E13.84217
G1 X90.212 Y26.62 E14.06004
G1 X90.973 Y26.584 E14.08542
G1 X91.966 Y26.658 E14.11859
G1 X93.527 Y26.882 E14.17112
G1 X94.376 Y27.056 E14.19999
G1 X117.313 Y33.211 E14.99106
G1 X118.204 Y33.513 E15.0224
G1 X119.382 Y34 E15.06486
G1 X120.069 Y34.327 E15.0902
G1 X120.993 Y34.924 E15.12685
G1 X122.024 Y35.706 E15.16995
G1 X122.606 Y36.197 E15.19532
G1 X123.369 Y37.036 E15.23309
G1 X124.175 Y38.074 E15.27687
G1 X124.61 Y38.699 E15.30223
G1 X125.131 Y39.707 E15.34003
G1 X125.632 Y40.897 E15.38304
G1 X125.89 Y41.613 E15.40839
G1 X126.133 Y42.727 E15.44637
G1 X126.311 Y44.028 E15.49011
G1 X126.375 Y44.787 E15.51548
G1 X126.358 Y45.548 E15.54084
G1 X126.304 Y46.046 E15.55752
G1 X126.078 Y47.613 E15.61026
G1 X125.905 Y48.453 E15.63883
G1 X124.843 Y52.419 E15.77559
G1 X123.591 Y57.681 E15.95576
G1 X123.095 Y60.236 E16.04246
G1 X122.686 Y62.743 E16.12707
G1 X122.049 Y68 E16.30347
G1 X121.714 Y73.233 E16.47814
G1 X121.675 Y78.492 E16.65332
G1 X121.933 Y83.73 E16.82801
G1 X122.484 Y88.922 E17.00193
G1 X123.346 Y94.181 E17.17945
G1 X123.853 Y96.626 E17.26263
G1 X124.851 Y100.698 E17.40228
G1 X126.499 Y107.055 E17.62103
G1 X126.679 Y108.006 E17.65327
G1 X126.781 Y108.852 E17.68166
G1 X126.832 Y109.612 E17.70703
G1 X126.777 Y110.617 E17.74056
G1 X126.615 Y111.917 E17.7842
G1 X126.482 Y112.666 E17.80954
G1 X126.27 Y113.397 E17.83489
G1 X126.132 Y113.764 E17.84795
G1 X125.641 Y114.965 E17.89117
G1 X125.316 Y115.653 E17.91652
G1 X124.702 Y116.608 E17.95433
G1 X123.91 Y117.65 E17.99793
G1 X123.418 Y118.231 E18.02329
G1 X122.574 Y118.997 E18.06126
G1 X121.549 Y119.79 E18.10443
G1 X120.924 Y120.224 E18.12977
G1 X119.924 Y120.739 E18.16724
G1 X118.714 Y121.248 E18.21097
G1 X117.783 Y121.567 E18.24375
G1 X95.266 Y127.612 E19.02036
G1 X94.628 Y127.753 E19.04212
G1 X92.678 Y128.092 E19.10805
G1 X91.922 Y128.183 E19.13342
G1 X91.161 Y128.194 E19.15877
G1 X90.7 Y128.162 E19.17416
G1 X87.396 Y127.825 E19.28479
G1 X82.14 Y127.526 E19.46015
G1 X76.88 Y127.524 E19.63537
G1 X71.671 Y127.818 E19.80916
G1 X64.874 Y128.619 E20.03713
G1 X64.114 Y128.668 E20.0625
G1 X62.996 Y128.595 E20.09982
G1 X61.436 Y128.371 E20.15232
G1 X60.587 Y128.197 E20.18119
G1 X37.65 Y122.042 E20.97226
G1 X36.762 Y121.741 E21.00349
G1 X35.585 Y121.255 E21.04591
G1 X34.898 Y120.928 E21.07125
G1 X33.965 Y120.326 E21.10824
G1 X32.923 Y119.534 E21.15183
G1 X32.342 Y119.042 E21.17719
G1 X31.576 Y118.199 E21.21514
G1 X30.782 Y117.173 E21.25835
G1 X30.349 Y116.547 E21.28371
G1 X29.832 Y115.543 E21.32132
G1 X29.328 Y114.343 E21.36468
G1 X29.07 Y113.627 E21.39003
G1 X28.829 Y112.519 E21.4278
G1 X28.653 Y111.233 E21.47104
G1 X28.589 Y110.474 E21.49641
G1 X28.606 Y109.713 E21.52176
G1 X28.673 Y109.129 E21.54135
G1 X28.951 Y107.353 E21.60123
G1 X29.101 Y106.635 E21.62566
G1 X30.893 Y99.8 E21.86103
G1 X31.977 Y94.603 E22.03787
G1 X32.382 Y92.127 E22.12144
G1 X33.02 Y86.852 E22.29843
G1 X33.354 Y81.631 E22.4727
G1 X33.393 Y76.372 E22.64789
G1 X33.135 Y71.138 E22.82245
G1 X32.582 Y65.937 E22.99667
G1 X31.722 Y60.686 E23.17391
G1 X31.211 Y58.219 E23.25783
G1 X30.237 Y54.249 E23.394
G1 X28.533 Y47.666 E23.62051
G1 X28.353 Y46.707 E23.65301
G1 X28.254 Y45.876 E23.68089
G1 X28.204 Y45.116 E23.70626
G1 X28.26 Y44.111 E23.73979
G1 X28.422 Y42.826 E23.78293
G1 X28.557 Y42.077 E23.80828
G1 X28.769 Y41.346 E23.83363
G1 X28.904 Y40.989 E23.84635
G1 X29.4 Y39.776 E23.89
G1 X29.725 Y39.087 E23.91537
G1 X30.335 Y38.138 E23.95295
G1 X31.118 Y37.106 E23.9961
G1 X31.61 Y36.524 E24.02149
G1 X32.453 Y35.757 E24.05945
G1 F600 E23.05945
G0 F2625 X37.451 Y42.011
G0 X37.507 Y42.067
G0 X37.437 Y41.997
;TYPE:WALL-INNER
G1 F600 E24.05945
G1 F900 X38.319 Y41.321 E24.09647
G1 X39.391 Y40.876 E24.13513
G1 X62.468 Y34.693 E24.93095
G1 X63.622 Y34.542 E24.96972
G1 X64.722 Y34.687 E25.00668
G1 X65.746 Y35.11 E25.04358
G1 X66.623 Y35.783 E25.08041
G1 X67.296 Y36.66 E25.11723
G1 X67.742 Y37.735 E25.156
G1 X74.443 Y62.744 E26.01844
G1 X74.594 Y63.898 E26.05721
G1 X74.449 Y64.998 E26.09417
G1 X74.025 Y66.022 E26.13109
G1 X73.352 Y66.899 E26.16791
G1 X72.475 Y67.572 E26.20473
G1 X71.4 Y68.018 E26.2435
G1 X48.323 Y74.202 E27.03933
G1 X47.169 Y74.353 E27.07809
G1 X46.069 Y74.208 E27.11505
G1 X45.045 Y73.784 E27.15197
G1 X44.168 Y73.111 E27.18879
G1 X43.495 Y72.234 E27.22562
G1 X43.05 Y71.159 E27.26437
G1 X36.348 Y46.15 E28.12683
G1 X36.197 Y44.996 E28.16559
G1 X36.342 Y43.896 E28.20255
G1 X36.766 Y42.872 E28.23947
G1 X37.437 Y41.997 E28.2762
G0 F2625 X37.507 Y42.067
G0 X40.01 Y44.82
G0 X40.091 Y44.877
G1 F900 X39.291 Y46.369 E28.33259
G1 X38.886 Y48.014 E28.38903
G1 X38.904 Y49.707 E28.44542
G1 X39.342 Y51.343 E28.50184
G1 X40.174 Y52.818 E28.55825
G1 X41.346 Y54.041 E28.61467
G1 X42.785 Y54.933 E28.67107
G1 X44.401 Y55.44 E28.72749
G1 X46.092 Y55.528 E28.78389
G1 X47.752 Y55.194 E28.84029
G1 X49.276 Y54.456 E28.8967
G1 X50.57 Y53.364 E28.9531
G1 X51.551 Y51.983 E29.00952
G1 X52.158 Y50.402 E29.06594
G1 X52.353 Y48.72 E29.12234
G1 X52.123 Y47.042 E29.17876
G1 X51.484 Y45.474 E29.23516
G1 X50.474 Y44.115 E29.29156
G1 X49.158 Y43.049 E29.34797
G1 X47.618 Y42.344 E29.40439
G1 X45.951 Y42.044 E29.46081
G1 X44.262 Y42.168 E29.51722
G1 X42.657 Y42.708 E29.57363
G1 X41.237 Y43.631 E29.63005
G1 X40.091 Y44.877 E29.68644
G0 F2625 X40.01 Y44.82
G0 X41.212 Y43.601
G0 X42.64 Y42.672
G0 X44.255 Y42.129
G0 X45.953 Y42.005
G0 X47.629 Y42.306
G0 X49.179 Y43.016
G0 X54.26 Y45.579
G0 X54.359 Y45.566
G1 F900 X54.797 Y47.201 E29.74282
G1 X55.628 Y48.677 E29.79924
G1 X56.8 Y49.9 E29.85567
G1 X58.24 Y50.792 E29.91209
G1 X59.856 Y51.298 E29.9685
G1 X61.547 Y51.387 E30.0249
G1 X63.207 Y51.053 E30.08131
G1 X64.731 Y50.315 E30.13771
G1 X66.025 Y49.223 E30.19411
G1 X67.006 Y47.842 E30.25054
G1 X67.613 Y46.261 E30.30695
G1 X67.808 Y44.578 E30.36339
G1 X67.578 Y42.901 E30.41977
G1 X66.939 Y41.333 E30.47617
G1 X65.929 Y39.973 E30.5326
G1 X64.612 Y38.908 E30.58902
G1 X63.073 Y38.203 E30.64541
G1 X61.405 Y37.903 E30.70186
G1 X59.716 Y38.027 E30.75827
G1 X58.112 Y38.566 E30.81464
G1 X56.692 Y39.49 E30.87107
G1 X55.546 Y40.736 E30.92746
G1 X54.746 Y42.228 E30.98385
G1 X54.341 Y43.873 E31.04029
G1 X54.359 Y45.566 E31.09668
G0 F2625 X54.26 Y45.579
G0 X57.182 Y60.131
G0 X57.201 Y60.229
G1 F900 X56.262 Y60.544 E31.12968
G1 X55.429 Y61.085 E31.16276
G1 X54.759 Y61.815 E31.19577
G1 X54.29 Y62.69 E31.22884
G1 X54.054 Y63.652 E31.26183
G1 X54.064 Y64.643 E31.29484
G1 X54.322 Y65.601 E31.32789
G1 X54.808 Y66.464 E31.36088
G1 X55.494 Y67.181 E31.39394
G1 X56.337 Y67.703 E31.42697
G1 X57.283 Y68 E31.45999
G1 X58.274 Y68.052 E31.49305
G1 X59.245 Y67.856 E31.52605
G1 X60.139 Y67.424 E31.55912
G1 X60.895 Y66.784 E31.59212
G1 X61.47 Y65.976 E31.62515
G1 X61.825 Y65.05 E31.65818
G1 X61.94 Y64.065 E31.69122
G1 X61.805 Y63.082 E31.72427
G1 X61.43 Y62.163 E31.75733
G1 X60.839 Y61.369 E31.7903
G1 X60.069 Y60.745 E31.82332
G1 X59.167 Y60.332 E31.85636
G1 X58.19 Y60.156 E31.88943
G1 X57.201 Y60.229 E31.92246
G0 F2625 X57.182 Y60.131
G0 X58.192 Y60.117
G0 X59.178 Y60.294
G0 X60.09 Y60.712
G0 X60.867 Y61.342
G0 X61.464 Y62.144
G0 X61.843 Y63.072
G0 X61.979 Y64.065
G0 X61.863 Y65.059
G0 X61.585 Y65.953
G0 X61.026 Y65.738
;TYPE:WALL-OUTER
G1 F900 X61.336 Y64.93 E31.95129
G1 X61.436 Y64.07 E31.98013
G1 X61.318 Y63.213 E32.00895
G1 X60.991 Y62.411 E32.0378
G1 X60.475 Y61.718 E32.06658
G1 X59.803 Y61.173 E32.0954
G1 X59.016 Y60.813 E32.12423
G1 X58.164 Y60.659 E32.15307
G1 X57.301 Y60.723 E32.18189
G1 X56.481 Y60.998 E32.2107
G1 X55.755 Y61.47 E32.23955
G1 X55.17 Y62.107 E32.26836
G1 X54.761 Y62.87 E32.29719
G1 X54.555 Y63.71 E32.326
G1 X54.563 Y64.575 E32.35482
G1 X54.788 Y65.41 E32.38362
G1 X55.213 Y66.164 E32.41246
G1 X55.811 Y66.789 E32.44127
G1 X56.547 Y67.245 E32.47011
G1 X57.372 Y67.504 E32.49891
G1 X58.237 Y67.549 E32.52777
G1 X59.084 Y67.378 E32.55655
G1 X59.864 Y67.001 E32.58541
G1 X60.524 Y66.443 E32.6142
G1 X61.026 Y65.738 E32.64303
G0 F2625 X61.115 Y65.505
G0 X61.674 Y65.72
G0 X61.863 Y65.059
G0 X64.843 Y50.351
G0 X64.457 Y49.892
G1 F900 X65.654 Y48.882 E32.69519
G1 X66.562 Y47.604 E32.74742
G1 X67.124 Y46.141 E32.79962
G1 X67.304 Y44.583 E32.85186
G1 X67.091 Y43.031 E32.90405
G1 X66.5 Y41.58 E32.95624
G1 X65.565 Y40.322 E33.00845
G1 X64.347 Y39.336 E33.06065
G1 X62.922 Y38.684 E33.11285
G1 X61.379 Y38.406 E33.16507
G1 X59.816 Y38.521 E33.21728
G1 X58.331 Y39.02 E33.26946
G1 X57.017 Y39.875 E33.32168
