; generated by Slic3r 1.1.7 on 2015-07-31 at 18:03:57

; perimeters extrusion width = 0.55mm
; infill extrusion width = 0.55mm
; solid infill extrusion width = 0.55mm
; top infill extrusion width = 0.55mm

G21 ; set units to millimeters
M107
M301 P34 I4 D113     ; set PID nozzle
M304 P162 I17 D378 ; set PID Bed

:M104 S230                 ; set extruder temp for budaschnozzle
M104 S250                 ; set extruder temp for hex_hot_end
M140 S110                 ; set bed temp for PEI (reminder ~G1 Z2 ~ M140 S(@-10 degree change) ;if -m is present in file name)

G28                            ; home
G1 Z5 F300                ; move bed down 5mm
M84                            ; disable steppers
G4 S300                     ; wait 5 mins to preheat

G28                            ; home
G90 ; use absolute coordinates
G92 E0
M82 ; use absolute distances for extrusion
G1 F1200.000 E-1.20000
G92 E0
G1 Z0.350 F7800.000
G1 X38.967 Y30.784 F7800.000
G1 E1.20000 F1200.000
G1 X40.506 Y29.075 E1.27581 F900.000
G1 X41.474 Y28.203 E1.31877
G1 X43.335 Y26.851 E1.39458
G1 X44.464 Y26.199 E1.43756
G1 X46.565 Y25.264 E1.51336
G1 X47.804 Y24.861 E1.55633
G1 X50.054 Y24.383 E1.63214
G1 X51.350 Y24.247 E1.67511
G1 X246.650 Y24.247 E8.11292
G1 X247.946 Y24.383 E8.15589
G1 X250.196 Y24.861 E8.23170 F900.000
G1 X251.435 Y25.264 E8.27467
G1 X253.536 Y26.199 E8.35047
G1 X254.665 Y26.851 E8.39345
G1 X256.526 Y28.203 E8.46925
G1 X257.494 Y29.075 E8.51222
G1 X259.033 Y30.784 E8.58803
G1 X259.799 Y31.839 E8.63100
G1 X260.949 Y33.830 E8.70680
G1 X261.479 Y35.021 E8.74977
G1 X262.190 Y37.208 E8.82558
G1 X262.461 Y38.483 E8.86855
G1 X262.736 Y41.422 E8.96584
G1 X262.701 Y237.230 E15.42041
G1 X262.461 Y239.517 E15.49621
G1 X262.190 Y240.792 E15.53918
G1 X261.479 Y242.979 E15.61498
G1 X260.949 Y244.170 E15.65796
G1 X259.799 Y246.161 E15.73376
G1 X259.033 Y247.216 E15.77673
G1 X257.494 Y248.925 E15.85254
G1 X256.526 Y249.797 E15.89551
G1 X254.665 Y251.149 E15.97131
G1 X253.536 Y251.801 E16.01429
G1 X251.435 Y252.736 E16.09009
G1 X250.196 Y253.139 E16.13306
G1 X247.946 Y253.617 E16.20887
G1 X246.650 Y253.753 E16.25184
G1 X51.350 Y253.753 E22.68965
G1 X50.054 Y253.617 E22.73262
G1 X47.804 Y253.139 E22.80843
G1 X46.565 Y252.736 E22.85140
G1 X44.464 Y251.801 E22.92720
G1 X43.335 Y251.149 E22.97018
G1 X41.474 Y249.797 E23.04598
G1 X40.506 Y248.925 E23.08895
G1 X38.967 Y247.216 E23.16476
G1 X38.201 Y246.161 E23.20773
G1 X37.051 Y244.170 E23.28353
G1 X36.521 Y242.979 E23.32651
G1 X35.810 Y240.792 E23.40231
G1 X35.539 Y239.517 E23.44528
G1 X35.264 Y236.578 E23.54258
G1 X35.299 Y40.770 E29.99714
G1 X35.539 Y38.483 E30.07294
G1 X35.810 Y37.208 E30.11591
G1 X36.521 Y35.021 E30.19172
G1 X37.051 Y33.830 E30.23469
G1 X38.201 Y31.839 E30.31049
G1 X38.923 Y30.845 E30.35099
G1 X39.426 Y31.197 F7800.000
G1 X40.965 Y29.488 E30.42680 F900.000
G1 X41.837 Y28.703 E30.46551
G1 X43.698 Y27.351 E30.54131
G1 X44.715 Y26.764 E30.58003
G1 X46.816 Y25.828 E30.65584
G1 X47.933 Y25.465 E30.69455
G1 X50.182 Y24.987 E30.77035
G1 X51.350 Y24.865 E30.80907
G1 X246.650 Y24.865 E37.24688
G1 X247.818 Y24.987 E37.28559
G1 X250.067 Y25.465 E37.36140 F900.000
G1 X251.184 Y25.828 E37.40011
G1 X253.285 Y26.764 E37.47592
G1 X254.302 Y27.351 E37.51464
G1 X256.163 Y28.703 E37.59044
G1 X257.035 Y29.488 E37.62915
G1 X258.574 Y31.197 E37.70496
G1 X259.264 Y32.148 E37.74367
G1 X260.414 Y34.139 E37.81947
G1 X260.892 Y35.212 E37.85819
G1 X261.602 Y37.399 E37.93400
G1 X261.847 Y38.548 E37.97270
G1 X262.118 Y41.422 E38.06787
G1 X262.087 Y237.165 E44.52031
G1 X261.847 Y239.452 E44.59611
G1 X261.602 Y240.601 E44.63482
G1 X260.892 Y242.788 E44.71063
G1 X260.414 Y243.861 E44.74934
G1 X259.264 Y245.852 E44.82514
G1 X258.574 Y246.803 E44.86386
G1 X257.035 Y248.512 E44.93967
G1 X256.163 Y249.297 E44.97838
G1 X254.302 Y250.649 E45.05418
G1 X253.285 Y251.236 E45.09290
G1 X251.184 Y252.172 E45.16870
G1 X250.067 Y252.535 E45.20742
G1 X247.818 Y253.013 E45.28322
G1 X246.650 Y253.135 E45.32193
G1 X51.350 Y253.135 E51.75975
G1 X50.182 Y253.013 E51.79846
G1 X47.933 Y252.535 E51.87427
G1 X46.816 Y252.172 E51.91298
G1 X44.715 Y251.236 E51.98878
G1 X43.698 Y250.649 E52.02750
G1 X41.837 Y249.297 E52.10331
G1 X40.965 Y248.512 E52.14202
G1 X39.426 Y246.803 E52.21783
G1 X38.736 Y245.852 E52.25654
G1 X37.586 Y243.861 E52.33234
G1 X37.108 Y242.788 E52.37106
G1 X36.398 Y240.601 E52.44686
G1 X36.153 Y239.452 E52.48557
G1 X35.882 Y236.578 E52.58074
G1 X35.913 Y40.835 E59.03317
G1 X36.153 Y38.548 E59.10898
G1 X36.398 Y37.399 E59.14769
G1 X37.108 Y35.212 E59.22349
G1 X37.586 Y34.139 E59.26221
G1 X38.736 Y32.148 E59.33801
G1 X39.382 Y31.258 E59.37425
G1 F1200.000 E58.17425
G92 E0
G1 X243.026 Y161.480 F7800.000
G1 E1.20000 F1200.000
G1 X242.326 Y161.308 E1.22374 F450.000
G1 X240.416 Y160.305 E1.29486
G1 X238.801 Y158.874 E1.36598
G1 X237.575 Y157.099 E1.43710
G1 X236.810 Y155.081 E1.50822
G1 X236.550 Y152.940 E1.57935
G1 X236.810 Y150.798 E1.65047
G1 X237.575 Y148.781 E1.72159
G1 X238.801 Y147.005 E1.79271
G1 X240.416 Y145.574 E1.86383
G1 X242.326 Y144.572 E1.93495
G1 X244.421 Y144.055 E2.00607
G1 X246.579 Y144.055 E2.07719
G1 X248.235 Y144.463 E2.13341
G1 X248.674 Y144.572 E2.14831 F450.000
G1 X250.584 Y145.574 E2.21943
G1 X252.199 Y147.005 E2.29055
G1 X253.425 Y148.781 E2.36167
G1 X254.190 Y150.798 E2.43279
G1 X254.450 Y152.940 E2.50391
G1 X254.190 Y155.081 E2.57504
G1 X253.425 Y157.099 E2.64616
G1 X252.199 Y158.874 E2.71728
G1 X250.584 Y160.305 E2.78840
G1 X248.674 Y161.308 E2.85952
G1 X246.579 Y161.824 E2.93064
G1 X244.421 Y161.824 E3.00176
G1 X243.099 Y161.498 E3.04667
G1 X243.174 Y160.880 F7800.000
G1 X242.547 Y160.726 E3.06794 F315.000
G1 X240.770 Y159.793 E3.13411
G1 X239.267 Y158.462 E3.20029
G1 X238.127 Y156.810 E3.26646
G1 X237.415 Y154.933 E3.33264
G1 X237.173 Y152.940 E3.39881
G1 X237.415 Y150.947 E3.46499
G1 X238.127 Y149.070 E3.53116
G1 X239.267 Y147.418 E3.59734
G1 X240.770 Y146.086 E3.66351
G1 X242.547 Y145.153 E3.72969
G1 X244.496 Y144.673 E3.79586
G1 X246.504 Y144.673 E3.86204 F315.000
G1 X248.453 Y145.153 E3.92821
G1 X250.230 Y146.086 E3.99439
G1 X251.733 Y147.418 E4.06056
G1 X252.873 Y149.070 E4.12674
G1 X253.452 Y150.594 E4.18049
G1 X253.585 Y150.947 E4.19291
G1 X253.827 Y152.940 E4.25909
G1 X253.585 Y154.933 E4.32526
G1 X252.873 Y156.810 E4.39144
G1 X251.733 Y158.462 E4.45761
G1 X250.230 Y159.793 E4.52379
G1 X248.453 Y160.726 E4.58996
G1 X246.504 Y161.206 E4.65614
G1 X244.496 Y161.206 E4.72231
G1 X243.246 Y160.898 E4.76475
G1 F1200.000 E3.56475
G92 E0
G1 X244.496 Y144.173 F7800.000
G1 X242.811 Y162.588 F7800.000
G1 E1.20000 F1200.000
G1 X242.394 Y162.500 E1.21405 F450.000
G1 X240.474 Y161.645 E1.28332
G1 X238.774 Y160.410 E1.35259
G1 X237.368 Y158.848 E1.42186
G1 X236.317 Y157.028 E1.49113
G1 X235.668 Y155.030 E1.56040
G1 X235.448 Y152.940 E1.62967
G1 X235.668 Y150.850 E1.69894
G1 X236.317 Y148.851 E1.76822
G1 X237.368 Y147.031 E1.83749
G1 X238.774 Y145.470 E1.90676
G1 X240.474 Y144.234 E1.97603
G1 X242.394 Y143.380 E2.04530
G1 X244.449 Y142.943 E2.11457
G1 X246.551 Y142.943 E2.18384 F450.000
G1 X248.606 Y143.380 E2.25312
G1 X250.526 Y144.234 E2.32239
G1 X252.226 Y145.470 E2.39166
G1 X253.632 Y147.031 E2.46093
G1 X254.683 Y148.851 E2.53020
G1 X255.332 Y150.850 E2.59947
G1 X255.552 Y152.940 E2.66874
G1 X255.332 Y155.030 E2.73801
G1 X254.683 Y157.028 E2.80729
G1 X253.632 Y158.848 E2.87656
G1 X252.226 Y160.410 E2.94583
G1 X250.526 Y161.645 E3.01510
G1 X248.606 Y162.500 E3.08437
G1 X246.551 Y162.937 E3.15364
G1 X244.449 Y162.937 E3.22291
G1 X242.884 Y162.604 E3.27567
G1 X242.682 Y163.193 F7800.000
G1 X242.202 Y163.091 E3.29185 F315.000
G1 X240.163 Y162.183 E3.36541
G1 X238.358 Y160.871 E3.43896
G1 X236.865 Y159.213 E3.51251
G1 X235.750 Y157.281 E3.58606
G1 X235.060 Y155.159 E3.65962
G1 X234.827 Y152.940 E3.73317
G1 X235.060 Y150.721 E3.80672
G1 X235.750 Y148.599 E3.88027
G1 X236.865 Y146.666 E3.95382
G1 X238.358 Y145.008 E4.02738
G1 X240.163 Y143.696 E4.10093
G1 X242.202 Y142.789 E4.17448
G1 X244.384 Y142.325 E4.24803
G1 X246.616 Y142.325 E4.32159
G1 X248.438 Y142.712 E4.38300
G1 X248.798 Y142.789 E4.39514 F315.000
G1 X250.837 Y143.696 E4.46869
G1 X252.642 Y145.008 E4.54224
G1 X254.135 Y146.666 E4.61580
G1 X255.250 Y148.599 E4.68935
G1 X255.940 Y150.721 E4.76290
G1 X256.173 Y152.940 E4.83645
G1 X255.940 Y155.159 E4.91000
G1 X255.250 Y157.281 E4.98356
G1 X254.135 Y159.213 E5.05711
G1 X252.642 Y160.871 E5.13066
G1 X250.837 Y162.183 E5.20421
G1 X248.798 Y163.091 E5.27777
G1 X246.616 Y163.554 E5.35132
G1 X244.384 Y163.554 E5.42487
G1 X242.755 Y163.208 E5.47976
G1 F1200.000 E4.27976
G92 E0
G1 X248.713 Y142.957 F7800.000
G1 X242.946 Y162.041 F7800.000
G1 E1.20000 F1200.000
G1 X242.571 Y161.955 E1.21154 F300.000
G1 X242.113 Y161.795 E1.22604
G1 X240.765 Y161.141 E1.27090
G1 X240.139 Y160.753 E1.29295
G1 X239.166 Y159.975 E1.33024
G1 X238.426 Y159.241 E1.36142
G1 X237.840 Y158.505 E1.38959
G1 X237.121 Y157.367 E1.42988
G1 X236.845 Y156.793 E1.44894
G1 X236.297 Y155.236 E1.49835
G1 X236.222 Y154.912 E1.50832
G1 X236.002 Y152.911 E1.56857
G1 X236.222 Y150.968 E1.62711 F300.000
G1 X236.297 Y150.643 E1.63707
G1 X236.845 Y149.086 E1.68648
G1 X237.121 Y148.512 E1.70554
G1 X237.840 Y147.375 E1.74583
G1 X238.426 Y146.638 E1.77400
G1 X239.166 Y145.904 E1.80518
G1 X240.096 Y145.157 E1.84092
G1 X240.765 Y144.738 E1.86453
G1 X242.113 Y144.085 E1.90938
G1 X242.571 Y143.925 E1.92389
G1 X244.328 Y143.521 E1.97786
G1 X244.508 Y143.499 E1.98328
G1 X246.616 Y143.512 E2.04639
G1 X248.429 Y143.925 E2.10204
G1 X248.887 Y144.085 E2.11655
G1 X250.235 Y144.738 E2.16140
G1 X250.904 Y145.157 E2.18501
G1 X251.834 Y145.904 E2.22075
G1 X252.574 Y146.638 E2.25193
G1 X253.160 Y147.375 E2.28010
G1 X253.879 Y148.512 E2.32039
G1 X254.155 Y149.086 E2.33945
G1 X254.703 Y150.643 E2.38886
G1 X254.778 Y150.968 E2.39883
G1 X255.000 Y152.940 E2.45823
G1 X254.778 Y154.912 E2.51763
G1 X254.703 Y155.236 E2.52760
G1 X254.155 Y156.793 E2.57701
G1 X253.879 Y157.367 E2.59607
G1 X253.160 Y158.505 E2.63636
G1 X252.574 Y159.241 E2.66452
G1 X251.834 Y159.975 E2.69571
G1 X250.904 Y160.723 E2.73144
G1 X250.235 Y161.141 E2.75505
G1 X248.837 Y161.815 E2.80150
G1 X248.429 Y161.955 E2.81441
G1 X246.672 Y162.358 E2.86839
G1 X246.492 Y162.380 E2.87380
G1 X244.508 Y162.380 E2.93320
G1 X244.328 Y162.358 E2.93862
G1 X243.019 Y162.058 E2.97881
G1 F1200.000 E1.77881
G92 E0
G1 X222.190 Y155.081 F7800.000
G1 E1.20000 F1200.000
G1 X221.425 Y157.099 E1.27112 F450.000
G1 X220.199 Y158.874 E1.34224
G1 X218.584 Y160.305 E1.41336
G1 X216.674 Y161.308 E1.48448
G1 X214.579 Y161.824 E1.55560
G1 X212.421 Y161.824 E1.62673
G1 X210.326 Y161.308 E1.69784
G1 X208.416 Y160.305 E1.76896
G1 X206.801 Y158.874 E1.84009
G1 X205.575 Y157.099 E1.91121
G1 X204.810 Y155.081 E1.98233
G1 X204.550 Y152.940 E2.05345
G1 X204.810 Y150.798 E2.12457
G1 X205.575 Y148.781 E2.19569
G1 X206.801 Y147.005 E2.26681
G1 X208.416 Y145.574 E2.33793
G1 X210.326 Y144.572 E2.40905
G1 X212.421 Y144.055 E2.48017
G1 X214.579 Y144.055 E2.55129
G1 X216.541 Y144.539 E2.61791
G1 X216.674 Y144.572 E2.62241 F450.000
G1 X218.584 Y145.574 E2.69353
G1 X220.199 Y147.005 E2.76466
G1 X221.425 Y148.781 E2.83578
G1 X222.190 Y150.798 E2.90690
G1 X222.450 Y152.940 E2.97802
G1 X222.199 Y155.007 E3.04667
G1 X221.585 Y154.933 F7800.000
G1 X220.873 Y156.810 E3.11284 F315.000
G1 X219.733 Y158.462 E3.17902
G1 X218.230 Y159.793 E3.24519
G1 X216.453 Y160.726 E3.31137
G1 X214.504 Y161.206 E3.37754
G1 X212.496 Y161.206 E3.44372
G1 X210.547 Y160.726 E3.50989
G1 X208.770 Y159.793 E3.57607
G1 X207.267 Y158.462 E3.64224
G1 X206.127 Y156.810 E3.70842
G1 X205.415 Y154.933 E3.77459
G1 X205.173 Y152.940 E3.84077
G1 X205.415 Y150.947 E3.90694
G1 X205.993 Y149.422 E3.96069
G1 X206.127 Y149.070 E3.97312
G1 X207.267 Y147.418 E4.03929
G1 X208.770 Y146.086 E4.10547
G1 X210.547 Y145.153 E4.17164
G1 X212.496 Y144.673 E4.23782
G1 X214.504 Y144.673 E4.30399 F315.000
G1 X216.453 Y145.153 E4.37017
G1 X218.230 Y146.086 E4.43634
G1 X219.733 Y147.418 E4.50252
G1 X220.873 Y149.070 E4.56869
G1 X221.585 Y150.947 E4.63487
G1 X221.827 Y152.940 E4.70104
G1 X221.594 Y154.858 E4.76475
G1 F1200.000 E3.56475
G92 E0
G1 X212.357 Y144.193 F7800.000
G1 X223.194 Y155.455 F7800.000
G1 E1.20000 F1200.000
G1 X222.683 Y157.028 E1.25452 F450.000
G1 X221.632 Y158.848 E1.32379
G1 X220.226 Y160.410 E1.39306
G1 X218.526 Y161.645 E1.46233
G1 X216.606 Y162.500 E1.53160
G1 X214.551 Y162.937 E1.60088
G1 X212.449 Y162.937 E1.67015
G1 X210.394 Y162.500 E1.73942
G1 X208.474 Y161.645 E1.80869
G1 X206.774 Y160.410 E1.87796
G1 X205.368 Y158.848 E1.94723
G1 X204.317 Y157.028 E2.01650
G1 X203.668 Y155.030 E2.08578
G1 X203.448 Y152.940 E2.15505
G1 X203.668 Y150.850 E2.22432
G1 X204.317 Y148.851 E2.29359
G1 X205.368 Y147.031 E2.36286
G1 X206.774 Y145.470 E2.43213
G1 X208.474 Y144.234 E2.50140
G1 X210.394 Y143.380 E2.57067
G1 X212.449 Y142.943 E2.63995
G1 X214.551 Y142.943 E2.70922 F450.000
G1 X216.310 Y143.317 E2.76849
G1 X216.606 Y143.380 E2.77849
G1 X218.526 Y144.234 E2.84776
G1 X220.226 Y145.470 E2.91703
G1 X221.632 Y147.031 E2.98630
G1 X222.683 Y148.851 E3.05557
G1 X223.332 Y150.850 E3.12485
G1 X223.552 Y152.940 E3.19412
G1 X223.332 Y155.030 E3.26339
G1 X223.217 Y155.384 E3.27567
G1 X223.782 Y155.646 F7800.000
G1 X223.250 Y157.281 E3.33233 F315.000
G1 X222.135 Y159.213 E3.40588
G1 X220.642 Y160.871 E3.47943
G1 X218.837 Y162.183 E3.55299
G1 X216.798 Y163.091 E3.62654
G1 X214.616 Y163.554 E3.70009
G1 X212.384 Y163.554 E3.77364
G1 X210.202 Y163.091 E3.84720
G1 X208.163 Y162.183 E3.92075
G1 X206.358 Y160.871 E3.99430
G1 X204.865 Y159.213 E4.06785
G1 X203.750 Y157.281 E4.14140
G1 X203.060 Y155.159 E4.21496
G1 X202.827 Y152.940 E4.28851
G1 X203.060 Y150.721 E4.36206
G1 X203.750 Y148.599 E4.43561
G1 X204.865 Y146.666 E4.50916
G1 X206.358 Y145.008 E4.58272
G1 X208.163 Y143.696 E4.65627
G1 X210.202 Y142.789 E4.72982
G1 X212.384 Y142.325 E4.80337
G1 X214.616 Y142.325 E4.87693
G1 X216.438 Y142.712 E4.93834
G1 X216.798 Y142.789 E4.95048 F315.000
G1 X218.837 Y143.696 E5.02403
G1 X220.642 Y145.008 E5.09758
G1 X222.135 Y146.666 E5.17114
G1 X223.250 Y148.599 E5.24469
G1 X223.940 Y150.721 E5.31824
G1 X224.173 Y152.940 E5.39179
G1 X223.940 Y155.159 E5.46534
G1 X223.805 Y155.575 E5.47976
G1 F1200.000 E4.27976
G92 E0
G1 X216.764 Y142.883 F7800.000
G1 X222.693 Y155.263 F7800.000
G1 E1.20000 F1200.000
G1 X222.155 Y156.793 E1.24855 F300.000
G1 X221.879 Y157.367 E1.26761
G1 X221.160 Y158.505 E1.30790
G1 X220.574 Y159.241 E1.33607
G1 X219.834 Y159.975 E1.36725
G1 X218.861 Y160.753 E1.40454
G1 X218.235 Y161.141 E1.42660
G1 X216.887 Y161.795 E1.47145
G1 X216.429 Y161.955 E1.48596
G1 X214.672 Y162.358 E1.53993
G1 X214.492 Y162.380 E1.54534
G1 X212.384 Y162.367 E1.60846
G1 X210.571 Y161.955 E1.66411
G1 X210.113 Y161.795 E1.67862
G1 X208.765 Y161.141 E1.72347
G1 X208.096 Y160.723 E1.74708
G1 X207.166 Y159.975 E1.78282
G1 X206.391 Y159.203 E1.81555
G1 X205.840 Y158.505 E1.84217
G1 X205.121 Y157.367 E1.88246
G1 X204.845 Y156.793 E1.90152
G1 X204.297 Y155.236 E1.95093
G1 X204.222 Y154.912 E1.96089
G1 X204.002 Y152.911 E2.02114
G1 X204.222 Y150.968 E2.07968 F300.000
G1 X204.297 Y150.643 E2.08965
G1 X204.845 Y149.086 E2.13906
G1 X205.121 Y148.512 E2.15812
G1 X205.840 Y147.375 E2.19841
G1 X206.426 Y146.638 E2.22658
G1 X207.166 Y145.904 E2.25776
G1 X208.096 Y145.157 E2.29350
G1 X208.765 Y144.738 E2.31710
G1 X210.113 Y144.085 E2.36196
G1 X210.571 Y143.925 E2.37646
G1 X212.328 Y143.521 E2.43044
G1 X212.508 Y143.499 E2.43585
G1 X214.616 Y143.512 E2.49897
G1 X216.429 Y143.925 E2.55462
G1 X216.887 Y144.085 E2.56913
G1 X218.235 Y144.738 E2.61398
G1 X218.904 Y145.157 E2.63759
G1 X219.834 Y145.904 E2.67333
G1 X220.574 Y146.638 E2.70451
G1 X221.160 Y147.375 E2.73268
G1 X221.879 Y148.512 E2.77297
G1 X222.155 Y149.086 E2.79203
G1 X222.703 Y150.643 E2.84144
G1 X222.778 Y150.968 E2.85140
G1 X223.000 Y152.940 E2.91081
G1 X222.778 Y154.912 E2.97021
G1 X222.716 Y155.192 E2.97879
G1 F1200.000 E1.77879
G92 E0
G1 X190.450 Y152.940 F7800.000
G1 E1.20000 F1200.000
G1 X190.190 Y155.081 E1.27112 F450.000
G1 X189.425 Y157.099 E1.34224
