;Generated by Cura LulzBot Edition GCodeWriter Version: 3.6.23
;FLAVOR:Marlin
;TIME:546
;Filament used: 0.206001m
;Layer height: 0.25
;Generated with Cura_SteamEngine 3.6.23
M82 ;absolute extrusion mode
;This G-Code has been generated specifically for the LulzBot TAZ Workhorse with HE 0.5mm Tool Head
M73 P0 ; clear GLCD progress bar
M75 ; start GLCD timer
G26 ; clear potential 'probe fail' condition
M107 ; disable fans
M420 S0 ; disable previous leveling matrix
G90 ; absolute positioning
M82 ; set extruder to absolute mode
G92 E0 ; set extruder position to 0
M140 S60.0 ; start bed heating up
M109 R140 ; soften filament before homing Z
G28 ; Home all axis
G1 E-30 F100 ; retract filament
M109 R140 ; wait for extruder to reach wiping temp
G1 X-15 Y100 F3000 ; move above wiper pad
G1 Z1 ; push nozzle into wiper
G1 X-17 Y95 F1000 ; slow wipe
G1 X-17 Y90 F1000 ; slow wipe
G1 X-17 Y85 F1000 ; slow wipe
G1 X-15 Y90 F1000 ; slow wipe
G1 X-17 Y80 F1000 ; slow wipe
G1 X-15 Y95 F1000 ; slow wipe
G1 X-17 Y75 F2000 ; fast wipe
G1 X-15 Y65 F2000 ; fast wipe
G1 X-17 Y70 F2000 ; fast wipe
G1 X-15 Y60 F2000 ; fast wipe
G1 X-17 Y55 F2000 ; fast wipe
G1 X-15 Y50 F2000 ; fast wipe
G1 X-17 Y40 F2000 ; fast wipe
G1 X-15 Y45 F2000 ; fast wipe
G1 X-17 Y35 F2000 ; fast wipe
G1 X-15 Y40 F2000 ; fast wipe
G1 X-17 Y70 F2000 ; fast wipe
G1 X-15 Y30 Z2 F2000 ; fast wipe
G1 X-17 Y35 F2000 ; fast wipe
G1 X-15 Y25 F2000 ; fast wipe
G1 X-17 Y30 F2000 ; fast wipe
G1 X-15 Y25 Z1.5 F1000 ; slow wipe
G1 X-17 Y23 F1000 ; slow wipe
G1 Z10 ; raise extruder
M109 R140 ; wait for extruder to reach probe temp
G1 X-9 Y-9 ; move above first probe point
M204 S100 ; set probing acceleration
G29       ; start auto-leveling sequence
M420 S1   ; activate bed level matrix
M425 Z    ; use measured Z backlash for compensation
M425 Z F0 ; turn off measured Z backlash compensation. (if activated in the quality settings, this command will automatically be ignored)
M204 S500 ; restore standard acceleration
G1 X0 Y0 Z15 F5000 ; move up off last probe point
G4 S1 ; pause
M400 ; wait for moves to finish
M117 Heating... ; progress indicator message on LCD
M109 R225 ; wait for extruder to reach printing temp
M190 R60.0 ; wait for bed to reach printing temp
G1 Z2 E0 F75 ; prime tiny bit of filament into the nozzle
M117 TAZ Workhorse Printing... ; progress indicator message on LCD

M221 S100 T0
G92 E0
G1 F600 E-1.75
;LAYER_COUNT:2
;LAYER:0
M107
G0 F2625 X63.858 Y109.209 Z0.4
;TYPE:SKIRT
G1 F600 E0
G1 F900 X62.061 Y104.038 E0.17163
G1 X59.972 Y98.973 E0.34339
G1 X57.598 Y94.028 E0.51536
G1 X54.967 Y89.26 E0.68609
G1 X52.046 Y84.611 E0.85822
G1 X48.886 Y80.16 E1.02936
G1 X41.107 Y70.482 E1.41864
G1 X41.07 Y70.435 E1.42051
G1 X33.042 Y60.061 E1.83176
G1 X32.978 Y59.976 E1.83509
G1 X25.102 Y49.077 E2.25667
G1 X24.992 Y48.915 E2.26281
G1 X19.539 Y40.324 E2.58182
G1 X19.375 Y40.032 E2.59232
G1 X15.926 Y33.115 E2.83463
G1 X15.747 Y32.68 E2.84938
G1 X14.706 Y29.515 E2.95384
G1 X14.576 Y28.964 E2.97158
G1 X14.168 Y26.136 E3.06116
G1 X14.135 Y25.628 E3.07712
G1 X14.166 Y25.224 E3.08983
G1 X14.504 Y22.795 E3.16671
G1 X14.614 Y22.297 E3.1827
G1 X14.8 Y21.823 E3.19866
G1 X14.987 Y21.489 E3.21066
G1 X16.249 Y19.52 E3.28398
G1 X16.556 Y19.114 E3.29994
G1 X16.924 Y18.761 E3.31593
G1 X17.382 Y18.447 E3.33334
G1 X19.482 Y17.256 E3.40903
G1 X19.943 Y17.04 E3.42499
G1 X20.433 Y16.899 E3.44097
G1 X20.801 Y16.845 E3.45263
G1 X23.495 Y16.609 E3.53742
G1 X24.231 Y16.629 E3.5605
G1 X26.654 Y16.969 E3.63721
G1 X26.949 Y17.024 E3.64661
G1 X28.651 Y17.426 E3.70144
G1 X28.866 Y17.485 E3.70843
G1 X31.348 Y18.254 E3.78989
G1 X31.713 Y18.391 E3.80212
G1 X40.102 Y22.142 E4.09021
G1 X40.387 Y22.287 E4.10024
G1 X51.154 Y28.439 E4.48901
G1 X51.322 Y28.542 E4.49519
G1 X62.462 Y35.837 E4.91266
G1 X62.566 Y35.907 E4.91659
G1 X74.171 Y44.16 E5.36304
G1 X74.24 Y44.211 E5.36573
G1 X82.218 Y50.209 E5.67865
G1 X86.771 Y53.272 E5.85068
G1 X91.468 Y56.058 E6.02189
G1 X96.317 Y58.576 E6.19319
G1 X101.322 Y60.824 E6.3652
G1 X106.43 Y62.781 E6.53669
G1 X111.638 Y64.445 E6.7081
G1 X116.991 Y65.828 E6.88143
G1 X119.602 Y66.383 E6.96512
G1 X125.007 Y67.299 E7.13698
G1 X130.452 Y67.906 E7.30875
G1 X135.912 Y68.205 E7.48018
G1 X141.395 Y68.194 E7.65208
G1 X146.851 Y67.875 E7.82342
G1 X152.281 Y67.247 E7.99479
G1 X157.687 Y66.31 E8.1668
G1 X160.356 Y65.729 E8.25244
G1 X162.979 Y65.083 E8.33713
G1 X168.265 Y63.535 E8.50981
G1 X173.406 Y61.708 E8.68086
G1 X178.463 Y59.582 E8.85284
G1 X183.371 Y57.184 E9.02409
G1 X188.164 Y54.497 E9.19636
G1 X192.765 Y51.564 E9.36742
G1 X197.202 Y48.368 E9.53886
G1 X210.085 Y37.86 E10.06007
G1 X210.181 Y37.784 E10.0639
G1 X222.219 Y28.698 E10.53674
G1 X222.376 Y28.587 E10.54277
G1 X232.562 Y21.805 E10.92642
G1 X232.788 Y21.667 E10.93472
G1 X241.509 Y16.836 E11.24728
G1 X241.928 Y16.641 E11.26177
G1 X250.034 Y13.557 E11.53367
G1 X250.674 Y13.386 E11.55444
G1 X254.296 Y12.804 E11.66945
G1 X254.865 Y12.763 E11.68733
G1 X258.15 Y12.817 E11.79033
G1 X258.658 Y12.866 E11.80633
G1 X259.154 Y12.994 E11.82239
G1 X262.091 Y14.004 E11.91976
G1 X262.558 Y14.207 E11.93573
G1 X262.999 Y14.489 E11.95214
G1 X265.184 Y16.148 E12.03815
G1 X265.565 Y16.487 E12.05414
G1 X265.994 Y17.044 E12.07618
G1 X267.505 Y19.521 E12.16714
G1 X267.735 Y19.975 E12.1831
G1 X267.931 Y20.648 E12.20507
G1 X268.446 Y23.566 E12.29797
G1 X268.494 Y24.073 E12.31394
G1 X268.487 Y24.358 E12.32287
G1 X268.26 Y27.598 E12.4247
G1 X268.14 Y28.273 E12.44619
G1 X267.12 Y31.804 E12.56142
G1 X266.914 Y32.337 E12.57933
G1 X263.013 Y40.264 E12.85632
G1 X262.805 Y40.625 E12.86938
G1 X257.295 Y48.932 E13.18189
G1 X257.167 Y49.112 E13.18882
G1 X249.768 Y58.772 E13.5703
G1 X249.694 Y58.866 E13.57405
G1 X240.794 Y69.639 E14.01214
G1 X240.762 Y69.676 E14.01367
G1 X235.809 Y75.492 E14.25317
G1 X232.328 Y79.814 E14.42715
G1 X229.147 Y84.256 E14.59844
G1 X226.224 Y88.87 E14.76968
G1 X223.557 Y93.657 E14.94147
G1 X221.169 Y98.578 E15.11296
G1 X219.061 Y103.633 E15.28466
G1 X217.244 Y108.795 E15.45623
G1 X215.711 Y114.087 E15.62896
G1 X215.074 Y116.698 E15.71322
G1 X214 Y122.075 E15.88512
G1 X213.235 Y127.484 E16.05639
G1 X212.774 Y132.952 E16.22842
G1 X212.625 Y138.414 E16.39972
G1 X212.785 Y143.895 E16.57163
G1 X213.252 Y149.338 E16.7429
G1 X214.028 Y154.751 E16.91434
G1 X215.111 Y160.126 E17.08624
G1 X215.755 Y162.75 E17.17094
G1 X217.295 Y168.028 E17.34331
G1 X219.122 Y173.191 E17.51501
G1 X221.236 Y178.233 E17.68642
G1 X223.635 Y183.159 E17.85819
G1 X226.306 Y187.934 E18.02972
G1 X229.25 Y192.562 E18.20168
G1 X230.797 Y194.778 E18.28641
G1 X245.425 Y213.919 E19.04167
G1 X245.472 Y213.982 E19.04414
G1 X253.066 Y224.435 E19.4492
G1 X253.143 Y224.545 E19.45341
G1 X259.677 Y234.369 E19.8233
G1 X259.795 Y234.56 E19.83034
G1 X265.15 Y243.96 E20.1695
G1 X265.353 Y244.385 E20.18427
G1 X268.325 Y251.982 E20.44002
G1 X268.482 Y252.515 E20.45744
G1 X269.172 Y255.891 E20.56547
G1 X269.238 Y256.54 E20.58592
G1 X269.24 Y259.563 E20.68069
G1 X269.2 Y260.071 E20.69667
G1 X269.104 Y260.495 E20.7103
G1 X268.288 Y263.227 E20.79969
G1 X268.104 Y263.702 E20.81566
G1 X267.756 Y264.271 E20.83657
G1 X266.121 Y266.409 E20.92095
G1 X265.78 Y266.788 E20.93693
G1 X265.385 Y267.11 E20.95291
G1 X265.149 Y267.258 E20.96165
G1 X263.026 Y268.469 E21.03827
G1 X262.565 Y268.686 E21.05424
G1 X262.076 Y268.828 E21.07021
G1 X261.812 Y268.872 E21.0786
G1 X259.101 Y269.205 E21.16423
G1 X258.592 Y269.227 E21.1802
G1 X258.32 Y269.206 E21.18876
G1 X255.536 Y268.874 E21.27665
G1 X255.007 Y268.766 E21.29358
G1 X251.688 Y267.793 E21.40201
G1 X251.254 Y267.631 E21.41654
G1 X243.471 Y264.084 E21.68469
G1 X243.169 Y263.927 E21.69536
G1 X234.689 Y258.929 E22.00395
G1 X234.513 Y258.818 E22.01048
G1 X224.25 Y251.848 E22.39942
G1 X224.112 Y251.748 E22.40476
G1 X211.931 Y242.508 E22.88409
G1 X211.849 Y242.444 E22.88735
G1 X199.726 Y232.619 E23.37656
G1 X195.286 Y229.402 E23.54846
G1 X190.678 Y226.444 E23.72012
G1 X185.916 Y223.756 E23.89156
G1 X181.005 Y221.34 E24.06315
G1 X175.916 Y219.182 E24.23644
G1 X173.431 Y218.253 E24.31962
G1 X168.202 Y216.544 E24.49208
G1 X162.889 Y215.134 E24.66442
G1 X160.228 Y214.546 E24.74986
G1 X157.572 Y214.041 E24.83462
G1 X152.146 Y213.242 E25.00656
G1 X146.684 Y212.751 E25.17849
G1 X141.223 Y212.57 E25.34979
G1 X135.76 Y212.699 E25.52111
G1 X130.291 Y213.137 E25.69312
G1 X124.878 Y213.881 E25.86441
G1 X119.462 Y214.941 E26.03743
G1 X116.892 Y215.557 E26.12029
G1 X111.586 Y217.071 E26.29327
G1 X106.408 Y218.871 E26.46514
G1 X101.36 Y220.954 E26.63634
G1 X96.414 Y223.329 E26.80835
G1 X91.622 Y225.974 E26.97995
G1 X86.98 Y228.889 E27.1518
G1 X84.754 Y230.423 E27.23655
G1 X81.654 Y232.718 E27.35747
G1 X69.615 Y241.972 E27.83353
G1 X69.53 Y242.035 E27.83684
G1 X58.502 Y249.954 E28.26249
G1 X58.38 Y250.037 E28.26711
G1 X47.376 Y257.203 E28.6788
G1 X47.226 Y257.295 E28.68432
G1 X37.518 Y262.897 E29.03571
G1 X37.294 Y263.015 E29.04365
G1 X30.019 Y266.487 E29.29637
G1 X29.754 Y266.599 E29.30539
G1 X26.982 Y267.632 E29.39813
G1 X26.705 Y267.722 E29.40726
G1 X25.071 Y268.169 E29.46037
G1 X24.83 Y268.225 E29.46813
G1 X22.839 Y268.61 E29.53171
G1 X22.142 Y268.668 E29.55363
G1 X19.779 Y268.61 E29.62774
G1 X19.272 Y268.558 E29.64372
G1 X18.78 Y268.427 E29.65968
G1 X18.349 Y268.239 E29.67442
G1 X16.387 Y267.21 E29.74388
G1 X15.956 Y266.939 E29.75984
G1 X15.573 Y266.604 E29.77579
G1 X15.129 Y266.036 E29.79839
G1 X13.758 Y263.809 E29.88038
G1 X13.526 Y263.355 E29.89637
G1 X13.332 Y262.704 E29.91766
G1 X12.817 Y259.959 E30.00522
G1 X12.762 Y259.453 E30.02118
G1 X12.769 Y259.128 E30.03137
G1 X12.999 Y255.915 E30.13236
G1 X13.077 Y255.405 E30.14853
G1 X13.764 Y252.475 E30.24288
G1 X13.778 Y252.418 E30.24472
G1 X13.934 Y251.803 E30.26461
G1 X14.067 Y251.393 E30.27813
G1 X17.262 Y243.418 E30.54747
G1 X17.352 Y243.215 E30.55443
G1 X18.004 Y241.863 E30.60149
G1 X18.08 Y241.714 E30.60673
G1 X22.939 Y232.839 E30.92394
G1 X23.051 Y232.65 E30.93083
G1 X30.535 Y220.939 E31.36655
G1 X30.644 Y220.78 E31.37259
G1 X39.13 Y209.089 E31.8255
G1 X39.2 Y208.996 E31.82914
G1 X47.769 Y198.037 E32.26528
G1 X51.529 Y192.897 E32.46494
G1 X54.474 Y188.308 E32.63588
G1 X57.168 Y183.537 E32.80766
G1 X59.587 Y178.622 E32.9794
G1 X61.719 Y173.592 E33.15067
G1 X63.568 Y168.435 E33.32243
G1 X65.123 Y163.179 E33.49427
G1 X65.786 Y160.529 E33.57991
G1 X66.887 Y155.177 E33.75121
G1 X67.684 Y149.769 E33.92259
G1 X68.175 Y144.308 E34.09449
G1 X68.357 Y138.844 E34.26589
G1 X68.228 Y133.38 E34.43724
G1 X67.791 Y127.914 E34.60915
G1 X67.047 Y122.5 E34.78048
G1 X65.992 Y117.108 E34.95273
G1 X65.365 Y114.491 E35.03709
G1 X63.858 Y109.209 E35.2093
G1 F600 E33.4593
;MESH:
G0 F2625 X102.816 Y130.727
G0 X102.854 Y130.748
G0 X112.019 Y135.81
G0 X112.057 Y135.831
G0 X112.121 Y135.868
G0 X111.023 Y136.49
G0 X111.391 Y137.894
G0 X111.292 Y137.887
;TYPE:WALL-OUTER
G1 F600 E35.2093
G1 F900 X111.005 Y136.497 E35.25379
G1 X110.113 Y134.924 E35.31049
G1 X106.742 Y131.218 E35.46755
G1 X101.674 Y126.607 E35.68235
G1 X95.151 Y121.06 E35.9508
G1 X87.636 Y114.523 E36.26307
G1 X79.497 Y107.075 E36.60894
G1 X79.488 Y107.067 E36.60932
G1 X70.996 Y98.636 E36.98448
G1 X70.985 Y98.623 E36.98502
G1 X62.67 Y89.224 E37.37844
G1 X62.663 Y89.216 E37.37878
G1 X53.435 Y77.986 E37.83446
G1 X44.551 Y66.93 E38.27912
G1 X36.472 Y56.505 E38.69261
G1 X36.465 Y56.497 E38.69294
G1 X29.47 Y46.812 E39.06749
G1 X29.461 Y46.799 E39.06798
G1 X23.95 Y38.249 E39.38689
G1 X23.942 Y38.238 E39.38732
G1 X23.931 Y38.215 E39.38812
G1 X20.367 Y31.088 E39.63793
G1 X20.355 Y31.065 E39.63875
G1 X20.348 Y31.043 E39.63947
G1 X19.361 Y28.142 E39.73554
G1 X19.348 Y28.106 E39.73674
G1 X19.344 Y28.078 E39.73763
G1 X18.992 Y25.672 E39.81386
G1 X18.984 Y25.622 E39.81545
G1 X18.991 Y25.57 E39.81709
G1 X19.233 Y23.818 E39.87254
G1 X19.244 Y23.74 E39.87501
G1 X19.286 Y23.674 E39.87746
G1 X20.038 Y22.483 E39.92162
G1 X20.091 Y22.4 E39.92471
G1 X20.178 Y22.355 E39.92778
G1 X21.484 Y21.67 E39.97402
G1 X21.549 Y21.636 E39.97631
G1 X21.622 Y21.63 E39.97861
G1 X23.651 Y21.451 E40.04247
G1 X23.694 Y21.447 E40.04382
G1 X23.736 Y21.453 E40.04515
G1 X26.477 Y21.861 E40.13203
G1 X26.502 Y21.865 E40.13283
G1 X26.528 Y21.873 E40.13368
G1 X29.94 Y22.913 E40.24551
G1 X29.962 Y22.92 E40.24623
G1 X29.983 Y22.929 E40.24695
G1 X38.143 Y26.605 E40.52753
G1 X38.163 Y26.614 E40.52822
G1 X38.175 Y26.62 E40.52864
G1 X47.989 Y32.243 E40.88324
G1 X48.002 Y32.251 E40.88372
G1 X58.955 Y39.359 E41.29308
G1 X70.663 Y47.677 E41.74334
G1 X82.753 Y56.783 E42.21785
G1 X82.762 Y56.79 E42.21821
G1 X94.741 Y66.356 E42.69882
G1 X94.749 Y66.363 E42.69915
G1 X102.662 Y73.184 E43.02668
G1 X110.35 Y80.239 E43.35381
G1 X117.576 Y87.232 E43.66906
G1 X124.163 Y93.644 E43.95726
G1 X130 Y99.305 E44.21218
G1 X134.843 Y103.805 E44.41944
G1 X138.628 Y106.741 E44.56962
G1 X140.058 Y107.589 E44.62174
G1 X141.307 Y107.876 E44.66192
G1 X142.613 Y107.537 E44.70422
G1 X144.045 Y106.637 E44.75724
G1 X148.005 Y103.357 E44.91845
G1 X153.136 Y98.399 E45.14214
G1 X159.371 Y92.052 E45.42107
G1 X166.53 Y84.612 E45.74477
G1 X174.496 Y76.477 E46.10173
G1 X183.096 Y67.995 E46.48042
G1 X192.279 Y59.506 E46.87248
G1 X203.11 Y49.996 E47.32436
G1 X214.009 Y40.995 E47.76751
G1 X214.018 Y40.988 E47.76787
G1 X224.625 Y32.907 E48.18592
G1 X224.639 Y32.896 E48.18648
G1 X234.68 Y26.186 E48.56509
G1 X234.694 Y26.177 E48.56561
G1 X234.707 Y26.17 E48.56608
G1 X243.781 Y21.177 E48.89078
G1 X243.806 Y21.163 E48.89168
G1 X243.825 Y21.156 E48.89231
G1 X251.598 Y18.162 E49.15346
G1 X251.632 Y18.149 E49.1546
G1 X251.67 Y18.143 E49.1558
G1 X254.866 Y17.621 E49.25733
G1 X254.898 Y17.615 E49.25835
G1 X254.926 Y17.615 E49.25923
G1 X257.676 Y17.615 E49.34544
G1 X257.73 Y17.615 E49.34713
G1 X257.783 Y17.631 E49.34887
G1 X260.099 Y18.344 E49.42484
G1 X260.165 Y18.365 E49.42701
G1 X260.217 Y18.406 E49.42909
G1 X261.952 Y19.781 E49.49849
G1 X262.005 Y19.823 E49.50061
G1 X262.039 Y19.88 E49.50269
G1 X263.173 Y21.787 E49.57225
G1 X263.206 Y21.843 E49.57429
G1 X263.218 Y21.902 E49.57618
G1 X263.691 Y24.215 E49.65019
G1 X263.703 Y24.27 E49.65196
G1 X263.697 Y24.327 E49.65376
G1 X263.404 Y27.079 E49.74052
G1 X263.4 Y27.113 E49.74159
G1 X263.392 Y27.142 E49.74254
G1 X262.464 Y30.334 E49.84675
G1 X262.454 Y30.366 E49.8478
G1 X262.44 Y30.394 E49.84879
G1 X258.701 Y37.928 E50.11247
G1 X258.692 Y37.945 E50.11307
G1 X258.678 Y37.966 E50.11387
G1 X252.879 Y46.747 E50.44377
G1 X252.87 Y46.761 E50.44429
G1 X245.351 Y56.456 E50.82894
G1 X236.749 Y66.887 E51.25281
G1 X227.466 Y77.712 E51.69989
G1 X217.956 Y88.881 E52.15978
G1 X209.818 Y98.103 E52.54537
G1 X201.848 Y106.813 E52.91551
G1 X194.28 Y114.722 E53.25869
G1 X187.405 Y121.765 E53.56726
G1 X181.57 Y127.827 E53.83104
G1 X177.006 Y132.788 E54.04238
G1 X174.01 Y136.461 E54.19098
G1 X173.214 Y137.786 E54.23944
G1 X172.886 Y138.912 E54.27621
G1 X173.263 Y140.231 E54.31922
G1 X174.328 Y141.613 E54.37392
G1 X175.91 Y143.478 E54.45059
G1 X178.012 Y145.692 E54.5463
G1 X180.581 Y148.261 E54.6602
G1 X183.556 Y151.177 E54.7908
G1 X190.604 Y157.992 E55.09817
G1 X198.625 Y165.953 E55.45247
G1 X207.284 Y174.837 E55.8414
G1 X216.062 Y184.529 E56.25135
G1 X216.07 Y184.539 E56.25175
G1 X224.555 Y194.796 E56.66909
G1 X233.444 Y206.26 E57.12388
G1 X241.867 Y217.37 E57.56097
G1 X249.549 Y227.914 E57.96996
G1 X249.558 Y227.926 E57.97044
G1 X255.982 Y237.616 E58.33492
G1 X255.988 Y237.625 E58.33526
G1 X255.995 Y237.638 E58.33572
G1 X260.82 Y246.248 E58.64515
G1 X260.831 Y246.268 E58.64587
G1 X260.839 Y246.29 E58.6466
G1 X263.775 Y253.597 E58.89348
G1 X263.79 Y253.634 E58.89473
G1 X263.796 Y253.665 E58.89572
G1 X264.378 Y256.69 E58.9923
