;Generated by Cura LulzBot Edition GCodeWriter Version: 3.6.20
;FLAVOR:Marlin
;TIME:3509
;Filament used: 0.995455m
;Layer height: 0.25
;Generated with Cura_SteamEngine 3.6.20
M82 ;absolute extrusion mode
;This G-Code has been generated specifically for the LulzBot TAZ Workhorse with HE 0.5mm Tool Head
M73 P0 ; clear GLCD progress bar
M75 ; start GLCD timer
G26 ; clear potential 'probe fail' condition
M107 ; disable fans
M420 S0 ; disable previous leveling matrix
G90 ; absolute positioning
M82 ; set extruder to absolute mode
G92 E0 ; set extruder position to 0
M140 S60.0 ; start bed heating up
M109 R140 ; soften filament before homing Z
G28 ; Home all axis
G1 E-30 F100 ; retract filament
M109 R140 ; wait for extruder to reach wiping temp
G1 X-15 Y100 F3000 ; move above wiper pad
G1 Z1 ; push nozzle into wiper
G1 X-17 Y95 F1000 ; slow wipe
G1 X-17 Y90 F1000 ; slow wipe
G1 X-17 Y85 F1000 ; slow wipe
G1 X-15 Y90 F1000 ; slow wipe
G1 X-17 Y80 F1000 ; slow wipe
G1 X-15 Y95 F1000 ; slow wipe
G1 X-17 Y75 F2000 ; fast wipe
G1 X-15 Y65 F2000 ; fast wipe
G1 X-17 Y70 F2000 ; fast wipe
G1 X-15 Y60 F2000 ; fast wipe
G1 X-17 Y55 F2000 ; fast wipe
G1 X-15 Y50 F2000 ; fast wipe
G1 X-17 Y40 F2000 ; fast wipe
G1 X-15 Y45 F2000 ; fast wipe
G1 X-17 Y35 F2000 ; fast wipe
G1 X-15 Y40 F2000 ; fast wipe
G1 X-17 Y70 F2000 ; fast wipe
G1 X-15 Y30 Z2 F2000 ; fast wipe
G1 X-17 Y35 F2000 ; fast wipe
G1 X-15 Y25 F2000 ; fast wipe
G1 X-17 Y30 F2000 ; fast wipe
G1 X-15 Y25 Z1.5 F1000 ; slow wipe
G1 X-17 Y23 F1000 ; slow wipe
G1 Z10 ; raise extruder
M109 R140 ; wait for extruder to reach probe temp
G1 X-9 Y-9 ; move above first probe point
M204 S100 ; set probing acceleration
G29       ; start auto-leveling sequence
M420 S1   ; activate bed level matrix
M425 Z    ; use measured Z backlash for compensation
M425 Z F0 ; turn off measured Z backlash compensation. (if activated in the quality settings, this command will automatically be ignored)
M204 S500 ; restore standard acceleration
G1 X0 Y0 Z15 F5000 ; move up off last probe point
G4 S1 ; pause
M400 ; wait for moves to finish
M117 Heating... ; progress indicator message on LCD
M109 R225 ; wait for extruder to reach printing temp
M190 R60.0 ; wait for bed to reach printing temp
G1 Z2 E0 F75 ; prime tiny bit of filament into the nozzle
M117 TAZ Workhorse Printing... ; progress indicator message on LCD

M221 S100 T0
G92 E0
G1 F600 E-1.75
;LAYER_COUNT:94
;LAYER:0
M107
G0 F2625 X103.54 Y103.183 Z0.4
;TYPE:SKIRT
G1 F600 E0
G1 F900 X103.952 Y102.883 E0.01598
G1 X104.408 Y102.65 E0.03203
G1 X108.541 Y100.938 E0.17228
G1 X126.731 Y93.402 E0.78956
G1 X126.789 Y93.379 E0.79152
G1 X133.113 Y90.9 E1.00447
G1 X139.71 Y88.032 E1.22999
G1 X140.192 Y87.867 E1.24596
G1 X140.694 Y87.778 E1.26194
G1 X141.203 Y87.769 E1.2779
G1 X141.708 Y87.84 E1.29389
G1 X142.247 Y88.009 E1.3116
G1 X154.933 Y93.25 E1.74192
G1 X154.937 Y93.252 E1.74206
G1 X177.592 Y102.651 E2.51102
G1 X178.046 Y102.883 E2.527
G1 X178.458 Y103.182 E2.54296
G1 X178.819 Y103.543 E2.55897
G1 X179.118 Y103.955 E2.57493
G1 X179.35 Y104.409 E2.59091
G1 X193.986 Y139.738 E3.78979
G1 X194.143 Y140.223 E3.80578
G1 X194.223 Y140.726 E3.82174
G1 X194.223 Y141.235 E3.8377
G1 X194.144 Y141.739 E3.85369
G1 X193.986 Y142.225 E3.86972
G1 X179.351 Y177.59 E5.06963
G1 X179.12 Y178.044 E5.0856
G1 X178.821 Y178.456 E5.10156
G1 X178.461 Y178.817 E5.11754
G1 X178.049 Y179.117 E5.13352
G1 X177.592 Y179.35 E5.1496
G1 X142.262 Y193.986 E6.34851
G1 X141.777 Y194.143 E6.36449
G1 X141.274 Y194.223 E6.38046
G1 X140.765 Y194.223 E6.39642
G1 X140.261 Y194.144 E6.41241
G1 X139.775 Y193.986 E6.42843
G1 X104.41 Y179.351 E7.62835
G1 X103.956 Y179.12 E7.64432
G1 X103.544 Y178.821 E7.66028
G1 X103.183 Y178.461 E7.67626
G1 X102.883 Y178.049 E7.69224
G1 X102.66 Y177.616 E7.70751
G1 X101.742 Y175.449 E7.78129
G1 X101.732 Y175.423 E7.78216
G1 X88.007 Y142.242 E8.9079
G1 X87.85 Y141.758 E8.92385
G1 X87.77 Y141.254 E8.93985
G1 X87.77 Y140.745 E8.95581
G1 X87.85 Y140.242 E8.97177
G1 X88.007 Y139.756 E8.98779
G1 X102.649 Y104.409 E10.18726
G1 X102.881 Y103.955 E10.20324
G1 X103.18 Y103.543 E10.2192
G1 X103.54 Y103.183 E10.23517
G1 F600 E8.48517
;MESH:
G0 F2625 X111.211 Y102.624
G0 X114.787 Y102.777
G0 X116.216 Y102.681
G0 X118.534 Y103.334
G0 X149.409 Y99.818
G0 X146.499 Y103.225
G0 X149.082 Y104.429
G0 X149.043 Y104.52
;TYPE:WALL-INNER
G1 F600 E10.23517
G1 F900 X148.313 Y104.217 E10.25994
G1 X149.124 Y103.25 E10.29951
G1 X149.043 Y104.52 E10.33941
G0 F2625 X149.082 Y104.429
G0 X146.499 Y103.225
G0 X149.409 Y99.818
G0 X151.279 Y100.591
G0 X151.29 Y100.64
G0 X151.25 Y100.538
G1 F900 X151.352 Y100.581 E10.34288
G1 X151.228 Y100.593 E10.34341
G1 X151.228 Y100.576
G1 X151.231 Y100.53
G1 X151.25 Y100.538
G0 F2625 X151.29 Y100.64
G0 X151.279 Y100.591
G0 X149.409 Y99.818
G0 X141 Y101.148
G0 X112.821 Y112.821
G0 X101.148 Y141
G0 X111.844 Y169.216
G0 X112.797 Y171.238
G0 X113.948 Y173.156
G0 X115.288 Y174.963
G0 X116.78 Y176.611
G0 X118.437 Y178.112
G0 X120.233 Y179.446
G0 X122.162 Y180.602
G0 X124.184 Y181.556
G0 X126.279 Y182.307
G0 X128.463 Y182.853
G0 X130.673 Y183.181
G0 X132.9 Y183.29
G0 X135.127 Y183.181
G0 X137.337 Y182.853
G0 X139.521 Y182.307
G0 X141.616 Y181.556
G0 X169.179 Y169.179
G0 X180.852 Y141
G0 X169.179 Y112.821
G0 X154.407 Y102.428
G0 X156.938 Y102.984
G0 X158.577 Y99.123
G0 X175.753 Y106.247
G0 X177.023 Y110.99
G0 X176.58 Y110.736
G0 X174.678 Y110.973
G0 X174.332 Y109.842
G0 X174.359 Y109.746
G1 F900 X174.433 Y109.778 E10.34593
G1 X174.546 Y109.879 E10.35068
G1 X174.582 Y109.927 E10.35257
G1 X174.645 Y110.042 E10.35668
G1 X174.712 Y110.234 E10.36305
G1 X174.731 Y110.321 E10.36584
G1 X174.746 Y110.442 E10.36967
G1 X174.769 Y110.958 E10.38586
G1 X174.778 Y111.16 E10.3922
G1 X174.47 Y111.297 E10.40277
G1 X174.324 Y111.158 E10.40813
G1 X173.893 Y110.746 E10.42682
G1 X173.803 Y110.62 E10.43168
G1 X173.707 Y110.426 E10.43846
G1 X173.662 Y110.257 E10.44394
G1 X173.66 Y110.16 E10.44699
G1 X173.678 Y110.083 E10.44946
G1 X173.74 Y109.969 E10.45353
G1 X173.83 Y109.879 E10.45752
G1 X173.957 Y109.801 E10.4622
G1 X174.124 Y109.741 E10.46776
G1 X174.255 Y109.73 E10.47188
G1 X174.359 Y109.746 E10.47518
G0 F2625 X174.332 Y109.842
G0 X175.457 Y110.869
G0 X176.265 Y110.748
G0 X176.745 Y111.407
G0 X177.13 Y111.875
G0 X177.345 Y112.527
G0 X177.36 Y112.827
G0 X176.432 Y113.166
G0 X175.927 Y113.098
G0 X175.888 Y113.007
G1 F900 X175.908 Y112.998 E10.47587
G1 X175.931 Y113.1 E10.47757
G1 X175.106 Y113.468 E10.5059
G1 X175.063 Y113.372 E10.50919
G1 X175.888 Y113.007 E10.51506
G0 F2625 X175.927 Y113.098
G0 X176.615 Y113.305
G0 X177.512 Y112.913
G0 X177.996 Y114.007
G0 X175.938 Y116.217
G0 X173.473 Y117.325
G0 X175.969 Y123.614
G0 X175.987 Y123.516
G1 F900 X176.245 Y123.259 E10.52648
G1 X176.277 Y123.227 E10.5279
G1 X176.489 Y123.016 E10.53727
G1 X176.741 Y122.766 E10.5484
G1 X176.53 Y123.056 E10.54912
G1 X176.669 Y123.321 E10.55516
G1 X177.553 Y125 E10.61464
G1 X176.53 Y126.944 E10.68351
G1 X177.078 Y127.699 E10.71276
G1 X179.244 Y127.327 E10.78166
G1 X180.571 Y128.688 E10.84126
G1 X177.818 Y132.477 E10.98809
G1 X177.811 Y132.487 E10.98847
G1 X178.044 Y133.011 E11.00645
G1 X179.81 Y136.978 E11.14259
G1 X184.699 Y137.491 E11.2967
G1 X187.007 Y134.313 E11.41984
G1 X187.269 Y133.953 E11.4338
G1 X187.439 Y134.365 E11.44167
G1 X190.188 Y141 E11.66683
G1 X175.781 Y175.781 E12.84709
G1 X141 Y190.188 E14.02735
G1 X107.986 Y176.512 E15.14766
G1 X107.429 Y176.282 E15.16656
G1 X107.986 Y176.052 E15.17671
G1 X110.956 Y174.821 E15.2775
G1 X110.957 Y174.82 E15.27755
G1 X111.187 Y174.726 E15.28534
G1 X111.092 Y174.496 E15.29037
G1 X109.465 Y170.569 E15.42363
G1 X104.851 Y172.48 E15.5802
G1 X91.812 Y141 E16.64844
G1 X106.219 Y106.219 E17.8287
G1 X107.246 Y105.793 E17.86356
G1 X107.708 Y106.209 E17.88305
G1 X108.503 Y106.793 E17.91398
G1 X108.647 Y106.889 E17.9194
G1 X109.149 Y107.168 E17.93741
G1 X109.805 Y107.359 E17.95883
G1 X110.508 Y107.11 E17.98221
G1 X110.881 Y106.541 E18.00354
G1 X111.06 Y105.792 E18.02768
G1 X111.179 Y104.835 E18.05792
G1 X111.186 Y104.779 E18.05968
G1 X111.281 Y104.288 E18.07536
G1 X111.466 Y104.443 E18.07717
G1 X111.509 Y104.479 E18.07883
G1 X111.734 Y104.668 E18.08804
G1 X112.706 Y105.681 E18.13205
G1 X113.788 Y106.784 E18.1805
G1 X114.82 Y107.54 E18.2206
G1 X115.713 Y107.594 E18.24865
G1 X116.265 Y106.896 E18.27655
G1 X116.398 Y105.615 E18.31692
G1 X116.308 Y104.178 E18.36206
G1 X116.197 Y102.676 E18.40928
G1 X116.208 Y102.359 E18.41923
G1 X116.216 Y102.112 E18.42697
G1 X116.218 Y102.077 E18.42807
G1 X116.29 Y102.047 E18.43052
G1 X116.439 Y102.12 E18.43371
G1 X116.644 Y102.256 E18.43956
G1 X117.624 Y102.906 E18.47643
G1 X118.541 Y103.295 E18.50766
G1 X119.227 Y103.226 E18.52927
G1 X119.752 Y102.778 E18.55091
G1 X120.046 Y101.904 E18.57982
G1 X120.179 Y100.816 E18.61418
G1 X120.255 Y100.405 E18.62729
G1 X121.53 Y99.877 E18.67055
G1 X121.625 Y99.879 E18.67353
G1 X124.217 Y100.277 E18.75574
G1 X125.387 Y100.306 E18.79243
G1 X125.551 Y100.284 E18.79762
G1 X126.091 Y100.145 E18.8151
G1 X126.647 Y99.751 E18.83647
G1 X127.122 Y98.82 E18.86924
G1 X127.293 Y97.82 E18.90104
G1 X127.334 Y97.474 E18.91196
G1 X127.919 Y97.231 E18.93182
G1 X128.854 Y97.809 E18.96629
G1 X129.348 Y98.028 E18.98323
G1 X130.123 Y98.167 E19.00791
G1 X130.882 Y98.101 E19.0318
G1 X132.132 Y97.747 E19.07253
G1 X133.187 Y97.305 E19.10839
G1 X134.18 Y96.778 E19.14363
G1 X135.164 Y96.125 E19.18066
G1 X136.068 Y95.379 E19.2174
G1 X137.737 Y93.674 E19.2922
G1 X138.323 Y92.922 E19.32209
G1 X141 Y91.812 E19.41295
G1 X149.036 Y95.141 E19.68564
G1 X149.037 Y95.142 E19.68569
G1 X149.268 Y95.237 E19.69352
G1 X149.17 Y95.468 E19.69858
G1 X147.665 Y99.015 E19.81938
G1 X149.065 Y99.611 E19.86709
G1 X149.192 Y99.665 E19.87141
G1 X149.477 Y99.787 E19.88113
G1 X149.418 Y99.856
G1 X149.328 Y99.961 E19.88475
G1 X146.369 Y103.412 E20.02727
G1 X141 Y101.188 E20.20946
G1 X112.849 Y112.849 E21.16474
G1 X101.188 Y141 E22.12003
G1 X110.289 Y162.973 E22.86565
G1 X110.396 Y163.839 E22.89301
G1 X110.587 Y164.938 E22.92798
G1 X110.831 Y166.028 E22.963
G1 X111.129 Y167.104 E22.998
G1 X111.48 Y168.165 E23.03304
G1 X111.882 Y169.206 E23.06802
G1 X112.334 Y170.227 E23.10303
G1 X112.836 Y171.225 E23.13805
G1 X113.387 Y172.196 E23.17305
G1 X113.984 Y173.139 E23.20804
G1 X114.626 Y174.052 E23.24303
G1 X115.314 Y174.933 E23.27808
G1 X116.043 Y175.778 E23.31307
G1 X116.813 Y176.587 E23.34808
G1 X117.622 Y177.357 E23.3831
G1 X118.467 Y178.086 E23.41808
G1 X119.348 Y178.774 E23.45313
G1 X120.26 Y179.416 E23.48809
G1 X121.204 Y180.014 E23.52313
G1 X122.175 Y180.564 E23.55811
G1 X123.173 Y181.066 E23.59314
G1 X124.194 Y181.518 E23.62814
G1 X125.235 Y181.92 E23.66313
G1 X126.296 Y182.271 E23.69816
G1 X127.372 Y182.569 E23.73317
G1 X128.462 Y182.813 E23.76819
G1 X129.562 Y183.004 E23.80319
G1 X130.671 Y183.141 E23.83822
G1 X131.784 Y183.223 E23.87321
G1 X132.9 Y183.25 E23.90821
G1 X134.016 Y183.223 E23.9432
G1 X135.129 Y183.141 E23.97819
G1 X136.238 Y183.004 E24.01323
G1 X137.338 Y182.813 E24.04823
G1 X138.428 Y182.569 E24.08325
G1 X139.504 Y182.271 E24.11825
G1 X140.565 Y181.92 E24.15329
G1 X141.606 Y181.518 E24.18827
G1 X142.627 Y181.066 E24.22328
G1 X143.625 Y180.564 E24.2583
G1 X144.596 Y180.014 E24.29329
G1 X145.54 Y179.416 E24.32832
G1 X146.452 Y178.774 E24.36329
G1 X147.053 Y178.305 E24.38719
G1 X169.151 Y169.151 E25.13707
G1 X180.812 Y141 E26.09235
G1 X177.582 Y133.203 E26.35694
G1 X177.363 Y132.673 E26.37465
G1 X177.359 Y132.661 E26.37504
G1 X169.151 Y112.849 E27.04736
G1 X152.657 Y106.016 E27.60708
G1 X152.464 Y105.937 E27.61362
G1 X152.23 Y105.84 E27.62156
G1 X152.053 Y105.766 E27.62758
G1 X152.266 Y105.749 E27.62868
G1 X152.579 Y105.657 E27.63375
G1 X152.763 Y105.559 E27.63911
G1 X152.863 Y105.506 E27.64266
G1 X153.1 Y105.304 E27.65242
G1 X153.288 Y105.071 E27.66181
G1 X153.424 Y104.812 E27.67098
G1 X153.503 Y104.573 E27.67887
G1 X153.543 Y104.327 E27.68669
G1 X153.543 Y104.077 E27.69452
G1 X153.533 Y104.018 E27.6964
G1 X153.622 Y103.97 E27.69957
G1 X153.851 Y103.786 E27.70878
G1 X154.049 Y103.556 E27.7183
G1 X154.194 Y103.305 E27.72738
G1 X154.265 Y103.137 E27.7331
G1 X154.317 Y102.967 E27.73867
G1 X154.352 Y102.792 E27.74427
G1 X154.369 Y102.614 E27.74988
G1 X154.368 Y102.434 E27.75552
G1 X154.359 Y102.362 E27.75779
G1 X154.346 Y102.239 E27.76167
G1 X154.262 Y101.926 E27.77183
G1 X154.202 Y101.792 E27.77643
G1 X154.3 Y101.833 E27.77644
G1 X154.484 Y101.911 E27.78055
G1 X154.598 Y101.959 E27.78394
G1 X156.695 Y102.85 E27.85537
G1 X156.925 Y102.947 E27.8632
G1 X157.022 Y102.717 E27.86825
G1 X158.562 Y99.086 E27.9919
G1 X175.781 Y106.219 E28.57622
G1 X177.859 Y111.241 E28.74661
G1 X177.895 Y111.328 E28.74956
G1 X177.96 Y111.486 E28.75492
G1 X178.032 Y111.658 E28.76076
G1 X178.152 Y111.948 E28.7706
G1 X178.235 Y112.147 E28.77736
G1 X179.033 Y114.073 E28.84272
G1 X179.128 Y114.303 E28.85052
G1 X179.951 Y116.289 E28.91792
G1 X180.291 Y117.108 E28.94572
G1 X180.964 Y118.732 E29.00083
G1 X181.952 Y121.116 E29.08174
G1 X182.005 Y121.246 E29.08614
G1 X182.205 Y121.729 E29.10253
G1 X182.964 Y123.56 E29.16467
G1 X183.218 Y124.173 E29.18547
G1 X182.623 Y123.88 E29.19653
G1 X181.979 Y123.562 E29.21905
G1 X181.738 Y121.904 E29.27158
G1 X181.664 Y121.387 E29.28582
G1 X181.53 Y121.344 E29.28971
G1 X180.777 Y121.1 E29.31453
G1 X179.244 Y122.673 E29.38339
G1 X177.665 Y122.401 E29.43362
G1 X177.188 Y122.32 E29.44879
G1 X177.531 Y121.979 E29.4572
G1 X180.67 Y118.854 E29.59607
G1 X179.958 Y117.246 E29.63345
G1 X177.272 Y117.472 E29.71795
G1 X179.596 Y116.437 E29.79771
G1 X178.723 Y114.472 E29.85312
G1 X176.381 Y115.513 E29.93348
G1 X176.252 Y115.571 E29.93791
G1 X176.192 Y115.598 E29.93997
G1 X176.13 Y115.626 E29.9421
G1 X176.078 Y115.523 E29.94572
G1 X176.073 Y115.49 E29.94581
G1 X176.111 Y115.419 E29.94661
G1 X176.161 Y115.368 E29.9471
G1 X176.283 Y115.294 E29.94942
G1 X178.619 Y114.245 E29.98857
G1 X177.774 Y112.338 E30.0505
G1 X177.723 Y112.125 E30.05712
G1 X177.616 Y111.831 E30.06608
G1 X177.538 Y111.661 E30.07142
G1 X177.452 Y111.511 E30.07649
G1 X177.398 Y111.433 E30.0794
G1 X177.316 Y111.317 E30.08385
G1 X177.151 Y111.144 E30.09135
G1 X177.005 Y111.025 E30.09725
G1 X176.8 Y110.9 E30.10478
G1 X176.721 Y110.868 E30.10745
G1 X176.709 Y110.241 E30.12711
G1 X176.681 Y110.01 E30.13441
G1 X176.63 Y109.767 E30.14219
G1 X176.557 Y109.503 E30.15078
G1 X176.473 Y109.272 E30.15849
G1 X176.357 Y109.006 E30.16759
G1 X176.234 Y108.778 E30.17571
G1 X176.03 Y108.483 E30.18695
G1 X175.838 Y108.268 E30.19599
G1 X175.659 Y108.105 E30.20358
G1 X175.421 Y107.928 E30.21288
G1 X175.19 Y107.798 E30.22119
G1 X174.884 Y107.677 E30.2315
G1 X174.645 Y107.615 E30.23924
G1 X174.373 Y107.577 E30.24785
G1 X174.127 Y107.572 E30.25557
G1 X173.824 Y107.598 E30.2651
G1 X173.574 Y107.65 E30.27311
G1 X173.249 Y107.755 E30.28382
G1 X173.01 Y107.861 E30.29201
G1 X172.792 Y107.985 E30.29988
G1 X172.643 Y108.088 E30.30555
G1 X172.606 Y108.114 E30.30697
G1 X172.59 Y108.125 E30.30758
G1 X172.473 Y108.223 E30.31237
G1 X172.397 Y108.288 E30.3155
G1 X172.286 Y108.408 E30.32063
G1 X172.305 Y108.276 E30.32077
G1 X172.332 Y108.087 E30.32368
G1 X172.336 Y108.061
G1 X172.34 Y107.964 E30.32496
G1 X172.351 Y107.745 E30.33043
G1 X172.349 Y107.699 E30.33181
G1 X172.334 Y107.425 E30.34041
G1 X172.284 Y107.108 E30.35048
G1 X172.205 Y106.801 E30.36041
G1 X172.096 Y106.501 E30.37042
G1 X171.958 Y106.213 E30.38043
G1 X171.793 Y105.941 E30.39041
G1 X171.602 Y105.686 E30.40039
G1 X171.386 Y105.45 E30.41042
G1 X171.149 Y105.238 E30.42039
G1 X170.892 Y105.048 E30.43041
G1 X170.618 Y104.886 E30.44039
G1 X170.327 Y104.75 E30.45046
G1 X170.026 Y104.645 E30.46046
G1 X169.716 Y104.569 E30.47046
G1 X169.4 Y104.525 E30.48047
G1 X169.081 Y104.51 E30.49048
G1 X168.763 Y104.528 E30.50046
G1 X168.449 Y104.577 E30.51043
G1 X168.139 Y104.656 E30.52046
G1 X167.84 Y104.765 E30.53043
G1 X167.552 Y104.903 E30.54045
G1 X167.3 Y105.056 E30.54969
G1 X167.28 Y105.068 E30.55042
G1 X167.081 Y105.216 E30.5582
G1 X167.023 Y105.26 E30.56048
G1 X166.996 Y105.285 E30.56163
G1 X166.899 Y105.374 E30.56576
G1 X166.894 Y105.267 E30.56608
