;Generated by Cura 2 GCodeWriter Version: 2.6.29
;FLAVOR:RepRap
;TIME:8134
;Filament used: 6.61405m
;Layer height: 0.38
;Generated with Cura_SteamEngine 2.6.29
;This G-Code has been generated specifically for the LulzBot Mini with standard extruder
G26                                ; clear potential 'probe fail' condition
G21                                ; set units to Millimetres
M107                               ; disable fans
G90                                ; absolute positioning
M82                                ; set extruder to absolute mode
G92 E0                             ; set extruder position to 0
M140 S110   ; start bed heating up
G28                                ; home all axes
M109 R170  ; wait for extruder to reach wiping temp
G1 Z150 E-30 F75                   ; retract filament
G1 X45 Y174 F11520                 ; move above wiper pad
G1 Z0  F1200                       ; push nozzle into wiper
G1 X45 Y174 Z-.5 F4000             ; wiping
G1 X55 Y172 Z-.5 F4000             ; wiping
G1 X45 Y174 Z0 F4000               ; wiping
G1 X55 Y172 F4000                  ; wiping
G1 X45 Y174 F4000                  ; wiping
G1 X55 Y172 F4000                  ; wiping
G1 X45 Y174 F4000                  ; wiping
G1 X55 Y172 F4000                  ; wiping
G1 X60 Y174 F4000                  ; wiping
G1 X80 Y172 F4000                  ; wiping
G1 X60 Y174 F4000                  ; wiping
G1 X80 Y172 F4000                  ; wiping
G1 X60 Y174 F4000                  ; wiping
G1 X90 Y172 F4000                  ; wiping
G1 X80 Y174 F4000                  ; wiping
G1 X100 Y172 F4000                 ; wiping
G1 X80 Y174 F4000                  ; wiping
G1 X100 Y172 F4000                 ; wiping
G1 X80 Y174 F4000                  ; wiping
G1 X100 Y172 F4000                 ; wiping
G1 X110 Y174 F4000                 ; wiping
G1 X100 Y172 F4000                 ; wiping
G1 X110 Y174 F4000                 ; wiping
G1 X100 Y172 F4000                 ; wiping
G1 X110 Y174 F4000                 ; wiping
G1 X115 Y172 Z-0.5 F1000           ; wiping
G1 Z10                             ; raise extruder
G28 X0 Y0                          ; home X and Y
M109 R170 ; wait for extruder to reach probe temp
M204 S300                          ; set probing acceleration
G29                                ; start auto-leveling sequence
M204 S2000                         ; restore standard acceleration
G1 X5 Y15 Z10 F5000                ; move up off last probe point
G4 S1                              ; pause
M400                               ; wait for moves to finish
M117 Heating...                    ; progress indicator message on LCD
M109 R240 ; wait for extruder to reach printing temp
M190 S110   ; wait for bed to reach printing temp
G1 Z2 E0 F75                       ; prime tiny bit of filment into the nozzle
M117 Mini Printing...              ; progress indicator message on LCD

;LAYER_COUNT:63
;LAYER:0
M107
G0 F2625 X28.855 Y39.165 Z0.425
;TYPE:SKIRT
G1 F900 X29.49 Y38.7 E0.02622
G1 X30.347 Y38.212 E0.05907
G1 X31.483 Y37.658 E0.10117
G1 X32.175 Y37.361 E0.12625
G1 X35.525 Y36.114 E0.24532
G1 X40.347 Y34.06 E0.41991
G1 X45.034 Y31.743 E0.59407
G1 X49.568 Y29.173 E0.76768
G1 X53.958 Y26.346 E0.94161
G1 X58.18 Y23.275 E1.11551
G1 X62.222 Y19.971 E1.28941
G1 X66.049 Y16.464 E1.46232
G1 X69.714 Y12.701 E1.63729
G1 X73.233 Y8.66 E1.81578
G1 X73.779 Y8.094 E1.84198
G1 X74.38 Y7.585 E1.86822
G1 X75.03 Y7.141 E1.89444
G1 X75.721 Y6.764 E1.92066
G1 X76.447 Y6.46 E1.94687
G1 X77.2 Y6.231 E1.97309
G1 X77.972 Y6.079 E1.9993
G1 X78.756 Y6.007 E2.02553
G1 X79.543 Y6.014 E2.05174
G1 X80.326 Y6.101 E2.07798
G1 X81.095 Y6.267 E2.10419
G1 X81.844 Y6.511 E2.13043
G1 X82.564 Y6.829 E2.15665
G1 X82.95 Y7.037 E2.17125
G1 X88.572 Y10.281 E2.38747
G1 X89.233 Y10.709 E2.4137
G1 X89.667 Y11.046 E2.432
G1 X92.273 Y13.223 E2.54511
G1 X96.446 Y16.398 E2.71977
G1 X100.783 Y19.329 E2.89414
G1 X105.289 Y22.014 E3.06886
G1 X109.947 Y24.443 E3.24385
G1 X112.19 Y25.495 E3.32638
G1 X117.057 Y27.53 E3.5021
G1 X122.967 Y29.592 E3.7106
G1 X123.696 Y29.888 E3.73681
G1 X124.288 Y30.197 E3.75905
G1 X129.91 Y33.442 E3.97528
G1 X130.571 Y33.869 E4.00149
G1 X131.185 Y34.362 E4.02772
G1 X131.681 Y34.844 E4.05076
G1 X134.948 Y38.317 E4.20959
G1 X138.712 Y41.922 E4.3832
G1 X142.735 Y45.359 E4.55945
G1 X145.527 Y47.536 E4.67739
G1 X146.122 Y48.051 E4.7036
G1 X146.662 Y48.623 E4.7298
G1 X147.141 Y49.248 E4.75603
G1 X147.555 Y49.918 E4.78227
G1 X147.898 Y50.626 E4.80847
G1 X148.168 Y51.366 E4.83471
G1 X148.361 Y52.129 E4.86093
G1 X148.476 Y52.907 E4.88712
G1 X148.511 Y53.694 E4.91337
G1 X148.466 Y54.48 E4.93959
G1 X148.276 Y55.541 E4.97549
G1 X146.515 Y62.53 E5.21558
G1 X146.039 Y64.92 E5.29675
G1 X145.226 Y70.142 E5.47279
G1 X144.717 Y75.337 E5.64667
G1 X144.502 Y80.537 E5.82003
G1 X144.583 Y85.757 E5.99393
G1 X144.959 Y90.968 E6.16796
G1 X145.627 Y96.143 E6.34178
G1 X146.696 Y101.922 E6.53754
G1 X146.799 Y102.702 E6.56375
G1 X146.817 Y103.69 E6.59667
G1 X146.76 Y104.919 E6.63765
G1 X146.683 Y105.702 E6.66386
G1 X146.528 Y106.474 E6.69009
G1 X146.272 Y107.288 E6.71851
G1 X145.82 Y108.49 E6.76129
G1 X145.506 Y109.212 E6.78751
G1 X145.278 Y109.637 E6.80358
G1 X124.791 Y145.121 E8.16842
G1 X124.363 Y145.782 E8.19465
G1 X123.87 Y146.396 E8.22088
G1 X123.318 Y146.957 E8.2471
G1 X122.712 Y147.459 E8.27331
G1 X122.058 Y147.897 E8.29953
G1 X121.363 Y148.266 E8.32574
G1 X120.634 Y148.563 E8.35196
G1 X119.878 Y148.784 E8.3782
G1 X119.104 Y148.928 E8.40442
G1 X118.32 Y148.992 E8.43063
G1 X117.533 Y148.977 E8.45685
G1 X116.751 Y148.881 E8.48309
G1 X115.984 Y148.707 E8.50929
G1 X115.238 Y148.456 E8.53551
G1 X114.208 Y147.96 E8.57359
G1 X108.58 Y144.715 E8.78999
G1 X107.919 Y144.288 E8.8162
G1 X107.531 Y143.989 E8.83252
G1 X102.092 Y139.519 E9.06703
G1 X97.893 Y136.497 E9.23935
G1 X93.486 Y133.688 E9.41344
G1 X88.93 Y131.135 E9.5874
G1 X84.249 Y128.85 E9.76091
G1 X79.445 Y126.831 E9.93449
G1 X73.946 Y124.883 E10.12882
G1 X73.219 Y124.583 E10.15502
G1 X72.659 Y124.29 E10.17607
G1 X67.038 Y121.045 E10.39227
G1 X66.086 Y120.396 E10.43065
G1 X62.447 Y117.499 E10.58559
G1 X60.4 Y115.987 E10.67036
G1 X58.28 Y114.514 E10.75635
G1 X53.817 Y111.684 E10.93238
G1 X49.267 Y109.148 E11.1059
G1 X44.577 Y106.872 E11.27955
G1 X39.721 Y104.846 E11.45481
G1 X37.355 Y103.975 E11.5388
G1 X32.229 Y102.319 E11.71824
G1 X31.493 Y102.039 E11.74447
G1 X30.742 Y101.659 E11.7725
G1 X25.095 Y98.405 E11.9896
G1 X24.433 Y97.978 E12.01584
G1 X23.819 Y97.486 E12.04205
G1 X23.319 Y97 E12.06528
G1 X20.052 Y93.527 E12.22411
G1 X16.288 Y89.922 E12.39771
G1 X12.266 Y86.486 E12.57392
G1 X9.482 Y84.318 E12.69146
G1 X8.886 Y83.804 E12.71768
G1 X8.346 Y83.232 E12.74388
G1 X7.866 Y82.607 E12.77013
G1 X7.453 Y81.938 E12.79632
G1 X7.109 Y81.23 E12.82254
G1 X6.839 Y80.49 E12.84878
G1 X6.645 Y79.727 E12.875
G1 X6.53 Y78.949 E12.9012
G1 X6.494 Y78.162 E12.92744
G1 X6.538 Y77.376 E12.95366
G1 X6.662 Y76.599 E12.97987
G1 X6.864 Y75.838 E13.0061
G1 X7.142 Y75.102 E13.03231
G1 X7.533 Y74.328 E13.06119
G1 X25.959 Y42.42 E14.28855
G1 X26.386 Y41.76 E14.31474
G1 X26.693 Y41.363 E14.33145
G1 X27.307 Y40.619 E14.36359
G1 X27.838 Y40.038 E14.3898
G1 X28.395 Y39.539 E14.41472
G1 X28.855 Y39.165 E14.43446
G0 F2625 X29.17 Y39.553
G1 F900 X29.785 Y39.104 E14.45983
G1 X30.566 Y38.662 E14.48972
G1 X31.702 Y38.108 E14.53182
G1 X32.35 Y37.83 E14.55531
G1 X35.699 Y36.583 E14.67435
G1 X40.563 Y34.511 E14.85046
G1 X45.265 Y32.187 E15.02517
G1 X49.82 Y29.605 E15.19958
G1 X54.238 Y26.76 E15.37462
G1 X58.485 Y23.671 E15.54955
G1 X62.54 Y20.356 E15.72402
G1 X66.418 Y16.802 E15.89923
G1 X70.078 Y13.044 E16.07397
G1 X73.61 Y8.989 E16.2531
G1 X74.139 Y8.442 E16.27845
G1 X74.723 Y7.953 E16.30382
G1 X75.355 Y7.528 E16.32919
G1 X76.028 Y7.172 E16.35455
G1 X76.734 Y6.889 E16.37989
G1 X77.467 Y6.681 E16.40527
G1 X78.217 Y6.551 E16.43062
G1 X78.977 Y6.501 E16.45599
G1 X79.737 Y6.53 E16.48133
G1 X80.491 Y6.639 E16.50671
G1 X81.229 Y6.827 E16.53207
G1 X81.943 Y7.09 E16.55742
G1 X82.7 Y7.47 E16.58563
G1 X88.322 Y10.714 E16.80185
G1 X88.961 Y11.129 E16.82723
G1 X89.347 Y11.43 E16.84353
G1 X91.967 Y13.619 E16.95726
G1 X96.16 Y16.809 E17.13275
G1 X100.512 Y19.75 E17.30772
G1 X105.053 Y22.456 E17.4838
G1 X109.689 Y24.873 E17.65795
G1 X111.999 Y25.957 E17.74295
G1 X116.882 Y27.999 E17.91926
G1 X122.802 Y30.064 E18.12811
G1 X123.507 Y30.352 E18.15347
G1 X124.038 Y30.63 E18.17344
G1 X129.66 Y33.875 E18.38967
G1 X130.299 Y34.29 E18.41505
G1 X130.89 Y34.769 E18.44039
G1 X131.317 Y35.187 E18.46029
G1 X134.585 Y38.662 E18.61919
G1 X138.376 Y42.293 E18.79405
G1 X142.42 Y45.747 E18.9712
G1 X145.219 Y47.93 E19.08944
G1 X145.794 Y48.429 E19.1148
G1 X146.314 Y48.986 E19.14019
G1 X146.772 Y49.594 E19.16554
G1 X147.164 Y50.246 E19.19088
G1 X147.485 Y50.936 E19.21623
G1 X147.732 Y51.657 E19.24162
G1 X147.903 Y52.399 E19.26698
G1 X147.994 Y53.154 E19.29231
G1 X148.006 Y53.916 E19.3177
G1 X147.938 Y54.674 E19.34305
G1 X147.791 Y55.419 E19.36835
G1 X146.028 Y62.412 E19.60857
G1 X145.546 Y64.839 E19.691
G1 X144.729 Y70.085 E19.86785
G1 X144.219 Y75.286 E20.04193
G1 X144.002 Y80.542 E20.21716
G1 X144.083 Y85.783 E20.39176
G1 X144.46 Y91.015 E20.56649
G1 X145.134 Y96.225 E20.74148
G1 X146.204 Y102.013 E20.93755
G1 X146.303 Y102.768 E20.96291
G1 X146.317 Y103.667 E20.99286
G1 X146.26 Y104.896 E21.03385
G1 X146.185 Y105.653 E21.05918
G1 X146.031 Y106.399 E21.08456
G1 X145.804 Y107.112 E21.10948
G1 X145.352 Y108.314 E21.15226
G1 X145.047 Y109.011 E21.1776
G1 X144.845 Y109.387 E21.19182
G1 X124.358 Y144.871 E22.55666
G1 X123.943 Y145.509 E22.58202
G1 X123.463 Y146.101 E22.6074
G1 X122.925 Y146.639 E22.63275
G1 X122.332 Y147.117 E22.65812
G1 X121.693 Y147.531 E22.68348
G1 X121.014 Y147.875 E22.70884
G1 X120.303 Y148.146 E22.73418
G1 X119.567 Y148.342 E22.75955
G1 X118.815 Y148.459 E22.7849
G1 X118.054 Y148.496 E22.81028
G1 X117.294 Y148.453 E22.83564
G1 X116.543 Y148.331 E22.86098
G1 X115.808 Y148.131 E22.88636
G1 X115.099 Y147.855 E22.9117
G1 X114.458 Y147.527 E22.93568
G1 X108.83 Y144.282 E23.15208
G1 X108.191 Y143.867 E23.17746
G1 X107.848 Y143.602 E23.1919
G1 X102.399 Y139.124 E23.42684
G1 X98.169 Y136.08 E23.60043
G1 X93.748 Y133.262 E23.77507
G1 X89.164 Y130.693 E23.95011
G1 X84.453 Y128.393 E24.12474
G1 X79.633 Y126.367 E24.2989
G1 X74.113 Y124.412 E24.49397
G1 X73.41 Y124.12 E24.51932
G1 X72.909 Y123.857 E24.53817
G1 X67.288 Y120.612 E24.75437
G1 X66.397 Y120.005 E24.79028
G1 X62.747 Y117.099 E24.94569
G1 X60.682 Y115.574 E25.0312
G1 X58.545 Y114.089 E25.11789
G1 X54.097 Y111.269 E25.29332
G1 X49.498 Y108.706 E25.4687
G1 X44.778 Y106.415 E25.64346
G1 X39.892 Y104.377 E25.81981
G1 X37.509 Y103.499 E25.9044
G1 X32.383 Y101.843 E26.08384
G1 X31.672 Y101.571 E26.1092
G1 X30.991 Y101.226 E26.13463
G1 X25.344 Y97.972 E26.35173
G1 X24.705 Y97.558 E26.37709
G1 X24.114 Y97.079 E26.40243
G1 X23.683 Y96.657 E26.42252
G1 X20.409 Y93.176 E26.5817
G1 X16.624 Y89.551 E26.75628
G1 X12.591 Y86.106 E26.93296
G1 X9.789 Y83.924 E27.05126
G1 X9.214 Y83.425 E27.07662
G1 X8.694 Y82.869 E27.10198
G1 X8.236 Y82.261 E27.12733
G1 X7.843 Y81.609 E27.15269
G1 X7.522 Y80.919 E27.17804
G1 X7.274 Y80.199 E27.20341
G1 X7.103 Y79.457 E27.22877
G1 X7.011 Y78.701 E27.25414
G1 X6.999 Y77.94 E27.27949
G1 X7.066 Y77.182 E27.30484
G1 X7.213 Y76.435 E27.3302
G1 X7.437 Y75.707 E27.35557
G1 X7.737 Y75.007 E27.38094
G1 X7.966 Y74.578 E27.39714
G1 X26.392 Y42.67 E28.6245
G1 X26.806 Y42.032 E28.64983
G1 X27.078 Y41.681 E28.66462
G1 X27.692 Y40.937 E28.69676
G1 X28.207 Y40.376 E28.72212
G1 X28.71 Y39.927 E28.74458
G1 X29.17 Y39.553 E28.76433
G1 F600 E27.76433
G0 F2625 X33.23 Y44.725
G0 X34.116 Y45.852
G0 X34.276 Y45.828
G0 X34.221 Y45.745
;TYPE:WALL-INNER
G1 F600 E28.76433
G1 F900 X34.653 Y45.501 E28.78086
G1 X34.754 Y45.463 E28.78445
G1 X35.114 Y45.328 E28.79726
G1 X35.41 Y45.265 E28.80734
G1 X35.309 Y45.439
G1 X35.117 Y45.772 E28.81682
G1 X32.773 Y49.831 E28.97295
G1 X32.479 Y50.541 E28.99855
G1 X32.373 Y51.351 E29.02576
G1 X32.479 Y52.161 E29.05297
G1 X32.792 Y52.917 E29.08023
G1 X33.291 Y53.566 E29.1075
G1 X33.939 Y54.063 E29.1347
G1 X34.694 Y54.376 E29.16192
G1 X35.504 Y54.482 E29.18913
G1 X36.314 Y54.376 E29.21635
G1 X37.07 Y54.063 E29.2436
G1 X37.719 Y53.566 E29.27083
G1 X38.186 Y52.956 E29.29642
G1 X41.226 Y47.692 E29.49891
G1 X49.669 Y52.567 E29.82366
G1 X46.624 Y57.844 E30.02661
G1 X46.334 Y58.554 E30.05215
G1 X46.23 Y59.351 E30.07893
G1 X46.336 Y60.161 E30.10614
G1 X46.649 Y60.917 E30.13339
G1 X47.146 Y61.566 E30.16062
G1 X47.795 Y62.063 E30.18785
G1 X48.551 Y62.376 E30.21511
G1 X49.361 Y62.482 E30.24232
G1 X50.171 Y62.376 E30.26953
G1 X50.926 Y62.063 E30.29675
G1 X51.575 Y61.566 E30.32398
G1 X52.042 Y60.956 E30.34957
G1 X54.385 Y56.898 E30.50566
G1 X54.578 Y56.564 E30.51851
G1 X54.679 Y56.389 E30.52524
G1 X54.772 Y56.676 E30.52642
G1 X54.834 Y57.057 E30.53594
G1 X54.852 Y57.164 E30.53956
G1 X54.858 Y57.66 E30.55608
G1 X54.787 Y58.148 E30.57251
G1 X54.643 Y58.62 E30.58894
G1 X54.419 Y59.091 E30.60632
G1 X34.434 Y93.705 E31.9377
G1 X34.309 Y93.921 E31.94602
G1 X34.093 Y93.796 E31.95139
G1 X29.98 Y91.421 E32.1096
G1 X33.766 Y84.861 E32.36189
G1 X21.424 Y77.736 E32.8366
G1 X21.208 Y77.611 E32.84491
G1 X21.083 Y77.827 E32.85029
G1 X19.706 Y80.213 E32.94205
G1 X19.582 Y80.429 E32.95035
G1 X19.366 Y80.304 E32.95572
G1 X15.468 Y78.054 E33.10564
G1 X15.252 Y77.929 E33.11395
G1 X15.377 Y77.713 E33.11933
G1 X33.204 Y46.837 E34.30694
G1 X33.494 Y46.413 E34.32405
G1 X33.834 Y46.049 E34.34064
G1 X34.221 Y45.745 E34.35703
G0 F2625 X34.276 Y45.828
G0 X32.441 Y50.531
G0 X32.333 Y51.351
G0 X32.441 Y52.171
G0 X32.758 Y52.937
G0 X35.282 Y57.096
G0 X35.307 Y57.192
G1 F900 X26.593 Y72.286 E34.93759
G1 X26.468 Y72.502 E34.9459
G1 X26.684 Y72.626 E34.95126
G1 X35.563 Y77.75 E35.29274
G1 X44.277 Y62.656 E35.8733
G1 X44.402 Y62.44 E35.88161
G1 X44.186 Y62.316 E35.88697
G1 X35.307 Y57.192 E36.22845
G0 F2625 X35.282 Y57.096
G0 X26.43 Y72.512
G0 X27.067 Y72.962
G0 X27.367 Y72.443
;TYPE:WALL-OUTER
G1 F900 X35.38 Y77.067 E36.53662
G1 X43.594 Y62.839 E37.08387
G1 X43.719 Y62.623 E37.09218
G1 X43.503 Y62.499 E37.09753
G1 X35.49 Y57.875 E37.4057
G1 X27.276 Y72.103 E37.95295
G1 X27.151 Y72.319 E37.96127
G1 X27.367 Y72.443 E37.96662
G0 F2625 X27.583 Y72.567
G0 X27.283 Y73.086
G0 X26.43 Y72.512
G0 X35.297 Y57.154
G0 X46.14 Y59.275
G0 X46.734 Y59.351
G1 F900 X46.823 Y60.031 E37.98947
G1 X47.086 Y60.665 E38.01233
G1 X47.503 Y61.209 E38.03516
G1 X48.047 Y61.626 E38.05799
G1 X48.681 Y61.889 E38.08086
G1 X49.361 Y61.978 E38.1037
G1 X50.04 Y61.889 E38.12651
G1 X50.674 Y61.626 E38.14938
G1 X51.218 Y61.209 E38.17221
G1 X51.625 Y60.678 E38.1945
G1 X54.52 Y55.663 E38.38738
G1 X54.666 Y55.411 E38.39708
G1 X54.708 Y55.339 E38.39986
G1 X54.826 Y55.503 E38.39992
G1 X54.957 Y55.763 E38.40692
G1 X55.08 Y56.008 E38.41605
G1 X55.259 Y56.557 E38.43529
G1 X55.352 Y57.123 E38.45439
G1 X55.358 Y57.694 E38.47341
G1 X55.277 Y58.255 E38.4923
G1 X55.111 Y58.8 E38.51127
G1 X54.859 Y59.328 E38.53076
G1 X34.617 Y94.388 E39.87929
G1 X34.492 Y94.604 E39.88761
G1 X34.276 Y94.479 E39.89298
G1 X29.297 Y91.604 E40.0845
G1 X33.083 Y85.044 E40.33679
G1 X21.607 Y78.419 E40.77819
G1 X21.391 Y78.294 E40.7865
G1 X21.267 Y78.51 E40.79186
G1 X19.765 Y81.112 E40.89194
G1 X14.785 Y78.237 E41.08348
G1 X14.569 Y78.112 E41.09179
G1 X14.694 Y77.896 E41.09717
G1 X32.781 Y46.569 E42.30212
G1 X33.103 Y46.098 E42.32113
G1 X33.494 Y45.681 E42.34017
G1 X33.941 Y45.329 E42.35912
G1 X34.442 Y45.046 E42.37829
G1 X34.972 Y44.847 E42.39714
G1 X35.535 Y44.728 E42.41631
G1 X35.812 Y44.711 E42.42556
G1 X36.106 Y44.695 E42.43536
G1 X36.306 Y44.714 E42.44206
G1 X36.265 Y44.785
G1 X36.118 Y45.039 E42.44909
G1 X33.222 Y50.053 E42.64197
G1 X32.966 Y50.671 E42.66425
G1 X32.877 Y51.351 E42.68709
G1 X32.966 Y52.031 E42.70994
G1 X33.229 Y52.665 E42.7328
G1 X33.647 Y53.209 E42.75565
G1 X34.191 Y53.626 E42.77848
G1 X34.825 Y53.889 E42.80135
G1 X35.504 Y53.978 E42.82416
G1 X36.184 Y53.889 E42.847
G1 X36.818 Y53.626 E42.86987
G1 X37.362 Y53.209 E42.8927
G1 X37.769 Y52.678 E42.91499
G1 X41.043 Y47.009 E43.13305
