; generated by Slic3r 1.1.7 on 2015-08-26 at 07:20:22

; perimeters extrusion width = 0.60mm
; infill extrusion width = 0.60mm
; solid infill extrusion width = 0.60mm
; top infill extrusion width = 0.43mm

G21 ; set units to millimeters
M107

M301 P34 I4 D113     ; set PID nozzle
M304 P162 I17 D378 ; set PID Bed

M104 S230                 ; set extruder temp for budaschnozzle
;M104 S250                 ; set extruder temp for hex_hot_end
;M140 S100                 ; set bed temp for PET
M140 S110                 ; set bed temp for PEI (reminder ~G1 Z2 ~ M140 S(@-10 degree change) ;if -m is present in file name)

G28                            ; home
G1 Z5 F300                ; move bed down 5mm
M84                            ; disable steppers
G4 S300                     ; wait 5 mins to preheat

G28                            ; home

G90 ; use absolute coordinates
G92 E0
M82 ; use absolute distances for extrusion
M204 S2000
G1 F600.000 E-1.00000
G92 E0
G1 Z0.350 F9600.000
G1 X119.304 Y88.500 F9600.000
G1 E1.00000 F600.000
G1 X119.862 Y87.812 E1.02734 F1500.000
G1 X120.095 Y87.558 E1.03797
G1 X120.478 Y87.174 E1.05470
G1 X121.146 Y86.593 E1.08204
G1 X121.863 Y86.073 E1.10939
G1 X122.623 Y85.617 E1.13674
G1 X123.419 Y85.229 E1.16408
G1 X138.181 Y79.325 E1.65486
G1 X140.466 Y78.885 E1.72667
G1 X174.466 Y78.885 E2.77620
G1 X176.640 Y79.282 E2.84443
G1 X178.534 Y80.421 E2.91266 F1500.000
G1 X179.904 Y82.156 E2.98089
G1 X180.623 Y85.036 E3.07252
G1 X180.691 Y149.458 E5.06113
G1 X180.686 Y183.726 E6.11895
G1 X180.624 Y184.610 E6.14630
G1 X180.579 Y184.950 E6.15687
G1 X180.485 Y185.485 E6.17365
G1 X180.270 Y186.345 E6.20100
G1 X179.981 Y187.182 E6.22835
G1 X179.621 Y187.991 E6.25569
G1 X179.192 Y188.765 E6.28301
G1 X178.696 Y189.500 E6.31038
G1 X178.138 Y190.188 E6.33773
G1 X177.905 Y190.442 E6.34835
G1 X177.522 Y190.826 E6.36508
G1 X176.854 Y191.407 E6.39243
G1 X176.137 Y191.927 E6.41977
G1 X175.377 Y192.383 E6.44712
G1 X174.581 Y192.771 E6.47447
G1 X174.264 Y192.903 E6.48506
G1 X159.819 Y198.675 E6.96524
G1 X157.534 Y199.115 E7.03706
G1 X123.534 Y199.115 E8.08659
G1 X121.360 Y198.718 E8.15482
G1 X119.466 Y197.579 E8.22305
G1 X118.096 Y195.844 E8.29128
G1 X117.377 Y192.964 E8.38290
G1 X117.309 Y128.542 E10.37152
G1 X117.314 Y94.273 E11.42934
G1 X117.376 Y93.390 E11.45667
G1 X117.515 Y92.515 E11.48403
G1 X117.730 Y91.656 E11.51137
G1 X118.019 Y90.818 E11.53873
G1 X118.379 Y90.009 E11.56607
G1 X118.808 Y89.235 E11.59339
G1 X119.262 Y88.562 E11.61845
G1 X119.763 Y88.852 F9600.000
G1 X120.288 Y88.202 E11.64423 F1500.000
G1 X120.521 Y87.949 E11.65485
G1 X120.868 Y87.601 E11.67003
G1 X121.498 Y87.052 E11.69582
G1 X122.174 Y86.561 E11.72161
G1 X122.890 Y86.130 E11.74739
G1 X123.640 Y85.763 E11.77318
G1 X138.396 Y79.862 E12.26373
G1 X140.466 Y79.464 E12.32880
G1 X174.466 Y79.464 E13.37833
G1 X176.531 Y79.860 E13.44325
G1 X178.303 Y80.993 E13.50817 F1500.000
G1 X179.529 Y82.701 E13.57309
G1 X180.044 Y85.036 E13.64689
G1 X180.113 Y149.458 E15.63549
G1 X180.108 Y183.701 E16.69253
G1 X180.050 Y184.535 E16.71832
G1 X180.005 Y184.874 E16.72888
G1 X179.920 Y185.360 E16.74411
G1 X179.718 Y186.171 E16.76990
G1 X179.447 Y186.961 E16.79569
G1 X179.108 Y187.724 E16.82148
G1 X178.704 Y188.454 E16.84724
G1 X178.237 Y189.148 E16.87305
G1 X177.712 Y189.798 E16.89884
G1 X177.479 Y190.051 E16.90946
G1 X177.132 Y190.399 E16.92464
G1 X176.501 Y190.948 E16.95042
G1 X175.826 Y191.439 E16.97621
G1 X175.110 Y191.870 E17.00200
G1 X174.360 Y192.237 E17.02779
G1 X174.043 Y192.368 E17.03838
G1 X159.604 Y198.138 E17.51834
G1 X157.534 Y198.536 E17.58341
G1 X123.534 Y198.536 E18.63294
G1 X121.469 Y198.140 E18.69786
G1 X119.697 Y197.007 E18.76277
G1 X118.471 Y195.299 E18.82769
G1 X117.956 Y192.964 E18.90150
G1 X117.887 Y128.542 E20.89009
G1 X117.892 Y94.299 E21.94714
G1 X117.950 Y93.466 E21.97291
G1 X118.080 Y92.640 E21.99872
G1 X118.282 Y91.830 E22.02450
G1 X118.553 Y91.039 E22.05029
G1 X118.892 Y90.276 E22.07608
G1 X119.296 Y89.545 E22.10184
G1 X119.721 Y88.914 E22.12534
G1 F600.000 E21.12534
G92 E0
G1 X174.166 Y92.742 F9600.000
G1 E1.00000 F600.000
G1 X170.459 Y92.742 E1.11442 F1500.000
G1 X170.004 Y92.762 E1.12849
G1 X169.545 Y92.822 E1.14276
G1 X169.094 Y92.923 E1.15703
G1 X168.653 Y93.062 E1.17131
G1 X168.226 Y93.239 E1.18558
G1 X167.816 Y93.452 E1.19985
G1 X167.445 Y93.688 E1.21341
G1 X167.059 Y93.982 E1.22840
G1 X166.718 Y94.294 E1.24267
G1 X166.405 Y94.635 E1.25695
G1 X166.124 Y95.002 E1.27121
G1 X165.876 Y95.392 E1.28549
G1 X165.662 Y95.802 E1.29976
G1 X165.485 Y96.229 E1.31404
G1 X165.346 Y96.670 E1.32831
G1 X165.246 Y97.122 E1.34258
G1 X165.186 Y97.580 E1.35686
G1 X165.166 Y98.036 E1.37093
G1 X165.166 Y128.567 E2.31338
G1 X165.149 Y128.891 E2.32339
G1 X165.105 Y129.207 E2.33323
G1 X165.034 Y129.518 E2.34308
G1 X164.936 Y129.824 E2.35301
G1 X164.814 Y130.116 E2.36279
G1 X164.665 Y130.401 E2.37271
G1 X164.492 Y130.670 E2.38258
G1 X164.298 Y130.923 E2.39242
G1 X164.082 Y131.158 E2.40228
G1 X163.846 Y131.375 E2.41217
G1 X163.594 Y131.569 E2.42199
G1 X163.323 Y131.742 E2.43190
G1 X163.041 Y131.890 E2.44174
G1 X162.746 Y132.013 E2.45161
G1 X162.442 Y132.111 E2.46147
G1 X162.131 Y132.182 E2.47132
G1 X161.813 Y132.226 E2.48122
G1 X161.489 Y132.242 E2.49123
G1 X127.469 Y132.242 E3.54138
G1 X127.117 Y132.226 E3.55226
G1 X126.801 Y132.182 E3.56210
G1 X126.490 Y132.111 E3.57196
G1 X126.184 Y132.013 E3.58187
G1 X125.892 Y131.890 E3.59166
G1 X125.606 Y131.741 E3.60161
G1 X125.339 Y131.569 E3.61142
G1 X125.085 Y131.374 E3.62129
G1 X124.850 Y131.159 E3.63114
G1 X124.634 Y130.923 E3.64102
G1 X124.438 Y130.669 E3.65091
G1 X124.267 Y130.401 E3.66073
G1 X124.118 Y130.118 E3.67060
G1 X123.994 Y129.822 E3.68049
G1 X123.897 Y129.519 E3.69032
G1 X123.826 Y129.206 E3.70024
G1 X123.782 Y128.890 E3.71007
G1 X123.766 Y128.542 E3.72084
G1 X123.766 Y94.549 E4.77015
G1 X123.780 Y94.220 E4.78032
G1 X123.822 Y93.900 E4.79028
G1 X123.892 Y93.585 E4.80024
G1 X123.989 Y93.277 E4.81021
G1 X124.113 Y92.979 E4.82017
G1 X124.290 Y92.648 E4.83177
G1 X124.435 Y92.420 E4.84009
G1 X124.632 Y92.164 E4.85005
G1 X124.850 Y91.926 E4.86002
G1 X125.088 Y91.708 E4.86998
G1 X125.344 Y91.512 E4.87994
G1 X125.616 Y91.338 E4.88991
G1 X125.902 Y91.189 E4.89987
G1 X126.200 Y91.066 E4.90983
G1 X126.508 Y90.969 E4.91980
G1 X126.823 Y90.899 E4.92976
G1 X127.143 Y90.857 E4.93972
G1 X127.472 Y90.842 E4.94988
G1 X138.472 Y90.842 E5.28944
G1 X138.865 Y90.808 E5.30161
G1 X139.252 Y90.704 E5.31399
G1 X139.438 Y90.627 E5.32019
G1 X139.785 Y90.427 E5.33256
G1 X139.944 Y90.304 E5.33876
G1 X140.228 Y90.021 E5.35113
G1 X140.350 Y89.862 E5.35733
G1 X140.550 Y89.514 E5.36971
G1 X140.688 Y89.138 E5.38208
G1 X140.731 Y88.942 E5.38828
G1 X140.766 Y88.549 E5.40046
G1 X140.766 Y85.342 E5.49944
G1 X174.166 Y85.342 E6.53044
G1 X174.166 Y92.667 E6.75656
G1 X173.733 Y92.492 F9600.000
G1 X143.585 Y86.293 F9600.000
G1 X143.248 Y86.433 E6.76781 F1500.000
G1 X143.026 Y86.549 E6.77556
G1 X142.615 Y86.837 E6.79104
G1 X142.429 Y87.006 E6.79880
G1 X142.107 Y87.391 E6.81429
G1 X141.972 Y87.603 E6.82205
G1 X141.856 Y87.825 E6.82979
G1 X141.717 Y88.162 E6.84104
G1 X141.344 Y88.088 E6.85276
G1 X141.344 Y85.921 E6.91965
G1 X143.511 Y85.921 E6.98654
G1 X143.571 Y86.220 E6.99595
G1 X145.346 Y86.293 F9600.000
G1 X145.420 Y85.921 E7.00767 F1500.000
G1 X169.511 Y85.921 E7.75132
G1 X169.585 Y86.293 E7.76304
G1 X169.249 Y86.433 E7.77429
G1 X169.026 Y86.549 E7.78204
G1 X168.615 Y86.837 E7.79753
G1 X168.260 Y87.191 E7.81301
G1 X167.972 Y87.603 E7.82852
G1 X167.760 Y88.057 E7.84400
G1 X167.684 Y88.297 E7.85176
G1 X167.630 Y88.542 E7.85952
G1 X167.586 Y89.042 E7.87501
G1 X167.630 Y89.542 E7.89049
G1 X167.684 Y89.787 E7.89825
G1 X167.856 Y90.259 E7.91376
G1 X168.107 Y90.694 E7.92923
G1 X168.430 Y91.078 E7.94474
G1 X168.814 Y91.401 E7.96023
G1 X169.249 Y91.652 E7.97572
G1 X169.780 Y91.842 E7.99314
G1 X169.748 Y92.212 E8.00461
G1 X169.445 Y92.252 E8.01403
G1 X168.944 Y92.363 E8.02986
G1 X168.455 Y92.518 E8.04571
G1 X167.981 Y92.714 E8.06154
G1 X167.526 Y92.951 E8.07736
G1 X167.093 Y93.226 E8.09320
G1 X166.687 Y93.538 E8.10903
G1 X166.344 Y93.852 E8.12337
G1 X165.962 Y94.263 E8.14070
G1 X165.650 Y94.670 E8.15652
G1 X165.374 Y95.102 E8.17235
G1 X165.137 Y95.557 E8.18819
G1 X164.941 Y96.031 E8.20402
G1 X164.787 Y96.520 E8.21985
G1 X164.676 Y97.021 E8.23569
G1 X164.609 Y97.530 E8.25152
G1 X164.587 Y98.023 E8.26677
G1 X164.587 Y102.517 E8.40548
G1 X164.213 Y102.590 E8.41725
G1 X163.973 Y102.054 E8.43538
G1 X163.694 Y101.647 E8.45061
G1 X163.530 Y101.463 E8.45822
G1 X163.190 Y101.166 E8.47215
G1 X162.952 Y101.004 E8.48105
G1 X162.735 Y100.886 E8.48867
G1 X162.276 Y100.707 E8.50387
G1 X161.792 Y100.610 E8.51910
G1 X161.300 Y100.596 E8.53430
G1 X160.706 Y100.656 E8.55274
G1 X160.355 Y100.661 E8.56356
G1 X160.006 Y100.637 E8.57438
G1 X159.659 Y100.583 E8.58519
G1 X159.319 Y100.500 E8.59601
G1 X158.987 Y100.388 E8.60683
G1 X158.665 Y100.249 E8.61765
G1 X158.357 Y100.082 E8.62847
G1 X158.064 Y99.890 E8.63928
G1 X157.788 Y99.674 E8.65010
G1 X157.532 Y99.435 E8.66092
G1 X157.296 Y99.176 E8.67174
G1 X156.945 Y98.713 E8.68967
G1 X156.791 Y98.541 E8.69680
G1 X156.445 Y98.236 E8.71104
G1 X156.254 Y98.105 E8.71818
G1 X155.845 Y97.892 E8.73242
G1 X155.629 Y97.810 E8.73956
G1 X155.181 Y97.700 E8.75379
G1 X154.739 Y97.664 E8.76748
G1 X134.193 Y97.664 E9.40172
G1 X133.750 Y97.700 E9.41542
G1 X133.524 Y97.746 E9.42254
G1 X133.086 Y97.891 E9.43678
G1 X132.677 Y98.105 E9.45102
G1 X132.487 Y98.236 E9.45816
G1 X132.140 Y98.541 E9.47241
G1 X131.987 Y98.713 E9.47952
G1 X131.635 Y99.176 E9.49747
G1 X131.400 Y99.436 E9.50829
G1 X131.143 Y99.674 E9.51911
G1 X130.868 Y99.891 E9.52993
G1 X130.574 Y100.082 E9.54074
G1 X130.266 Y100.249 E9.55156
G1 X129.945 Y100.388 E9.56238
G1 X129.612 Y100.500 E9.57319
G1 X129.272 Y100.583 E9.58401
G1 X128.926 Y100.637 E9.59483
G1 X128.576 Y100.661 E9.60565
G1 X128.226 Y100.656 E9.61646
G1 X127.631 Y100.596 E9.63490
G1 X127.385 Y100.592 E9.64252
G1 X126.895 Y100.648 E9.65773
G1 X126.422 Y100.787 E9.67294
G1 X125.980 Y101.004 E9.68816
G1 X125.774 Y101.141 E9.69579
G1 X125.402 Y101.463 E9.71099
G1 X125.089 Y101.844 E9.72620
G1 X124.959 Y102.054 E9.73383
G1 X124.718 Y102.590 E9.75196
G1 X124.344 Y102.517 E9.76373
G1 X124.357 Y94.270 E10.01829
G1 X124.392 Y94.000 E10.02670
G1 X124.533 Y93.475 E10.04349
G1 X124.763 Y92.982 E10.06028
G1 X125.075 Y92.536 E10.07707
G1 X125.460 Y92.152 E10.09386
G1 X125.905 Y91.840 E10.11065
G1 X126.398 Y91.610 E10.12744
G1 X126.924 Y91.469 E10.14423
G1 X127.194 Y91.433 E10.15264
G1 X138.485 Y91.421 E10.50118
G1 X138.965 Y91.378 E10.51607
G1 X139.211 Y91.324 E10.52383
G1 X139.683 Y91.152 E10.53933
G1 X140.117 Y90.901 E10.55481
G1 X140.317 Y90.748 E10.56258
G1 X140.671 Y90.393 E10.57806
G1 X140.824 Y90.194 E10.58582
G1 X141.075 Y89.759 E10.60131
G1 X141.235 Y89.324 E10.61563
G1 X141.606 Y89.356 E10.62711
G1 X141.684 Y89.787 E10.64063
G1 X141.760 Y90.027 E10.64839
G1 X141.856 Y90.259 E10.65615
G1 X142.107 Y90.694 E10.67163
G1 X142.260 Y90.893 E10.67939
G1 X142.615 Y91.248 E10.69487
G1 X143.026 Y91.536 E10.71038
G1 X143.481 Y91.748 E10.72586
G1 X143.966 Y91.878 E10.74137
G1 X144.215 Y91.911 E10.74913
G1 X144.716 Y91.911 E10.76460
G1 X145.211 Y91.824 E10.78010
G1 X145.683 Y91.652 E10.79560
G1 X146.117 Y91.401 E10.81108
G1 X146.502 Y91.078 E10.82659
G1 X146.824 Y90.694 E10.84207
G1 X147.075 Y90.259 E10.85756
G1 X147.247 Y89.788 E10.87306
G1 X147.329 Y89.335 E10.88726
G1 X147.345 Y89.042 E10.89631
G1 X147.301 Y88.543 E10.91178
G1 X147.184 Y88.098 E10.92599
G1 X147.075 Y87.825 E10.93505
G1 X146.824 Y87.391 E10.95053
G1 X146.502 Y87.006 E10.96604
G1 X146.117 Y86.684 E10.98152
G1 X145.683 Y86.433 E10.99701
G1 X145.415 Y86.322 E11.00594
G1 X171.346 Y86.293 F9600.000
G1 X171.420 Y85.921 E11.01766 F1500.000
G1 X173.587 Y85.921 E11.08455
G1 X173.587 Y88.088 E11.15144
G1 X173.215 Y88.162 E11.16316
G1 X173.075 Y87.825 E11.17441
G1 X172.959 Y87.602 E11.18216
G1 X172.671 Y87.191 E11.19765
G1 X172.502 Y87.006 E11.20541
G1 X172.117 Y86.684 E11.22090
G1 X171.905 Y86.549 E11.22866
G1 X171.415 Y86.322 E11.24531
G1 X173.587 Y89.997 F9600.000
G1 X173.587 Y92.164 E11.31220 F1500.000
G1 X171.420 Y92.164 E11.37909
G1 X171.346 Y91.791 E11.39081
G1 X171.683 Y91.652 E11.40206
G1 X171.906 Y91.536 E11.40981
G1 X172.283 Y91.274 E11.42399
G1 X172.502 Y91.078 E11.43306
G1 X172.824 Y90.694 E11.44854
G1 X172.959 Y90.482 E11.45630
G1 X173.075 Y90.259 E11.46404
G1 X173.215 Y89.923 E11.47529
G1 X173.514 Y89.982 E11.48470
G1 F600.000 E10.48470
G92 E0
G1 X164.587 Y122.567 F9600.000
G1 E1.00000 F600.000
G1 X164.587 Y128.533 E1.18415 F1500.000
G1 X164.572 Y128.836 E1.19352
G1 X164.476 Y129.365 E1.21011
G1 X164.290 Y129.870 E1.22672
G1 X164.019 Y130.337 E1.24340
G1 X163.726 Y130.717 E1.25821
G1 X163.364 Y130.463 E1.27187
G1 X163.619 Y130.012 E1.28787
G1 X163.735 Y129.732 E1.29723
G1 X163.826 Y129.443 E1.30660
G1 X163.892 Y129.146 E1.31597
G1 X163.932 Y128.845 E1.32534
G1 X163.945 Y128.542 E1.33470
G1 X163.932 Y128.239 E1.34408
G1 X163.892 Y127.938 E1.35344
G1 X163.827 Y127.642 E1.36281
G1 X163.735 Y127.352 E1.37219
G1 X163.619 Y127.072 E1.38156
G1 X163.479 Y126.803 E1.39091
G1 X163.316 Y126.547 E1.40029
G1 X163.131 Y126.306 E1.40967
G1 X162.926 Y126.082 E1.41903
G1 X162.702 Y125.877 E1.42841
G1 X162.461 Y125.692 E1.43777
G1 X162.205 Y125.529 E1.44715
G1 X161.936 Y125.389 E1.45652
G1 X161.656 Y125.273 E1.46588
G1 X161.112 Y125.125 E1.48326
G1 X160.769 Y125.076 E1.49398
G1 X160.466 Y125.063 E1.50334
G1 X160.162 Y125.076 E1.51271
G1 X159.862 Y125.116 E1.52207
G1 X159.565 Y125.181 E1.53145
G1 X159.276 Y125.273 E1.54082
G1 X158.995 Y125.389 E1.55019
G1 X158.726 Y125.529 E1.55955
G1 X158.470 Y125.692 E1.56892
G1 X158.229 Y125.877 E1.57830
G1 X158.005 Y126.082 E1.58767
G1 X157.800 Y126.306 E1.59704
G1 X157.476 Y126.766 E1.61442
G1 X157.312 Y127.072 E1.62514
G1 X157.196 Y127.352 E1.63450
G1 X157.105 Y127.642 E1.64386
G1 X157.039 Y127.938 E1.65324
G1 X157.000 Y128.239 E1.66261
G1 X156.986 Y128.542 E1.67197
G1 X157.000 Y128.846 E1.68135
G1 X157.039 Y129.146 E1.69071
G1 X157.105 Y129.443 E1.70008
G1 X157.196 Y129.732 E1.70946
G1 X157.312 Y130.013 E1.71882
G1 X157.452 Y130.282 E1.72818
G1 X157.615 Y130.538 E1.73755
G1 X157.800 Y130.779 E1.74693
G1 X158.005 Y131.003 E1.75631
G1 X158.414 Y131.350 E1.77286
G1 X158.308 Y131.664 E1.78310
G1 X154.420 Y131.664 E1.90309
G1 X154.346 Y131.291 E1.91482
G1 X154.683 Y131.152 E1.92606
G1 X154.905 Y131.036 E1.93382
G1 X155.317 Y130.748 E1.94930
G1 X155.671 Y130.393 E1.96479
G1 X155.959 Y129.982 E1.98030
G1 X156.171 Y129.527 E1.99578
G1 X156.292 Y129.083 E2.00998
G1 X156.334 Y128.793 E2.01904
G1 X156.360 Y128.190 E2.03768
G1 X156.405 Y127.839 E2.04858
G1 X156.480 Y127.494 E2.05948
G1 X156.585 Y127.157 E2.07038
G1 X156.718 Y126.830 E2.08127
G1 X156.878 Y126.515 E2.09217
G1 X157.065 Y126.216 E2.10307
G1 X157.276 Y125.933 E2.11397
G1 X157.511 Y125.670 E2.12487
G1 X157.768 Y125.427 E2.13577
G1 X158.045 Y125.208 E2.14666
G1 X158.339 Y125.013 E2.15756
G1 X158.649 Y124.844 E2.16846
G1 X158.972 Y124.702 E2.17936
G1 X159.306 Y124.588 E2.19026
G1 X159.649 Y124.503 E2.20116
G1 X159.998 Y124.448 E2.21206
G1 X160.350 Y124.423 E2.22296
G1 X160.703 Y124.428 E2.23385
G1 X161.300 Y124.489 E2.25237
G1 X161.792 Y124.475 E2.26757
G1 X162.036 Y124.436 E2.27520
G1 X162.509 Y124.298 E2.29042
G1 X162.951 Y124.080 E2.30562
G1 X163.157 Y123.944 E2.31324
G1 X163.530 Y123.621 E2.32847
G1 X163.842 Y123.240 E2.34367
G1 X163.973 Y123.030 E2.35130
G1 X164.213 Y122.494 E2.36943
G1 X164.514 Y122.553 E2.37888
G1 F600.000 E1.37888
G92 E0
G1 X134.585 Y131.291 F9600.000
G1 E1.00000 F600.000
G1 X134.511 Y131.664 E1.01172 F1500.000
G1 X130.656 Y131.664 E1.13073
G1 X130.559 Y131.330 E1.14145
G1 X131.400 Y130.794 E1.17225
G1 X131.249 Y130.643 E1.17885
G1 X131.479 Y130.282 E1.19206
G1 X131.619 Y130.013 E1.20143
G1 X131.735 Y129.733 E1.21079
G1 X131.827 Y129.442 E1.22020
G1 X131.926 Y128.889 E1.23756
G1 X131.945 Y128.542 E1.24828
G1 X131.932 Y128.240 E1.25762
G1 X131.892 Y127.938 E1.26700
G1 X131.826 Y127.641 E1.27639
G1 X131.735 Y127.353 E1.28572
