; generated by Slic3r 1.1.4 on 2014-07-17 at 17:46:57

; perimeters extrusion width = 0.46mm
; infill extrusion width = 0.61mm
; solid infill extrusion width = 0.50mm
; top infill extrusion width = 0.45mm

G21 ; set units to millimeters
G28 ; home all axes
G90 ; use absolute coordinates
G92 E0
M82 ; use absolute distances for extrusion
M204 S800
G1 F1200.000 E-0.70000
G92 E0
G1 Z0.400 F9000.000
G1 X95.366 Y83.015 F9000.000
G1 E0.70000 F1200.000
G1 X97.131 Y81.452 E0.77189 F2700.000
G1 X99.316 Y80.564 E0.84378
G1 X100.822 Y80.400 E0.88999
G1 X189.178 Y80.400 E3.58386
G1 X191.502 Y80.797 E3.65576
G1 X193.562 Y81.943 E3.72765
G1 X195.125 Y83.709 E3.79954
G1 X196.014 Y85.893 E3.87143
G1 X196.178 Y87.400 E3.91764
G1 X196.178 Y189.848 E7.04119
G1 X195.780 Y192.172 E7.11309
G1 X194.634 Y194.233 E7.18498
G1 X192.869 Y195.796 E7.25687
G1 X190.684 Y196.684 E7.32876
G1 X189.178 Y196.848 E7.37497
G1 X100.822 Y196.848 E10.06884
G1 X98.498 Y196.451 E10.14073
G1 X96.438 Y195.304 E10.21263
G1 X94.875 Y193.539 E10.28452
G1 X93.986 Y191.355 E10.35641
G1 X93.822 Y189.848 E10.40262
G1 X93.822 Y87.400 E13.52617
G1 X94.220 Y85.075 E13.59806
G1 X95.329 Y83.080 E13.66767
G1 X95.862 Y83.200 F9000.000
G1 X97.610 Y81.749 E13.73693 F2700.000
G1 X100.822 Y80.900 E13.83824
G1 X189.178 Y80.900 E16.53212
G1 X191.414 Y81.297 E16.60137
G1 X193.378 Y82.439 E16.67063
G1 X194.828 Y84.187 E16.73989
G1 X195.678 Y87.400 E16.84121
G1 X195.678 Y189.848 E19.96476
G1 X195.281 Y192.085 E20.03402
G1 X194.138 Y194.048 E20.10327
G1 X192.390 Y195.499 E20.17253
G1 X189.178 Y196.348 E20.27385
G1 X100.822 Y196.348 E22.96772
G1 X98.586 Y195.951 E23.03698
G1 X96.622 Y194.809 E23.10624
G1 X95.172 Y193.061 E23.17549
G1 X94.322 Y189.848 E23.27681
G1 X94.322 Y87.400 E26.40036
G1 X94.719 Y85.163 E26.46962
G1 X95.824 Y83.264 E26.53659
G1 F1200.000 E25.83659
G92 E0
G1 X155.569 Y150.553 F9000.000
G1 E0.70000 F1200.000
G1 X155.005 Y151.146 E0.72496 F4050.000
G1 X154.407 Y151.526 E0.74655
G1 X154.311 Y151.580 E0.74992
G1 X153.531 Y151.827 E0.77488
G1 X152.713 Y151.872 E0.79984
G1 X152.018 Y151.739 E0.82142
G1 X151.911 Y151.711 E0.82480
G1 X151.174 Y151.355 E0.84975
G1 X150.549 Y150.826 E0.87470
G1 X150.133 Y150.253 E0.89629
G1 X150.077 Y150.158 E0.89966
G1 X149.786 Y149.394 E0.92460
G1 X149.692 Y148.628 E0.94813
G1 X149.786 Y147.862 E0.97166
G1 X150.115 Y147.027 E0.99903
G1 X150.595 Y146.379 E1.02362
G1 X151.134 Y145.933 E1.04493
G1 X151.222 Y145.868 E1.04828
G1 X151.924 Y145.539 E1.07192
G1 X152.695 Y145.386 E1.09588
G1 X152.803 Y145.381 E1.09919
G1 X153.587 Y145.439 E1.12313
G1 X154.342 Y145.687 E1.14737
G1 X155.004 Y146.107 E1.17128
G1 X155.551 Y146.683 E1.19549
G1 X155.984 Y147.470 E1.22288
G1 X156.176 Y148.245 E1.24721
G1 X156.172 Y149.049 E1.27174
G1 X155.967 Y149.837 E1.29656
G1 X155.607 Y150.488 E1.31924
G1 X155.167 Y150.250 F9000.000
G1 X154.693 Y150.752 E1.34031 F3150.000
G1 X154.150 Y151.097 E1.35992
G1 X153.450 Y151.332 E1.38241
G1 X152.761 Y151.372 E1.40348
G1 X152.129 Y151.251 E1.42309
G1 X151.459 Y150.942 E1.44558
G1 X150.929 Y150.498 E1.46664
G1 X150.551 Y149.978 E1.48626
G1 X150.277 Y149.293 E1.50875
G1 X150.194 Y148.628 E1.52918
G1 X150.277 Y147.960 E1.54970
G1 X150.543 Y147.288 E1.57174
G1 X150.949 Y146.735 E1.59266
G1 X151.442 Y146.327 E1.61217
G1 X152.089 Y146.013 E1.63410
G1 X152.799 Y145.882 E1.65611
G1 X153.473 Y145.928 E1.67671
G1 X154.121 Y146.140 E1.69750
G1 X154.693 Y146.503 E1.71815
G1 X155.160 Y146.997 E1.73889
G1 X155.509 Y147.631 E1.76096
G1 X155.676 Y148.293 E1.78176
G1 X155.674 Y148.978 E1.80265
G1 X155.502 Y149.645 E1.82367
G1 X155.205 Y150.185 E1.84245
G1 X155.350 Y150.715 F9000.000
G1 F1200.000 E1.14245
G92 E0
G1 X140.172 Y149.049 F9000.000
G1 E0.70000 F1200.000
G1 X139.967 Y149.837 E0.72482 F4050.000
G1 X139.626 Y150.458 E0.74642
G1 X139.569 Y150.553 E0.74979
G1 X139.005 Y151.146 E0.77475
G1 X138.311 Y151.580 E0.79971
G1 X137.637 Y151.799 E0.82130
G1 X137.531 Y151.827 E0.82467
G1 X136.713 Y151.872 E0.84963
G1 X135.911 Y151.711 E0.87458
G1 X135.270 Y151.409 E0.89617
G1 X135.174 Y151.355 E0.89954
G1 X134.549 Y150.826 E0.92449
G1 X134.077 Y150.158 E0.94944
G1 X133.816 Y149.500 E0.97102
G1 X133.786 Y149.394 E0.97439
G1 X133.692 Y148.628 E0.99793
G1 X133.786 Y147.862 E1.02145
G1 X134.066 Y147.124 E1.04553
G1 X134.115 Y147.027 E1.04883
G1 X134.595 Y146.379 E1.07343
G1 X135.222 Y145.868 E1.09808
G1 X135.924 Y145.539 E1.12173
G1 X136.695 Y145.386 E1.14569
G1 X136.803 Y145.381 E1.14900
G1 X137.587 Y145.439 E1.17294
G1 X138.342 Y145.687 E1.19717
G1 X139.004 Y146.107 E1.22109
G1 X139.551 Y146.683 E1.24529
G1 X139.984 Y147.470 E1.27269
G1 X140.176 Y148.245 E1.29701
G1 X140.175 Y148.974 E1.31926
G1 X139.674 Y148.978 F9000.000
G1 X139.502 Y149.645 E1.34028 F3150.000
G1 X139.192 Y150.209 E1.35990
G1 X138.693 Y150.752 E1.38238
G1 X138.108 Y151.121 E1.40345
G1 X137.496 Y151.319 E1.42307
G1 X136.761 Y151.372 E1.44555
G1 X136.083 Y151.239 E1.46662
G1 X135.500 Y150.965 E1.48623
G1 X134.929 Y150.498 E1.50872
G1 X134.527 Y149.937 E1.52978
G1 X134.290 Y149.339 E1.54940
G1 X134.194 Y148.628 E1.57126
G1 X134.277 Y147.960 E1.59178
G1 X134.522 Y147.329 E1.61244
G1 X134.949 Y146.735 E1.63473
G1 X135.480 Y146.299 E1.65566
G1 X136.055 Y146.028 E1.67506
G1 X136.799 Y145.882 E1.69817
G1 X137.473 Y145.928 E1.71878
G1 X138.077 Y146.124 E1.73813
G1 X138.725 Y146.534 E1.76152
G1 X139.160 Y146.997 E1.78090
G1 X139.509 Y147.631 E1.80296
G1 X139.676 Y148.293 E1.82376
G1 X139.676 Y148.903 E1.84236
G1 X140.059 Y149.297 F9000.000
G1 F1200.000 E1.14236
G92 E0
G1 X133.024 Y142.750 F9000.000
G1 E0.70000 F1200.000
G1 X156.976 Y142.750 E1.43027 F4050.000
G1 X156.976 Y161.798 E2.01102
G1 X133.024 Y161.798 E2.74128
G1 X133.024 Y142.825 E3.31975
G1 X132.524 Y142.250 F9000.000
G1 X157.476 Y142.250 E4.08050 F3150.000
G1 X157.476 Y162.298 E4.69174
G1 X132.524 Y162.298 E5.45250
G1 X132.524 Y142.325 E6.06145
G1 X132.957 Y142.500 F9000.000
G1 X135.819 Y143.092 F9000.000
G1 X137.910 Y145.184 E6.15163 F4500.000
G1 X137.067 Y145.057 E6.17762
G1 X135.102 Y143.092 E6.26233
G1 X134.386 Y143.092 E6.28417
G1 X136.391 Y145.097 E6.37061
G1 X135.797 Y145.220 E6.38909
G1 X133.669 Y143.092 E6.48083
G1 X133.367 Y143.506 E6.49645
G1 X135.309 Y145.449 E6.58022
G1 X134.863 Y145.719 E6.59612
G1 X133.367 Y144.222 E6.66064
G1 X133.367 Y144.939 E6.68248
G1 X134.468 Y146.040 E6.72998
G1 X134.135 Y146.424 E6.74546
G1 X133.367 Y145.655 E6.77861
G1 X133.367 Y146.372 E6.80045
G1 X133.830 Y146.835 E6.82044
G1 X133.367 Y147.088 E6.83655
G1 X133.618 Y147.339 E6.84738
G1 X133.367 Y149.953 F9000.000
G1 X133.864 Y150.451 E6.86883 F4500.000
G1 X133.367 Y150.670 E6.88541
G1 X144.152 Y161.455 E7.35046
G1 X144.869 Y161.455 E7.37231
G1 X135.125 Y151.711 E7.79244
G1 X136.260 Y152.130 F9000.000
G1 X145.585 Y161.455 E8.19452 F4500.000
G1 X146.301 Y161.455 E8.21636
G1 X137.047 Y152.201 E8.61539
G1 X137.697 Y152.134 E8.63529
G1 X147.018 Y161.455 E9.03720
G1 X147.734 Y161.455 E9.05905
G1 X138.241 Y151.962 E9.46838
G1 X138.722 Y151.727 E9.48472
G1 X148.450 Y161.455 E9.90418
G1 X149.167 Y161.455 E9.92602
G1 X139.163 Y151.452 E10.35737
G1 X139.525 Y151.097 E10.37281
G1 X149.883 Y161.455 E10.81946
G1 X150.600 Y161.455 E10.84130
G1 X139.866 Y150.722 E11.30409
G1 X140.122 Y150.262 E11.32015
G1 X151.316 Y161.455 E11.80280
G1 X152.032 Y161.455 E11.82464
G1 X140.342 Y149.765 E12.32870
G1 X140.488 Y149.195 E12.34664
G1 X152.749 Y161.455 E12.87529
G1 X153.465 Y161.455 E12.89713
G1 X140.517 Y148.507 E13.45542
G1 X140.383 Y147.657 E13.48167
G1 X154.181 Y161.455 E14.07664
G1 X154.898 Y161.455 E14.09848
G1 X136.535 Y143.092 E14.89026
G1 X137.251 Y143.092 E14.91210
G1 X155.614 Y161.455 E15.70387
G1 X156.331 Y161.455 E15.72571
G1 X137.968 Y143.092 E16.51748
G1 X138.684 Y143.092 E16.53932
G1 X156.633 Y161.042 E17.31326
G1 X156.633 Y160.325 E17.33511
G1 X139.400 Y143.092 E18.07816
G1 X140.117 Y143.092 E18.10000
G1 X156.633 Y159.609 E18.81216
G1 X156.633 Y158.893 E18.83400
G1 X140.833 Y143.092 E19.51528
G1 X141.550 Y143.092 E19.53712
G1 X156.633 Y158.176 E20.18751
G1 X156.633 Y157.460 E20.20935
G1 X142.266 Y143.092 E20.82885
G1 X142.982 Y143.092 E20.85069
G1 X149.488 Y149.598 E21.13120
G1 X149.363 Y148.757 E21.15713
G1 X143.699 Y143.092 E21.40136
G1 X144.415 Y143.092 E21.42320
G1 X149.413 Y148.090 E21.63869
G1 X149.552 Y147.513 E21.65680
G1 X145.131 Y143.092 E21.84740
G1 X145.848 Y143.092 E21.86924
G1 X149.749 Y146.994 E22.03745
G1 X150.033 Y146.562 E22.05321
G1 X146.564 Y143.092 E22.20280
G1 X147.281 Y143.092 E22.22464
G1 X150.338 Y146.150 E22.35648
G1 X150.731 Y145.826 E22.37199
G1 X147.997 Y143.092 E22.48987
G1 X148.713 Y143.092 E22.51171
G1 X151.146 Y145.525 E22.61661
G1 X151.634 Y145.297 E22.63303
G1 X149.430 Y143.092 E22.72806
G1 X150.146 Y143.092 E22.74991
G1 X152.190 Y145.137 E22.83805
G1 X152.808 Y145.038 E22.85713
G1 X150.862 Y143.092 E22.94102
G1 X151.579 Y143.092 E22.96286
G1 X153.581 Y145.095 E23.04921
G1 X154.732 Y145.530 F9000.000
G1 X152.295 Y143.092 E23.15429 F4500.000
G1 X153.012 Y143.092 E23.17614
G1 X156.633 Y146.714 E23.33230
G1 X156.633 Y145.998 E23.35415
G1 X153.728 Y143.092 E23.47943
G1 X154.444 Y143.092 E23.50127
G1 X156.633 Y145.282 E23.59566
G1 X156.633 Y144.565 E23.61750
G1 X155.161 Y143.092 E23.68100
G1 X155.877 Y143.092 E23.70284
G1 X156.633 Y143.849 E23.73546
G1 X156.633 Y143.132 E23.75730
G1 X156.593 Y143.092 E23.75902
G1 X156.023 Y146.820 F9000.000
G1 X156.485 Y147.282 E23.77895 F4500.000
G1 X156.293 Y149.956 F9000.000
G1 X156.633 Y150.296 E23.79364 F4500.000
G1 X156.633 Y151.013 E23.81548
G1 X156.037 Y150.416 E23.84121
G1 X155.757 Y150.852 E23.85702
G1 X156.633 Y151.729 E23.89482
G1 X156.633 Y152.445 E23.91666
G1 X155.408 Y151.220 E23.96951
G1 X155.015 Y151.544 E23.98502
G1 X156.633 Y153.162 E24.05478
G1 X156.633 Y153.878 E24.07663
G1 X154.575 Y151.819 E24.16539
G1 X154.059 Y152.020 E24.18227
G1 X156.633 Y154.594 E24.29330
G1 X156.633 Y155.311 E24.31514
G1 X153.495 Y152.173 E24.45044
G1 X152.821 Y152.214 E24.47105
G1 X156.633 Y156.027 E24.63545
G1 X156.633 Y156.744 E24.65729
G1 X151.960 Y152.070 E24.85880
G1 X133.367 Y151.386 F9000.000
G1 X143.436 Y161.455 E25.29296 F4500.000
G1 X142.719 Y161.455 E25.31481
G1 X133.367 Y152.102 E25.71808
G1 X133.367 Y152.819 E25.73992
G1 X142.003 Y161.455 E26.11231
G1 X141.287 Y161.455 E26.13415
G1 X133.367 Y153.535 E26.47565
G1 X133.367 Y154.252 E26.49750
G1 X140.570 Y161.455 E26.80811
G1 X139.854 Y161.455 E26.82995
G1 X133.367 Y154.968 E27.10967
G1 X133.367 Y155.684 E27.13151
G1 X139.138 Y161.455 E27.38035
G1 X138.421 Y161.455 E27.40219
G1 X133.367 Y156.401 E27.62013
G1 X133.367 Y157.117 E27.64197
G1 X137.705 Y161.455 E27.82903
G1 X136.988 Y161.455 E27.85087
G1 X133.367 Y157.833 E28.00704
G1 X133.367 Y158.550 E28.02888
G1 X136.272 Y161.455 E28.15416
G1 X135.556 Y161.455 E28.17600
G1 X133.367 Y159.266 E28.27039
G1 X133.367 Y159.983 E28.29224
G1 X134.839 Y161.455 E28.35574
G1 X134.123 Y161.455 E28.37758
G1 X133.367 Y160.699 E28.41019
G1 X133.367 Y161.415 E28.43203
G1 X133.407 Y161.455 E28.43376
G1 X156.507 Y149.627 F9000.000
G1 X156.573 Y149.090 E28.44378 F1800.000
G1 X156.576 Y148.221 E28.45988
G1 X156.507 Y147.625 E28.47099
G1 F1200.000 E27.77099
G92 E0
G1 X149.814 Y175.060 F9000.000
G1 E0.70000 F1200.000
G1 X150.115 Y174.327 E0.72418 F4050.000
G1 X150.525 Y173.763 E0.74543
G1 X150.595 Y173.679 E0.74878
G1 X151.222 Y173.168 E0.77343
G1 X151.924 Y172.839 E0.79708
G1 X152.695 Y172.686 E0.82104
G1 X153.587 Y172.739 E0.84827
G1 X154.342 Y172.988 E0.87250
G1 X155.004 Y173.408 E0.89641
G1 X155.551 Y173.983 E0.92062
G1 X155.612 Y174.071 E0.92389
G1 X155.984 Y174.771 E0.94804
G1 X156.176 Y175.545 E0.97236
G1 X156.172 Y176.349 E0.99689
G1 X155.997 Y177.031 E1.01834
G1 X155.967 Y177.137 E1.02171
G1 X155.569 Y177.853 E1.04668
G1 X155.005 Y178.446 E1.07164
G1 X154.311 Y178.881 E1.09660
G1 X153.531 Y179.128 E1.12156
G1 X152.824 Y179.172 E1.14315
G1 X152.713 Y179.172 E1.14652
G1 X151.911 Y179.011 E1.17147
G1 X151.174 Y178.655 E1.19643
G1 X150.628 Y178.204 E1.21802
G1 X150.549 Y178.126 E1.22139
G1 X150.077 Y177.459 E1.24633
G1 X149.786 Y176.694 E1.27127
G1 X149.700 Y176.015 E1.29215
G1 X149.701 Y175.835 E1.29764
G1 X149.794 Y175.133 E1.31923
G1 X150.288 Y175.220 F9000.000
G1 X150.543 Y174.588 E1.33999 F3150.000
G1 X150.919 Y174.071 E1.35948
G1 X151.480 Y173.599 E1.38182
G1 X152.089 Y173.313 E1.40235
G1 X152.753 Y173.184 E1.42299
G1 X153.473 Y173.228 E1.44497
G1 X154.121 Y173.440 E1.46575
G1 X154.693 Y173.803 E1.48641
G1 X155.160 Y174.297 E1.50715
G1 X155.509 Y174.931 E1.52921
G1 X155.676 Y175.593 E1.55001
G1 X155.674 Y176.278 E1.57090
G1 X155.502 Y176.945 E1.59192
G1 X155.192 Y177.509 E1.61154
G1 X154.693 Y178.052 E1.63403
G1 X154.108 Y178.421 E1.65509
G1 X153.496 Y178.620 E1.67471
G1 X152.761 Y178.672 E1.69720
G1 X152.083 Y178.539 E1.71826
G1 X151.500 Y178.265 E1.73788
G1 X150.929 Y177.799 E1.76037
G1 X150.527 Y177.237 E1.78143
G1 X150.277 Y176.593 E1.80249
G1 X150.194 Y175.928 E1.82291
G1 X150.273 Y175.293 E1.84244
G1 X149.948 Y174.853 F9000.000
G1 X140.176 Y175.545 F9000.000
G1 X140.172 Y176.349 E1.86697 F4050.000
G1 X139.997 Y177.031 E1.88841
G1 X139.967 Y177.137 E1.89179
G1 X139.569 Y177.853 E1.91676
G1 X139.005 Y178.446 E1.94172
G1 X138.407 Y178.826 E1.96331
G1 X138.311 Y178.881 E1.96668
G1 X137.531 Y179.128 E1.99164
G1 X136.713 Y179.172 E2.01660
G1 X136.018 Y179.039 E2.03818
G1 X135.911 Y179.011 E2.04155
G1 X135.174 Y178.655 E2.06651
G1 X134.549 Y178.126 E2.09146
G1 X134.133 Y177.553 E2.11305
G1 X134.077 Y177.459 E2.11641
G1 X133.786 Y176.694 E2.14136
G1 X133.692 Y175.928 E2.16489
G1 X133.786 Y175.162 E2.18841
G1 X134.115 Y174.327 E2.21578
G1 X134.595 Y173.679 E2.24038
G1 X135.134 Y173.233 E2.26169
G1 X135.222 Y173.168 E2.26504
G1 X135.924 Y172.839 E2.28868
G1 X136.023 Y172.814 E2.29180
G1 X136.695 Y172.686 E2.31265
G1 X137.587 Y172.739 E2.33988
G1 X138.342 Y172.988 E2.36411
G1 X139.004 Y173.408 E2.38802
G1 X139.551 Y173.983 E2.41223
G1 X139.612 Y174.071 E2.41549
G1 X139.984 Y174.771 E2.43964
G1 X140.162 Y175.471 E2.46168
G1 X139.676 Y175.593 F9000.000
G1 X139.674 Y176.278 E2.48258 F3150.000
G1 X139.515 Y176.900 E2.50214
G1 X139.167 Y177.550 E2.52463
G1 X138.693 Y178.052 E2.54570
G1 X138.150 Y178.397 E2.56531
G1 X137.450 Y178.632 E2.58780
G1 X136.761 Y178.672 E2.60886
G1 X136.129 Y178.552 E2.62848
G1 X135.459 Y178.242 E2.65097
G1 X134.929 Y177.799 E2.67203
G1 X134.551 Y177.278 E2.69165
G1 X134.277 Y176.593 E2.71414
G1 X134.194 Y175.928 E2.73456
G1 X134.277 Y175.261 E2.75508
G1 X134.543 Y174.588 E2.77713
G1 X134.949 Y174.035 E2.79805
G1 X135.442 Y173.627 E2.81756
G1 X136.130 Y173.303 E2.84075
G1 X136.753 Y173.184 E2.86010
G1 X137.431 Y173.222 E2.88078
G1 X138.121 Y173.440 E2.90285
G1 X138.693 Y173.803 E2.92351
G1 X139.160 Y174.297 E2.94425
G1 X139.509 Y174.931 E2.96631
G1 X139.660 Y175.520 E2.98483
G1 X140.128 Y175.807 F9000.000
G1 F1200.000 E2.28483
G92 E0
G1 X133.024 Y170.050 F9000.000
G1 E0.70000 F1200.000
G1 X156.976 Y170.050 E1.43027 F4050.000
G1 X156.976 Y189.098 E2.01102
G1 X133.024 Y189.098 E2.74128
G1 X133.024 Y170.125 E3.31975
G1 X132.524 Y169.550 F9000.000
G1 X157.476 Y169.550 E4.08050 F3150.000
G1 X157.476 Y189.598 E4.69174
G1 X132.524 Y189.598 E5.45250
G1 X132.524 Y169.625 E6.06145
G1 X132.957 Y169.800 F9000.000
G1 X135.819 Y170.393 F9000.000
G1 X137.910 Y172.484 E6.15163 F4500.000
G1 X137.067 Y172.357 E6.17762
G1 X135.102 Y170.393 E6.26233
G1 X134.386 Y170.393 E6.28417
G1 X136.391 Y172.397 E6.37061
G1 X135.797 Y172.520 E6.38909
G1 X133.669 Y170.393 E6.48083
G1 X133.367 Y170.806 E6.49645
G1 X135.309 Y172.749 E6.58022
G1 X134.863 Y173.019 E6.59612
G1 X133.367 Y171.523 E6.66064
G1 X133.367 Y172.239 E6.68248
G1 X134.468 Y173.340 E6.72998
G1 X134.135 Y173.724 E6.74546
G1 X133.367 Y172.955 E6.77861
G1 X133.367 Y173.672 E6.80045
G1 X133.830 Y174.135 E6.82044
G1 X133.367 Y174.388 E6.83655
G1 X133.618 Y174.639 E6.84738
G1 X133.367 Y177.254 F9000.000
G1 X133.864 Y177.751 E6.86883 F4500.000
G1 X133.367 Y177.970 E6.88541
G1 X144.152 Y188.755 E7.35046
G1 X144.869 Y188.755 E7.37231
G1 X135.125 Y179.012 E7.79244
G1 X136.260 Y179.430 F9000.000
