; generated by Slic3r 1.1.4 on 2014-07-17 at 18:35:35

; perimeters extrusion width = 0.50mm
; infill extrusion width = 0.60mm
; solid infill extrusion width = 0.60mm
; top infill extrusion width = 0.43mm

G21 ; set units to millimeters
G28 ; home all axes
G90 ; use absolute coordinates
G92 E0
M82 ; use absolute distances for extrusion
M204 S2000
G1 F1500.000 E-1.50000
G92 E0
G1 Z0.350 F9600.000
G1 X22.967 Y25.183 F9600.000
G1 E1.50000 F1500.000
G1 X24.735 Y23.603 E1.56823 F2700.000
G1 X26.925 Y22.696 E1.63646
G1 X28.501 Y22.518 E1.68208
G1 X117.455 Y22.518 E4.24159
G1 X119.793 Y22.915 E4.30982
G1 X121.869 Y24.062 E4.37804
G1 X123.449 Y25.830 E4.44627
G1 X124.356 Y28.021 E4.51450
G1 X124.534 Y29.596 E4.56013
G1 X124.534 Y95.766 E6.46403
G1 X124.137 Y98.104 E6.53226
G1 X122.990 Y100.179 E6.60049
G1 X122.000 Y101.193 E6.64128
G1 X110.400 Y110.896 E7.07641
G1 X109.972 Y111.223 E7.09190
G1 X109.467 Y111.573 E7.10957
G1 X108.987 Y111.875 E7.12590
G1 X107.947 Y112.433 E7.15985
G1 X107.430 Y112.662 E7.17611
G1 X106.854 Y112.892 E7.19397
G1 X105.728 Y113.247 E7.22795
G1 X104.570 Y113.495 E7.26202
G1 X104.211 Y113.546 E7.27246
G1 X103.400 Y113.633 E7.29591
G1 X102.400 Y113.664 E7.32472
G1 X43.414 Y113.662 E9.02192
G1 X42.284 Y113.603 E9.05449
G1 X41.163 Y113.445 E9.08705
G1 X40.062 Y113.186 E9.11961
G1 X38.990 Y112.832 E9.15208
G1 X37.949 Y112.380 E9.18473
G1 X36.955 Y111.839 E9.21729
G1 X36.021 Y111.218 E9.24957
G1 X34.587 Y110.113 E9.30167
G1 X23.957 Y101.213 E9.70057
G1 X22.419 Y99.408 E9.76880
G1 X21.564 Y97.196 E9.83703
G1 X21.423 Y95.786 E9.87781
G1 X21.423 Y29.596 E11.78229
G1 X21.820 Y27.259 E11.85052
G1 X22.930 Y25.249 E11.91659
G1 X23.501 Y25.382 F9600.000
G1 X25.251 Y23.922 E11.98215 F2700.000
G1 X28.501 Y23.057 E12.07892
G1 X117.455 Y23.057 E14.63842
G1 X119.699 Y23.454 E14.70398
G1 X121.670 Y24.597 E14.76954
G1 X123.130 Y26.346 E14.83510
G1 X123.995 Y29.596 E14.93187
G1 X123.995 Y95.766 E16.83578
G1 X123.598 Y98.009 E16.90133
G1 X121.653 Y100.780 E16.99872
G1 X110.072 Y110.468 E17.43316
G1 X109.646 Y110.793 E17.44860
G1 X109.180 Y111.117 E17.46493
G1 X108.704 Y111.417 E17.48111
G1 X107.709 Y111.949 E17.51357
G1 X107.273 Y112.144 E17.52730
G1 X106.664 Y112.388 E17.54618
G1 X105.587 Y112.726 E17.57867
G1 X104.480 Y112.963 E17.61124
G1 X103.362 Y113.095 E17.64363
G1 X102.400 Y113.125 E17.67134
G1 X43.428 Y113.123 E19.36814
G1 X42.346 Y113.068 E19.39932
G1 X41.273 Y112.917 E19.43049
G1 X40.218 Y112.670 E19.46166
G1 X39.192 Y112.332 E19.49275
G1 X38.195 Y111.900 E19.52401
G1 X37.243 Y111.383 E19.55518
G1 X36.348 Y110.789 E19.58610
G1 X34.933 Y109.699 E19.63748
G1 X24.303 Y100.800 E20.03639
G1 X22.838 Y99.055 E20.10195
G1 X21.962 Y95.786 E20.19933
G1 X21.962 Y29.596 E22.10381
G1 X22.359 Y27.353 E22.16937
G1 X23.464 Y25.446 E22.23277
G1 F1500.000 E20.73277
G92 E0
G1 X111.816 Y93.150 F9600.000
G1 E1.50000 F1500.000
G1 X111.342 Y93.501 E1.51698 F4500.000
G1 X110.836 Y93.805 E1.53397
G1 X110.302 Y94.057 E1.55095
G1 X109.746 Y94.256 E1.56793
G1 X109.174 Y94.400 E1.58492
G1 X108.589 Y94.486 E1.60191
G1 X108.000 Y94.515 E1.61888
G1 X107.410 Y94.486 E1.63588
G1 X106.826 Y94.400 E1.65287
G1 X106.254 Y94.256 E1.66985
G1 X105.698 Y94.057 E1.68683
G1 X105.164 Y93.805 E1.70382
G1 X104.658 Y93.502 E1.72080
G1 X104.184 Y93.150 E1.73777
G1 X103.746 Y92.753 E1.75479
G1 X103.350 Y92.316 E1.77176
G1 X102.999 Y91.842 E1.78874
G1 X102.695 Y91.335 E1.80573
G1 X102.443 Y90.802 E1.82271
G1 X102.244 Y90.246 E1.83970
G1 X102.100 Y89.673 E1.85668
G1 X102.014 Y89.089 E1.87368
G1 X101.985 Y88.500 E1.89065
G1 X102.014 Y87.910 E1.90764
G1 X102.100 Y87.326 E1.92463
G1 X102.244 Y86.754 E1.94161
G1 X102.443 Y86.198 E1.95859
G1 X102.695 Y85.664 E1.97558
G1 X102.998 Y85.158 E1.99256
G1 X103.350 Y84.684 E2.00954
G1 X103.747 Y84.246 E2.02655
G1 X104.197 Y83.838 E2.04404
G1 X104.666 Y83.494 E2.06076
G1 X105.152 Y83.203 E2.07707
G1 X105.719 Y82.935 E2.09512
G1 X106.246 Y82.747 E2.11120
G1 X106.806 Y82.605 E2.12785
G1 X107.388 Y82.517 E2.14476
G1 X107.979 Y82.486 E2.16180
G1 X108.573 Y82.513 E2.17890
G1 X109.159 Y82.598 E2.19593
G1 X109.727 Y82.739 E2.21278
G1 X110.312 Y82.948 E2.23065
G1 X110.847 Y83.202 E2.24770
G1 X111.334 Y83.494 E2.26405
G1 X111.803 Y83.838 E2.28077
G1 X112.254 Y84.247 E2.29828
G1 X112.650 Y84.684 E2.31526
G1 X113.001 Y85.158 E2.33224
G1 X113.305 Y85.665 E2.34924
G1 X113.557 Y86.198 E2.36622
G1 X113.756 Y86.754 E2.38320
G1 X113.900 Y87.326 E2.40018
G1 X113.986 Y87.910 E2.41717
G1 X114.015 Y88.500 E2.43416
G1 X113.986 Y89.090 E2.45114
G1 X113.900 Y89.673 E2.46812
G1 X113.756 Y90.246 E2.48511
G1 X113.557 Y90.802 E2.50209
G1 X113.305 Y91.336 E2.51908
G1 X113.001 Y91.842 E2.53607
G1 X112.650 Y92.316 E2.55305
G1 X112.253 Y92.754 E2.57004
G1 X111.872 Y93.100 E2.58487
G1 X111.473 Y92.733 F9600.000
G1 X111.042 Y93.053 E2.60033 F3375.000
G1 X110.581 Y93.329 E2.61579
G1 X110.095 Y93.559 E2.63125
G1 X109.589 Y93.740 E2.64671
G1 X109.068 Y93.870 E2.66217
G1 X108.537 Y93.949 E2.67763
G1 X108.000 Y93.975 E2.69309
G1 X107.463 Y93.949 E2.70855
G1 X106.932 Y93.870 E2.72401
G1 X106.411 Y93.740 E2.73947
G1 X105.905 Y93.559 E2.75493
G1 X105.419 Y93.329 E2.77039
G1 X104.958 Y93.053 E2.78585
G1 X104.527 Y92.733 E2.80131
G1 X104.128 Y92.372 E2.81678
G1 X103.767 Y91.973 E2.83224
G1 X103.447 Y91.542 E2.84770
G1 X103.171 Y91.081 E2.86316
G1 X102.941 Y90.595 E2.87862
G1 X102.760 Y90.089 E2.89408
G1 X102.630 Y89.568 E2.90954
G1 X102.551 Y89.037 E2.92500
G1 X102.525 Y88.500 E2.94046
G1 X102.551 Y87.963 E2.95592
G1 X102.630 Y87.432 E2.97138
G1 X102.760 Y86.911 E2.98684
G1 X102.941 Y86.405 E3.00230
G1 X103.171 Y85.919 E3.01776
G1 X103.447 Y85.458 E3.03322
G1 X103.767 Y85.027 E3.04868
G1 X104.128 Y84.628 E3.06415
G1 X104.531 Y84.263 E3.07978
G1 X104.966 Y83.943 E3.09532
G1 X105.414 Y83.674 E3.11037
G1 X105.914 Y83.438 E3.12626
G1 X106.407 Y83.262 E3.14133
G1 X106.922 Y83.132 E3.15661
G1 X107.452 Y83.053 E3.17203
G1 X107.989 Y83.025 E3.18751
G1 X108.528 Y83.050 E3.20303
G1 X109.061 Y83.129 E3.21853
G1 X109.580 Y83.258 E3.23393
G1 X110.100 Y83.444 E3.24980
G1 X110.585 Y83.674 E3.26526
G1 X111.034 Y83.943 E3.28033
G1 X111.469 Y84.263 E3.29587
G1 X111.872 Y84.628 E3.31150
G1 X112.232 Y85.026 E3.32696
G1 X112.553 Y85.458 E3.34242
G1 X112.829 Y85.919 E3.35789
G1 X113.059 Y86.405 E3.37334
G1 X113.240 Y86.911 E3.38881
G1 X113.370 Y87.432 E3.40426
G1 X113.449 Y87.963 E3.41973
G1 X113.475 Y88.500 E3.43519
G1 X113.449 Y89.037 E3.45065
G1 X113.370 Y89.568 E3.46611
G1 X113.240 Y90.089 E3.48157
G1 X113.059 Y90.595 E3.49703
G1 X112.829 Y91.081 E3.51249
G1 X112.553 Y91.542 E3.52795
G1 X112.233 Y91.973 E3.54341
G1 X111.872 Y92.372 E3.55887
G1 X111.529 Y92.682 E3.57217
G1 X111.547 Y93.227 F9600.000
G1 F1500.000 E2.07217
G92 E0
G1 X43.986 Y89.090 F9600.000
G1 E1.50000 F1500.000
G1 X43.900 Y89.674 E1.51699 F4500.000
G1 X43.756 Y90.246 E1.53397
G1 X43.557 Y90.802 E1.55095
G1 X43.305 Y91.336 E1.56794
G1 X43.002 Y91.842 E1.58492
G1 X42.650 Y92.316 E1.60190
G1 X42.253 Y92.754 E1.61891
G1 X41.816 Y93.150 E1.63589
G1 X41.342 Y93.501 E1.65287
G1 X40.835 Y93.805 E1.66986
G1 X40.302 Y94.057 E1.68684
G1 X39.746 Y94.256 E1.70382
G1 X39.173 Y94.400 E1.72081
G1 X38.589 Y94.486 E1.73780
G1 X38.000 Y94.515 E1.75477
G1 X37.411 Y94.486 E1.77176
G1 X36.826 Y94.400 E1.78875
G1 X36.254 Y94.256 E1.80573
G1 X35.698 Y94.057 E1.82272
G1 X35.164 Y93.805 E1.83971
G1 X34.658 Y93.502 E1.85668
G1 X34.184 Y93.150 E1.87366
G1 X33.746 Y92.753 E1.89067
G1 X33.350 Y92.316 E1.90763
G1 X32.998 Y91.842 E1.92464
G1 X32.695 Y91.336 E1.94160
G1 X32.442 Y90.801 E1.95861
G1 X32.244 Y90.246 E1.97560
G1 X32.100 Y89.673 E1.99259
G1 X32.014 Y89.089 E2.00956
G1 X31.985 Y88.500 E2.02653
G1 X32.014 Y87.911 E2.04350
G1 X32.100 Y87.327 E2.06049
G1 X32.244 Y86.754 E2.07748
G1 X32.443 Y86.198 E2.09449
G1 X32.695 Y85.665 E2.11145
G1 X32.999 Y85.158 E2.12846
G1 X33.350 Y84.684 E2.14542
G1 X33.747 Y84.246 E2.16243
G1 X34.197 Y83.838 E2.17992
G1 X34.666 Y83.494 E2.19665
G1 X35.152 Y83.202 E2.21297
G1 X35.677 Y82.953 E2.22968
G1 X36.246 Y82.747 E2.24709
G1 X36.806 Y82.605 E2.26373
G1 X37.388 Y82.517 E2.28065
G1 X37.979 Y82.486 E2.29768
G1 X38.573 Y82.513 E2.31479
G1 X39.159 Y82.598 E2.33182
G1 X39.727 Y82.739 E2.34866
G1 X40.312 Y82.947 E2.36654
G1 X40.847 Y83.202 E2.38359
G1 X41.334 Y83.494 E2.39993
G1 X41.802 Y83.838 E2.41665
G1 X42.254 Y84.247 E2.43417
G1 X42.650 Y84.684 E2.45115
G1 X43.001 Y85.158 E2.46813
G1 X43.305 Y85.665 E2.48512
G1 X43.557 Y86.198 E2.50210
G1 X43.756 Y86.754 E2.51908
G1 X43.900 Y87.326 E2.53607
G1 X43.986 Y87.911 E2.55307
G1 X44.015 Y88.500 E2.57003
G1 X43.990 Y89.015 E2.58487
G1 X43.449 Y89.037 F9600.000
G1 X43.370 Y89.568 E2.60033 F3375.000
G1 X43.240 Y90.089 E2.61579
G1 X43.059 Y90.595 E2.63125
G1 X42.829 Y91.081 E2.64671
G1 X42.553 Y91.542 E2.66217
G1 X42.233 Y91.973 E2.67763
G1 X41.872 Y92.372 E2.69310
G1 X41.473 Y92.733 E2.70855
G1 X41.042 Y93.053 E2.72401
G1 X40.581 Y93.329 E2.73948
G1 X40.095 Y93.559 E2.75493
G1 X39.589 Y93.740 E2.77039
G1 X39.068 Y93.870 E2.78586
G1 X38.537 Y93.949 E2.80132
G1 X38.000 Y93.975 E2.81677
G1 X37.463 Y93.949 E2.83224
G1 X36.932 Y93.870 E2.84770
G1 X36.411 Y93.740 E2.86316
G1 X35.905 Y93.559 E2.87862
G1 X35.419 Y93.329 E2.89408
G1 X34.958 Y93.053 E2.90954
G1 X34.527 Y92.733 E2.92500
G1 X34.128 Y92.372 E2.94047
G1 X33.768 Y91.974 E2.95592
G1 X33.447 Y91.542 E2.97139
G1 X33.171 Y91.081 E2.98684
G1 X32.941 Y90.595 E3.00231
G1 X32.760 Y90.089 E3.01777
G1 X32.630 Y89.568 E3.03323
G1 X32.551 Y89.037 E3.04869
G1 X32.525 Y88.500 E3.06414
G1 X32.551 Y87.964 E3.07960
G1 X32.630 Y87.432 E3.09506
G1 X32.760 Y86.911 E3.11052
G1 X32.942 Y86.405 E3.12599
G1 X33.171 Y85.919 E3.14144
G1 X33.448 Y85.458 E3.15691
G1 X33.767 Y85.027 E3.17236
G1 X34.128 Y84.628 E3.18783
G1 X34.531 Y84.263 E3.20346
G1 X34.966 Y83.943 E3.21901
G1 X35.414 Y83.674 E3.23406
G1 X35.914 Y83.438 E3.24995
G1 X36.407 Y83.262 E3.26502
G1 X36.922 Y83.132 E3.28030
G1 X37.452 Y83.053 E3.29572
G1 X37.989 Y83.025 E3.31119
G1 X38.528 Y83.050 E3.32672
G1 X39.061 Y83.129 E3.34221
G1 X39.580 Y83.258 E3.35762
G1 X40.100 Y83.444 E3.37349
G1 X40.585 Y83.674 E3.38895
G1 X41.034 Y83.943 E3.40401
G1 X41.469 Y84.263 E3.41955
G1 X41.872 Y84.628 E3.43519
G1 X42.233 Y85.027 E3.45065
G1 X42.553 Y85.458 E3.46611
G1 X42.829 Y85.919 E3.48157
G1 X43.059 Y86.405 E3.49703
G1 X43.240 Y86.911 E3.51249
G1 X43.370 Y87.432 E3.52795
G1 X43.449 Y87.963 E3.54342
G1 X43.475 Y88.500 E3.55887
G1 X43.453 Y88.962 E3.57218
G1 X43.851 Y89.335 F9600.000
G1 F1500.000 E2.07218
G92 E0
G1 X47.725 Y93.209 F9600.000
G1 E1.50000 F1500.000
G1 X47.725 Y81.791 E1.82853 F3375.000
G1 X47.752 Y81.373 E1.84060
G1 X47.836 Y80.952 E1.85293
G1 X47.974 Y80.547 E1.86525
G1 X48.163 Y80.162 E1.87759
G1 X48.401 Y79.806 E1.88991
G1 X48.684 Y79.484 E1.90224
G1 X49.006 Y79.201 E1.91458
G1 X49.362 Y78.963 E1.92690
G1 X49.747 Y78.774 E1.93923
G1 X50.152 Y78.636 E1.95156
G1 X50.573 Y78.552 E1.96389
G1 X50.991 Y78.525 E1.97595
G1 X63.388 Y78.525 E2.33265
G1 X64.031 Y78.565 E2.35119
G1 X64.673 Y78.686 E2.36998
G1 X65.295 Y78.885 E2.38878
G1 X65.888 Y79.159 E2.40757
G1 X66.442 Y79.505 E2.42636
G1 X66.949 Y79.916 E2.44515
G1 X67.402 Y80.387 E2.46395
G1 X68.120 Y81.365 E2.49887
G1 X68.488 Y81.788 E2.51500
G1 X68.892 Y82.177 E2.53113
G1 X69.329 Y82.527 E2.54726
G1 X69.797 Y82.837 E2.56339
G1 X70.290 Y83.104 E2.57952
G1 X70.805 Y83.325 E2.59565
G1 X71.338 Y83.499 E2.61178
G1 X71.884 Y83.624 E2.62791
G1 X72.440 Y83.699 E2.64404
G1 X73.000 Y83.725 E2.66018
G1 X73.560 Y83.699 E2.67631
G1 X74.116 Y83.624 E2.69244
G1 X74.662 Y83.499 E2.70857
G1 X75.195 Y83.325 E2.72470
G1 X75.710 Y83.104 E2.74083
G1 X76.203 Y82.837 E2.75696
G1 X76.671 Y82.527 E2.77309
G1 X77.108 Y82.177 E2.78922
G1 X77.512 Y81.788 E2.80535
G1 X77.880 Y81.365 E2.82148
G1 X78.598 Y80.387 E2.85640
G1 X79.051 Y79.916 E2.87520
G1 X79.558 Y79.505 E2.89399
G1 X80.112 Y79.159 E2.91278
G1 X80.705 Y78.885 E2.93157
G1 X81.327 Y78.686 E2.95036
G1 X81.969 Y78.565 E2.96916
G1 X82.612 Y78.525 E2.98770
G1 X95.009 Y78.525 E3.34440
G1 X95.437 Y78.554 E3.35674
G1 X95.843 Y78.635 E3.36866
G1 X96.253 Y78.774 E3.38110
G1 X96.642 Y78.966 E3.39359
G1 X97.009 Y79.215 E3.40635
G1 X97.317 Y79.484 E3.41812
G1 X97.592 Y79.798 E3.43014
G1 X97.837 Y80.162 E3.44275
G1 X98.030 Y80.556 E3.45538
G1 X98.163 Y80.949 E3.46731
G1 X98.247 Y81.371 E3.47969
G1 X98.275 Y81.791 E3.49180
G1 X98.275 Y93.209 E3.82034
G1 X98.245 Y93.639 E3.83274
G1 X98.164 Y94.047 E3.84472
G1 X98.023 Y94.460 E3.85727
G1 X97.825 Y94.855 E3.86999
G1 X97.598 Y95.195 E3.88173
G1 X97.326 Y95.506 E3.89363
G1 X97.000 Y95.794 E3.90615
G1 X96.642 Y96.034 E3.91856
G1 X96.255 Y96.225 E3.93096
G1 X95.848 Y96.364 E3.94335
G1 X95.426 Y96.448 E3.95571
G1 X95.008 Y96.475 E3.96777
G1 X50.991 Y96.475 E5.23428
G1 X50.572 Y96.448 E5.24635
G1 X50.152 Y96.364 E5.25868
G1 X49.747 Y96.226 E5.27101
G1 X49.362 Y96.037 E5.28334
G1 X49.006 Y95.799 E5.29566
G1 X48.684 Y95.516 E5.30799
G1 X48.401 Y95.194 E5.32033
G1 X48.163 Y94.838 E5.33265
G1 X47.974 Y94.453 E5.34498
G1 X47.836 Y94.048 E5.35731
G1 X47.752 Y93.628 E5.36964
G1 X47.730 Y93.284 E5.37955
G1 X47.287 Y92.968 F9600.000
G1 F1500.000 E3.87955
G92 E0
G1 X48.976 Y102.273 F9600.000
G1 E1.50000 F1500.000
G1 X49.086 Y101.653 E1.51812 F4500.000
G1 X49.124 Y101.000 E1.53694
G1 X49.086 Y100.347 E1.55576
G1 X48.972 Y99.703 E1.57457
G1 X48.762 Y99.024 E1.59503
G1 X48.526 Y98.476 E1.61220
G1 X48.199 Y97.910 E1.63102
G1 X47.808 Y97.385 E1.64984
G1 X47.359 Y96.909 E1.66865
G1 X46.858 Y96.489 E1.68747
G1 X46.312 Y96.130 E1.70629
G1 X45.727 Y95.836 E1.72511
G1 X45.113 Y95.612 E1.74392
G1 X44.477 Y95.462 E1.76274
G1 X43.827 Y95.386 E1.78155
G1 X43.173 Y95.386 E1.80038
G1 X42.523 Y95.462 E1.81919
G1 X41.887 Y95.612 E1.83801
G1 X41.273 Y95.836 E1.85683
G1 X40.688 Y96.130 E1.87565
G1 X40.142 Y96.489 E1.89446
G1 X39.641 Y96.909 E1.91328
G1 X39.192 Y97.385 E1.93210
G1 X38.801 Y97.910 E1.95091
G1 X38.513 Y98.409 E1.96752
G1 X38.215 Y99.077 E1.98854
G1 X38.028 Y99.703 E2.00736
G1 X37.914 Y100.347 E2.02617
G1 X37.876 Y101.000 E2.04499
G1 X37.914 Y101.653 E2.06381
G1 X38.111 Y102.770 E2.09644
G1 X29.315 Y95.405 E2.42651
G1 X29.315 Y72.910 E3.07379
G1 X69.736 Y72.910 E4.23683
G1 X69.141 Y73.410 E4.25920
G1 X68.692 Y73.885 E4.27801
G1 X68.301 Y74.410 E4.29683
G1 X67.974 Y74.976 E4.31565
G1 X67.715 Y75.577 E4.33447
G1 X67.528 Y76.203 E4.35329
G1 X67.414 Y76.847 E4.37210
G1 X67.376 Y77.500 E4.39093
G1 X67.414 Y78.153 E4.40974
G1 X67.528 Y78.797 E4.42856
G1 X67.731 Y79.475 E4.44891
G1 X67.437 Y79.646 E4.45867
G1 X67.315 Y79.518 E4.46377
G1 X66.756 Y79.065 E4.48448
G1 X66.145 Y78.684 E4.50520
G1 X65.491 Y78.381 E4.52591
G1 X64.805 Y78.162 E4.54664
G1 X64.098 Y78.029 E4.56735
G1 X63.404 Y77.986 E4.58734
G1 X50.973 Y77.986 E4.94502
G1 X50.502 Y78.017 E4.95861
G1 X50.012 Y78.114 E4.97298
G1 X49.540 Y78.274 E4.98733
G1 X49.092 Y78.495 E5.00170
G1 X48.634 Y78.810 E5.01768
G1 X48.301 Y79.102 E5.03043
G1 X47.972 Y79.477 E5.04478
G1 X47.695 Y79.892 E5.05914
G1 X47.474 Y80.340 E5.07351
G1 X47.314 Y80.812 E5.08786
G1 X47.217 Y81.302 E5.10224
G1 X47.186 Y81.773 E5.11582
G1 X47.186 Y93.227 E5.44537
G1 X47.217 Y93.698 E5.45896
G1 X47.332 Y94.242 E5.47495
G1 X47.474 Y94.660 E5.48767
G1 X47.695 Y95.108 E5.50203
G1 X47.972 Y95.523 E5.51639
G1 X48.302 Y95.899 E5.53078
G1 X48.677 Y96.228 E5.54513
G1 X49.092 Y96.505 E5.55949
G1 X49.540 Y96.726 E5.57385
G1 X50.013 Y96.886 E5.58822
G1 X50.502 Y96.983 E5.60258
G1 X50.974 Y97.014 E5.61617
G1 X95.024 Y97.014 E6.88366
G1 X95.495 Y96.984 E6.89723
G1 X95.988 Y96.886 E6.91168
G1 X96.464 Y96.724 E6.92617
G1 X96.918 Y96.498 E6.94075
G1 X97.337 Y96.215 E6.95529
G1 X97.681 Y95.913 E6.96847
G1 X98.027 Y95.524 E6.98346
G1 X98.307 Y95.103 E6.99801
G1 X98.518 Y94.675 E7.01172
G1 X98.686 Y94.187 E7.02657
G1 X98.786 Y93.665 E7.04187
G1 X98.814 Y93.227 E7.05451
G1 X98.814 Y81.773 E7.38406
G1 X98.783 Y81.298 E7.39776
G1 X98.696 Y80.860 E7.41061
G1 X98.534 Y80.363 E7.42564
G1 X98.305 Y79.892 E7.44072
G1 X98.012 Y79.459 E7.45578
G1 X97.699 Y79.102 E7.46942
G1 X97.361 Y78.806 E7.48234
G1 X96.917 Y78.501 E7.49783
G1 X96.460 Y78.274 E7.51253
G1 X96.031 Y78.129 E7.52557
