; generated by Slic3r 1.1.7 on 2015-02-16 at 09:56:34

; perimeters extrusion width = 0.56mm
; infill extrusion width = 0.60mm
; solid infill extrusion width = 0.55mm
; top infill extrusion width = 0.43mm

G21 ; set units to millimeters
M107

M301 P34 I4 D113     ; set PID nozzle
M304 P162 I17 D378 ; set PID Bed

;M104 S230                  ; set extruder temp for budaschnozzle
M104 S250                   ; set extruder temp for hex_hot_end
;M140 S100                  ; set bed temp for PET
M140 S110                   ; set bed temp for PEI (reminder ~G1 Z2 ~ M140 S(@-10 degree change) ;if -m is present in file name)

G28                            ; home
G1 Z5 F300                ; move bed down 5mm
M84                            ; disable steppers
G4 S300                     ; wait 5 mins to preheat

G28                            ; home

G90 ; use absolute coordinates
G92 E0
M82 ; use absolute distances for extrusion
G1 F1500.000 E-1.20000
G92 E0
G1 Z0.350 F9600.000
G1 X191.951 Y136.689 F9600.000
G1 E1.20000 F1500.000
G1 X195.011 Y132.790 E1.36288 F1260.000
G1 X195.692 Y132.051 E1.39590
G1 X197.679 Y130.341 E1.48202
G1 X198.977 Y129.501 E1.53284
G1 X199.923 Y128.997 E1.56805
G1 X201.461 Y128.341 E1.62301
G1 X203.570 Y127.851 E1.69413
G1 X203.979 Y127.838 E1.70758
G1 X209.153 Y127.838 E1.87761
G1 X211.598 Y128.337 E1.95960
G1 X214.663 Y129.743 E2.07043 F1260.000
G1 X216.428 Y130.994 E2.14150
G1 X217.563 Y132.042 E2.19225
G1 X218.287 Y132.834 E2.22753
G1 X219.229 Y134.062 E2.27838
G1 X219.806 Y134.964 E2.31356
G1 X220.523 Y136.330 E2.36426
G1 X220.940 Y137.321 E2.39959
G1 X221.655 Y139.837 E2.48554
G1 X221.932 Y142.439 E2.57149
G1 X221.885 Y143.981 E2.62221
G1 X221.812 Y144.768 E2.64817
G1 X211.126 Y212.804 E4.91118
G1 X210.395 Y214.904 E4.98425
G1 X208.973 Y216.614 E5.05733
G1 X207.041 Y217.715 E5.13040
G1 X204.970 Y218.069 E5.19942
G1 X186.425 Y218.069 E5.80878
G1 X184.237 Y217.672 E5.88185
G1 X182.328 Y216.533 E5.95493
G1 X180.949 Y214.812 E6.02738
G1 X172.979 Y200.138 E6.57607
G1 X172.224 Y197.164 E6.67691
G1 X172.224 Y167.960 E7.63651
G1 X172.621 Y165.772 E7.70959
G1 X173.281 Y164.488 E7.75701
G1 X191.909 Y136.752 E8.85489
G1 X192.436 Y137.069 F9600.000
G1 X195.495 Y133.170 E9.01776 F1260.000
G1 X196.110 Y132.503 E9.04756
G1 X198.013 Y130.858 E9.13022
G1 X199.311 Y130.018 E9.18103
G1 X200.164 Y129.564 E9.21279
G1 X201.703 Y128.907 E9.26775
G1 X203.603 Y128.465 E9.33184
G1 X209.153 Y128.453 E9.51423
G1 X211.356 Y128.904 E9.58811
G1 X214.329 Y130.261 E9.69548 F1260.000
G1 X216.011 Y131.446 E9.76310
G1 X217.145 Y132.494 E9.81385
G1 X217.799 Y133.209 E9.84567
G1 X218.740 Y134.437 E9.89651
G1 X219.261 Y135.250 E9.92824
G1 X219.977 Y136.617 E9.97894
G1 X220.353 Y137.510 E10.01081
G1 X221.045 Y139.924 E10.09331
G1 X221.316 Y142.420 E10.17581
G1 X221.269 Y143.963 E10.22652
G1 X221.204 Y144.673 E10.24995
G1 X210.518 Y212.709 E12.51296
G1 X209.805 Y214.695 E12.58230
G1 X208.409 Y216.277 E12.65164
G1 X206.528 Y217.233 E12.72097
G1 X204.970 Y217.453 E12.77266
G1 X186.425 Y217.453 E13.38202
G1 X184.353 Y217.057 E13.45136
G1 X182.573 Y215.924 E13.52070
G1 X181.490 Y214.518 E13.57900
G1 X173.521 Y199.844 E14.12769
G1 X172.840 Y197.164 E14.21856
G1 X172.840 Y167.960 E15.17817
G1 X173.236 Y165.887 E15.24751
G1 X173.792 Y164.831 E15.28672
G1 X192.394 Y137.132 E16.38309
G1 F1500.000 E15.18309
G92 E0
G1 X211.377 Y146.731 F9600.000
G1 E1.20000 F1500.000
M204 S800
G1 X210.613 Y147.494 E1.23548 F1890.000
G1 X209.729 Y148.113 E1.27095
G1 X208.751 Y148.570 E1.30642
G1 X207.708 Y148.849 E1.34189
G1 X206.633 Y148.943 E1.37736
G1 X205.557 Y148.849 E1.41283
G1 X204.514 Y148.570 E1.44831
G1 X204.430 Y148.530 E1.45136
G1 X203.536 Y148.113 E1.48378
G1 X202.652 Y147.494 E1.51925
G1 X201.888 Y146.731 E1.55473
G1 X201.269 Y145.847 E1.59020
G1 X200.813 Y144.868 E1.62568
G1 X200.533 Y143.825 E1.66115
G1 X200.439 Y142.750 E1.69662
G1 X200.533 Y141.675 E1.73209
G1 X200.813 Y140.632 E1.76756
G1 X200.852 Y140.548 E1.77061
G1 X201.269 Y139.653 E1.80303
G1 X201.888 Y138.769 E1.83851
G1 X202.652 Y138.006 E1.87399
G1 X203.514 Y137.402 E1.90858
G1 X204.543 Y136.923 E1.94587
G1 X205.639 Y136.643 E1.98303
G1 X206.676 Y136.560 E2.01724
G1 X207.578 Y136.639 E2.04698
M204 S800
M204 S800
G1 X207.742 Y136.660 E2.05239 F1890.000
G1 X208.765 Y136.937 E2.08724
G1 X209.750 Y137.401 E2.12301
G1 X210.613 Y138.006 E2.15765
G1 X211.377 Y138.769 E2.19313
G1 X211.996 Y139.653 E2.22860
G1 X212.452 Y140.632 E2.26407
G1 X212.732 Y141.675 E2.29954
G1 X212.826 Y142.750 E2.33501
G1 X212.732 Y143.825 E2.37048
G1 X212.452 Y144.868 E2.40595
G1 X211.996 Y145.846 E2.44143
G1 X211.420 Y146.669 E2.47444
M204 S800
G1 X210.903 Y146.334 F9600.000
M204 S800
G1 X210.216 Y147.021 E2.50637 F1470.000
G1 X209.420 Y147.578 E2.53830
G1 X208.539 Y147.989 E2.57024
G1 X207.601 Y148.240 E2.60217
G1 X206.594 Y148.322 E2.63536
G1 X205.665 Y148.240 E2.66601
G1 X204.726 Y147.989 E2.69794
G1 X203.845 Y147.578 E2.72987
G1 X203.049 Y147.021 E2.76181
G1 X202.362 Y146.333 E2.79374
G1 X201.805 Y145.537 E2.82567
G1 X201.394 Y144.657 E2.85761
G1 X201.142 Y143.718 E2.88954
G1 X201.058 Y142.750 E2.92147
G1 X201.142 Y141.782 E2.95340
G1 X201.394 Y140.843 E2.98533
G1 X201.805 Y139.963 E3.01726
G1 X202.362 Y139.166 E3.04919
G1 X203.049 Y138.479 E3.08113
G1 X203.838 Y137.927 E3.11276
G1 X204.736 Y137.509 E3.14532
G1 X205.615 Y137.272 E3.17525
G1 X206.631 Y137.176 E3.20876
M204 S800
M204 S800
G1 X207.612 Y137.263 E3.24114 F1470.000
G1 X208.500 Y137.500 E3.27133
G1 X209.427 Y137.927 E3.30486
G1 X210.216 Y138.479 E3.33652
G1 X210.903 Y139.166 E3.36845
G1 X211.461 Y139.963 E3.40038
G1 X211.871 Y140.843 E3.43232
G1 X212.123 Y141.782 E3.46425
G1 X212.208 Y142.750 E3.49618
G1 X212.123 Y143.718 E3.52811
G1 X211.871 Y144.657 E3.56004
G1 X211.461 Y145.537 E3.59197
G1 X210.946 Y146.272 E3.62144
M204 S800
G1 F1500.000 E2.42144
G92 E0
G1 X206.573 Y136.680 F9600.000
G1 X199.361 Y159.806 F9600.000
G1 E1.20000 F1500.000
M204 S800
G1 X200.077 Y160.521 E1.23324 F1890.000
G1 X200.656 Y161.349 E1.26646
G1 X201.084 Y162.266 E1.29970
G1 X201.346 Y163.243 E1.33292
G1 X201.434 Y164.250 E1.36614
G1 X201.346 Y165.257 E1.39936
G1 X201.084 Y166.234 E1.43260
G1 X200.656 Y167.151 E1.46583
G1 X200.077 Y167.979 E1.49905
G1 X199.361 Y168.694 E1.53228
G1 X198.533 Y169.274 E1.56550
G1 X197.616 Y169.701 E1.59874
G1 X196.640 Y169.963 E1.63196
G1 X195.633 Y170.051 E1.66519
G1 X194.625 Y169.963 E1.69842
G1 X193.648 Y169.701 E1.73164
G1 X192.732 Y169.274 E1.76486
G1 X191.904 Y168.694 E1.79809
G1 X191.189 Y167.979 E1.83132
G1 X190.609 Y167.151 E1.86455
G1 X190.182 Y166.234 E1.89776
G1 X189.920 Y165.257 E1.93100
G1 X189.831 Y164.250 E1.96423
G1 X189.920 Y163.242 E1.99746
G1 X190.181 Y162.266 E2.03069
G1 X190.609 Y161.350 E2.06391
G1 X191.189 Y160.521 E2.09714
G1 X191.904 Y159.806 E2.13036
G1 X192.732 Y159.226 E2.16359
G1 X193.649 Y158.799 E2.19682
G1 X194.625 Y158.537 E2.23005
G1 X195.633 Y158.449 E2.26327
G1 X195.724 Y158.457 E2.26630
M204 S800
M204 S800
G1 X196.640 Y158.537 E2.29649 F1890.000
G1 X197.617 Y158.799 E2.32972
G1 X198.533 Y159.226 E2.36296
G1 X199.300 Y159.763 E2.39371
M204 S800
G1 X198.964 Y160.280 F9600.000
M204 S800
G1 X199.603 Y160.919 E2.42340 F1470.000
G1 X200.121 Y161.659 E2.45308
G1 X200.503 Y162.477 E2.48277
G1 X200.737 Y163.350 E2.51246
G1 X200.816 Y164.250 E2.54214
G1 X200.737 Y165.150 E2.57182
G1 X200.503 Y166.023 E2.60151
G1 X200.121 Y166.841 E2.63120
G1 X199.603 Y167.582 E2.66089
G1 X198.964 Y168.220 E2.69057
G1 X198.224 Y168.738 E2.72026
G1 X197.405 Y169.120 E2.74995
G1 X196.533 Y169.354 E2.77963
G1 X195.633 Y169.433 E2.80932
G1 X194.733 Y169.354 E2.83900
G1 X193.860 Y169.120 E2.86869
G1 X193.041 Y168.739 E2.89837
G1 X192.301 Y168.220 E2.92806
G1 X191.662 Y167.582 E2.95775
G1 X191.144 Y166.841 E2.98743
G1 X190.762 Y166.023 E3.01711
G1 X190.528 Y165.150 E3.04681
G1 X190.450 Y164.250 E3.07649
G1 X190.528 Y163.350 E3.10618
G1 X190.762 Y162.477 E3.13587
G1 X191.144 Y161.659 E3.16555
G1 X191.662 Y160.918 E3.19524
G1 X192.301 Y160.280 E3.22492
G1 X193.041 Y159.761 E3.25461
G1 X193.860 Y159.380 E3.28429
G1 X194.733 Y159.146 E3.31398
G1 X195.073 Y159.116 E3.32521
M204 S800
M204 S800
G1 X195.633 Y159.067 E3.34367 F1470.000
G1 X196.533 Y159.146 E3.37335
G1 X197.405 Y159.380 E3.40304
G1 X198.224 Y159.761 E3.43273
G1 X198.903 Y160.237 E3.45994
M204 S800
G1 F1500.000 E2.25994
G92 E0
G1 X194.827 Y158.681 F9600.000
G1 X202.822 Y171.460 F9600.000
G1 E1.20000 F1500.000
M204 S800
G1 X202.822 Y194.040 E1.94193 F1890.000
G1 X180.443 Y194.040 E2.67729
G1 X180.443 Y171.460 E3.41922
G1 X202.747 Y171.460 E4.15211
M204 S800
G1 X202.206 Y172.076 F9600.000
M204 S800
G1 X202.206 Y193.424 E4.85357 F1470.000
G1 X181.059 Y193.424 E5.54846
G1 X181.059 Y172.076 E6.24992
G1 X202.131 Y172.076 E6.94234
M204 S800
G1 X202.706 Y172.076 F9600.000
G1 F1500.000 E5.74234
G92 E0
G1 X204.031 Y210.898 F9600.000
G1 E1.20000 F1500.000
M204 S800
G1 X186.984 Y210.898 E1.76012 F1890.000
G1 X179.395 Y196.925 E2.28261
G1 X179.395 Y168.246 E3.22498
G1 X197.614 Y141.089 E4.29954
G1 X200.612 Y137.269 E4.45909
G1 X201.642 Y136.318 E4.50516
G1 X202.810 Y135.562 E4.55089
G1 X204.107 Y135.009 E4.59722
G1 X208.961 Y135.009 E4.75671
G1 X210.835 Y135.808 E4.82366
G1 X211.623 Y136.318 E4.85450
G1 X212.646 Y137.262 E4.90023
G1 X213.493 Y138.366 E4.94595
G1 X214.139 Y139.599 E4.99168
G1 X214.566 Y140.923 E5.03741
G1 X214.761 Y142.301 E5.08314
G1 X214.719 Y143.692 E5.12887
G1 X214.429 Y145.112 E5.17650
G1 X214.323 Y145.443 E5.18791
G1 X204.218 Y174.547 E6.20024
G1 X204.078 Y175.096 E6.21885
G1 X204.031 Y175.752 E6.24048
G1 X204.031 Y210.823 E7.39287
M204 S800
G1 X204.646 Y211.514 F9600.000
M204 S800
G1 X186.618 Y211.514 E7.98526 F1470.000
G1 X178.779 Y197.081 E8.52493
G1 X178.779 Y168.058 E9.47859
G1 X197.116 Y140.727 E10.56007
G1 X200.158 Y136.850 E10.72200
G1 X201.263 Y135.830 E10.77143
G1 X202.520 Y135.016 E10.82063
G1 X203.981 Y134.393 E10.87282
G1 X209.087 Y134.393 E11.04059
G1 X211.126 Y135.262 E11.11341
G1 X212.002 Y135.830 E11.14772
G1 X213.102 Y136.845 E11.19692
G1 X214.013 Y138.033 E11.24612
G1 X214.709 Y139.359 E11.29532
G1 X215.168 Y140.785 E11.34452
G1 X215.378 Y142.267 E11.39372
G1 X215.333 Y143.764 E11.44292
G1 X215.025 Y145.269 E11.49339
G1 X214.907 Y145.638 E11.50615
G1 X204.808 Y174.725 E12.51787
G1 X204.687 Y175.198 E12.53394
G1 X204.646 Y175.753 E12.55221
G1 X204.646 Y211.439 E13.72481
M204 S800
G1 X204.213 Y211.264 F9600.000
G1 F1500.000 E12.52481
G92 E0
G1 X203.549 Y194.774 F9600.000
G1 E1.20000 F1500.000
M204 S750
G1 X203.604 Y194.806 E1.20207 F1890.000
G1 X203.604 Y195.522 E1.22563
G1 X201.775 Y194.466 E1.29504
G1 X200.533 Y194.466 E1.33584
G1 X203.604 Y196.239 E1.45236
G1 X203.604 Y196.956 E1.47591
G1 X199.291 Y194.466 E1.63954
G1 X198.050 Y194.466 E1.68034
G1 X203.604 Y197.673 E1.89107
G1 X203.604 Y198.390 E1.91463
G1 X196.808 Y194.466 E2.17247
G1 X195.567 Y194.466 E2.21326
G1 X203.604 Y199.106 E2.51821
G1 X203.604 Y199.823 E2.54177
G1 X194.325 Y194.466 E2.89382
G1 X193.084 Y194.466 E2.93462
G1 X203.604 Y200.540 E3.33378
G1 X203.604 Y201.257 E3.35733
G1 X191.842 Y194.466 E3.80360
G1 X190.601 Y194.466 E3.84440
G1 X203.604 Y201.974 E4.33777
G1 X203.604 Y202.690 E4.36132
G1 X189.359 Y194.466 E4.90181
G1 X188.118 Y194.466 E4.94260
G1 X203.604 Y203.407 E5.53019
G1 X203.604 Y204.124 E5.55374
G1 X186.876 Y194.466 E6.18844
G1 X185.635 Y194.466 E6.22924
G1 X203.604 Y204.841 E6.91104
G1 X203.604 Y205.558 E6.93459
G1 X184.393 Y194.466 E7.66350
G1 X183.152 Y194.466 E7.70430
G1 X203.604 Y206.274 E8.48031
G1 X203.604 Y206.991 E8.50386
G1 X181.910 Y194.466 E9.32699
G1 X180.668 Y194.466 E9.36778
G1 X203.604 Y207.708 E10.23801
G1 X203.604 Y208.425 E10.26156
G1 X179.960 Y194.774 E11.15866
G1 X179.822 Y195.411 E11.18008
G1 X203.604 Y209.142 E12.08244
G1 X203.604 Y209.858 E12.10599
G1 X179.822 Y196.128 E13.00835
G1 X179.844 Y196.857 E13.03233
G1 X203.424 Y210.471 E13.92704
G1 X202.183 Y210.471 E13.96784
G1 X180.411 Y197.901 E14.79393
G1 X180.978 Y198.946 E14.83297
G1 X200.941 Y210.471 E15.59043
G1 X199.700 Y210.471 E15.63123
G1 X181.545 Y199.990 E16.32007
G1 X182.112 Y201.034 E16.35911
G1 X198.458 Y210.471 E16.97932
G1 X197.217 Y210.471 E17.02012
G1 X182.679 Y202.078 E17.57170
G1 X183.247 Y203.123 E17.61075
G1 X195.975 Y210.471 E18.09370
G1 X194.734 Y210.471 E18.13450
G1 X183.814 Y204.167 E18.54883
G1 X184.381 Y205.211 E18.58788
G1 X193.492 Y210.471 E18.93358
G1 X192.251 Y210.471 E18.97438
G1 X184.948 Y206.255 E19.25145
G1 X185.515 Y207.300 E19.29050
G1 X191.009 Y210.471 E19.49895
G1 X189.768 Y210.471 E19.53975
G1 X186.082 Y208.344 E19.67957
G1 X186.650 Y209.388 E19.71862
G1 X188.526 Y210.471 E19.78982
G1 X187.285 Y210.471 E19.83062
G1 X187.217 Y210.432 E19.83319
M204 S800
G1 F1500.000 E18.63319
G92 E0
G1 X203.426 Y194.348 F9600.000
G1 E1.20000 F1500.000
G1 X203.426 Y175.751 E1.55876 F945.000
G1 X203.440 Y175.310 E1.56727
G1 F1500.000 E0.36727
G92 E0
G1 X207.016 Y148.970 F9600.000
G1 X179.652 Y167.971 F9600.000
G1 X179.919 Y171.152 F9600.000
G1 E1.20000 F1500.000
G1 X179.919 Y194.348 E1.64748 F945.000
G1 F1500.000 E0.44748
G92 E0
G1 X180.383 Y171.400 F9600.000
G1 X194.211 Y170.695 F9600.000
G1 E1.20000 F1500.000
G1 X195.598 Y170.756 E1.26638 F945.000
G1 X197.054 Y170.695 E1.33606
G1 X197.771 Y171.034 F9600.000
M204 S750
G1 X197.489 Y170.871 E1.34677 F1890.000
G1 X197.515 Y170.170 E1.36981
G1 X199.011 Y171.034 E1.42658
G1 X200.251 Y171.034 E1.46733
G1 X198.248 Y169.877 E1.54334
G1 X198.900 Y169.538 E1.56749
G1 X201.491 Y171.034 E1.66581
M204 S800
G1 F1500.000 E0.46581
G92 E0
G1 X207.016 Y148.970 F9600.000
G1 X203.788 Y174.508 F9600.000
G1 E1.20000 F1500.000
M204 S750
G1 X203.249 Y174.196 E1.22046 F1890.000
G1 X203.249 Y173.481 E1.24399
G1 X203.989 Y173.908 E1.27207
G1 X204.196 Y173.311 E1.29281
G1 X203.249 Y172.765 E1.32875
G1 X203.249 Y172.049 E1.35227
G1 X204.403 Y172.715 E1.39607
G1 X204.610 Y172.119 E1.41681
G1 X199.460 Y169.145 E1.61220
G1 X199.948 Y168.711 E1.63366
G1 X204.817 Y171.522 E1.81841
G1 X205.024 Y170.926 E1.83916
G1 X200.402 Y168.257 E2.01454
G1 X200.759 Y167.747 E2.03500
G1 X205.231 Y170.329 E2.20467
G1 X205.438 Y169.733 E2.22542
G1 X201.093 Y167.224 E2.39029
G1 X201.356 Y166.660 E2.41074
G1 X205.645 Y169.136 E2.57349
G1 X205.852 Y168.540 E2.59424
G1 X201.570 Y166.068 E2.75672
G1 X201.736 Y165.448 E2.77781
G1 X206.059 Y167.944 E2.94185
G1 X206.266 Y167.347 E2.96259
G1 X201.816 Y164.778 E3.13146
G1 X201.847 Y164.080 E3.15442
G1 X206.473 Y166.751 E3.32996
G1 X206.681 Y166.154 E3.35071
G1 X201.781 Y163.326 E3.53661
G1 X201.588 Y162.498 E3.56454
G1 X206.888 Y165.558 E3.76564
G1 X207.095 Y164.961 E3.78638
G1 X201.233 Y161.577 E4.00877
G1 X200.565 Y160.476 E4.05110
G1 X207.302 Y164.365 E4.30669
G1 X207.509 Y163.769 E4.32744
G1 X189.780 Y153.533 E5.00013
G1 X190.126 Y153.017 E5.02055
G1 X207.716 Y163.172 E5.68796
G1 X207.923 Y162.576 E5.70871
G1 X190.472 Y152.501 E6.37084
G1 X190.818 Y151.984 E6.39126
G1 X208.130 Y161.979 E7.04811
G1 X208.337 Y161.383 E7.06885
G1 X191.164 Y151.468 E7.72042
G1 X191.511 Y150.952 E7.74084
G1 X208.544 Y160.787 E8.38713
G1 X208.751 Y160.190 E8.40788
G1 X191.857 Y150.436 E9.04889
G1 X192.203 Y149.920 E9.06931
G1 X208.958 Y159.594 E9.70504
G1 X209.165 Y158.997 E9.72578
G1 X192.549 Y149.404 E10.35623
G1 X192.896 Y148.888 E10.37665
G1 X209.372 Y158.401 E11.00182
G1 X209.579 Y157.804 E11.02257
G1 X193.242 Y148.372 E11.64246
G1 X193.588 Y147.856 E11.66288
G1 X209.787 Y157.208 E12.27749
G1 X209.994 Y156.612 E12.29823
G1 X193.934 Y147.340 E12.90756
G1 X194.280 Y146.824 E12.92798
G1 X210.201 Y156.015 E13.53203
G1 X210.408 Y155.419 E13.55278
G1 X194.627 Y146.308 E14.15155
G1 X194.973 Y145.792 E14.17197
G1 X210.615 Y154.822 E14.76546
G1 X210.822 Y154.226 E14.78620
G1 X195.319 Y145.275 E15.37441
G1 X195.665 Y144.759 E15.39483
G1 X211.029 Y153.630 E15.97776
M204 S800
G1 F1500.000 E14.77776
G92 E0
G1 X214.515 Y144.391 F9600.000
G1 X212.829 Y138.201 F9600.000
G1 E1.20000 F1500.000
M204 S750
G1 X208.038 Y135.435 E1.38178 F1890.000
G1 X208.518 Y136.428 E1.41802
G1 X206.798 Y135.435 E1.48327
G1 X206.781 Y136.142 E1.50649
