; generated by Slic3r 1.1.7 on 2015-02-16 at 09:56:34

; perimeters extrusion width = 0.56mm
; infill extrusion width = 0.60mm
; solid infill extrusion width = 0.55mm
; top infill extrusion width = 0.43mm

G21 ; set units to millimeters
M107

M301 P34 I4 D113     ; set PID nozzle
M304 P162 I17 D378 ; set PID Bed

;M104 S230                  ; set extruder temp for budaschnozzle
M104 S250                   ; set extruder temp for hex_hot_end
;M140 S100                  ; set bed temp for PET
M140 S110                   ; set bed temp for PEI (reminder ~G1 Z2 ~ M140 S(@-10 degree change) ;if -m is present in file name)

G28                            ; home
G1 Z5 F300                ; move bed down 5mm
M84                            ; disable steppers
G4 S300                     ; wait 5 mins to preheat

G28                            ; home

G90 ; use absolute coordinates
G92 E0
M82 ; use absolute distances for extrusion
G1 F1500.000 E-1.20000
G92 E0
G1 Z0.350 F9600.000
G1 X191.951 Y68.689 F9600.000
G1 E1.20000 F1500.000
G1 X195.011 Y64.790 E1.36288 F1260.000
G1 X195.692 Y64.051 E1.39590
G1 X197.679 Y62.341 E1.48202
G1 X198.977 Y61.501 E1.53284
G1 X199.923 Y60.997 E1.56805
G1 X201.461 Y60.341 E1.62301
G1 X203.570 Y59.851 E1.69413
G1 X203.979 Y59.838 E1.70758
G1 X209.153 Y59.838 E1.87761
G1 X211.598 Y60.337 E1.95960
G1 X214.663 Y61.743 E2.07043 F1260.000
G1 X216.428 Y62.994 E2.14150
G1 X217.563 Y64.042 E2.19225
G1 X218.287 Y64.834 E2.22753
G1 X219.229 Y66.062 E2.27838
G1 X219.806 Y66.964 E2.31356
G1 X220.523 Y68.330 E2.36426
G1 X220.940 Y69.321 E2.39959
G1 X221.655 Y71.837 E2.48554
G1 X221.932 Y74.439 E2.57149
G1 X221.885 Y75.981 E2.62221
G1 X221.812 Y76.768 E2.64817
G1 X211.126 Y144.804 E4.91118
G1 X210.395 Y146.904 E4.98425
G1 X208.973 Y148.614 E5.05733
G1 X207.041 Y149.715 E5.13040
G1 X204.970 Y150.069 E5.19942
G1 X186.425 Y150.069 E5.80878
G1 X184.237 Y149.672 E5.88185
G1 X182.328 Y148.533 E5.95493
G1 X180.949 Y146.812 E6.02738
G1 X172.979 Y132.138 E6.57607
G1 X172.224 Y129.164 E6.67691
G1 X172.224 Y99.960 E7.63651
G1 X172.621 Y97.772 E7.70959
G1 X173.281 Y96.488 E7.75701
G1 X191.909 Y68.752 E8.85489
G1 X192.436 Y69.069 F9600.000
G1 X195.495 Y65.170 E9.01776 F1260.000
G1 X196.110 Y64.503 E9.04756
G1 X198.013 Y62.858 E9.13022
G1 X199.311 Y62.018 E9.18103
G1 X200.164 Y61.564 E9.21279
G1 X201.703 Y60.907 E9.26775
G1 X203.603 Y60.465 E9.33184
G1 X209.153 Y60.453 E9.51423
G1 X211.356 Y60.904 E9.58811
G1 X214.329 Y62.261 E9.69548 F1260.000
G1 X216.011 Y63.446 E9.76310
G1 X217.145 Y64.494 E9.81385
G1 X217.799 Y65.209 E9.84567
G1 X218.740 Y66.437 E9.89651
G1 X219.261 Y67.250 E9.92824
G1 X219.977 Y68.617 E9.97894
G1 X220.353 Y69.510 E10.01081
G1 X221.045 Y71.924 E10.09331
G1 X221.316 Y74.420 E10.17581
G1 X221.269 Y75.963 E10.22652
G1 X221.204 Y76.673 E10.24995
G1 X210.518 Y144.709 E12.51296
G1 X209.805 Y146.695 E12.58230
G1 X208.409 Y148.277 E12.65164
G1 X206.528 Y149.233 E12.72097
G1 X204.970 Y149.453 E12.77266
G1 X186.425 Y149.453 E13.38202
G1 X184.353 Y149.057 E13.45136
G1 X182.573 Y147.924 E13.52070
G1 X181.490 Y146.518 E13.57900
G1 X173.521 Y131.844 E14.12769
G1 X172.840 Y129.164 E14.21856
G1 X172.840 Y99.960 E15.17817
G1 X173.236 Y97.887 E15.24751
G1 X173.792 Y96.831 E15.28672
G1 X192.394 Y69.132 E16.38309
G1 F1500.000 E15.18309
G92 E0
G1 X211.377 Y78.731 F9600.000
G1 E1.20000 F1500.000
M204 S800
G1 X210.613 Y79.494 E1.23548 F1890.000
G1 X209.729 Y80.113 E1.27095
G1 X208.751 Y80.570 E1.30642
G1 X207.708 Y80.849 E1.34189
G1 X206.633 Y80.943 E1.37736
G1 X205.557 Y80.849 E1.41283
G1 X204.514 Y80.570 E1.44831
G1 X204.430 Y80.530 E1.45136
G1 X203.536 Y80.113 E1.48378
G1 X202.652 Y79.494 E1.51925
G1 X201.888 Y78.731 E1.55473
G1 X201.269 Y77.847 E1.59020
G1 X200.813 Y76.868 E1.62568
G1 X200.533 Y75.825 E1.66115
G1 X200.439 Y74.750 E1.69662
G1 X200.533 Y73.675 E1.73209
G1 X200.813 Y72.632 E1.76756
G1 X200.852 Y72.548 E1.77061
G1 X201.269 Y71.653 E1.80303
G1 X201.888 Y70.769 E1.83851
G1 X202.652 Y70.006 E1.87399
G1 X203.514 Y69.402 E1.90858
G1 X204.543 Y68.923 E1.94587
G1 X205.639 Y68.643 E1.98303
G1 X206.676 Y68.560 E2.01724
G1 X207.578 Y68.639 E2.04698
M204 S800
M204 S800
G1 X207.742 Y68.660 E2.05239 F1890.000
G1 X208.765 Y68.937 E2.08724
G1 X209.750 Y69.401 E2.12301
G1 X210.613 Y70.006 E2.15765
G1 X211.377 Y70.769 E2.19313
G1 X211.996 Y71.653 E2.22860
G1 X212.452 Y72.632 E2.26407
G1 X212.732 Y73.675 E2.29954
G1 X212.826 Y74.750 E2.33501
G1 X212.732 Y75.825 E2.37048
G1 X212.452 Y76.868 E2.40595
G1 X211.996 Y77.846 E2.44143
G1 X211.420 Y78.669 E2.47444
M204 S800
G1 X210.903 Y78.334 F9600.000
M204 S800
G1 X210.216 Y79.021 E2.50637 F1470.000
G1 X209.420 Y79.578 E2.53830
G1 X208.539 Y79.989 E2.57024
G1 X207.601 Y80.240 E2.60217
G1 X206.594 Y80.322 E2.63536
G1 X205.665 Y80.240 E2.66601
G1 X204.726 Y79.989 E2.69794
G1 X203.845 Y79.578 E2.72987
G1 X203.049 Y79.021 E2.76181
G1 X202.362 Y78.333 E2.79374
G1 X201.805 Y77.537 E2.82567
G1 X201.394 Y76.657 E2.85761
G1 X201.142 Y75.718 E2.88954
G1 X201.058 Y74.750 E2.92147
G1 X201.142 Y73.782 E2.95340
G1 X201.394 Y72.843 E2.98533
G1 X201.805 Y71.963 E3.01726
G1 X202.362 Y71.166 E3.04919
G1 X203.049 Y70.479 E3.08113
G1 X203.838 Y69.927 E3.11276
G1 X204.736 Y69.509 E3.14532
G1 X205.615 Y69.272 E3.17525
G1 X206.631 Y69.176 E3.20876
M204 S800
M204 S800
G1 X207.612 Y69.263 E3.24114 F1470.000
G1 X208.500 Y69.500 E3.27133
G1 X209.427 Y69.927 E3.30486
G1 X210.216 Y70.479 E3.33652
G1 X210.903 Y71.166 E3.36845
G1 X211.461 Y71.963 E3.40038
G1 X211.871 Y72.843 E3.43232
G1 X212.123 Y73.782 E3.46425
G1 X212.208 Y74.750 E3.49618
G1 X212.123 Y75.718 E3.52811
G1 X211.871 Y76.657 E3.56004
G1 X211.461 Y77.537 E3.59197
G1 X210.946 Y78.272 E3.62144
M204 S800
G1 F1500.000 E2.42144
G92 E0
G1 X206.573 Y68.680 F9600.000
G1 X199.361 Y91.806 F9600.000
G1 E1.20000 F1500.000
M204 S800
G1 X200.077 Y92.521 E1.23324 F1890.000
G1 X200.656 Y93.349 E1.26646
G1 X201.084 Y94.266 E1.29970
G1 X201.346 Y95.243 E1.33292
G1 X201.434 Y96.250 E1.36614
G1 X201.346 Y97.257 E1.39936
G1 X201.084 Y98.234 E1.43260
G1 X200.656 Y99.151 E1.46583
G1 X200.077 Y99.979 E1.49905
G1 X199.361 Y100.694 E1.53228
G1 X198.533 Y101.274 E1.56550
G1 X197.616 Y101.701 E1.59874
G1 X196.640 Y101.963 E1.63196
G1 X195.633 Y102.051 E1.66519
G1 X194.625 Y101.963 E1.69842
G1 X193.648 Y101.701 E1.73164
G1 X192.732 Y101.274 E1.76486
G1 X191.904 Y100.694 E1.79809
G1 X191.189 Y99.979 E1.83132
G1 X190.609 Y99.151 E1.86455
G1 X190.182 Y98.234 E1.89776
G1 X189.920 Y97.257 E1.93100
G1 X189.831 Y96.250 E1.96423
G1 X189.920 Y95.242 E1.99746
G1 X190.181 Y94.266 E2.03069
G1 X190.609 Y93.350 E2.06391
G1 X191.189 Y92.521 E2.09714
G1 X191.904 Y91.806 E2.13036
G1 X192.732 Y91.226 E2.16359
G1 X193.649 Y90.799 E2.19682
G1 X194.625 Y90.537 E2.23005
G1 X195.633 Y90.449 E2.26327
G1 X195.724 Y90.457 E2.26630
M204 S800
M204 S800
G1 X196.640 Y90.537 E2.29649 F1890.000
G1 X197.617 Y90.799 E2.32972
G1 X198.533 Y91.226 E2.36296
G1 X199.300 Y91.763 E2.39371
M204 S800
G1 X198.964 Y92.280 F9600.000
M204 S800
G1 X199.603 Y92.919 E2.42340 F1470.000
G1 X200.121 Y93.659 E2.45308
G1 X200.503 Y94.477 E2.48277
G1 X200.737 Y95.350 E2.51246
G1 X200.816 Y96.250 E2.54214
G1 X200.737 Y97.150 E2.57182
G1 X200.503 Y98.023 E2.60151
G1 X200.121 Y98.841 E2.63120
G1 X199.603 Y99.582 E2.66089
G1 X198.964 Y100.220 E2.69057
G1 X198.224 Y100.738 E2.72026
G1 X197.405 Y101.120 E2.74995
G1 X196.533 Y101.354 E2.77963
G1 X195.633 Y101.433 E2.80932
G1 X194.733 Y101.354 E2.83900
G1 X193.860 Y101.120 E2.86869
G1 X193.041 Y100.739 E2.89837
G1 X192.301 Y100.220 E2.92806
G1 X191.662 Y99.582 E2.95775
G1 X191.144 Y98.841 E2.98743
G1 X190.762 Y98.023 E3.01711
G1 X190.528 Y97.150 E3.04681
G1 X190.450 Y96.250 E3.07649
G1 X190.528 Y95.350 E3.10618
G1 X190.762 Y94.477 E3.13587
G1 X191.144 Y93.659 E3.16555
G1 X191.662 Y92.918 E3.19524
G1 X192.301 Y92.280 E3.22492
G1 X193.041 Y91.761 E3.25461
G1 X193.860 Y91.380 E3.28429
G1 X194.733 Y91.146 E3.31398
G1 X195.073 Y91.116 E3.32521
M204 S800
M204 S800
G1 X195.633 Y91.067 E3.34367 F1470.000
G1 X196.533 Y91.146 E3.37335
G1 X197.405 Y91.380 E3.40304
G1 X198.224 Y91.761 E3.43273
G1 X198.903 Y92.237 E3.45994
M204 S800
G1 F1500.000 E2.25994
G92 E0
G1 X194.827 Y90.681 F9600.000
G1 X202.822 Y103.460 F9600.000
G1 E1.20000 F1500.000
M204 S800
G1 X202.822 Y126.040 E1.94193 F1890.000
G1 X180.443 Y126.040 E2.67729
G1 X180.443 Y103.460 E3.41922
G1 X202.747 Y103.460 E4.15211
M204 S800
G1 X202.206 Y104.076 F9600.000
M204 S800
G1 X202.206 Y125.424 E4.85357 F1470.000
G1 X181.059 Y125.424 E5.54846
G1 X181.059 Y104.076 E6.24992
G1 X202.131 Y104.076 E6.94234
M204 S800
G1 X202.706 Y104.076 F9600.000
G1 F1500.000 E5.74234
G92 E0
G1 X204.031 Y142.898 F9600.000
G1 E1.20000 F1500.000
M204 S800
G1 X186.984 Y142.898 E1.76012 F1890.000
G1 X179.395 Y128.925 E2.28261
G1 X179.395 Y100.246 E3.22498
G1 X197.614 Y73.089 E4.29954
G1 X200.612 Y69.269 E4.45909
G1 X201.642 Y68.318 E4.50516
G1 X202.810 Y67.562 E4.55089
G1 X204.107 Y67.009 E4.59722
G1 X208.961 Y67.009 E4.75671
G1 X210.835 Y67.808 E4.82366
G1 X211.623 Y68.318 E4.85450
G1 X212.646 Y69.262 E4.90023
G1 X213.493 Y70.366 E4.94595
G1 X214.139 Y71.599 E4.99168
G1 X214.566 Y72.923 E5.03741
G1 X214.761 Y74.301 E5.08314
G1 X214.719 Y75.692 E5.12887
G1 X214.429 Y77.112 E5.17650
G1 X214.323 Y77.443 E5.18791
G1 X204.218 Y106.547 E6.20024
G1 X204.078 Y107.096 E6.21885
G1 X204.031 Y107.752 E6.24048
G1 X204.031 Y142.823 E7.39287
M204 S800
G1 X204.646 Y143.514 F9600.000
M204 S800
G1 X186.618 Y143.514 E7.98526 F1470.000
G1 X178.779 Y129.081 E8.52493
G1 X178.779 Y100.058 E9.47859
G1 X197.116 Y72.727 E10.56007
G1 X200.158 Y68.850 E10.72200
G1 X201.263 Y67.830 E10.77143
G1 X202.520 Y67.016 E10.82063
G1 X203.981 Y66.393 E10.87282
G1 X209.087 Y66.393 E11.04059
G1 X211.126 Y67.262 E11.11341
G1 X212.002 Y67.830 E11.14772
G1 X213.102 Y68.845 E11.19692
G1 X214.013 Y70.033 E11.24612
G1 X214.709 Y71.359 E11.29532
G1 X215.168 Y72.785 E11.34452
G1 X215.378 Y74.267 E11.39372
G1 X215.333 Y75.764 E11.44292
G1 X215.025 Y77.269 E11.49339
G1 X214.907 Y77.638 E11.50615
G1 X204.808 Y106.725 E12.51787
G1 X204.687 Y107.198 E12.53394
G1 X204.646 Y107.753 E12.55221
G1 X204.646 Y143.439 E13.72481
M204 S800
G1 X204.213 Y143.264 F9600.000
G1 F1500.000 E12.52481
G92 E0
G1 X203.549 Y126.774 F9600.000
G1 E1.20000 F1500.000
M204 S750
G1 X203.604 Y126.806 E1.20207 F1890.000
G1 X203.604 Y127.522 E1.22563
G1 X201.775 Y126.466 E1.29504
G1 X200.533 Y126.466 E1.33584
G1 X203.604 Y128.239 E1.45236
G1 X203.604 Y128.956 E1.47591
G1 X199.291 Y126.466 E1.63954
G1 X198.050 Y126.466 E1.68034
G1 X203.604 Y129.673 E1.89107
G1 X203.604 Y130.390 E1.91463
G1 X196.808 Y126.466 E2.17247
G1 X195.567 Y126.466 E2.21326
G1 X203.604 Y131.106 E2.51821
G1 X203.604 Y131.823 E2.54177
G1 X194.325 Y126.466 E2.89382
G1 X193.084 Y126.466 E2.93462
G1 X203.604 Y132.540 E3.33378
G1 X203.604 Y133.257 E3.35733
G1 X191.842 Y126.466 E3.80360
G1 X190.601 Y126.466 E3.84440
G1 X203.604 Y133.974 E4.33777
G1 X203.604 Y134.690 E4.36132
G1 X189.359 Y126.466 E4.90181
G1 X188.118 Y126.466 E4.94260
G1 X203.604 Y135.407 E5.53019
G1 X203.604 Y136.124 E5.55374
G1 X186.876 Y126.466 E6.18844
G1 X185.635 Y126.466 E6.22924
G1 X203.604 Y136.841 E6.91104
G1 X203.604 Y137.558 E6.93459
G1 X184.393 Y126.466 E7.66350
G1 X183.152 Y126.466 E7.70430
G1 X203.604 Y138.274 E8.48031
G1 X203.604 Y138.991 E8.50386
G1 X181.910 Y126.466 E9.32699
G1 X180.668 Y126.466 E9.36778
G1 X203.604 Y139.708 E10.23801
G1 X203.604 Y140.425 E10.26156
G1 X179.960 Y126.774 E11.15866
G1 X179.822 Y127.411 E11.18008
G1 X203.604 Y141.142 E12.08244
G1 X203.604 Y141.858 E12.10599
G1 X179.822 Y128.128 E13.00835
G1 X179.844 Y128.857 E13.03233
G1 X203.424 Y142.471 E13.92704
G1 X202.183 Y142.471 E13.96784
G1 X180.411 Y129.901 E14.79393
G1 X180.978 Y130.946 E14.83297
G1 X200.941 Y142.471 E15.59043
G1 X199.700 Y142.471 E15.63123
G1 X181.545 Y131.990 E16.32007
G1 X182.112 Y133.034 E16.35911
G1 X198.458 Y142.471 E16.97932
G1 X197.217 Y142.471 E17.02012
G1 X182.679 Y134.078 E17.57170
G1 X183.247 Y135.123 E17.61075
G1 X195.975 Y142.471 E18.09370
G1 X194.734 Y142.471 E18.13450
G1 X183.814 Y136.167 E18.54883
G1 X184.381 Y137.211 E18.58788
G1 X193.492 Y142.471 E18.93358
G1 X192.251 Y142.471 E18.97438
G1 X184.948 Y138.255 E19.25145
G1 X185.515 Y139.300 E19.29050
G1 X191.009 Y142.471 E19.49895
G1 X189.768 Y142.471 E19.53975
G1 X186.082 Y140.344 E19.67957
G1 X186.650 Y141.388 E19.71862
G1 X188.526 Y142.471 E19.78982
G1 X187.285 Y142.471 E19.83062
G1 X187.217 Y142.432 E19.83319
M204 S800
G1 F1500.000 E18.63319
G92 E0
G1 X203.426 Y126.348 F9600.000
G1 E1.20000 F1500.000
G1 X203.426 Y107.751 E1.55876 F945.000
G1 X203.440 Y107.310 E1.56727
G1 F1500.000 E0.36727
G92 E0
G1 X207.016 Y80.970 F9600.000
G1 X179.652 Y99.971 F9600.000
G1 X179.919 Y103.152 F9600.000
G1 E1.20000 F1500.000
G1 X179.919 Y126.348 E1.64748 F945.000
G1 F1500.000 E0.44748
G92 E0
G1 X180.383 Y103.400 F9600.000
G1 X194.211 Y102.695 F9600.000
G1 E1.20000 F1500.000
G1 X195.598 Y102.756 E1.26638 F945.000
G1 X197.054 Y102.695 E1.33606
G1 X197.771 Y103.034 F9600.000
M204 S750
G1 X197.489 Y102.871 E1.34677 F1890.000
G1 X197.515 Y102.170 E1.36981
G1 X199.011 Y103.034 E1.42658
G1 X200.251 Y103.034 E1.46733
G1 X198.248 Y101.877 E1.54334
G1 X198.900 Y101.538 E1.56749
G1 X201.491 Y103.034 E1.66581
M204 S800
G1 F1500.000 E0.46581
G92 E0
G1 X207.016 Y80.970 F9600.000
G1 X203.788 Y106.508 F9600.000
G1 E1.20000 F1500.000
M204 S750
G1 X203.249 Y106.196 E1.22046 F1890.000
G1 X203.249 Y105.481 E1.24399
G1 X203.989 Y105.908 E1.27207
G1 X204.196 Y105.311 E1.29281
G1 X203.249 Y104.765 E1.32875
G1 X203.249 Y104.049 E1.35227
G1 X204.403 Y104.715 E1.39607
G1 X204.610 Y104.119 E1.41681
G1 X199.460 Y101.145 E1.61220
G1 X199.948 Y100.711 E1.63366
G1 X204.817 Y103.522 E1.81841
G1 X205.024 Y102.926 E1.83916
G1 X200.402 Y100.257 E2.01454
G1 X200.759 Y99.747 E2.03500
G1 X205.231 Y102.329 E2.20467
G1 X205.438 Y101.733 E2.22542
G1 X201.093 Y99.224 E2.39029
G1 X201.356 Y98.660 E2.41074
G1 X205.645 Y101.136 E2.57349
G1 X205.852 Y100.540 E2.59424
G1 X201.570 Y98.068 E2.75672
G1 X201.736 Y97.448 E2.77781
G1 X206.059 Y99.944 E2.94185
G1 X206.266 Y99.347 E2.96259
G1 X201.816 Y96.778 E3.13146
G1 X201.847 Y96.080 E3.15442
G1 X206.473 Y98.751 E3.32996
G1 X206.681 Y98.154 E3.35071
G1 X201.781 Y95.326 E3.53661
G1 X201.588 Y94.498 E3.56454
G1 X206.888 Y97.558 E3.76564
G1 X207.095 Y96.961 E3.78638
G1 X201.233 Y93.577 E4.00877
G1 X200.565 Y92.476 E4.05110
G1 X207.302 Y96.365 E4.30669
G1 X207.509 Y95.769 E4.32744
G1 X189.780 Y85.533 E5.00013
G1 X190.126 Y85.017 E5.02055
G1 X207.716 Y95.172 E5.68796
G1 X207.923 Y94.576 E5.70871
G1 X190.472 Y84.501 E6.37084
G1 X190.818 Y83.984 E6.39126
G1 X208.130 Y93.979 E7.04811
G1 X208.337 Y93.383 E7.06885
G1 X191.164 Y83.468 E7.72042
G1 X191.511 Y82.952 E7.74084
G1 X208.544 Y92.787 E8.38713
G1 X208.751 Y92.190 E8.40788
G1 X191.857 Y82.436 E9.04889
G1 X192.203 Y81.920 E9.06931
G1 X208.958 Y91.594 E9.70504
G1 X209.165 Y90.997 E9.72578
G1 X192.549 Y81.404 E10.35623
G1 X192.896 Y80.888 E10.37665
G1 X209.372 Y90.401 E11.00182
G1 X209.579 Y89.804 E11.02257
G1 X193.242 Y80.372 E11.64246
G1 X193.588 Y79.856 E11.66288
G1 X209.787 Y89.208 E12.27749
G1 X209.994 Y88.612 E12.29823
G1 X193.934 Y79.340 E12.90756
G1 X194.280 Y78.824 E12.92798
G1 X210.201 Y88.015 E13.53203
G1 X210.408 Y87.419 E13.55278
G1 X194.627 Y78.308 E14.15155
G1 X194.973 Y77.792 E14.17197
G1 X210.615 Y86.822 E14.76546
G1 X210.822 Y86.226 E14.78620
G1 X195.319 Y77.275 E15.37441
G1 X195.665 Y76.759 E15.39483
G1 X211.029 Y85.630 E15.97776
M204 S800
G1 F1500.000 E14.77776
G92 E0
G1 X214.515 Y76.391 F9600.000
G1 X212.829 Y70.201 F9600.000
G1 E1.20000 F1500.000
M204 S750
G1 X208.038 Y67.435 E1.38178 F1890.000
G1 X208.518 Y68.428 E1.41802
G1 X206.798 Y67.435 E1.48327
G1 X206.781 Y68.142 E1.50649
G1 X205.558 Y67.435 E1.55292
G1 X205.664 Y68.213 E1.57871
G1 X204.318 Y67.435 E1.62980
G1 X203.552 Y67.709 E1.65652
G1 X204.779 Y68.418 E1.70306
G1 X204.018 Y68.694 E1.72966
G1 X202.870 Y68.031 E1.77323
G1 X202.285 Y68.410 E1.79611
G1 X203.333 Y69.015 E1.83589
G1 X202.767 Y69.404 E1.85846
