; generated by Slic3r 1.1.7 on 2015-03-02 at 16:37:43

; perimeters extrusion width = 0.40mm
; infill extrusion width = 0.60mm
; solid infill extrusion width = 0.50mm
; top infill extrusion width = 0.40mm

G21 ; set units to millimeters
M107

M301 P34 I4 D113     ; set PID nozzle
M304 P162 I17 D378 ; set PID Bed

M104 S230                 ; set extruder temp for budaschnozzle
;M104 S240                 ; set extruder temp for hex_hot_end
;M140 S100                 ; set bed temp for PET
M140 S110                 ; set bed temp for PEI (reminder ~G1 Z2 ~ M140 S(@-10 degree change) ;if -m is present in file name)

;G28                            ; home
;G1 Z5 F300                ; move bed down 5mm
;M84                            ; disable steppers
;G4 S300                     ; wait 5 mins to preheat

G28                            ; home

G90 ; use absolute coordinates
G92 E0
M82 ; use absolute distances for extrusion
M204 S2000
G1 F1200.000 E-1.20000
G92 E0
G1 Z0.350 F9600.000
G1 X46.305 Y104.629 F9600.000
G1 E1.20000 F1200.000
G1 X48.043 Y103.241 E1.27307 F1260.000
G1 X51.000 Y102.495 E1.37329
G1 X151.000 Y102.495 E4.65920
G1 X153.188 Y102.891 E4.73227
G1 X155.098 Y104.031 E4.80534 F1260.000
G1 X156.485 Y105.769 E4.87841
G1 X157.232 Y108.726 E4.97864
G1 X157.232 Y221.726 E8.69171
G1 X156.835 Y223.914 E8.76478
G1 X155.050 Y226.463 E8.86702
G1 X137.897 Y241.060 E9.60711
G1 X136.828 Y241.653 E9.64729
G1 X135.708 Y242.048 E9.68629
G1 X133.206 Y242.595 E9.77046
G1 X131.245 Y242.756 E9.83510
G1 X101.662 Y243.505 E10.80748
G1 X100.179 Y243.503 E10.85621
G1 X70.367 Y242.734 E11.83613
G1 X67.824 Y242.432 E11.92029
G1 X66.478 Y242.094 E11.96588
G1 X65.328 Y241.720 E12.00564
G1 X64.244 Y241.153 E12.04582
G1 X63.462 Y240.580 E12.07767
G1 X46.950 Y226.463 E12.79150
G1 X45.545 Y224.739 E12.86457
G1 X44.768 Y221.726 E12.96681
G1 X44.768 Y108.726 E16.67988
G1 X45.165 Y106.538 E16.75296
G1 X46.266 Y104.693 E16.82356
G1 X46.849 Y104.975 F9600.000
G1 X46.914 Y104.874 E16.82752 F1260.000
G1 X48.624 Y103.638 E16.89686
G1 X51.000 Y103.110 E16.97682
G1 X151.000 Y103.110 E20.26273
G1 X153.073 Y103.507 E20.33206
G1 X154.853 Y104.640 E20.40140 F1260.000
G1 X156.089 Y106.350 E20.47074
G1 X156.616 Y108.726 E20.55070
G1 X156.616 Y221.726 E24.26377
G1 X156.219 Y223.799 E24.33311
G1 X154.649 Y225.995 E24.42181
G1 X137.560 Y240.545 E25.15930
G1 X136.582 Y241.088 E25.19606
G1 X135.558 Y241.450 E25.23176
G1 X133.152 Y241.982 E25.31273
G1 X131.229 Y242.140 E25.37612
G1 X101.662 Y242.890 E26.34797
G1 X100.195 Y242.888 E26.39619
G1 X70.421 Y242.120 E27.37485
G1 X67.974 Y241.835 E27.45583
G1 X66.628 Y241.497 E27.50142
G1 X65.573 Y241.155 E27.53786
G1 X64.581 Y240.637 E27.57462
G1 X63.862 Y240.112 E27.60387
G1 X47.351 Y225.995 E28.31770
G1 X46.033 Y224.346 E28.38704
G1 X45.384 Y221.726 E28.47574
G1 X45.384 Y108.726 E32.18881
G1 X45.781 Y106.654 E32.25815
G1 X46.809 Y105.038 E32.32106
G1 F1200.000 E31.12106
G92 E0
G1 X58.249 Y216.727 F9600.000
G1 E1.20000 F1200.000
G1 X58.033 Y217.189 E1.21676 F1564.500
G1 X57.741 Y217.606 E1.23351
G1 X57.380 Y217.967 E1.25026
G1 X56.962 Y218.259 E1.26702
G1 X56.500 Y218.475 E1.28377
G1 X56.008 Y218.607 E1.30052
G1 X55.500 Y218.651 E1.31727
G1 X54.992 Y218.607 E1.33403
G1 X54.500 Y218.475 E1.35078
G1 X54.038 Y218.259 E1.36753
G1 X53.620 Y217.967 E1.38429
G1 X53.259 Y217.606 E1.40104
G1 X52.967 Y217.189 E1.41780
G1 X52.741 Y216.687 E1.43589
G1 X52.619 Y216.234 E1.45128
G1 X52.575 Y215.726 E1.46804
G1 X52.619 Y215.218 E1.48479
G1 X52.751 Y214.726 E1.50154
G1 X52.967 Y214.264 E1.51830
G1 X53.289 Y213.817 E1.53640
G1 X53.620 Y213.486 E1.55179
G1 X54.038 Y213.193 E1.56854
G1 X54.500 Y212.978 E1.58529
G1 X54.992 Y212.846 E1.60205
G1 X55.541 Y212.805 E1.62014
G1 X56.008 Y212.846 E1.63553 F1564.500
G1 X56.500 Y212.978 E1.65229
G1 X56.962 Y213.193 E1.66904
G1 X57.380 Y213.486 E1.68579
G1 X57.741 Y213.846 E1.70255
G1 X58.033 Y214.264 E1.71930
G1 X58.249 Y214.726 E1.73605
G1 X58.381 Y215.218 E1.75281
G1 X58.425 Y215.726 E1.76956
G1 X58.381 Y216.234 E1.78632
G1 X58.268 Y216.654 E1.80060
G1 F1200.000 E0.60060
G92 E0
G1 X55.461 Y212.344 F9600.000
G1 X55.616 Y186.641 F9600.000
G1 E1.20000 F1200.000
G1 X55.500 Y186.651 E1.20383 F1564.500
G1 X54.992 Y186.607 E1.22058
G1 X54.500 Y186.475 E1.23734
G1 X54.038 Y186.259 E1.25409
G1 X53.620 Y185.967 E1.27085
G1 X53.259 Y185.606 E1.28760
G1 X52.967 Y185.189 E1.30435
G1 X52.751 Y184.727 E1.32110
G1 X52.619 Y184.234 E1.33786
G1 X52.575 Y183.726 E1.35461
G1 X52.619 Y183.218 E1.37137
G1 X52.769 Y182.688 E1.38946
G1 X52.967 Y182.264 E1.40485
G1 X53.259 Y181.846 E1.42161
G1 X53.620 Y181.486 E1.43836
G1 X54.038 Y181.193 E1.45511
G1 X54.500 Y180.978 E1.47187
G1 X54.992 Y180.846 E1.48862
G1 X55.541 Y180.805 E1.50672
G1 X56.008 Y180.846 E1.52211 F1564.500
G1 X56.500 Y180.978 E1.53886
G1 X56.962 Y181.193 E1.55561
G1 X57.380 Y181.486 E1.57237
G1 X57.741 Y181.846 E1.58912
G1 X58.033 Y182.264 E1.60588
G1 X58.249 Y182.726 E1.62263
G1 X58.381 Y183.218 E1.63938
G1 X58.425 Y183.726 E1.65614
G1 X58.381 Y184.234 E1.67289
G1 X58.249 Y184.727 E1.68964
G1 X58.033 Y185.189 E1.70640
G1 X57.741 Y185.606 E1.72315
G1 X57.380 Y185.967 E1.73990
G1 X56.963 Y186.259 E1.75666
G1 X56.500 Y186.475 E1.77341
G1 X56.008 Y186.607 E1.79016
G1 X55.691 Y186.635 E1.80062
G1 F1200.000 E0.60062
G92 E0
G1 X55.556 Y180.337 F9600.000
G1 X144.259 Y115.606 F9600.000
G1 E1.20000 F1200.000
G1 X143.967 Y115.189 E1.21675 F1564.500
G1 X143.751 Y114.727 E1.23351
G1 X143.619 Y114.234 E1.25026
G1 X143.575 Y113.726 E1.26701
G1 X143.619 Y113.218 E1.28377
G1 X143.751 Y112.726 E1.30052
G1 X143.967 Y112.264 E1.31727
G1 X144.259 Y111.846 E1.33403
G1 X144.620 Y111.486 E1.35078
G1 X145.038 Y111.193 E1.36753
G1 X145.500 Y110.978 E1.38429
G1 X145.992 Y110.846 E1.40104
G1 X146.541 Y110.805 E1.41914
G1 X147.008 Y110.846 E1.43453 F1564.500
G1 X147.500 Y110.978 E1.45128
G1 X147.963 Y111.193 E1.46804
G1 X148.380 Y111.486 E1.48479
G1 X148.741 Y111.846 E1.50154
G1 X149.033 Y112.264 E1.51829
G1 X149.249 Y112.726 E1.53505
G1 X149.381 Y113.218 E1.55180
G1 X149.425 Y113.726 E1.56855
G1 X149.381 Y114.234 E1.58531
G1 X149.249 Y114.727 E1.60206
G1 X149.009 Y115.223 E1.62016
G1 X148.741 Y115.606 E1.63555
G1 X148.380 Y115.967 E1.65230
G1 X147.962 Y116.259 E1.66906
G1 X147.500 Y116.475 E1.68581
G1 X147.008 Y116.607 E1.70256
G1 X146.500 Y116.651 E1.71932
G1 X145.992 Y116.607 E1.73607
G1 X145.500 Y116.475 E1.75282
G1 X145.037 Y116.259 E1.76958
G1 X144.620 Y115.967 E1.78633
G1 X144.312 Y115.659 E1.80062
G1 F1200.000 E0.60062
G92 E0
G1 X146.624 Y110.344 F9600.000
G1 X125.026 Y113.924 F9600.000
G1 E1.20000 F1200.000
G1 X124.989 Y114.342 E1.21378 F2100.000
G1 X124.830 Y114.938 E1.23407
G1 X124.568 Y115.498 E1.25437
G1 X124.214 Y116.004 E1.27466
G1 X123.778 Y116.440 E1.29495
G1 X123.271 Y116.795 E1.31525
G1 X122.712 Y117.056 E1.33554
G1 X122.115 Y117.216 E1.35584
G1 X121.500 Y117.269 E1.37613
G1 X120.885 Y117.216 E1.39643
G1 X120.288 Y117.056 E1.41672
G1 X119.728 Y116.795 E1.43701
G1 X119.222 Y116.440 E1.45731
G1 X118.786 Y116.004 E1.47760
G1 X118.431 Y115.498 E1.49790
G1 X118.171 Y114.938 E1.51819
G1 X118.011 Y114.341 E1.53849
G1 X117.957 Y113.726 E1.55878
G1 X118.011 Y113.111 E1.57908
G1 X118.170 Y112.514 E1.59937
G1 X118.431 Y111.955 E1.61966
G1 X118.786 Y111.449 E1.63996
G1 X119.222 Y111.012 E1.66025
G1 X119.729 Y110.658 E1.68055
G1 X120.288 Y110.397 E1.70084
G1 X120.885 Y110.237 E1.72113
G1 X121.500 Y110.183 E1.74143
G1 X121.595 Y110.191 E1.74457
G1 X122.115 Y110.237 E1.76173 F2100.000
G1 X122.712 Y110.397 E1.78201
G1 X123.272 Y110.658 E1.80231
G1 X123.778 Y111.012 E1.82261
G1 X124.214 Y111.449 E1.84290
G1 X124.569 Y111.955 E1.86320
G1 X124.829 Y112.514 E1.88349
G1 X124.989 Y113.111 E1.90379
G1 X125.043 Y113.726 E1.92408
G1 X125.032 Y113.849 E1.92813
G1 X124.412 Y113.870 F9600.000
G1 X124.381 Y114.234 E1.94014 F1564.500
G1 X124.249 Y114.727 E1.95689
G1 X124.033 Y115.189 E1.97364
G1 X123.741 Y115.606 E1.99040
G1 X123.380 Y115.967 E2.00715
G1 X122.962 Y116.259 E2.02391
G1 X122.500 Y116.475 E2.04066
G1 X122.008 Y116.607 E2.05741
G1 X121.500 Y116.651 E2.07417
G1 X120.992 Y116.607 E2.09092
G1 X120.500 Y116.475 E2.10767
G1 X120.038 Y116.259 E2.12442
G1 X119.620 Y115.967 E2.14118
G1 X119.259 Y115.606 E2.15793
G1 X118.967 Y115.189 E2.17469
G1 X118.751 Y114.727 E2.19144
G1 X118.619 Y114.234 E2.20819
G1 X118.575 Y113.726 E2.22495
G1 X118.619 Y113.218 E2.24170
G1 X118.751 Y112.726 E2.25845
G1 X118.991 Y112.230 E2.27655
G1 X119.259 Y111.846 E2.29194
G1 X119.620 Y111.486 E2.30869
G1 X120.038 Y111.193 E2.32545
G1 X120.500 Y110.978 E2.34220
G1 X121.033 Y110.842 E2.36030
G1 X121.500 Y110.801 E2.37569 F1564.500
G1 X122.008 Y110.846 E2.39244
G1 X122.500 Y110.978 E2.40919
G1 X122.962 Y111.193 E2.42595
G1 X123.380 Y111.486 E2.44270
G1 X123.741 Y111.846 E2.45946
G1 X124.033 Y112.264 E2.47621
G1 X124.249 Y112.726 E2.49296
G1 X124.381 Y113.218 E2.50972
G1 X124.419 Y113.795 E2.52872
G1 F1200.000 E1.32872
G92 E0
G1 X120.861 Y110.406 F9600.000
G1 X117.043 Y113.726 F9600.000
G1 E1.20000 F1200.000
G1 X116.989 Y114.342 E1.22030 F2100.000
G1 X116.830 Y114.938 E1.24058
G1 X116.569 Y115.498 E1.26088
G1 X116.514 Y115.576 E1.26402
G1 X116.214 Y116.004 E1.28118
G1 X115.778 Y116.440 E1.30147
G1 X115.271 Y116.795 E1.32177
G1 X114.712 Y117.056 E1.34206
G1 X114.115 Y117.216 E1.36235
G1 X113.500 Y117.269 E1.38265
G1 X112.885 Y117.216 E1.40295
G1 X112.288 Y117.056 E1.42323
G1 X111.728 Y116.795 E1.44353
G1 X111.222 Y116.440 E1.46383
G1 X110.786 Y116.004 E1.48412
G1 X110.431 Y115.498 E1.50442
G1 X110.171 Y114.938 E1.52471
G1 X110.011 Y114.341 E1.54500
G1 X109.957 Y113.726 E1.56530
G1 X110.011 Y113.111 E1.58559
G1 X110.170 Y112.515 E1.60588
G1 X110.432 Y111.955 E1.62618
G1 X110.786 Y111.449 E1.64648
G1 X111.222 Y111.012 E1.66677
G1 X111.729 Y110.658 E1.68707
G1 X112.288 Y110.397 E1.70735
G1 X112.885 Y110.237 E1.72765
G1 X113.500 Y110.183 E1.74795
G1 X113.595 Y110.191 E1.75108
G1 X114.115 Y110.237 E1.76824 F2100.000
G1 X114.712 Y110.397 E1.78853
G1 X115.272 Y110.658 E1.80883
G1 X115.778 Y111.012 E1.82912
G1 X116.214 Y111.449 E1.84942
G1 X116.569 Y111.955 E1.86972
G1 X116.829 Y112.514 E1.89000
G1 X116.989 Y113.111 E1.91030
G1 X117.037 Y113.652 E1.92813
G1 X116.425 Y113.726 F9600.000
G1 X116.381 Y114.234 E1.94489 F1564.500
G1 X116.249 Y114.727 E1.96164
G1 X116.033 Y115.189 E1.97839
G1 X115.711 Y115.636 E1.99649
G1 X115.380 Y115.967 E2.01188
G1 X114.962 Y116.259 E2.02863
G1 X114.500 Y116.475 E2.04539
G1 X114.008 Y116.607 E2.06214
G1 X113.500 Y116.651 E2.07889
G1 X112.992 Y116.607 E2.09565
G1 X112.500 Y116.475 E2.11240
G1 X112.038 Y116.259 E2.12915
G1 X111.620 Y115.967 E2.14591
G1 X111.259 Y115.606 E2.16266
G1 X110.967 Y115.189 E2.17941
G1 X110.741 Y114.687 E2.19751
G1 X110.619 Y114.234 E2.21290
G1 X110.575 Y113.726 E2.22966
G1 X110.619 Y113.218 E2.24641
G1 X110.751 Y112.726 E2.26316
G1 X110.991 Y112.230 E2.28126
G1 X111.259 Y111.846 E2.29665
G1 X111.620 Y111.486 E2.31340
G1 X112.038 Y111.193 E2.33016
G1 X112.500 Y110.978 E2.34691
G1 X113.033 Y110.842 E2.36501
G1 X113.500 Y110.801 E2.38040 F1564.500
G1 X114.008 Y110.846 E2.39715
G1 X114.500 Y110.978 E2.41390
G1 X114.962 Y111.193 E2.43066
G1 X115.380 Y111.486 E2.44741
G1 X115.741 Y111.846 E2.46417
G1 X116.033 Y112.264 E2.48092
G1 X116.249 Y112.726 E2.49767
G1 X116.381 Y113.218 E2.51443
G1 X116.418 Y113.652 E2.52871
G1 F1200.000 E1.32871
G92 E0
G1 X112.862 Y110.406 F9600.000
G1 X58.425 Y113.726 F9600.000
G1 E1.20000 F1200.000
G1 X58.381 Y114.234 E1.21675 F1564.500
G1 X58.249 Y114.727 E1.23351
G1 X58.009 Y115.223 E1.25161
G1 X57.741 Y115.606 E1.26699
G1 X57.380 Y115.967 E1.28375
G1 X56.962 Y116.259 E1.30050
G1 X56.500 Y116.475 E1.31725
G1 X56.008 Y116.607 E1.33401
G1 X55.500 Y116.651 E1.35076
G1 X54.992 Y116.607 E1.36752
G1 X54.500 Y116.475 E1.38427
G1 X54.038 Y116.259 E1.40102
G1 X53.620 Y115.967 E1.41778
G1 X53.259 Y115.606 E1.43453
G1 X52.967 Y115.189 E1.45128
G1 X52.751 Y114.727 E1.46804
G1 X52.619 Y114.234 E1.48479
G1 X52.575 Y113.726 E1.50154
G1 X52.619 Y113.218 E1.51830
G1 X52.751 Y112.726 E1.53505
G1 X52.967 Y112.264 E1.55180
G1 X53.259 Y111.846 E1.56856
G1 X53.620 Y111.486 E1.58531
G1 X54.038 Y111.193 E1.60207
G1 X54.500 Y110.978 E1.61882
G1 X54.992 Y110.846 E1.63557
G1 X55.541 Y110.805 E1.65367
G1 X56.008 Y110.846 E1.66906 F1564.500
G1 X56.500 Y110.978 E1.68581
G1 X56.962 Y111.193 E1.70256
G1 X57.380 Y111.486 E1.71932
G1 X57.741 Y111.846 E1.73607
G1 X58.033 Y112.264 E1.75283
G1 X58.249 Y112.726 E1.76958
G1 X58.381 Y113.218 E1.78633
G1 X58.418 Y113.652 E1.80062
G1 F1200.000 E0.60062
G92 E0
G1 X55.434 Y110.349 F9600.000
G1 X76.957 Y113.726 F9600.000
G1 E1.20000 F1200.000
G1 X77.011 Y113.111 E1.22030 F2100.000
G1 X77.170 Y112.515 E1.24058
G1 X77.432 Y111.955 E1.26088
G1 X77.786 Y111.449 E1.28118
G1 X78.222 Y111.012 E1.30147
G1 X78.729 Y110.658 E1.32177
G1 X79.288 Y110.397 E1.34206
G1 X79.885 Y110.237 E1.36235
G1 X80.500 Y110.183 E1.38265
G1 X80.595 Y110.191 E1.38578
G1 X81.115 Y110.237 E1.40294 F2100.000
G1 X81.712 Y110.397 E1.42323
G1 X82.272 Y110.658 E1.44353
G1 X82.778 Y111.012 E1.46382
G1 X83.214 Y111.449 E1.48412
G1 X83.569 Y111.955 E1.50442
G1 X83.829 Y112.514 E1.52470
G1 X83.989 Y113.111 E1.54500
G1 X84.043 Y113.726 E1.56530
G1 X83.989 Y114.342 E1.58559
G1 X83.830 Y114.938 E1.60588
G1 X83.568 Y115.498 E1.62618
G1 X83.214 Y116.004 E1.64647
G1 X82.778 Y116.440 E1.66677
G1 X82.271 Y116.795 E1.68707
G1 X81.712 Y117.056 E1.70735
G1 X81.115 Y117.216 E1.72765
G1 X80.500 Y117.269 E1.74795
G1 X79.885 Y117.216 E1.76824
G1 X79.288 Y117.056 E1.78853
G1 X78.728 Y116.795 E1.80883
G1 X78.650 Y116.740 E1.81196
G1 X78.222 Y116.440 E1.82912
G1 X77.786 Y116.004 E1.84942
G1 X77.431 Y115.498 E1.86972
G1 X77.171 Y114.938 E1.89000
G1 X77.011 Y114.341 E1.91030
G1 X76.963 Y113.801 E1.92813
G1 X77.575 Y113.726 F9600.000
G1 X77.619 Y113.218 E1.94489 F1564.500
G1 X77.751 Y112.726 E1.96164
G1 X77.967 Y112.264 E1.97839
G1 X78.259 Y111.846 E1.99514
G1 X78.620 Y111.486 E2.01190
G1 X79.038 Y111.193 E2.02865
G1 X79.500 Y110.978 E2.04540
G1 X80.033 Y110.842 E2.06350
G1 X80.500 Y110.801 E2.07889 F1564.500
G1 X81.008 Y110.846 E2.09565
G1 X81.500 Y110.978 E2.11240
G1 X81.962 Y111.193 E2.12915
G1 X82.380 Y111.486 E2.14591
G1 X82.741 Y111.846 E2.16266
G1 X83.033 Y112.264 E2.17941
G1 X83.249 Y112.726 E2.19617
G1 X83.381 Y113.218 E2.21292
G1 X83.425 Y113.726 E2.22967
G1 X83.381 Y114.234 E2.24643
G1 X83.231 Y114.764 E2.26452
G1 X83.033 Y115.189 E2.27991
G1 X82.741 Y115.606 E2.29667
G1 X82.380 Y115.967 E2.31342
G1 X81.962 Y116.259 E2.33018
G1 X81.500 Y116.475 E2.34693
G1 X81.008 Y116.607 E2.36368
G1 X80.500 Y116.651 E2.38044
G1 X79.992 Y116.607 E2.39719
G1 X79.500 Y116.475 E2.41394
G1 X79.003 Y116.236 E2.43204
G1 X78.620 Y115.967 E2.44743
G1 X78.259 Y115.606 E2.46418
G1 X77.967 Y115.189 E2.48094
G1 X77.751 Y114.727 E2.49769
G1 X77.619 Y114.234 E2.51444
G1 X77.582 Y113.801 E2.52873
G1 F1200.000 E1.32873
G92 E0
G1 X80.103 Y110.379 F9600.000
G1 X84.957 Y113.726 F9600.000
G1 E1.20000 F1200.000
G1 X85.011 Y113.111 E1.22030 F2100.000
G1 X85.170 Y112.514 E1.24058
G1 X85.432 Y111.955 E1.26088
G1 X85.786 Y111.449 E1.28118
G1 X86.222 Y111.012 E1.30147
G1 X86.729 Y110.658 E1.32177
G1 X87.288 Y110.397 E1.34206
G1 X87.885 Y110.237 E1.36235
G1 X88.500 Y110.183 E1.38265
G1 X88.595 Y110.191 E1.38578
G1 X89.115 Y110.237 E1.40295 F2100.000
G1 X89.712 Y110.397 E1.42323
G1 X90.272 Y110.658 E1.44353
G1 X90.778 Y111.012 E1.46383
G1 X91.214 Y111.449 E1.48412
G1 X91.569 Y111.955 E1.50442
G1 X91.829 Y112.514 E1.52470
G1 X91.989 Y113.111 E1.54500
G1 X91.998 Y113.206 E1.54814
G1 X92.043 Y113.726 E1.56530
G1 X91.989 Y114.342 E1.58559
G1 X91.830 Y114.938 E1.60588
G1 X91.568 Y115.498 E1.62618
G1 X91.214 Y116.004 E1.64647
G1 X90.778 Y116.440 E1.66677
G1 X90.271 Y116.795 E1.68707
G1 X89.712 Y117.056 E1.70735
G1 X89.115 Y117.216 E1.72765
G1 X88.500 Y117.269 E1.74795
G1 X87.885 Y117.216 E1.76824
G1 X87.288 Y117.056 E1.78853
G1 X86.728 Y116.795 E1.80883
G1 X86.650 Y116.740 E1.81196
G1 X86.222 Y116.440 E1.82912
G1 X85.786 Y116.004 E1.84942
G1 X85.431 Y115.498 E1.86972
G1 X85.171 Y114.938 E1.89000
