; generated by Slic3r 1.1.7 on 2015-09-03 at 17:52:50

; perimeters extrusion width = 0.45mm
; infill extrusion width = 0.60mm
; solid infill extrusion width = 0.45mm
; top infill extrusion width = 0.43mm

G21 ; set units to millimeters

M301 P34 I4 D113     ; set PID nozzle
M304 P162 I17 D378 ; set PID Bed

M104 S230                 ; set extruder temp for budaschnozzle
;M104 S250                 ; set extruder temp for hex_hot_end
M140 S110                 ; set bed temp for PEI (reminder ~G1 Z2 ~ M140 S(@-10 degree change) ;if -m is present in file name)

G28                            ; home
G1 Z5 F300                ; move bed down 5mm
M84                            ; disable steppers
G4 S300                     ; wait 5 mins to preheat

G28                            ; home

G90 ; use absolute coordinates
G92 E0
M82 ; use absolute distances for extrusion
M204 S800
G1 F900.000 E-1.20000
G92 E0
G1 Z0.350 F9000.000
G1 X79.301 Y81.901 F9000.000
G1 E1.20000 F900.000
G1 X81.039 Y80.512 E1.27333 F1080.000
G1 X84.000 Y79.764 E1.37400
G1 X214.000 Y79.764 E5.65929
G1 X216.189 Y80.161 E5.73262
G1 X218.099 Y81.301 E5.80595 F1080.000
G1 X219.488 Y83.039 E5.87928
G1 X220.236 Y86.000 E5.97995
G1 X220.236 Y192.000 E9.47412
G1 X219.839 Y194.189 E9.54744
G1 X218.699 Y196.099 E9.62077
G1 X216.961 Y197.488 E9.69410
G1 X214.000 Y198.236 E9.79477
G1 X84.000 Y198.236 E14.08007
G1 X81.811 Y197.839 E14.15340
G1 X79.901 Y196.699 E14.22673
G1 X78.512 Y194.961 E14.30005
G1 X77.764 Y192.000 E14.40073
G1 X77.764 Y86.000 E17.89489
G1 X78.161 Y83.811 E17.96822
G1 X79.263 Y81.965 E18.03907
G1 X79.847 Y82.249 F9000.000
G1 X79.912 Y82.147 E18.04305 F1080.000
G1 X81.622 Y80.910 E18.11262
G1 X84.000 Y80.382 E18.19291
G1 X214.000 Y80.382 E22.47820
G1 X216.073 Y80.779 E22.54777
G1 X217.853 Y81.912 E22.61734 F1080.000
G1 X219.090 Y83.622 E22.68691
G1 X219.618 Y86.000 E22.76720
G1 X219.618 Y192.000 E26.26136
G1 X219.221 Y194.073 E26.33093
G1 X218.088 Y195.853 E26.40050
G1 X216.378 Y197.090 E26.47007
G1 X214.000 Y197.618 E26.55036
G1 X84.000 Y197.618 E30.83565
G1 X81.927 Y197.221 E30.90522
G1 X80.147 Y196.088 E30.97479
G1 X78.910 Y194.378 E31.04436
G1 X78.382 Y192.000 E31.12465
G1 X78.382 Y86.000 E34.61881
G1 X78.779 Y83.927 E34.68838
G1 X79.807 Y82.312 E34.75150
G1 F900.000 E33.55150
G92 E0
G1 X212.061 Y188.936 F9000.000
G1 E1.20000 F900.000
G1 X211.515 Y189.387 E1.22336 F1260.000
G1 X210.874 Y189.689 E1.24673
G1 X210.178 Y189.822 E1.27009
G1 X209.470 Y189.778 E1.29346
G1 X208.796 Y189.558 E1.31682
G1 X208.198 Y189.179 E1.34018
G1 X207.712 Y188.662 E1.36355
G1 X207.371 Y188.041 E1.38691
G1 X207.195 Y187.354 E1.41028
G1 X207.195 Y186.646 E1.43364
G1 X207.371 Y185.959 E1.45700
G1 X207.712 Y185.338 E1.48037
G1 X208.198 Y184.821 E1.50373
G1 X208.796 Y184.442 E1.52710
G1 X209.470 Y184.222 E1.55046
G1 X210.178 Y184.178 E1.57383
G1 X210.249 Y184.192 E1.57621
G1 X210.874 Y184.311 E1.59719 F1260.000
G1 X211.515 Y184.613 E1.62055
G1 X212.061 Y185.064 E1.64392
G1 X212.478 Y185.638 E1.66728
G1 X212.739 Y186.297 E1.69065
G1 X212.828 Y187.000 E1.71401
G1 X212.739 Y187.703 E1.73737
G1 X212.478 Y188.362 E1.76074
G1 X212.105 Y188.875 E1.78163
G1 F900.000 E0.58163
G92 E0
G1 X192.828 Y187.000 F9000.000
G1 E1.20000 F900.000
G1 X192.739 Y187.703 E1.22336 F1260.000
G1 X192.478 Y188.362 E1.24673
G1 X192.061 Y188.936 E1.27009
G1 X191.515 Y189.387 E1.29346
G1 X190.874 Y189.689 E1.31682
G1 X190.178 Y189.822 E1.34018
G1 X189.470 Y189.777 E1.36355
G1 X188.796 Y189.558 E1.38691
G1 X188.198 Y189.179 E1.41028
G1 X187.712 Y188.662 E1.43364
G1 X187.371 Y188.041 E1.45700
G1 X187.195 Y187.354 E1.48037
G1 X187.195 Y186.646 E1.50373
G1 X187.371 Y185.959 E1.52710
G1 X187.712 Y185.338 E1.55046
G1 X188.198 Y184.821 E1.57383
G1 X188.796 Y184.442 E1.59719
G1 X189.470 Y184.222 E1.62055
G1 X190.178 Y184.178 E1.64392
G1 X190.249 Y184.192 E1.64630
G1 X190.874 Y184.311 E1.66728 F1260.000
G1 X191.515 Y184.613 E1.69065
G1 X192.061 Y185.064 E1.71401
G1 X192.478 Y185.638 E1.73737
G1 X192.739 Y186.297 E1.76074
G1 X192.818 Y186.926 E1.78163
G1 F900.000 E0.58163
G92 E0
G1 X186.943 Y185.255 F9000.000
G1 E1.20000 F900.000
G1 X186.943 Y182.943 E1.27622 F1710.000
G1 X213.057 Y182.943 E2.13705
G1 X213.057 Y184.803 E2.19837
G1 X212.716 Y184.914 E2.21021
G1 X212.515 Y184.638 E2.22146
G1 X211.849 Y184.087 E2.24997
G1 X211.066 Y183.719 E2.27847
G1 X210.217 Y183.557 E2.30698
G1 X209.353 Y183.611 E2.33549
G1 X208.531 Y183.878 E2.36400
G1 X207.801 Y184.342 E2.39251
G1 X207.209 Y184.972 E2.42102
G1 X206.792 Y185.730 E2.44953
G1 X206.577 Y186.568 E2.47804
G1 X206.577 Y187.432 E2.50655
G1 X206.792 Y188.270 E2.53506
G1 X207.209 Y189.028 E2.56357
G1 X207.801 Y189.659 E2.59208
G1 X208.531 Y190.122 E2.62059
G1 X209.353 Y190.389 E2.64910
G1 X210.217 Y190.444 E2.67761
G1 X211.066 Y190.281 E2.70612
G1 X211.849 Y189.913 E2.73463
G1 X212.515 Y189.362 E2.76314
G1 X212.716 Y189.086 E2.77438
G1 X213.057 Y189.197 E2.78622
G1 X213.057 Y191.057 E2.84754
G1 X186.943 Y191.057 E3.70837
G1 X186.943 Y188.745 E3.78459
G1 X187.801 Y189.659 E3.82590
G1 X188.531 Y190.122 E3.85441
G1 X189.353 Y190.389 E3.88292
G1 X190.217 Y190.444 E3.91143
G1 X191.066 Y190.281 E3.93994
G1 X191.849 Y189.913 E3.96845
G1 X192.515 Y189.362 E3.99696
G1 X193.024 Y188.662 E4.02547
G1 X193.342 Y187.858 E4.05398
G1 X193.450 Y187.000 E4.08249
G1 X193.342 Y186.142 E4.11100
G1 X193.024 Y185.338 E4.13951
G1 X192.935 Y185.216 E4.14447
G1 X192.515 Y184.638 E4.16802
G1 X191.849 Y184.087 E4.19653
G1 X191.066 Y183.719 E4.22504
G1 X190.217 Y183.557 E4.25355
G1 X189.353 Y183.611 E4.28206
G1 X188.531 Y183.878 E4.31057
G1 X187.801 Y184.341 E4.33908
G1 X186.994 Y185.200 E4.37792
G1 X186.325 Y182.325 F9000.000
G1 X213.675 Y182.325 E5.27948 F1260.000
G1 X213.675 Y191.675 E5.58769
G1 X186.325 Y191.675 E6.48925
G1 X186.325 Y182.400 E6.79499
G1 X188.152 Y190.389 F9000.000
G1 X188.233 Y190.470 E6.79876 F1890.000
G1 X187.411 Y190.629 E6.82639
G1 X187.371 Y190.589 E6.82825
G1 X187.371 Y184.051 F9000.000
G1 X187.405 Y184.086 E6.82986 F1890.000
G1 X188.201 Y183.420 E6.86407
G1 X188.152 Y183.371 E6.86637
G1 X191.836 Y183.374 F9000.000
G1 X192.688 Y184.225 E6.90609 F1890.000
G1 X192.740 Y183.371 E6.93431
G1 X199.998 Y190.629 E7.27269
G1 X200.905 Y190.629 E7.30258
G1 X193.646 Y183.371 E7.64096
G1 X194.553 Y183.371 E7.67085
G1 X201.811 Y190.629 E8.00923
G1 X202.718 Y190.629 E8.03911
G1 X195.459 Y183.371 E8.37749
G1 X196.366 Y183.371 E8.40738
G1 X203.625 Y190.629 E8.74576
G1 X204.531 Y190.629 E8.77564
G1 X197.273 Y183.371 E9.11402
G1 X198.179 Y183.371 E9.14391
G1 X205.438 Y190.629 E9.48229
G1 X206.344 Y190.629 E9.51217
G1 X199.086 Y183.371 E9.85056
G1 X199.992 Y183.371 E9.88044
G1 X207.251 Y190.629 E10.21882
G1 X208.155 Y190.626 E10.24861
G1 X200.899 Y183.371 E10.58686
G1 X201.806 Y183.371 E10.61675
G1 X206.228 Y187.793 E10.82289
G1 X206.149 Y186.807 E10.85547
G1 X202.712 Y183.371 E11.01568
G1 X203.619 Y183.371 E11.04557
G1 X206.274 Y186.026 E11.16935
G1 X206.510 Y185.355 E11.19279
G1 X204.526 Y183.371 E11.28529
G1 X205.432 Y183.371 E11.31518
G1 X206.831 Y184.770 E11.38041
G1 X207.260 Y184.292 E11.40157
G1 X206.339 Y183.371 E11.44453
G1 X207.245 Y183.371 E11.47441
G1 X207.745 Y183.870 E11.49769
G1 X208.201 Y183.420 E11.51883
G1 X208.152 Y183.371 E11.52113
G1 X192.895 Y184.433 F9000.000
G1 X199.091 Y190.629 E11.81001 F1890.000
G1 X198.185 Y190.629 E11.83990
G1 X193.784 Y186.229 E12.04505
G1 X193.856 Y187.207 E12.07737
G1 X197.278 Y190.629 E12.23693
G1 X196.372 Y190.629 E12.26682
G1 X193.745 Y188.003 E12.38927
G1 X193.488 Y188.652 E12.41230
G1 X195.465 Y190.629 E12.50447
G1 X194.558 Y190.629 E12.53436
G1 X193.148 Y189.219 E12.60011
G1 X192.747 Y189.725 E12.62138
G1 X193.652 Y190.629 E12.66354
G1 X192.745 Y190.629 E12.69342
G1 X192.251 Y190.135 E12.71644
G1 X191.792 Y190.583 E12.73758
G1 X191.839 Y190.629 E12.73974
G1 X211.764 Y183.543 F9000.000
G1 X211.822 Y183.602 E12.74247 F1890.000
G1 X212.629 Y183.411 E12.76980
G1 X212.589 Y183.371 E12.77166
G1 X213.004 Y185.145 F9000.000
G1 X213.197 Y186.157 E12.80250 F720.000
G1 X213.214 Y186.377 E12.80911
G1 X213.214 Y187.623 F9000.000
G1 X213.197 Y187.843 E12.81572 F720.000
G1 X213.004 Y188.855 E12.84656
G1 X212.595 Y189.851 F9000.000
G1 X212.629 Y189.885 E12.84815 F1890.000
G1 X211.839 Y190.629 E12.88394
G1 X211.792 Y190.583 E12.88611
G1 F900.000 E11.68611
G92 E0
G1 X207.371 Y172.041 F9000.000
G1 E1.20000 F900.000
G1 X207.195 Y171.354 E1.22336 F1260.000
G1 X207.195 Y170.646 E1.24673
G1 X207.371 Y169.959 E1.27009
G1 X207.712 Y169.338 E1.29346
G1 X208.198 Y168.821 E1.31682
G1 X208.796 Y168.442 E1.34018
G1 X209.470 Y168.222 E1.36355
G1 X210.178 Y168.178 E1.38691
G1 X210.249 Y168.192 E1.38930
G1 X210.874 Y168.311 E1.41028 F1260.000
G1 X211.515 Y168.613 E1.43364
G1 X212.061 Y169.064 E1.45701
G1 X212.478 Y169.638 E1.48037
G1 X212.739 Y170.297 E1.50373
G1 X212.828 Y171.000 E1.52710
G1 X212.739 Y171.703 E1.55046
G1 X212.478 Y172.362 E1.57383
G1 X212.061 Y172.936 E1.59719
G1 X211.515 Y173.387 E1.62055
G1 X210.874 Y173.689 E1.64392
G1 X210.178 Y173.822 E1.66728
G1 X209.470 Y173.778 E1.69065
G1 X208.796 Y173.558 E1.71401
G1 X208.198 Y173.179 E1.73737
G1 X207.712 Y172.662 E1.76074
G1 X207.407 Y172.107 E1.78163
G1 X192.828 Y171.000 F9000.000
G1 X192.739 Y171.703 E1.80499 F1260.000
G1 X192.478 Y172.362 E1.82836
G1 X192.061 Y172.936 E1.85172
G1 X191.515 Y173.387 E1.87509
G1 X190.874 Y173.689 E1.89845
G1 X190.178 Y173.822 E1.92181
G1 X189.470 Y173.777 E1.94518
G1 X188.796 Y173.558 E1.96854
G1 X188.198 Y173.179 E1.99191
G1 X187.712 Y172.662 E2.01527
G1 X187.371 Y172.041 E2.03863
G1 X187.195 Y171.354 E2.06200
G1 X187.195 Y170.646 E2.08536
G1 X187.371 Y169.959 E2.10873
G1 X187.712 Y169.338 E2.13209
G1 X188.198 Y168.821 E2.15546
G1 X188.796 Y168.442 E2.17882
G1 X189.470 Y168.222 E2.20218
G1 X190.178 Y168.178 E2.22555
G1 X190.249 Y168.192 E2.22793
G1 X190.874 Y168.311 E2.24891 F1260.000
G1 X191.515 Y168.613 E2.27228
G1 X192.061 Y169.064 E2.29564
G1 X192.478 Y169.638 E2.31900
G1 X192.739 Y170.297 E2.34237
G1 X192.818 Y170.926 E2.36326
G1 F900.000 E1.16326
G92 E0
G1 X186.943 Y169.255 F9000.000
G1 E1.20000 F900.000
G1 X186.943 Y166.943 E1.27622 F1710.000
G1 X213.057 Y166.943 E2.13705
G1 X213.057 Y168.803 E2.19837
G1 X212.716 Y168.914 E2.21021
G1 X212.515 Y168.638 E2.22146
G1 X211.849 Y168.087 E2.24997
G1 X211.066 Y167.719 E2.27847
G1 X210.217 Y167.557 E2.30698
G1 X209.353 Y167.611 E2.33549
G1 X208.531 Y167.878 E2.36400
G1 X207.801 Y168.342 E2.39251
G1 X207.209 Y168.972 E2.42102
G1 X206.792 Y169.730 E2.44953
G1 X206.577 Y170.568 E2.47804
G1 X206.577 Y171.432 E2.50655
G1 X206.792 Y172.270 E2.53506
G1 X207.209 Y173.028 E2.56357
G1 X207.801 Y173.659 E2.59208
G1 X208.531 Y174.122 E2.62059
G1 X209.353 Y174.389 E2.64910
G1 X210.217 Y174.444 E2.67761
G1 X211.066 Y174.281 E2.70612
G1 X211.849 Y173.913 E2.73463
G1 X212.515 Y173.362 E2.76314
G1 X212.716 Y173.086 E2.77438
G1 X213.057 Y173.197 E2.78622
G1 X213.057 Y175.057 E2.84754
G1 X186.943 Y175.057 E3.70837
G1 X186.943 Y172.745 E3.78459
G1 X187.801 Y173.659 E3.82590
G1 X188.531 Y174.122 E3.85441
G1 X189.353 Y174.389 E3.88292
G1 X190.217 Y174.444 E3.91143
G1 X191.066 Y174.281 E3.93994
G1 X191.849 Y173.913 E3.96845
G1 X192.515 Y173.362 E3.99696
G1 X193.024 Y172.662 E4.02547
G1 X193.342 Y171.858 E4.05398
G1 X193.450 Y171.000 E4.08249
G1 X193.342 Y170.142 E4.11100
G1 X193.024 Y169.338 E4.13951
G1 X192.935 Y169.216 E4.14447
G1 X192.515 Y168.638 E4.16802
G1 X191.849 Y168.087 E4.19653
G1 X191.066 Y167.719 E4.22504
G1 X190.217 Y167.557 E4.25355
G1 X189.353 Y167.611 E4.28206
G1 X188.531 Y167.878 E4.31057
G1 X187.801 Y168.341 E4.33908
G1 X186.994 Y169.200 E4.37792
G1 X186.325 Y166.325 F9000.000
G1 X213.675 Y166.325 E5.27947 F1260.000
G1 X213.675 Y175.675 E5.58769
G1 X186.325 Y175.675 E6.48925
G1 X186.325 Y166.400 E6.79499
G1 X188.152 Y174.389 F9000.000
G1 X188.233 Y174.470 E6.79876 F1890.000
G1 X187.411 Y174.629 E6.82639
G1 X187.371 Y174.589 E6.82825
G1 X187.371 Y168.051 F9000.000
G1 X187.405 Y168.086 E6.82986 F1890.000
G1 X188.201 Y167.420 E6.86407
G1 X188.152 Y167.371 E6.86637
G1 X211.764 Y167.543 F9000.000
G1 X211.822 Y167.602 E6.86910 F1890.000
G1 X212.629 Y167.411 E6.89643
G1 X212.589 Y167.371 E6.89829
G1 X213.004 Y169.145 F9000.000
G1 X213.197 Y170.157 E6.92913 F720.000
G1 X213.214 Y170.377 E6.93574
G1 X213.214 Y171.623 F9000.000
G1 X213.197 Y171.843 E6.94235 F720.000
G1 X213.004 Y172.855 E6.97319
G1 X212.595 Y173.851 F9000.000
G1 X212.629 Y173.885 E6.97478 F1890.000
G1 X211.839 Y174.629 E7.01057
G1 X211.792 Y174.583 E7.01273
G1 X203.422 Y175.000 F9000.000
G1 X207.853 Y167.000 F9000.000
G1 X208.152 Y167.371 F9000.000
G1 X208.201 Y167.420 E7.01503 F1890.000
G1 X207.745 Y167.870 E7.03617
G1 X207.245 Y167.371 E7.05945
G1 X206.339 Y167.371 E7.08934
G1 X207.260 Y168.292 E7.13229
G1 X206.831 Y168.770 E7.15345
G1 X205.432 Y167.371 E7.21868
G1 X204.526 Y167.371 E7.24857
G1 X206.510 Y169.355 E7.34107
G1 X206.274 Y170.026 E7.36451
G1 X203.619 Y167.371 E7.48830
G1 X202.712 Y167.371 E7.51818
G1 X206.149 Y170.807 E7.67839
G1 X206.228 Y171.793 E7.71097
G1 X201.806 Y167.371 E7.91712
G1 X200.899 Y167.371 E7.94700
G1 X208.155 Y174.626 E8.28525
G1 X207.251 Y174.629 E8.31504
G1 X199.992 Y167.371 E8.65342
G1 X199.086 Y167.371 E8.68331
G1 X206.344 Y174.629 E9.02169
G1 X205.438 Y174.629 E9.05157
G1 X198.179 Y167.371 E9.38995
G1 X197.273 Y167.371 E9.41984
G1 X204.531 Y174.629 E9.75822
G1 X203.625 Y174.629 E9.78810
G1 X196.366 Y167.371 E10.12648
G1 X195.459 Y167.371 E10.15637
G1 X202.718 Y174.629 E10.49475
G1 X201.811 Y174.629 E10.52464
G1 X194.553 Y167.371 E10.86302
G1 X193.646 Y167.371 E10.89290
G1 X200.905 Y174.629 E11.23128
G1 X199.998 Y174.629 E11.26117
G1 X192.740 Y167.371 E11.59955
G1 X192.688 Y168.225 E11.62778
G1 X191.836 Y167.374 E11.66749
G1 X192.895 Y168.432 F9000.000
G1 X199.091 Y174.629 E11.95637 F1890.000
G1 X198.185 Y174.629 E11.98626
G1 X193.784 Y170.229 E12.19141
G1 X193.856 Y171.207 E12.22374
G1 X197.278 Y174.629 E12.38330
G1 X196.372 Y174.629 E12.41318
G1 X193.745 Y172.003 E12.53563
G1 X193.488 Y172.652 E12.55866
G1 X195.465 Y174.629 E12.65084
G1 X194.558 Y174.629 E12.68072
G1 X193.148 Y173.219 E12.74647
G1 X192.747 Y173.725 E12.76775
G1 X193.652 Y174.629 E12.80990
G1 X192.745 Y174.629 E12.83979
G1 X192.251 Y174.135 E12.86281
G1 X191.792 Y174.583 E12.88394
G1 X191.839 Y174.629 E12.88611
G1 F900.000 E11.68611
G92 E0
G1 X207.371 Y156.041 F9000.000
G1 E1.20000 F900.000
G1 X207.195 Y155.354 E1.22336 F1260.000
G1 X207.195 Y154.646 E1.24673
G1 X207.371 Y153.959 E1.27009
G1 X207.712 Y153.338 E1.29346
G1 X208.198 Y152.821 E1.31682
G1 X208.796 Y152.442 E1.34018
G1 X209.470 Y152.222 E1.36355
G1 X210.178 Y152.178 E1.38691
G1 X210.249 Y152.192 E1.38930
G1 X210.874 Y152.311 E1.41028 F1260.000
G1 X211.515 Y152.613 E1.43364
G1 X212.061 Y153.064 E1.45700
G1 X212.478 Y153.638 E1.48037
G1 X212.739 Y154.297 E1.50373
G1 X212.828 Y155.000 E1.52710
G1 X212.739 Y155.703 E1.55046
G1 X212.478 Y156.362 E1.57383
G1 X212.061 Y156.936 E1.59719
G1 X211.515 Y157.387 E1.62055
G1 X210.874 Y157.689 E1.64392
G1 X210.178 Y157.822 E1.66728
G1 X209.470 Y157.777 E1.69065
G1 X208.796 Y157.558 E1.71401
G1 X208.198 Y157.179 E1.73737
G1 X207.712 Y156.662 E1.76074
G1 X207.407 Y156.107 E1.78163
G1 X192.828 Y155.000 F9000.000
G1 X192.739 Y155.703 E1.80499 F1260.000
G1 X192.478 Y156.362 E1.82836
G1 X192.061 Y156.936 E1.85172
G1 X191.515 Y157.387 E1.87509
G1 X190.874 Y157.689 E1.89845
G1 X190.178 Y157.822 E1.92181
G1 X189.470 Y157.777 E1.94518
G1 X189.401 Y157.755 E1.94756
G1 X188.796 Y157.558 E1.96854
G1 X188.198 Y157.179 E1.99191
G1 X187.712 Y156.662 E2.01527
G1 X187.371 Y156.041 E2.03863
G1 X187.195 Y155.354 E2.06200
G1 X187.195 Y154.646 E2.08536
G1 X187.371 Y153.959 E2.10873
G1 X187.712 Y153.338 E2.13209
G1 X188.198 Y152.821 E2.15545
G1 X188.796 Y152.442 E2.17882
G1 X189.470 Y152.222 E2.20218
G1 X190.178 Y152.178 E2.22555
G1 X190.249 Y152.192 E2.22793
G1 X190.874 Y152.311 E2.24891 F1260.000
G1 X191.515 Y152.613 E2.27228
G1 X192.061 Y153.064 E2.29564
G1 X192.478 Y153.638 E2.31900
G1 X192.739 Y154.297 E2.34237
G1 X192.818 Y154.926 E2.36326
G1 F900.000 E1.16326
