; generated by Slic3r 1.1.7 on 2015-09-03 at 17:52:50

; perimeters extrusion width = 0.45mm
; infill extrusion width = 0.60mm
; solid infill extrusion width = 0.45mm
; top infill extrusion width = 0.43mm

G21 ; set units to millimeters

M301 P34 I4 D113     ; set PID nozzle
M304 P162 I17 D378 ; set PID Bed

M104 S230                 ; set extruder temp for budaschnozzle
;M104 S250                 ; set extruder temp for hex_hot_end
M140 S110                 ; set bed temp for PEI (reminder ~G1 Z2 ~ M140 S(@-10 degree change) ;if -m is present in file name)

G28                            ; home
G1 Z5 F300                ; move bed down 5mm
M84                            ; disable steppers
G4 S300                     ; wait 5 mins to preheat

G28                            ; home

G90 ; use absolute coordinates
G92 E0
M82 ; use absolute distances for extrusion
M204 S800
G1 F900.000 E-1.20000
G92 E0
G1 Z0.350 F9000.000
G1 X31.301 Y115.901 F9000.000
G1 E1.20000 F900.000
G1 X33.039 Y114.512 E1.27333 F1080.000
G1 X36.000 Y113.764 E1.37400
G1 X166.000 Y113.764 E5.65929
G1 X168.189 Y114.161 E5.73262
G1 X170.099 Y115.301 E5.80595 F1080.000
G1 X171.488 Y117.039 E5.87928
G1 X172.236 Y120.000 E5.97995
G1 X172.236 Y226.000 E9.47412
G1 X171.839 Y228.189 E9.54744
G1 X170.699 Y230.099 E9.62077
G1 X168.961 Y231.488 E9.69410
G1 X166.000 Y232.236 E9.79477
G1 X36.000 Y232.236 E14.08007
G1 X33.811 Y231.839 E14.15340
G1 X31.901 Y230.699 E14.22673
G1 X30.512 Y228.961 E14.30005
G1 X29.764 Y226.000 E14.40073
G1 X29.764 Y120.000 E17.89489
G1 X30.161 Y117.811 E17.96822
G1 X31.263 Y115.965 E18.03907
G1 X31.847 Y116.249 F9000.000
G1 X31.912 Y116.147 E18.04305 F1080.000
G1 X33.622 Y114.910 E18.11262
G1 X36.000 Y114.382 E18.19291
G1 X166.000 Y114.382 E22.47820
G1 X168.073 Y114.779 E22.54777
G1 X169.853 Y115.912 E22.61734 F1080.000
G1 X171.090 Y117.622 E22.68691
G1 X171.618 Y120.000 E22.76720
G1 X171.618 Y226.000 E26.26136
G1 X171.221 Y228.073 E26.33093
G1 X170.088 Y229.853 E26.40050
G1 X168.378 Y231.090 E26.47007
G1 X166.000 Y231.618 E26.55036
G1 X36.000 Y231.618 E30.83565
G1 X33.927 Y231.221 E30.90522
G1 X32.147 Y230.088 E30.97479
G1 X30.910 Y228.378 E31.04436
G1 X30.382 Y226.000 E31.12465
G1 X30.382 Y120.000 E34.61881
G1 X30.779 Y117.927 E34.68838
G1 X31.807 Y116.312 E34.75150
G1 F900.000 E33.55150
G92 E0
G1 X164.061 Y222.936 F9000.000
G1 E1.20000 F900.000
G1 X163.515 Y223.387 E1.22336 F1260.000
G1 X162.874 Y223.689 E1.24673
G1 X162.178 Y223.822 E1.27009
G1 X161.470 Y223.778 E1.29346
G1 X160.796 Y223.558 E1.31682
G1 X160.198 Y223.179 E1.34018
G1 X159.712 Y222.662 E1.36355
G1 X159.371 Y222.041 E1.38691
G1 X159.195 Y221.354 E1.41028
G1 X159.195 Y220.646 E1.43364
G1 X159.371 Y219.959 E1.45700
G1 X159.712 Y219.338 E1.48037
G1 X160.198 Y218.821 E1.50373
G1 X160.796 Y218.442 E1.52710
G1 X161.470 Y218.222 E1.55046
G1 X162.178 Y218.178 E1.57383
G1 X162.249 Y218.192 E1.57621
G1 X162.874 Y218.311 E1.59719 F1260.000
G1 X163.515 Y218.613 E1.62055
G1 X164.061 Y219.064 E1.64392
G1 X164.478 Y219.638 E1.66728
G1 X164.739 Y220.297 E1.69065
G1 X164.828 Y221.000 E1.71401
G1 X164.739 Y221.703 E1.73737
G1 X164.478 Y222.362 E1.76074
G1 X164.105 Y222.875 E1.78163
G1 F900.000 E0.58163
G92 E0
G1 X144.828 Y221.000 F9000.000
G1 E1.20000 F900.000
G1 X144.739 Y221.703 E1.22336 F1260.000
G1 X144.478 Y222.362 E1.24673
G1 X144.061 Y222.936 E1.27009
G1 X143.515 Y223.387 E1.29346
G1 X142.874 Y223.689 E1.31682
G1 X142.178 Y223.822 E1.34018
G1 X141.470 Y223.777 E1.36355
G1 X140.796 Y223.558 E1.38691
G1 X140.198 Y223.179 E1.41028
G1 X139.712 Y222.662 E1.43364
G1 X139.371 Y222.041 E1.45700
G1 X139.195 Y221.354 E1.48037
G1 X139.195 Y220.646 E1.50373
G1 X139.371 Y219.959 E1.52710
G1 X139.712 Y219.338 E1.55046
G1 X140.198 Y218.821 E1.57383
G1 X140.796 Y218.442 E1.59719
G1 X141.470 Y218.222 E1.62055
G1 X142.178 Y218.178 E1.64392
G1 X142.249 Y218.192 E1.64630
G1 X142.874 Y218.311 E1.66728 F1260.000
G1 X143.515 Y218.613 E1.69065
G1 X144.061 Y219.064 E1.71401
G1 X144.478 Y219.638 E1.73737
G1 X144.739 Y220.297 E1.76074
G1 X144.818 Y220.926 E1.78163
G1 F900.000 E0.58163
G92 E0
G1 X138.943 Y219.255 F9000.000
G1 E1.20000 F900.000
G1 X138.943 Y216.943 E1.27622 F1710.000
G1 X165.057 Y216.943 E2.13705
G1 X165.057 Y218.803 E2.19837
G1 X164.716 Y218.914 E2.21021
G1 X164.515 Y218.638 E2.22146
G1 X163.849 Y218.087 E2.24997
G1 X163.066 Y217.719 E2.27847
G1 X162.217 Y217.557 E2.30698
G1 X161.353 Y217.611 E2.33549
G1 X160.531 Y217.878 E2.36400
G1 X159.801 Y218.342 E2.39251
G1 X159.209 Y218.972 E2.42102
G1 X158.792 Y219.730 E2.44953
G1 X158.577 Y220.568 E2.47804
G1 X158.577 Y221.432 E2.50655
G1 X158.792 Y222.270 E2.53506
G1 X159.209 Y223.028 E2.56357
G1 X159.801 Y223.659 E2.59208
G1 X160.531 Y224.122 E2.62059
G1 X161.353 Y224.389 E2.64910
G1 X162.217 Y224.444 E2.67761
G1 X163.066 Y224.281 E2.70612
G1 X163.849 Y223.913 E2.73463
G1 X164.515 Y223.362 E2.76314
G1 X164.716 Y223.086 E2.77438
G1 X165.057 Y223.197 E2.78622
G1 X165.057 Y225.057 E2.84754
G1 X138.943 Y225.057 E3.70837
G1 X138.943 Y222.745 E3.78459
G1 X139.801 Y223.659 E3.82590
G1 X140.531 Y224.122 E3.85441
G1 X141.353 Y224.389 E3.88292
G1 X142.217 Y224.444 E3.91143
G1 X143.066 Y224.281 E3.93994
G1 X143.849 Y223.913 E3.96845
G1 X144.515 Y223.362 E3.99696
G1 X145.024 Y222.662 E4.02547
G1 X145.342 Y221.858 E4.05398
G1 X145.450 Y221.000 E4.08249
G1 X145.342 Y220.142 E4.11100
G1 X145.024 Y219.338 E4.13951
G1 X144.935 Y219.216 E4.14447
G1 X144.515 Y218.638 E4.16802
G1 X143.849 Y218.087 E4.19653
G1 X143.066 Y217.719 E4.22504
G1 X142.217 Y217.557 E4.25355
G1 X141.353 Y217.611 E4.28206
G1 X140.531 Y217.878 E4.31057
G1 X139.801 Y218.341 E4.33908
G1 X138.994 Y219.200 E4.37792
G1 X138.325 Y216.325 F9000.000
G1 X165.675 Y216.325 E5.27948 F1260.000
G1 X165.675 Y225.675 E5.58769
G1 X138.325 Y225.675 E6.48925
G1 X138.325 Y216.400 E6.79499
G1 X140.152 Y224.389 F9000.000
G1 X140.233 Y224.470 E6.79876 F1890.000
G1 X139.411 Y224.629 E6.82639
G1 X139.371 Y224.589 E6.82825
G1 X139.371 Y218.051 F9000.000
G1 X139.405 Y218.086 E6.82986 F1890.000
G1 X140.201 Y217.420 E6.86407
G1 X140.152 Y217.371 E6.86637
G1 X143.836 Y217.374 F9000.000
G1 X144.688 Y218.225 E6.90609 F1890.000
G1 X144.740 Y217.371 E6.93431
G1 X151.998 Y224.629 E7.27269
G1 X152.905 Y224.629 E7.30258
G1 X145.646 Y217.371 E7.64096
G1 X146.553 Y217.371 E7.67085
G1 X153.811 Y224.629 E8.00923
G1 X154.718 Y224.629 E8.03911
G1 X147.459 Y217.371 E8.37749
G1 X148.366 Y217.371 E8.40738
G1 X155.625 Y224.629 E8.74576
G1 X156.531 Y224.629 E8.77564
G1 X149.273 Y217.371 E9.11402
G1 X150.179 Y217.371 E9.14391
G1 X157.438 Y224.629 E9.48229
G1 X158.344 Y224.629 E9.51217
G1 X151.086 Y217.371 E9.85056
G1 X151.992 Y217.371 E9.88044
G1 X159.251 Y224.629 E10.21882
G1 X160.155 Y224.626 E10.24861
G1 X152.899 Y217.371 E10.58686
G1 X153.806 Y217.371 E10.61675
G1 X158.228 Y221.793 E10.82289
G1 X158.149 Y220.807 E10.85547
G1 X154.712 Y217.371 E11.01568
G1 X155.619 Y217.371 E11.04557
G1 X158.274 Y220.026 E11.16935
G1 X158.510 Y219.355 E11.19279
G1 X156.526 Y217.371 E11.28529
G1 X157.432 Y217.371 E11.31518
G1 X158.831 Y218.770 E11.38041
G1 X159.260 Y218.292 E11.40157
G1 X158.339 Y217.371 E11.44453
G1 X159.245 Y217.371 E11.47441
G1 X159.745 Y217.870 E11.49769
G1 X160.201 Y217.420 E11.51883
G1 X160.152 Y217.371 E11.52113
G1 X144.895 Y218.433 F9000.000
G1 X151.091 Y224.629 E11.81001 F1890.000
G1 X150.185 Y224.629 E11.83990
G1 X145.784 Y220.229 E12.04505
G1 X145.856 Y221.207 E12.07737
G1 X149.278 Y224.629 E12.23693
G1 X148.372 Y224.629 E12.26682
G1 X145.745 Y222.003 E12.38927
G1 X145.488 Y222.652 E12.41230
G1 X147.465 Y224.629 E12.50447
G1 X146.558 Y224.629 E12.53436
G1 X145.148 Y223.219 E12.60011
G1 X144.747 Y223.725 E12.62138
G1 X145.652 Y224.629 E12.66354
G1 X144.745 Y224.629 E12.69342
G1 X144.251 Y224.135 E12.71644
G1 X143.792 Y224.583 E12.73758
G1 X143.839 Y224.629 E12.73974
G1 X163.764 Y217.543 F9000.000
G1 X163.822 Y217.602 E12.74247 F1890.000
G1 X164.629 Y217.411 E12.76980
G1 X164.589 Y217.371 E12.77166
G1 X165.004 Y219.145 F9000.000
G1 X165.197 Y220.157 E12.80250 F720.000
G1 X165.214 Y220.377 E12.80911
G1 X165.214 Y221.623 F9000.000
G1 X165.197 Y221.843 E12.81572 F720.000
G1 X165.004 Y222.855 E12.84656
G1 X164.595 Y223.851 F9000.000
G1 X164.629 Y223.885 E12.84815 F1890.000
G1 X163.839 Y224.629 E12.88394
G1 X163.792 Y224.583 E12.88611
G1 F900.000 E11.68611
G92 E0
G1 X159.371 Y206.041 F9000.000
G1 E1.20000 F900.000
G1 X159.195 Y205.354 E1.22336 F1260.000
G1 X159.195 Y204.646 E1.24673
G1 X159.371 Y203.959 E1.27009
G1 X159.712 Y203.338 E1.29346
G1 X160.198 Y202.821 E1.31682
G1 X160.796 Y202.442 E1.34018
G1 X161.470 Y202.222 E1.36355
G1 X162.178 Y202.178 E1.38691
G1 X162.249 Y202.192 E1.38930
G1 X162.874 Y202.311 E1.41028 F1260.000
G1 X163.515 Y202.613 E1.43364
G1 X164.061 Y203.064 E1.45701
G1 X164.478 Y203.638 E1.48037
G1 X164.739 Y204.297 E1.50373
G1 X164.828 Y205.000 E1.52710
G1 X164.739 Y205.703 E1.55046
G1 X164.478 Y206.362 E1.57383
G1 X164.061 Y206.936 E1.59719
G1 X163.515 Y207.387 E1.62055
G1 X162.874 Y207.689 E1.64392
G1 X162.178 Y207.822 E1.66728
G1 X161.470 Y207.778 E1.69065
G1 X160.796 Y207.558 E1.71401
G1 X160.198 Y207.179 E1.73737
G1 X159.712 Y206.662 E1.76074
G1 X159.407 Y206.107 E1.78163
G1 X144.828 Y205.000 F9000.000
G1 X144.739 Y205.703 E1.80499 F1260.000
G1 X144.478 Y206.362 E1.82836
G1 X144.061 Y206.936 E1.85172
G1 X143.515 Y207.387 E1.87509
G1 X142.874 Y207.689 E1.89845
G1 X142.178 Y207.822 E1.92181
G1 X141.470 Y207.777 E1.94518
G1 X140.796 Y207.558 E1.96854
G1 X140.198 Y207.179 E1.99191
G1 X139.712 Y206.662 E2.01527
G1 X139.371 Y206.041 E2.03863
G1 X139.195 Y205.354 E2.06200
G1 X139.195 Y204.646 E2.08536
G1 X139.371 Y203.959 E2.10873
G1 X139.712 Y203.338 E2.13209
G1 X140.198 Y202.821 E2.15546
G1 X140.796 Y202.442 E2.17882
G1 X141.470 Y202.222 E2.20218
G1 X142.178 Y202.178 E2.22555
G1 X142.249 Y202.192 E2.22793
G1 X142.874 Y202.311 E2.24891 F1260.000
G1 X143.515 Y202.613 E2.27228
G1 X144.061 Y203.064 E2.29564
G1 X144.478 Y203.638 E2.31900
G1 X144.739 Y204.297 E2.34237
G1 X144.818 Y204.926 E2.36326
G1 F900.000 E1.16326
G92 E0
G1 X138.943 Y203.255 F9000.000
G1 E1.20000 F900.000
G1 X138.943 Y200.943 E1.27622 F1710.000
G1 X165.057 Y200.943 E2.13705
G1 X165.057 Y202.803 E2.19837
G1 X164.716 Y202.914 E2.21021
G1 X164.515 Y202.638 E2.22146
G1 X163.849 Y202.087 E2.24997
G1 X163.066 Y201.719 E2.27847
G1 X162.217 Y201.557 E2.30698
G1 X161.353 Y201.611 E2.33549
G1 X160.531 Y201.878 E2.36400
G1 X159.801 Y202.342 E2.39251
G1 X159.209 Y202.972 E2.42102
G1 X158.792 Y203.730 E2.44953
G1 X158.577 Y204.568 E2.47804
G1 X158.577 Y205.432 E2.50655
G1 X158.792 Y206.270 E2.53506
G1 X159.209 Y207.028 E2.56357
G1 X159.801 Y207.659 E2.59208
G1 X160.531 Y208.122 E2.62059
G1 X161.353 Y208.389 E2.64910
G1 X162.217 Y208.444 E2.67761
G1 X163.066 Y208.281 E2.70612
G1 X163.849 Y207.913 E2.73463
G1 X164.515 Y207.362 E2.76314
G1 X164.716 Y207.086 E2.77438
G1 X165.057 Y207.197 E2.78622
G1 X165.057 Y209.057 E2.84754
G1 X138.943 Y209.057 E3.70837
G1 X138.943 Y206.745 E3.78459
G1 X139.801 Y207.659 E3.82590
G1 X140.531 Y208.122 E3.85441
G1 X141.353 Y208.389 E3.88292
G1 X142.217 Y208.444 E3.91143
G1 X143.066 Y208.281 E3.93994
G1 X143.849 Y207.913 E3.96845
G1 X144.515 Y207.362 E3.99696
G1 X145.024 Y206.662 E4.02547
G1 X145.342 Y205.858 E4.05398
G1 X145.450 Y205.000 E4.08249
G1 X145.342 Y204.142 E4.11100
G1 X145.024 Y203.338 E4.13951
G1 X144.935 Y203.216 E4.14447
G1 X144.515 Y202.638 E4.16802
G1 X143.849 Y202.087 E4.19653
G1 X143.066 Y201.719 E4.22504
G1 X142.217 Y201.557 E4.25355
G1 X141.353 Y201.611 E4.28206
G1 X140.531 Y201.878 E4.31057
G1 X139.801 Y202.341 E4.33908
G1 X138.994 Y203.200 E4.37792
G1 X138.325 Y200.325 F9000.000
G1 X165.675 Y200.325 E5.27947 F1260.000
G1 X165.675 Y209.675 E5.58769
G1 X138.325 Y209.675 E6.48925
G1 X138.325 Y200.400 E6.79499
G1 X140.152 Y208.389 F9000.000
G1 X140.233 Y208.470 E6.79876 F1890.000
G1 X139.411 Y208.629 E6.82639
G1 X139.371 Y208.589 E6.82825
G1 X139.371 Y202.051 F9000.000
G1 X139.405 Y202.086 E6.82986 F1890.000
G1 X140.201 Y201.420 E6.86407
G1 X140.152 Y201.371 E6.86637
G1 X163.764 Y201.543 F9000.000
G1 X163.822 Y201.602 E6.86910 F1890.000
G1 X164.629 Y201.411 E6.89643
G1 X164.589 Y201.371 E6.89829
G1 X165.004 Y203.145 F9000.000
G1 X165.197 Y204.157 E6.92913 F720.000
G1 X165.214 Y204.377 E6.93574
G1 X165.214 Y205.623 F9000.000
G1 X165.197 Y205.843 E6.94235 F720.000
G1 X165.004 Y206.855 E6.97319
G1 X164.595 Y207.851 F9000.000
G1 X164.629 Y207.885 E6.97478 F1890.000
G1 X163.839 Y208.629 E7.01057
G1 X163.792 Y208.583 E7.01273
G1 X155.422 Y209.000 F9000.000
G1 X159.853 Y201.000 F9000.000
G1 X160.152 Y201.371 F9000.000
G1 X160.201 Y201.420 E7.01503 F1890.000
G1 X159.745 Y201.870 E7.03617
G1 X159.245 Y201.371 E7.05945
G1 X158.339 Y201.371 E7.08934
G1 X159.260 Y202.292 E7.13229
G1 X158.831 Y202.770 E7.15345
G1 X157.432 Y201.371 E7.21868
G1 X156.526 Y201.371 E7.24857
G1 X158.510 Y203.355 E7.34107
G1 X158.274 Y204.026 E7.36451
G1 X155.619 Y201.371 E7.48830
G1 X154.712 Y201.371 E7.51818
G1 X158.149 Y204.807 E7.67839
G1 X158.228 Y205.793 E7.71097
G1 X153.806 Y201.371 E7.91712
G1 X152.899 Y201.371 E7.94700
G1 X160.155 Y208.626 E8.28525
G1 X159.251 Y208.629 E8.31504
G1 X151.992 Y201.371 E8.65342
G1 X151.086 Y201.371 E8.68331
G1 X158.344 Y208.629 E9.02169
G1 X157.438 Y208.629 E9.05157
G1 X150.179 Y201.371 E9.38995
G1 X149.273 Y201.371 E9.41984
G1 X156.531 Y208.629 E9.75822
G1 X155.625 Y208.629 E9.78810
G1 X148.366 Y201.371 E10.12648
G1 X147.459 Y201.371 E10.15637
G1 X154.718 Y208.629 E10.49475
G1 X153.811 Y208.629 E10.52464
G1 X146.553 Y201.371 E10.86302
G1 X145.646 Y201.371 E10.89290
G1 X152.905 Y208.629 E11.23128
G1 X151.998 Y208.629 E11.26117
G1 X144.740 Y201.371 E11.59955
G1 X144.688 Y202.225 E11.62778
G1 X143.836 Y201.374 E11.66749
G1 X144.895 Y202.432 F9000.000
G1 X151.091 Y208.629 E11.95637 F1890.000
G1 X150.185 Y208.629 E11.98626
G1 X145.784 Y204.229 E12.19141
G1 X145.856 Y205.207 E12.22374
G1 X149.278 Y208.629 E12.38330
G1 X148.372 Y208.629 E12.41318
G1 X145.745 Y206.003 E12.53563
G1 X145.488 Y206.652 E12.55866
G1 X147.465 Y208.629 E12.65084
G1 X146.558 Y208.629 E12.68072
G1 X145.148 Y207.219 E12.74647
G1 X144.747 Y207.725 E12.76775
G1 X145.652 Y208.629 E12.80990
G1 X144.745 Y208.629 E12.83979
G1 X144.251 Y208.135 E12.86281
G1 X143.792 Y208.583 E12.88394
G1 X143.839 Y208.629 E12.88611
G1 F900.000 E11.68611
G92 E0
G1 X159.371 Y190.041 F9000.000
G1 E1.20000 F900.000
G1 X159.195 Y189.354 E1.22336 F1260.000
G1 X159.195 Y188.646 E1.24673
G1 X159.371 Y187.959 E1.27009
G1 X159.712 Y187.338 E1.29346
G1 X160.198 Y186.821 E1.31682
G1 X160.796 Y186.442 E1.34018
G1 X161.470 Y186.222 E1.36355
G1 X162.178 Y186.178 E1.38691
G1 X162.249 Y186.192 E1.38930
G1 X162.874 Y186.311 E1.41028 F1260.000
G1 X163.515 Y186.613 E1.43364
G1 X164.061 Y187.064 E1.45700
G1 X164.478 Y187.638 E1.48037
G1 X164.739 Y188.297 E1.50373
G1 X164.828 Y189.000 E1.52710
G1 X164.739 Y189.703 E1.55046
G1 X164.478 Y190.362 E1.57383
G1 X164.061 Y190.936 E1.59719
G1 X163.515 Y191.387 E1.62055
G1 X162.874 Y191.689 E1.64392
G1 X162.178 Y191.822 E1.66728
G1 X161.470 Y191.777 E1.69065
G1 X160.796 Y191.558 E1.71401
G1 X160.198 Y191.179 E1.73737
G1 X159.712 Y190.662 E1.76074
G1 X159.407 Y190.107 E1.78163
G1 X144.828 Y189.000 F9000.000
G1 X144.739 Y189.703 E1.80499 F1260.000
G1 X144.478 Y190.362 E1.82836
G1 X144.061 Y190.936 E1.85172
G1 X143.515 Y191.387 E1.87509
G1 X142.874 Y191.689 E1.89845
G1 X142.178 Y191.822 E1.92181
G1 X141.470 Y191.777 E1.94518
G1 X141.401 Y191.755 E1.94756
G1 X140.796 Y191.558 E1.96854
G1 X140.198 Y191.179 E1.99191
G1 X139.712 Y190.662 E2.01527
G1 X139.371 Y190.041 E2.03863
G1 X139.195 Y189.354 E2.06200
G1 X139.195 Y188.646 E2.08536
G1 X139.371 Y187.959 E2.10873
G1 X139.712 Y187.338 E2.13209
G1 X140.198 Y186.821 E2.15545
G1 X140.796 Y186.442 E2.17882
G1 X141.470 Y186.222 E2.20218
G1 X142.178 Y186.178 E2.22555
G1 X142.249 Y186.192 E2.22793
G1 X142.874 Y186.311 E2.24891 F1260.000
G1 X143.515 Y186.613 E2.27228
G1 X144.061 Y187.064 E2.29564
G1 X144.478 Y187.638 E2.31900
G1 X144.739 Y188.297 E2.34237
G1 X144.818 Y188.926 E2.36326
