; generated by Slic3r 1.1.7 on 2015-09-03 at 17:52:50

; perimeters extrusion width = 0.45mm
; infill extrusion width = 0.60mm
; solid infill extrusion width = 0.45mm
; top infill extrusion width = 0.43mm

G21 ; set units to millimeters

M301 P34 I4 D113     ; set PID nozzle
M304 P162 I17 D378 ; set PID Bed

M104 S230                 ; set extruder temp for budaschnozzle
;M104 S250                 ; set extruder temp for hex_hot_end
M140 S110                 ; set bed temp for PEI (reminder ~G1 Z2 ~ M140 S(@-10 degree change) ;if -m is present in file name)

G28                            ; home
G1 Z5 F300                ; move bed down 5mm
M84                            ; disable steppers
G4 S300                     ; wait 5 mins to preheat

G28                            ; home

G90 ; use absolute coordinates
G92 E0
M82 ; use absolute distances for extrusion
M204 S800
G1 F900.000 E-1.20000
G92 E0
G1 Z0.350 F9000.000
G1 X127.301 Y47.901 F9000.000
G1 E1.20000 F900.000
G1 X129.039 Y46.512 E1.27333 F1080.000
G1 X132.000 Y45.764 E1.37400
G1 X262.000 Y45.764 E5.65929
G1 X264.189 Y46.161 E5.73262
G1 X266.099 Y47.301 E5.80595 F1080.000
G1 X267.488 Y49.039 E5.87928
G1 X268.236 Y52.000 E5.97995
G1 X268.236 Y158.000 E9.47412
G1 X267.839 Y160.189 E9.54744
G1 X266.699 Y162.099 E9.62077
G1 X264.961 Y163.488 E9.69410
G1 X262.000 Y164.236 E9.79477
G1 X132.000 Y164.236 E14.08007
G1 X129.811 Y163.839 E14.15340
G1 X127.901 Y162.699 E14.22673
G1 X126.512 Y160.961 E14.30005
G1 X125.764 Y158.000 E14.40073
G1 X125.764 Y52.000 E17.89489
G1 X126.161 Y49.811 E17.96822
G1 X127.263 Y47.965 E18.03907
G1 X127.847 Y48.249 F9000.000
G1 X127.912 Y48.147 E18.04305 F1080.000
G1 X129.622 Y46.910 E18.11262
G1 X132.000 Y46.382 E18.19291
G1 X262.000 Y46.382 E22.47820
G1 X264.073 Y46.779 E22.54777
G1 X265.853 Y47.912 E22.61734 F1080.000
G1 X267.090 Y49.622 E22.68691
G1 X267.618 Y52.000 E22.76720
G1 X267.618 Y158.000 E26.26136
G1 X267.221 Y160.073 E26.33093
G1 X266.088 Y161.853 E26.40050
G1 X264.378 Y163.090 E26.47007
G1 X262.000 Y163.618 E26.55036
G1 X132.000 Y163.618 E30.83565
G1 X129.927 Y163.221 E30.90522
G1 X128.147 Y162.088 E30.97479
G1 X126.910 Y160.378 E31.04436
G1 X126.382 Y158.000 E31.12465
G1 X126.382 Y52.000 E34.61881
G1 X126.779 Y49.927 E34.68838
G1 X127.807 Y48.312 E34.75150
G1 F900.000 E33.55150
G92 E0
G1 X260.061 Y154.936 F9000.000
G1 E1.20000 F900.000
G1 X259.515 Y155.387 E1.22336 F1260.000
G1 X258.874 Y155.689 E1.24673
G1 X258.178 Y155.822 E1.27009
G1 X257.470 Y155.778 E1.29346
G1 X256.796 Y155.558 E1.31682
G1 X256.198 Y155.179 E1.34018
G1 X255.712 Y154.662 E1.36355
G1 X255.371 Y154.041 E1.38691
G1 X255.195 Y153.354 E1.41028
G1 X255.195 Y152.646 E1.43364
G1 X255.371 Y151.959 E1.45700
G1 X255.712 Y151.338 E1.48037
G1 X256.198 Y150.821 E1.50373
G1 X256.796 Y150.442 E1.52710
G1 X257.470 Y150.222 E1.55046
G1 X258.178 Y150.178 E1.57383
G1 X258.249 Y150.192 E1.57621
G1 X258.874 Y150.311 E1.59719 F1260.000
G1 X259.515 Y150.613 E1.62055
G1 X260.061 Y151.064 E1.64392
G1 X260.478 Y151.638 E1.66728
G1 X260.739 Y152.297 E1.69065
G1 X260.828 Y153.000 E1.71401
G1 X260.739 Y153.703 E1.73737
G1 X260.478 Y154.362 E1.76074
G1 X260.105 Y154.875 E1.78163
G1 F900.000 E0.58163
G92 E0
G1 X240.828 Y153.000 F9000.000
G1 E1.20000 F900.000
G1 X240.739 Y153.703 E1.22336 F1260.000
G1 X240.478 Y154.362 E1.24673
G1 X240.061 Y154.936 E1.27009
G1 X239.515 Y155.387 E1.29346
G1 X238.874 Y155.689 E1.31682
G1 X238.178 Y155.822 E1.34018
G1 X237.470 Y155.777 E1.36355
G1 X236.796 Y155.558 E1.38691
G1 X236.198 Y155.179 E1.41028
G1 X235.712 Y154.662 E1.43364
G1 X235.371 Y154.041 E1.45700
G1 X235.195 Y153.354 E1.48037
G1 X235.195 Y152.646 E1.50373
G1 X235.371 Y151.959 E1.52710
G1 X235.712 Y151.338 E1.55046
G1 X236.198 Y150.821 E1.57383
G1 X236.796 Y150.442 E1.59719
G1 X237.470 Y150.222 E1.62055
G1 X238.178 Y150.178 E1.64392
G1 X238.249 Y150.192 E1.64630
G1 X238.874 Y150.311 E1.66728 F1260.000
G1 X239.515 Y150.613 E1.69065
G1 X240.061 Y151.064 E1.71401
G1 X240.478 Y151.638 E1.73737
G1 X240.739 Y152.297 E1.76074
G1 X240.818 Y152.926 E1.78163
G1 F900.000 E0.58163
G92 E0
G1 X234.943 Y151.255 F9000.000
G1 E1.20000 F900.000
G1 X234.943 Y148.943 E1.27622 F1710.000
G1 X261.057 Y148.943 E2.13705
G1 X261.057 Y150.803 E2.19837
G1 X260.716 Y150.914 E2.21021
G1 X260.515 Y150.638 E2.22146
G1 X259.849 Y150.087 E2.24997
G1 X259.066 Y149.719 E2.27847
G1 X258.217 Y149.557 E2.30698
G1 X257.353 Y149.611 E2.33549
G1 X256.531 Y149.878 E2.36400
G1 X255.801 Y150.342 E2.39251
G1 X255.209 Y150.972 E2.42102
G1 X254.792 Y151.730 E2.44953
G1 X254.577 Y152.568 E2.47804
G1 X254.577 Y153.432 E2.50655
G1 X254.792 Y154.270 E2.53506
G1 X255.209 Y155.028 E2.56357
G1 X255.801 Y155.659 E2.59208
G1 X256.531 Y156.122 E2.62059
G1 X257.353 Y156.389 E2.64910
G1 X258.217 Y156.444 E2.67761
G1 X259.066 Y156.281 E2.70612
G1 X259.849 Y155.913 E2.73463
G1 X260.515 Y155.362 E2.76314
G1 X260.716 Y155.086 E2.77438
G1 X261.057 Y155.197 E2.78622
G1 X261.057 Y157.057 E2.84754
G1 X234.943 Y157.057 E3.70837
G1 X234.943 Y154.745 E3.78459
G1 X235.801 Y155.659 E3.82590
G1 X236.531 Y156.122 E3.85441
G1 X237.353 Y156.389 E3.88292
G1 X238.217 Y156.444 E3.91143
G1 X239.066 Y156.281 E3.93994
G1 X239.849 Y155.913 E3.96845
G1 X240.515 Y155.362 E3.99696
G1 X241.024 Y154.662 E4.02547
G1 X241.342 Y153.858 E4.05398
G1 X241.450 Y153.000 E4.08249
G1 X241.342 Y152.142 E4.11100
G1 X241.024 Y151.338 E4.13951
G1 X240.935 Y151.216 E4.14447
G1 X240.515 Y150.638 E4.16802
G1 X239.849 Y150.087 E4.19653
G1 X239.066 Y149.719 E4.22504
G1 X238.217 Y149.557 E4.25355
G1 X237.353 Y149.611 E4.28206
G1 X236.531 Y149.878 E4.31057
G1 X235.801 Y150.341 E4.33908
G1 X234.994 Y151.200 E4.37792
G1 X234.325 Y148.325 F9000.000
G1 X261.675 Y148.325 E5.27948 F1260.000
G1 X261.675 Y157.675 E5.58769
G1 X234.325 Y157.675 E6.48925
G1 X234.325 Y148.400 E6.79499
G1 X236.152 Y156.389 F9000.000
G1 X236.233 Y156.470 E6.79876 F1890.000
G1 X235.411 Y156.629 E6.82639
G1 X235.371 Y156.589 E6.82825
G1 X235.371 Y150.051 F9000.000
G1 X235.405 Y150.086 E6.82986 F1890.000
G1 X236.201 Y149.420 E6.86407
G1 X236.152 Y149.371 E6.86637
G1 X239.836 Y149.374 F9000.000
G1 X240.688 Y150.225 E6.90609 F1890.000
G1 X240.740 Y149.371 E6.93431
G1 X247.998 Y156.629 E7.27269
G1 X248.905 Y156.629 E7.30258
G1 X241.646 Y149.371 E7.64096
G1 X242.553 Y149.371 E7.67085
G1 X249.811 Y156.629 E8.00923
G1 X250.718 Y156.629 E8.03911
G1 X243.459 Y149.371 E8.37749
G1 X244.366 Y149.371 E8.40738
G1 X251.625 Y156.629 E8.74576
G1 X252.531 Y156.629 E8.77564
G1 X245.273 Y149.371 E9.11402
G1 X246.179 Y149.371 E9.14391
G1 X253.438 Y156.629 E9.48229
G1 X254.344 Y156.629 E9.51217
G1 X247.086 Y149.371 E9.85056
G1 X247.992 Y149.371 E9.88044
G1 X255.251 Y156.629 E10.21882
G1 X256.155 Y156.626 E10.24861
G1 X248.899 Y149.371 E10.58686
G1 X249.806 Y149.371 E10.61675
G1 X254.228 Y153.793 E10.82289
G1 X254.149 Y152.807 E10.85547
G1 X250.712 Y149.371 E11.01568
G1 X251.619 Y149.371 E11.04557
G1 X254.274 Y152.026 E11.16935
G1 X254.510 Y151.355 E11.19279
G1 X252.526 Y149.371 E11.28529
G1 X253.432 Y149.371 E11.31518
G1 X254.831 Y150.770 E11.38041
G1 X255.260 Y150.292 E11.40157
G1 X254.339 Y149.371 E11.44453
G1 X255.245 Y149.371 E11.47441
G1 X255.745 Y149.870 E11.49769
G1 X256.201 Y149.420 E11.51883
G1 X256.152 Y149.371 E11.52113
G1 X240.895 Y150.433 F9000.000
G1 X247.091 Y156.629 E11.81001 F1890.000
G1 X246.185 Y156.629 E11.83990
G1 X241.784 Y152.229 E12.04505
G1 X241.856 Y153.207 E12.07737
G1 X245.278 Y156.629 E12.23693
G1 X244.372 Y156.629 E12.26682
G1 X241.745 Y154.003 E12.38927
G1 X241.488 Y154.652 E12.41230
G1 X243.465 Y156.629 E12.50447
G1 X242.558 Y156.629 E12.53436
G1 X241.148 Y155.219 E12.60011
G1 X240.747 Y155.725 E12.62138
G1 X241.652 Y156.629 E12.66354
G1 X240.745 Y156.629 E12.69342
G1 X240.251 Y156.135 E12.71644
G1 X239.792 Y156.583 E12.73758
G1 X239.839 Y156.629 E12.73974
G1 X259.764 Y149.543 F9000.000
G1 X259.822 Y149.602 E12.74247 F1890.000
G1 X260.629 Y149.411 E12.76980
G1 X260.589 Y149.371 E12.77166
G1 X261.004 Y151.145 F9000.000
G1 X261.197 Y152.157 E12.80250 F720.000
G1 X261.214 Y152.377 E12.80911
G1 X261.214 Y153.623 F9000.000
G1 X261.197 Y153.843 E12.81572 F720.000
G1 X261.004 Y154.855 E12.84656
G1 X260.595 Y155.851 F9000.000
G1 X260.629 Y155.885 E12.84815 F1890.000
G1 X259.839 Y156.629 E12.88394
G1 X259.792 Y156.583 E12.88611
G1 F900.000 E11.68611
G92 E0
G1 X255.371 Y138.041 F9000.000
G1 E1.20000 F900.000
G1 X255.195 Y137.354 E1.22336 F1260.000
G1 X255.195 Y136.646 E1.24673
G1 X255.371 Y135.959 E1.27009
G1 X255.712 Y135.338 E1.29346
G1 X256.198 Y134.821 E1.31682
G1 X256.796 Y134.442 E1.34018
G1 X257.470 Y134.222 E1.36355
G1 X258.178 Y134.178 E1.38691
G1 X258.249 Y134.192 E1.38930
G1 X258.874 Y134.311 E1.41028 F1260.000
G1 X259.515 Y134.613 E1.43364
G1 X260.061 Y135.064 E1.45701
G1 X260.478 Y135.638 E1.48037
G1 X260.739 Y136.297 E1.50373
G1 X260.828 Y137.000 E1.52710
G1 X260.739 Y137.703 E1.55046
G1 X260.478 Y138.362 E1.57383
G1 X260.061 Y138.936 E1.59719
G1 X259.515 Y139.387 E1.62055
G1 X258.874 Y139.689 E1.64392
G1 X258.178 Y139.822 E1.66728
G1 X257.470 Y139.778 E1.69065
G1 X256.796 Y139.558 E1.71401
G1 X256.198 Y139.179 E1.73737
G1 X255.712 Y138.662 E1.76074
G1 X255.407 Y138.107 E1.78163
G1 X240.828 Y137.000 F9000.000
G1 X240.739 Y137.703 E1.80499 F1260.000
G1 X240.478 Y138.362 E1.82836
G1 X240.061 Y138.936 E1.85172
G1 X239.515 Y139.387 E1.87509
G1 X238.874 Y139.689 E1.89845
G1 X238.178 Y139.822 E1.92181
G1 X237.470 Y139.777 E1.94518
G1 X236.796 Y139.558 E1.96854
G1 X236.198 Y139.179 E1.99191
G1 X235.712 Y138.662 E2.01527
G1 X235.371 Y138.041 E2.03863
G1 X235.195 Y137.354 E2.06200
G1 X235.195 Y136.646 E2.08536
G1 X235.371 Y135.959 E2.10873
G1 X235.712 Y135.338 E2.13209
G1 X236.198 Y134.821 E2.15546
G1 X236.796 Y134.442 E2.17882
G1 X237.470 Y134.222 E2.20218
G1 X238.178 Y134.178 E2.22555
G1 X238.249 Y134.192 E2.22793
G1 X238.874 Y134.311 E2.24891 F1260.000
G1 X239.515 Y134.613 E2.27228
G1 X240.061 Y135.064 E2.29564
G1 X240.478 Y135.638 E2.31900
G1 X240.739 Y136.297 E2.34237
G1 X240.818 Y136.926 E2.36326
G1 F900.000 E1.16326
G92 E0
G1 X234.943 Y135.255 F9000.000
G1 E1.20000 F900.000
G1 X234.943 Y132.943 E1.27622 F1710.000
G1 X261.057 Y132.943 E2.13705
G1 X261.057 Y134.803 E2.19837
G1 X260.716 Y134.914 E2.21021
G1 X260.515 Y134.638 E2.22146
G1 X259.849 Y134.087 E2.24997
G1 X259.066 Y133.719 E2.27847
G1 X258.217 Y133.557 E2.30698
G1 X257.353 Y133.611 E2.33549
G1 X256.531 Y133.878 E2.36400
G1 X255.801 Y134.342 E2.39251
G1 X255.209 Y134.972 E2.42102
G1 X254.792 Y135.730 E2.44953
G1 X254.577 Y136.568 E2.47804
G1 X254.577 Y137.432 E2.50655
G1 X254.792 Y138.270 E2.53506
G1 X255.209 Y139.028 E2.56357
G1 X255.801 Y139.659 E2.59208
G1 X256.531 Y140.122 E2.62059
G1 X257.353 Y140.389 E2.64910
G1 X258.217 Y140.444 E2.67761
G1 X259.066 Y140.281 E2.70612
G1 X259.849 Y139.913 E2.73463
G1 X260.515 Y139.362 E2.76314
G1 X260.716 Y139.086 E2.77438
G1 X261.057 Y139.197 E2.78622
G1 X261.057 Y141.057 E2.84754
G1 X234.943 Y141.057 E3.70837
G1 X234.943 Y138.745 E3.78459
G1 X235.801 Y139.659 E3.82590
G1 X236.531 Y140.122 E3.85441
G1 X237.353 Y140.389 E3.88292
G1 X238.217 Y140.444 E3.91143
G1 X239.066 Y140.281 E3.93994
G1 X239.849 Y139.913 E3.96845
G1 X240.515 Y139.362 E3.99696
G1 X241.024 Y138.662 E4.02547
G1 X241.342 Y137.858 E4.05398
G1 X241.450 Y137.000 E4.08249
G1 X241.342 Y136.142 E4.11100
G1 X241.024 Y135.338 E4.13951
G1 X240.935 Y135.216 E4.14447
G1 X240.515 Y134.638 E4.16802
G1 X239.849 Y134.087 E4.19653
G1 X239.066 Y133.719 E4.22504
G1 X238.217 Y133.557 E4.25355
G1 X237.353 Y133.611 E4.28206
G1 X236.531 Y133.878 E4.31057
G1 X235.801 Y134.341 E4.33908
G1 X234.994 Y135.200 E4.37792
G1 X234.325 Y132.325 F9000.000
G1 X261.675 Y132.325 E5.27947 F1260.000
G1 X261.675 Y141.675 E5.58769
G1 X234.325 Y141.675 E6.48925
G1 X234.325 Y132.400 E6.79499
G1 X236.152 Y140.389 F9000.000
G1 X236.233 Y140.470 E6.79876 F1890.000
G1 X235.411 Y140.629 E6.82639
G1 X235.371 Y140.589 E6.82825
G1 X235.371 Y134.051 F9000.000
G1 X235.405 Y134.086 E6.82986 F1890.000
G1 X236.201 Y133.420 E6.86407
G1 X236.152 Y133.371 E6.86637
G1 X259.764 Y133.543 F9000.000
G1 X259.822 Y133.602 E6.86910 F1890.000
G1 X260.629 Y133.411 E6.89643
G1 X260.589 Y133.371 E6.89829
G1 X261.004 Y135.145 F9000.000
G1 X261.197 Y136.157 E6.92913 F720.000
G1 X261.214 Y136.377 E6.93574
G1 X261.214 Y137.623 F9000.000
G1 X261.197 Y137.843 E6.94235 F720.000
G1 X261.004 Y138.855 E6.97319
G1 X260.595 Y139.851 F9000.000
G1 X260.629 Y139.885 E6.97478 F1890.000
G1 X259.839 Y140.629 E7.01057
G1 X259.792 Y140.583 E7.01273
G1 X251.422 Y141.000 F9000.000
G1 X255.853 Y133.000 F9000.000
G1 X256.152 Y133.371 F9000.000
G1 X256.201 Y133.420 E7.01503 F1890.000
G1 X255.745 Y133.870 E7.03617
G1 X255.245 Y133.371 E7.05945
G1 X254.339 Y133.371 E7.08934
G1 X255.260 Y134.292 E7.13229
G1 X254.831 Y134.770 E7.15345
G1 X253.432 Y133.371 E7.21868
G1 X252.526 Y133.371 E7.24857
G1 X254.510 Y135.355 E7.34107
G1 X254.274 Y136.026 E7.36451
G1 X251.619 Y133.371 E7.48830
G1 X250.712 Y133.371 E7.51818
G1 X254.149 Y136.807 E7.67839
G1 X254.228 Y137.793 E7.71097
G1 X249.806 Y133.371 E7.91712
G1 X248.899 Y133.371 E7.94700
G1 X256.155 Y140.626 E8.28525
G1 X255.251 Y140.629 E8.31504
G1 X247.992 Y133.371 E8.65342
G1 X247.086 Y133.371 E8.68331
G1 X254.344 Y140.629 E9.02169
G1 X253.438 Y140.629 E9.05157
G1 X246.179 Y133.371 E9.38995
G1 X245.273 Y133.371 E9.41984
G1 X252.531 Y140.629 E9.75822
G1 X251.625 Y140.629 E9.78810
G1 X244.366 Y133.371 E10.12648
G1 X243.459 Y133.371 E10.15637
G1 X250.718 Y140.629 E10.49475
G1 X249.811 Y140.629 E10.52464
G1 X242.553 Y133.371 E10.86302
G1 X241.646 Y133.371 E10.89290
G1 X248.905 Y140.629 E11.23128
G1 X247.998 Y140.629 E11.26117
G1 X240.740 Y133.371 E11.59955
G1 X240.688 Y134.225 E11.62778
G1 X239.836 Y133.374 E11.66749
G1 X240.895 Y134.432 F9000.000
G1 X247.091 Y140.629 E11.95637 F1890.000
G1 X246.185 Y140.629 E11.98626
G1 X241.784 Y136.229 E12.19141
G1 X241.856 Y137.207 E12.22374
G1 X245.278 Y140.629 E12.38330
G1 X244.372 Y140.629 E12.41318
G1 X241.745 Y138.003 E12.53563
G1 X241.488 Y138.652 E12.55866
G1 X243.465 Y140.629 E12.65084
G1 X242.558 Y140.629 E12.68072
G1 X241.148 Y139.219 E12.74647
G1 X240.747 Y139.725 E12.76775
G1 X241.652 Y140.629 E12.80990
G1 X240.745 Y140.629 E12.83979
G1 X240.251 Y140.135 E12.86281
G1 X239.792 Y140.583 E12.88394
G1 X239.839 Y140.629 E12.88611
G1 F900.000 E11.68611
G92 E0
G1 X255.371 Y122.041 F9000.000
G1 E1.20000 F900.000
G1 X255.195 Y121.354 E1.22336 F1260.000
G1 X255.195 Y120.646 E1.24673
G1 X255.371 Y119.959 E1.27009
G1 X255.712 Y119.338 E1.29346
G1 X256.198 Y118.821 E1.31682
G1 X256.796 Y118.442 E1.34018
G1 X257.470 Y118.222 E1.36355
G1 X258.178 Y118.178 E1.38691
G1 X258.249 Y118.192 E1.38930
G1 X258.874 Y118.311 E1.41028 F1260.000
G1 X259.515 Y118.613 E1.43364
G1 X260.061 Y119.064 E1.45700
G1 X260.478 Y119.638 E1.48037
G1 X260.739 Y120.297 E1.50373
G1 X260.828 Y121.000 E1.52710
G1 X260.739 Y121.703 E1.55046
G1 X260.478 Y122.362 E1.57383
G1 X260.061 Y122.936 E1.59719
G1 X259.515 Y123.387 E1.62055
G1 X258.874 Y123.689 E1.64392
G1 X258.178 Y123.822 E1.66728
G1 X257.470 Y123.777 E1.69065
G1 X256.796 Y123.558 E1.71401
G1 X256.198 Y123.179 E1.73737
G1 X255.712 Y122.662 E1.76074
G1 X255.407 Y122.107 E1.78163
G1 X240.828 Y121.000 F9000.000
G1 X240.739 Y121.703 E1.80499 F1260.000
G1 X240.478 Y122.362 E1.82836
G1 X240.061 Y122.936 E1.85172
G1 X239.515 Y123.387 E1.87509
G1 X238.874 Y123.689 E1.89845
G1 X238.178 Y123.822 E1.92181
G1 X237.470 Y123.777 E1.94518
G1 X237.401 Y123.755 E1.94756
G1 X236.796 Y123.558 E1.96854
G1 X236.198 Y123.179 E1.99191
G1 X235.712 Y122.662 E2.01527
G1 X235.371 Y122.041 E2.03863
G1 X235.195 Y121.354 E2.06200
G1 X235.195 Y120.646 E2.08536
G1 X235.371 Y119.959 E2.10873
G1 X235.712 Y119.338 E2.13209
G1 X236.198 Y118.821 E2.15545
G1 X236.796 Y118.442 E2.17882
G1 X237.470 Y118.222 E2.20218
G1 X238.178 Y118.178 E2.22555
G1 X238.249 Y118.192 E2.22793
G1 X238.874 Y118.311 E2.24891 F1260.000
G1 X239.515 Y118.613 E2.27228
G1 X240.061 Y119.064 E2.29564
G1 X240.478 Y119.638 E2.31900
G1 X240.739 Y120.297 E2.34237
G1 X240.818 Y120.926 E2.36326
