;Generated by Cura LulzBot Edition GCodeWriter Version: 3.6.8
;FLAVOR:Marlin
;TIME:3416
;Filament used: 3.36582m
;Layer height: 0.38
;Generated with Cura_SteamEngine 3.6.8
M82 ;absolute extrusion mode
M221 S100
;This G-Code has been generated specifically for the LulzBot Mini 2 with SE 0.5mm Tool Head
M73 P0                  ; clear GLCD progress bar
M75 					; Start GLCD Print Timer
G26 					; clear potential 'probe fail' condition
M107 					; disable fans
M420 S0                 ; disable leveling matrix
G90 					; absolute positioning
M82 					; set extruder to absolute mode
G92 E0 					; set extruder position to 0
M140 S115 	; start bed heating up
G28                       ; Home Axis
G0 X160 F9999             ; Move toolhead to the right
G0 Z5 F6000               ; Move to bottom of printer
G91                       ; Set relative motion mode
M211 S0		  	  ; Turn off soft endstops
M400                      ; Finish moves
G0 Z-15 F500              ; Skip steppers against lower Z mounts
G90                       ; Return to absolute mode
M400                      ; Finish moves
M211 S1			  ; Turn soft endstops back on
M400                      ; Finish moves
G28                       ; Rehome
M140 S112 	; start bed heating up
G0 X0 Y187 Z156 F200 			; move away from endstops
M117 Mini 2 Wiping...			; progress indicator message on LCD
M109 R170 	; soften filament before retraction
G1 E-15 F75 				; retract filament
M109 R170 	; wait for extruder to reach wiping temp
G1 X45 Y176 F11520 			; move above wiper pad
G1 Z0 F1200 				; push nozzle into wiper
G1 X45 Y178 Z-.5 F4000		; wiping
G1 X55 Y176 Z-.5 F4000		; wiping
G1 X45 Y177 Z0 F4000		; wiping
G1 X55 Y176 F4000		; wiping
G1 X45 Y178 F4000		; wiping
G1 X55 Y176 F4000		; wiping
G1 X45 Y178 F4000		; wiping
G1 X55 Y176 F4000		; wiping
G1 X60 Y178 F4000		; wiping
G1 X80 Y176 F4000		; wiping
G1 X60 Y178 F4000		; wiping
G1 X80 Y176 F4000		; wiping
G1 X60 Y178 F4000		; wiping
G1 X90 Y176 F4000		; wiping
G1 X80 Y178 F4000		; wiping
G1 X100 Y176 F4000		; wiping
G1 X80 Y178 F4000		; wiping
G1 X100 Y176 F4000		; wiping
G1 X80 Y178 F4000		; wiping
G1 X100 Y176 F4000		; wiping
G1 X110 Y178 F4000		; wiping
G1 X100 Y176 F4000		; wiping
G1 X110 Y178 F4000		; wiping
G1 X100 Y176 F4000		; wiping
G1 X110 Y178 F4000		; wiping
G1 X115 Y176 Z-0.5 F1000	; wiping
G1 Z10					; raise extruder
G28 X0 Y0				; home X and Y
M109 R170	; wait for extruder to reach probe temp
M204 S300				; set probing acceleration
G29					; start auto-leveling sequence
M420 S1                     ; enable leveling matrix
M425 Z			     		; use measured Z backlash for compensation
M425 Z F0		     		; turn off measured Z backlash compensation. (if activated in the quality settings, this command will automatically be ignored)
M204 S2000				; restore standard acceleration
G1 X5 Y15 Z10 F5000			; move up off last probe point
G4 S1					; pause
M400					; wait for moves to finish
M117 Heating...				; progress indicator message on LCD
M109 R245	; wait for extruder to reach initial printing temp
M190 S112 ; wait for bed to reach printing temp
G1 Z2 E0 F75				; prime tiny bit of filment into the nozzle
M117 Mini 2 Printing...		; progress indicator message on LCD

G92 E0
G1 F600 E-1
;LAYER_COUNT:27
;LAYER:0
M107
G0 F2625 X18.396 Y67.604 Z0.425
;TYPE:SKIRT
G1 F600 E0
G1 F900 X19.032 Y67.48 E0.02158
G1 X19.72 Y67.434 E0.04455
G1 X142.028 Y67.395 E4.11868
G1 X142.675 Y67.435 E4.14027
G1 X143.334 Y67.56 E4.16261
G1 X143.724 Y67.66 E4.17602
G1 X144.34 Y67.859 E4.19759
G1 X144.927 Y68.132 E4.21915
G1 X145.476 Y68.476 E4.24073
G1 X145.941 Y68.851 E4.26063
G1 X146.38 Y69.248 E4.28035
G1 X146.833 Y69.711 E4.30192
G1 X147.225 Y70.227 E4.32351
G1 X147.551 Y70.787 E4.34509
G1 X147.87 Y71.575 E4.37341
G1 X147.996 Y71.978 E4.38748
G1 X148.151 Y72.607 E4.40906
G1 X148.235 Y73.544 E4.44039
G1 X148.238 Y85.166 E4.82753
G1 X148.371 Y92.67 E5.07753
G1 X148.372 Y92.771 E5.08089
G1 X148.355 Y104.224 E5.46239
G1 X148.314 Y104.87 E5.48396
G1 X148.194 Y105.507 E5.50555
G1 X148.026 Y106.045 E5.52432
G1 X147.874 Y106.454 E5.53886
G1 X147.611 Y107.046 E5.56043
G1 X147.278 Y107.601 E5.58199
G1 X146.878 Y108.111 E5.60358
G1 X146.419 Y108.568 E5.62516
G1 X146.081 Y108.842 E5.63965
G1 X145.531 Y109.25 E5.66246
G1 X144.988 Y109.603 E5.68404
G1 X144.405 Y109.886 E5.70563
G1 X143.792 Y110.096 E5.72721
G1 X143.158 Y110.228 E5.74878
G1 X142.404 Y110.283 E5.77396
G1 X19.907 Y110.298 E9.85438
G1 X19.26 Y110.258 E9.87598
G1 X18.623 Y110.139 E9.89756
G1 X18.006 Y109.942 E9.91914
G1 X17.429 Y109.677 E9.94029
G1 X16.986 Y109.44 E9.95702
G1 X16.435 Y109.1 E9.97859
G1 X15.93 Y108.694 E10.00017
G1 X15.479 Y108.23 E10.02173
G1 X15.128 Y107.773 E10.04092
G1 X14.867 Y107.391 E10.05633
G1 X14.535 Y106.834 E10.07793
G1 X14.275 Y106.241 E10.0995
G1 X14.089 Y105.621 E10.12106
G1 X13.964 Y104.789 E10.14909
G1 X13.89 Y103.713 E10.18502
G1 X13.878 Y103.349 E10.19715
G1 X13.887 Y92.549 E10.5569
G1 X13.754 Y85.047 E10.80683
G1 X13.753 Y84.946 E10.8102
G1 X13.77 Y73.493 E11.1917
G1 X13.811 Y72.847 E11.21326
G1 X13.931 Y72.21 E11.23485
G1 X14.12 Y71.616 E11.25562
G1 X14.285 Y71.187 E11.27093
G1 X14.554 Y70.598 E11.2925
G1 X14.894 Y70.047 E11.31407
G1 X15.299 Y69.541 E11.33565
G1 X15.764 Y69.09 E11.35723
G1 X16.11 Y68.817 E11.37191
G1 X16.647 Y68.429 E11.39398
G1 X17.195 Y68.082 E11.41559
G1 X17.781 Y67.806 E11.43716
G1 X18.396 Y67.604 E11.45873
G1 F600 E10.45873
;MESH:
G0 F2625 X27.334 Y73.398
G0 X28.764 Y73.398
G0 X136 Y81.925
G0 X136.834 Y81.797
G0 X137.594 Y81.423
G0 X138.207 Y80.841
G0 X138.439 Y80.422
G0 X141.747 Y73.89
;TYPE:WALL-INNER
G1 F600 E11.45873
G1 F900 X141.747 Y85.381 E11.8415
G1 X20.253 Y85.381 E15.8885
G1 X20.253 Y73.886 E16.27141
G1 X22.5 Y73.884 E16.34626
G1 X22.75 Y73.884 E16.35458
G1 X22.75 Y74.134 E16.35997
G1 X22.753 Y79.297 E16.53195
G1 X22.786 Y79.625 E16.54293
G1 X22.852 Y79.948 E16.55392
G1 X22.95 Y80.261 E16.56484
G1 X23.079 Y80.564 E16.57581
G1 X23.24 Y80.854 E16.58686
G1 X23.428 Y81.123 E16.59779
G1 X23.644 Y81.376 E16.60887
G1 X23.884 Y81.601 E16.61983
G1 X24.141 Y81.801 E16.63068
G1 X24.419 Y81.975 E16.6416
G1 X24.716 Y82.122 E16.65264
G1 X25.027 Y82.237 E16.66369
G1 X25.347 Y82.32 E16.6747
G1 X25.672 Y82.368 E16.68564
G1 X26 Y82.386 E16.69658
G1 X26.328 Y82.368 E16.70753
G1 X26.653 Y82.32 E16.71847
G1 X26.973 Y82.237 E16.72948
G1 X27.284 Y82.122 E16.74053
G1 X27.581 Y81.975 E16.75157
G1 X27.859 Y81.801 E16.76249
G1 X28.116 Y81.601 E16.77334
G1 X28.356 Y81.376 E16.7843
G1 X28.572 Y81.123 E16.79538
G1 X28.76 Y80.854 E16.80631
G1 X28.919 Y80.566 E16.81727
G1 X29.051 Y80.261 E16.82834
G1 X29.148 Y79.945 E16.83935
G1 X29.214 Y79.626 E16.8502
G1 X29.247 Y79.297 E16.86121
G1 X29.25 Y73.884 E17.04152
G1 X132.75 Y73.884 E20.48914
G1 X132.753 Y79.297 E20.66945
G1 X132.786 Y79.626 E20.68047
G1 X132.852 Y79.945 E20.69132
G1 X132.949 Y80.261 E20.70233
G1 X133.081 Y80.566 E20.7134
G1 X133.24 Y80.854 E20.72436
G1 X133.428 Y81.123 E20.73529
G1 X133.644 Y81.376 E20.74637
G1 X133.884 Y81.601 E20.75733
G1 X134.141 Y81.801 E20.76818
G1 X134.419 Y81.975 E20.7791
G1 X134.716 Y82.122 E20.79014
G1 X135.027 Y82.237 E20.80119
G1 X135.347 Y82.32 E20.8122
G1 X135.672 Y82.368 E20.82314
G1 X136 Y82.386 E20.83408
G1 X136.328 Y82.368 E20.84503
G1 X136.653 Y82.32 E20.85597
G1 X136.973 Y82.237 E20.86698
G1 X137.284 Y82.122 E20.87803
G1 X137.581 Y81.975 E20.88906
G1 X137.859 Y81.801 E20.89999
G1 X138.116 Y81.601 E20.91084
G1 X138.356 Y81.376 E20.92179
G1 X138.572 Y81.123 E20.93288
G1 X138.76 Y80.854 E20.94381
G1 X138.921 Y80.564 E20.95486
G1 X139.05 Y80.261 E20.96583
G1 X139.148 Y79.948 E20.97675
G1 X139.214 Y79.625 E20.98773
G1 X139.247 Y79.297 E20.99871
G1 X139.25 Y74.135 E21.17066
G1 X139.25 Y73.885 E21.17899
G1 X139.5 Y73.885 E21.18438
G1 X141.747 Y73.89 E21.25923
G0 F2625 X142.239 Y73.566
G1 F900 X142.247 Y73.623 E21.26114
G1 X142.247 Y85.663 E21.6622
G1 X142.225 Y85.737 E21.66477
G1 X142.189 Y85.794 E21.66702
G1 X142.13 Y85.844 E21.66959
G1 X142.074 Y85.87 E21.67165
G1 X142.013 Y85.881 E21.67372
G1 X19.983 Y85.881 E25.73858
G1 X19.911 Y85.866 E25.74103
G1 X19.855 Y85.835 E25.74316
G1 X19.797 Y85.776 E25.74592
G1 X19.765 Y85.716 E25.74818
G1 X19.753 Y85.644 E25.75061
G1 X19.753 Y73.607 E26.15157
G1 X19.776 Y73.528 E26.15431
G1 X19.811 Y73.473 E26.15648
G1 X19.87 Y73.423 E26.15906
G1 X19.926 Y73.397 E26.16111
G1 X19.987 Y73.386 E26.16318
G1 X23 Y73.384 E26.26354
G1 X23.25 Y73.384 E26.27187
G1 X23.25 Y73.634 E26.27726
G1 X23.253 Y79.272 E26.46506
G1 X23.281 Y79.55 E26.47437
G1 X23.337 Y79.823 E26.48365
G1 X23.42 Y80.088 E26.4929
G1 X23.529 Y80.344 E26.50217
G1 X23.665 Y80.589 E26.51151
G1 X23.824 Y80.817 E26.52076
G1 X24.006 Y81.03 E26.5301
G1 X24.209 Y81.221 E26.53938
G1 X24.428 Y81.391 E26.54862
G1 X24.663 Y81.538 E26.55785
G1 X24.914 Y81.662 E26.56718
G1 X25.177 Y81.759 E26.57651
G1 X25.447 Y81.829 E26.5858
G1 X25.722 Y81.87 E26.59507
G1 X26 Y81.885 E26.60434
G1 X26.278 Y81.87 E26.61361
G1 X26.553 Y81.829 E26.62287
G1 X26.823 Y81.759 E26.63217
G1 X27.086 Y81.662 E26.6415
G1 X27.337 Y81.538 E26.65083
G1 X27.572 Y81.391 E26.66006
G1 X27.791 Y81.221 E26.6693
G1 X27.994 Y81.03 E26.67858
G1 X28.176 Y80.817 E26.68791
G1 X28.335 Y80.589 E26.69717
G1 X28.47 Y80.345 E26.70646
G1 X28.581 Y80.088 E26.71579
G1 X28.663 Y79.821 E26.72509
G1 X28.719 Y79.55 E26.73431
G1 X28.747 Y79.272 E26.74362
G1 X28.75 Y73.384 E26.93975
G1 X133.25 Y73.384 E30.42068
G1 X133.253 Y79.272 E30.61681
G1 X133.281 Y79.55 E30.62612
G1 X133.337 Y79.821 E30.63534
G1 X133.419 Y80.088 E30.64464
G1 X133.53 Y80.345 E30.65397
G1 X133.665 Y80.589 E30.66325
G1 X133.824 Y80.817 E30.67251
G1 X134.006 Y81.03 E30.68185
G1 X134.209 Y81.221 E30.69113
G1 X134.428 Y81.391 E30.70037
G1 X134.663 Y81.538 E30.7096
G1 X134.914 Y81.662 E30.71892
G1 X135.177 Y81.759 E30.72826
G1 X135.447 Y81.829 E30.73755
G1 X135.722 Y81.87 E30.74681
G1 X136 Y81.885 E30.75609
G1 X136.278 Y81.87 E30.76536
G1 X136.553 Y81.829 E30.77462
G1 X136.823 Y81.759 E30.78391
G1 X137.086 Y81.662 E30.79325
G1 X137.337 Y81.538 E30.80258
G1 X137.572 Y81.391 E30.81181
G1 X137.791 Y81.221 E30.82105
G1 X137.994 Y81.03 E30.83033
G1 X138.176 Y80.817 E30.83966
G1 X138.335 Y80.589 E30.84892
G1 X138.471 Y80.344 E30.85826
G1 X138.58 Y80.088 E30.86752
G1 X138.663 Y79.823 E30.87677
G1 X138.719 Y79.55 E30.88606
G1 X138.747 Y79.272 E30.89536
G1 X138.75 Y73.634 E31.08317
G1 X138.75 Y73.384 E31.0915
G1 X139 Y73.384 E31.09688
G1 X142.052 Y73.391 E31.19855
G1 X142.124 Y73.418 E31.20111
G1 X142.176 Y73.459 E31.20331
G1 X142.215 Y73.509 E31.20543
G1 X142.239 Y73.566 E31.20749
G0 F2625 X142.73 Y73.468
;TYPE:WALL-OUTER
G1 F900 X142.747 Y73.585 E31.21143
G1 X142.75 Y85.636 E31.61285
G1 X142.743 Y85.737 E31.61622
G1 X142.718 Y85.844 E31.61988
G1 X142.681 Y85.947 E31.62353
G1 X142.626 Y86.045 E31.62727
G1 X142.57 Y86.121 E31.63041
G1 X142.491 Y86.198 E31.63409
G1 X142.401 Y86.266 E31.63785
G1 X142.308 Y86.316 E31.64136
G1 X142.212 Y86.353 E31.64479
G1 X142.059 Y86.381 E31.64997
G1 X19.944 Y86.381 E35.71767
G1 X19.843 Y86.366 E35.72107
G1 X19.736 Y86.335 E35.72478
G1 X19.636 Y86.289 E35.72845
G1 X19.552 Y86.235 E35.73177
G1 X19.47 Y86.163 E35.73541
G1 X19.396 Y86.077 E35.73919
G1 X19.343 Y85.995 E35.74244
G1 X19.295 Y85.89 E35.74628
G1 X19.27 Y85.799 E35.74943
G1 X19.253 Y85.682 E35.75337
G1 X19.25 Y73.632 E36.15476
G1 X19.257 Y73.531 E36.15813
G1 X19.283 Y73.421 E36.16189
G1 X19.319 Y73.32 E36.16547
G1 X19.374 Y73.222 E36.16921
G1 X19.43 Y73.146 E36.17235
G1 X19.509 Y73.069 E36.17603
G1 X19.599 Y73.001 E36.17979
G1 X19.692 Y72.951 E36.1833
G1 X19.788 Y72.914 E36.18673
G1 X19.941 Y72.886 E36.19191
G1 X23.5 Y72.884 E36.31046
G1 X23.75 Y72.884 E36.31879
G1 X23.75 Y73.134 E36.32418
G1 X23.753 Y79.247 E36.5278
G1 X23.776 Y79.474 E36.5354
G1 X23.822 Y79.698 E36.54302
G1 X23.89 Y79.915 E36.5506
G1 X23.979 Y80.124 E36.55816
G1 X24.09 Y80.324 E36.56578
G1 X24.22 Y80.511 E36.57337
G1 X24.369 Y80.685 E36.581
G1 X24.534 Y80.841 E36.58856
G1 X24.714 Y80.98 E36.59614
G1 X24.907 Y81.101 E36.60373
G1 X25.112 Y81.202 E36.61134
G1 X25.326 Y81.281 E36.61894
G1 X25.547 Y81.338 E36.62654
G1 X25.773 Y81.372 E36.63415
G1 X26 Y81.384 E36.64173
G1 X26.227 Y81.372 E36.6493
G1 X26.453 Y81.338 E36.65691
G1 X26.674 Y81.281 E36.66451
G1 X26.888 Y81.202 E36.67211
G1 X27.093 Y81.101 E36.67972
G1 X27.286 Y80.98 E36.68731
G1 X27.466 Y80.841 E36.69489
G1 X27.631 Y80.685 E36.70245
G1 X27.78 Y80.511 E36.71008
G1 X27.91 Y80.324 E36.71767
G1 X28.021 Y80.124 E36.72529
G1 X28.111 Y79.915 E36.73287
G1 X28.178 Y79.697 E36.74046
G1 X28.224 Y79.474 E36.74805
G1 X28.247 Y79.247 E36.75565
G1 X28.25 Y72.884 E36.9676
G1 X133.75 Y72.884 E40.48185
G1 X133.753 Y79.247 E40.6938
G1 X133.776 Y79.474 E40.7014
G1 X133.822 Y79.697 E40.70898
G1 X133.889 Y79.915 E40.71658
G1 X133.979 Y80.124 E40.72416
G1 X134.09 Y80.324 E40.73178
G1 X134.22 Y80.511 E40.73937
G1 X134.369 Y80.685 E40.747
G1 X134.534 Y80.841 E40.75456
G1 X134.714 Y80.98 E40.76214
G1 X134.907 Y81.101 E40.76972
G1 X135.112 Y81.202 E40.77734
G1 X135.326 Y81.281 E40.78494
G1 X135.547 Y81.338 E40.79254
G1 X135.773 Y81.372 E40.80015
G1 X136 Y81.384 E40.80772
G1 X136.227 Y81.372 E40.8153
G1 X136.453 Y81.338 E40.82291
G1 X136.674 Y81.281 E40.83051
G1 X136.888 Y81.202 E40.83811
G1 X137.093 Y81.101 E40.84572
G1 X137.286 Y80.98 E40.85331
G1 X137.466 Y80.841 E40.86088
G1 X137.631 Y80.685 E40.86845
G1 X137.78 Y80.511 E40.87608
G1 X137.91 Y80.324 E40.88367
G1 X138.021 Y80.124 E40.89129
G1 X138.11 Y79.915 E40.89885
G1 X138.178 Y79.698 E40.90643
G1 X138.224 Y79.474 E40.91404
G1 X138.247 Y79.247 E40.92164
G1 X138.25 Y73.134 E41.12527
G1 X138.25 Y72.884 E41.1336
G1 X138.5 Y72.884 E41.13899
G1 X142.056 Y72.886 E41.25744
G1 X142.161 Y72.902 E41.26098
G1 X142.259 Y72.931 E41.26438
G1 X142.365 Y72.979 E41.26826
G1 X142.448 Y73.032 E41.27154
G1 X142.53 Y73.104 E41.27517
G1 X142.604 Y73.19 E41.27895
G1 X142.657 Y73.272 E41.2822
G1 X142.705 Y73.377 E41.28605
G1 X142.73 Y73.468 E41.28919
G0 F2625 X142.747 Y73.585
G0 X142.747 Y73.717
G0 X142.147 Y73.717
G0 X141.257 Y74.38
;TYPE:SKIN
G1 F900 X141.257 Y84.891 E41.63932
G1 X20.743 Y84.891 E45.65368
G1 X20.743 Y74.376 E46.00394
G1 X22.26 Y74.374 E46.05447
G1 X22.263 Y79.322 E46.21929
G1 X22.301 Y79.699 E46.23191
G1 X22.377 Y80.071 E46.24456
G1 X22.489 Y80.431 E46.25712
G1 X22.638 Y80.78 E46.26976
G1 X22.824 Y81.114 E46.28249
G1 X23.04 Y81.423 E46.29505
G1 X23.289 Y81.715 E46.30784
G1 X23.565 Y81.974 E46.32044
G1 X23.86 Y82.203 E46.33288
G1 X24.18 Y82.404 E46.34547
G1 X24.522 Y82.573 E46.35818
G1 X24.88 Y82.705 E46.37089
G1 X25.249 Y82.801 E46.38359
G1 X25.623 Y82.856 E46.39618
G1 X26 Y82.876 E46.40876
G1 X26.377 Y82.856 E46.42133
G1 X26.751 Y82.801 E46.43392
G1 X27.12 Y82.705 E46.44663
G1 X27.478 Y82.573 E46.45934
G1 X27.82 Y82.404 E46.47204
G1 X28.14 Y82.203 E46.48463
G1 X28.435 Y81.974 E46.49707
G1 X28.711 Y81.715 E46.50968
G1 X28.96 Y81.423 E46.52246
G1 X29.176 Y81.113 E46.53505
G1 X29.36 Y80.782 E46.54766
G1 X29.512 Y80.431 E46.5604
G1 X29.623 Y80.066 E46.57311
G1 X29.699 Y79.701 E46.58553
G1 X29.737 Y79.322 E46.59822
G1 X29.74 Y74.374 E46.76304
G1 X132.26 Y74.374 E50.17801
G1 X132.263 Y79.322 E50.34283
G1 X132.301 Y79.701 E50.35552
G1 X132.377 Y80.066 E50.36794
G1 X132.488 Y80.431 E50.38065
G1 X132.64 Y80.782 E50.39339
G1 X132.824 Y81.113 E50.40601
G1 X133.04 Y81.423 E50.41859
G1 X133.289 Y81.715 E50.43137
G1 X133.565 Y81.974 E50.44398
G1 X133.86 Y82.203 E50.45642
G1 X134.18 Y82.404 E50.46901
G1 X134.522 Y82.573 E50.48172
G1 X134.88 Y82.705 E50.49443
G1 X135.249 Y82.801 E50.50713
G1 X135.623 Y82.856 E50.51972
G1 X136 Y82.876 E50.53229
G1 X136.377 Y82.856 E50.54487
G1 X136.751 Y82.801 E50.55746
G1 X137.12 Y82.705 E50.57016
G1 X137.478 Y82.573 E50.58287
G1 X137.82 Y82.404 E50.59558
G1 X138.14 Y82.203 E50.60817
G1 X138.435 Y81.974 E50.62061
G1 X138.711 Y81.715 E50.63322
G1 X138.96 Y81.423 E50.646
G1 X139.176 Y81.114 E50.65856
G1 X139.362 Y80.78 E50.67129
G1 X139.511 Y80.431 E50.68393
G1 X139.623 Y80.071 E50.69649
G1 X139.699 Y79.699 E50.70914
G1 X139.737 Y79.322 E50.72176
G1 X139.74 Y74.376 E50.88651
G1 X141.257 Y74.38 E50.93704
