; generated by Slic3r 1.0.0RC3 on 2014-04-07 at 09:13:03

; layer_height = .35
; perimeters = 2
; top_solid_layers = 2
; bottom_solid_layers = 2
; fill_density = 0.78
; perimeter_speed = 95
; infill_speed = 115
; travel_speed = 160
; nozzle_diameter = .5
; filament_diameter = 2.89
; extrusion_multiplier = 1
; perimeters extrusion width = 0.43mm
; infill extrusion width = 0.49mm
; solid infill extrusion width = 0.43mm
; top infill extrusion width = 0.42mm
; first layer extrusion width = 0.50mm

G21 ; set units to millimeters
M107
G28 ; home all axes
G90 ; use absolute coordinates
G92 E0
M82 ; use absolute distances for extrusion
G1 F1500.000 E-1.20000
G92 E0
G1 Z0.385 F9600.000
G1 X94.590 Y88.010 F9600.000
G1 E1.20000 F1500.000
G1 X95.640 Y87.160 E1.23964 F3705.000
G1 X96.850 Y86.520 E1.27981
G1 X98.150 Y86.130 E1.31964
G1 X99.500 Y86.000 E1.35944
G1 X199.500 Y86.000 E4.29402
G1 X200.870 Y86.130 E4.33440
G1 X202.180 Y86.530 E4.37460
G1 X203.390 Y87.180 E4.41490
G1 X204.450 Y88.050 E4.45515
G1 X205.320 Y89.110 E4.49539
G1 X205.970 Y90.320 E4.53570
G1 X206.370 Y91.630 E4.57589
G1 X206.500 Y93.000 E4.61628
G1 X206.500 Y153.220 E6.38348
G1 X205.500 Y185.220 E7.32300
G1 X205.330 Y186.550 E7.36235
G1 X204.900 Y187.830 E7.40197
G1 X204.240 Y189.000 E7.44139
G1 X203.370 Y190.030 E7.48096
G1 X202.320 Y190.870 E7.52042
G1 X201.130 Y191.490 E7.55979
G1 X199.840 Y191.870 E7.59926
G1 X198.500 Y192.000 E7.63877
G1 X98.500 Y192.000 E10.57334
G1 X97.130 Y191.870 E10.61373
G1 X95.820 Y191.470 E10.65392
G1 X94.610 Y190.820 E10.69423
G1 X93.550 Y189.950 E10.73447
G1 X92.680 Y188.890 E10.77471
G1 X92.030 Y187.680 E10.81502
G1 X91.630 Y186.370 E10.85522
G1 X91.500 Y185.000 E10.89560
G1 X91.500 Y157.890 E11.69116
G1 X92.500 Y92.890 E13.59886
G1 X92.650 Y91.540 E13.63872
G1 X93.060 Y90.250 E13.67844
G1 X93.720 Y89.060 E13.71838
G1 X94.542 Y88.068 E13.75619
G1 X94.940 Y88.370 F9600.000
G1 X95.920 Y87.570 E13.79332 F3705.000
G1 X97.040 Y86.990 E13.83033
G1 X98.240 Y86.620 E13.86718
G1 X99.500 Y86.500 E13.90432
G1 X199.500 Y86.500 E16.83890
G1 X200.770 Y86.620 E16.87633
G1 X201.990 Y86.990 E16.91375
G1 X203.110 Y87.600 E16.95117
G1 X204.100 Y88.400 E16.98852
G1 X204.900 Y89.390 E17.02588
G1 X205.510 Y90.510 E17.06330
G1 X205.880 Y91.730 E17.10071
G1 X206.000 Y93.000 E17.13815
G1 X206.000 Y153.200 E18.90476
G1 X205.000 Y185.200 E19.84428
G1 X204.840 Y186.440 E19.88098
G1 X204.450 Y187.630 E19.91772
G1 X203.830 Y188.720 E19.95452
G1 X203.020 Y189.670 E19.99116
G1 X202.050 Y190.450 E20.02769
G1 X200.940 Y191.020 E20.06430
G1 X199.740 Y191.380 E20.10107
G1 X198.500 Y191.500 E20.13763
G1 X98.500 Y191.500 E23.07220
G1 X97.230 Y191.380 E23.10964
G1 X96.010 Y191.010 E23.14705
G1 X94.890 Y190.400 E23.18448
G1 X93.900 Y189.600 E23.22183
G1 X93.100 Y188.610 E23.25918
G1 X92.490 Y187.490 E23.29661
G1 X92.120 Y186.270 E23.33402
G1 X92.000 Y185.000 E23.37145
G1 X92.000 Y157.900 E24.16672
G1 X93.000 Y92.900 E26.07442
G1 X93.140 Y91.650 E26.11133
G1 X93.520 Y90.440 E26.14855
G1 X94.130 Y89.340 E26.18546
G1 X94.892 Y88.428 E26.22035
G1 F1500.000 E25.02035
G92 E0
G1 X102.736 Y160.262 F9600.000
G1 E1.20000 F1500.000
M204 S1500
G1 X103.000 Y160.250 E1.20774 F780.000
G1 X103.268 Y160.263 E1.21562
G1 X103.534 Y160.302 E1.22350
G1 X103.794 Y160.367 E1.23138
G1 X104.047 Y160.457 E1.23927
G1 X104.290 Y160.571 E1.24715
G1 X104.521 Y160.709 E1.25503
G1 X104.737 Y160.868 E1.26291
G1 X104.937 Y161.048 E1.27079
G1 X105.132 Y161.263 E1.27930
G1 X105.291 Y161.479 E1.28718
G1 X105.429 Y161.710 E1.29506
G1 X105.543 Y161.953 E1.30294
G1 X105.633 Y162.206 E1.31083
G1 X105.698 Y162.466 E1.31871
G1 X105.737 Y162.732 E1.32659
G1 X105.750 Y163.000 E1.33446
G1 X105.738 Y163.264 E1.34221
G1 X105.700 Y163.525 E1.34996
G1 X105.637 Y163.781 E1.35770
G1 X105.550 Y164.030 E1.36545
G1 X105.439 Y164.270 E1.37319
G1 X105.306 Y164.498 E1.38094
G1 X105.152 Y164.712 E1.38869
G1 X104.978 Y164.911 E1.39643
G1 X104.786 Y165.092 E1.40418
G1 X104.577 Y165.253 E1.41192
G1 X104.354 Y165.394 E1.41967
G1 X104.118 Y165.513 E1.42741
G1 X103.872 Y165.608 E1.43516
G1 X103.618 Y165.680 E1.44291
G1 X103.358 Y165.727 E1.45065
G1 X103.095 Y165.748 E1.45840
G1 X102.831 Y165.745 E1.46614
G1 X102.569 Y165.716 E1.47389
G1 X102.310 Y165.662 E1.48163
G1 X102.058 Y165.584 E1.48938
G1 X101.815 Y165.482 E1.49713
G1 X101.582 Y165.357 E1.50487
G1 X101.346 Y165.197 E1.51324
G1 X101.143 Y165.029 E1.52098
G1 X100.957 Y164.841 E1.52873
G1 X100.790 Y164.637 E1.53647
G1 X100.643 Y164.417 E1.54422
G1 X100.518 Y164.185 E1.55196
G1 X100.416 Y163.942 E1.55971
G1 X100.338 Y163.690 E1.56746
G1 X100.269 Y163.321 E1.57846
G1 X100.250 Y163.037 E1.58682
G1 X100.259 Y162.773 E1.59456
G1 X100.294 Y162.512 E1.60230
G1 X100.353 Y162.254 E1.61005
G1 X100.437 Y162.004 E1.61779
G1 X100.544 Y161.763 E1.62554
G1 X100.674 Y161.533 E1.63329
G1 X100.825 Y161.317 E1.64103
G1 X100.997 Y161.116 E1.64878
G1 X101.186 Y160.933 E1.65653
G1 X101.393 Y160.768 E1.66427
G1 X101.614 Y160.624 E1.67202
G1 X101.849 Y160.502 E1.67977
G1 X102.093 Y160.404 E1.68751
G1 X102.346 Y160.329 E1.69526
G1 X102.662 Y160.271 E1.70467
M204 S1500
G1 X102.677 Y160.773 F9600.000
M204 S1500
G1 X103.110 Y160.753 E1.71740 F780.000
G1 X103.545 Y160.817 E1.73031
G1 X103.960 Y160.965 E1.74322
G1 X104.337 Y161.191 E1.75613
G1 X104.670 Y161.492 E1.76931
G1 X104.932 Y161.846 E1.78222
G1 X105.119 Y162.244 E1.79513
G1 X105.226 Y162.671 E1.80804
G1 X105.247 Y163.108 E1.82089
G1 X105.185 Y163.535 E1.83356
G1 X105.043 Y163.943 E1.84623
G1 X104.825 Y164.316 E1.85890
G1 X104.540 Y164.640 E1.87157
G1 X104.199 Y164.904 E1.88424
G1 X103.813 Y165.098 E1.89691
G1 X103.397 Y165.215 E1.90958
G1 X102.967 Y165.250 E1.92225
G1 X102.538 Y165.202 E1.93492
G1 X102.126 Y165.073 E1.94759
G1 X101.738 Y164.863 E1.96053
G1 X101.406 Y164.588 E1.97320
G1 X101.132 Y164.254 E1.98586
G1 X100.927 Y163.874 E1.99853
G1 X100.852 Y163.671 E2.00488
G1 X100.780 Y163.365 E2.01412
G1 X100.751 Y162.925 E2.02706
G1 X100.807 Y162.497 E2.03972
G1 X100.943 Y162.087 E2.05239
G1 X101.156 Y161.711 E2.06506
G1 X101.436 Y161.383 E2.07773
G1 X101.773 Y161.114 E2.09040
G1 X102.156 Y160.914 E2.10307
G1 X102.603 Y160.786 E2.11671
M204 S1500
G1 X102.847 Y160.374 F9600.000
G1 F1500.000 E0.91671
G92 E0
G1 X125.259 Y162.773 F9600.000
G1 E1.20000 F1500.000
M204 S1500
G1 X125.294 Y162.511 E1.20774 F780.000
G1 X125.353 Y162.254 E1.21549
G1 X125.437 Y162.004 E1.22324
G1 X125.544 Y161.763 E1.23098
G1 X125.674 Y161.533 E1.23873
G1 X125.825 Y161.317 E1.24647
G1 X125.997 Y161.116 E1.25422
G1 X126.186 Y160.933 E1.26197
G1 X126.393 Y160.768 E1.26971
G1 X126.614 Y160.624 E1.27746
G1 X126.849 Y160.502 E1.28521
G1 X127.093 Y160.404 E1.29296
G1 X127.346 Y160.329 E1.30070
G1 X127.605 Y160.278 E1.30844
G1 X127.868 Y160.253 E1.31619
G1 X128.134 Y160.253 E1.32399
G1 X128.401 Y160.279 E1.33187
G1 X128.665 Y160.331 E1.33975
G1 X128.922 Y160.409 E1.34763
G1 X129.170 Y160.511 E1.35552
G1 X129.407 Y160.637 E1.36340
G1 X129.631 Y160.786 E1.37128
G1 X129.839 Y160.956 E1.37916
G1 X130.044 Y161.161 E1.38768
G1 X130.214 Y161.369 E1.39556
G1 X130.363 Y161.593 E1.40344
G1 X130.489 Y161.830 E1.41132
G1 X130.591 Y162.078 E1.41920
G1 X130.669 Y162.335 E1.42708
G1 X130.721 Y162.599 E1.43496
G1 X130.747 Y162.866 E1.44284
G1 X130.747 Y163.132 E1.45065
G1 X130.722 Y163.395 E1.45840
G1 X130.671 Y163.654 E1.46614
G1 X130.596 Y163.907 E1.47388
G1 X130.497 Y164.152 E1.48164
G1 X130.376 Y164.386 E1.48938
G1 X130.232 Y164.607 E1.49713
G1 X130.067 Y164.814 E1.50487
G1 X129.868 Y165.018 E1.51324
G1 X129.577 Y165.253 E1.52423
G1 X129.354 Y165.394 E1.53198
G1 X129.118 Y165.513 E1.53973
G1 X128.872 Y165.608 E1.54747
G1 X128.618 Y165.680 E1.55521
G1 X128.358 Y165.727 E1.56296
G1 X128.095 Y165.748 E1.57070
G1 X127.831 Y165.745 E1.57846
G1 X127.569 Y165.716 E1.58620
G1 X127.310 Y165.662 E1.59394
G1 X127.058 Y165.584 E1.60169
G1 X126.815 Y165.482 E1.60944
G1 X126.583 Y165.357 E1.61718
G1 X126.363 Y165.210 E1.62493
G1 X126.159 Y165.043 E1.63267
G1 X125.957 Y164.841 E1.64103
G1 X125.790 Y164.637 E1.64878
G1 X125.643 Y164.417 E1.65653
G1 X125.518 Y164.185 E1.66428
G1 X125.416 Y163.942 E1.67202
G1 X125.338 Y163.690 E1.67976
G1 X125.284 Y163.431 E1.68751
G1 X125.255 Y163.169 E1.69526
G1 X125.255 Y162.848 E1.70467
M204 S1500
G1 X125.751 Y162.925 F9600.000
M204 S1500
G1 X125.807 Y162.497 E1.71735 F780.000
G1 X125.943 Y162.087 E1.73001
G1 X126.156 Y161.711 E1.74268
G1 X126.436 Y161.383 E1.75535
G1 X126.773 Y161.114 E1.76802
G1 X127.156 Y160.914 E1.78069
G1 X127.570 Y160.791 E1.79336
G1 X128.000 Y160.750 E1.80603
G1 X128.438 Y160.793 E1.81894
G1 X128.859 Y160.920 E1.83185
G1 X129.247 Y161.127 E1.84476
G1 X129.588 Y161.406 E1.85767
G1 X129.873 Y161.753 E1.87085
G1 X130.080 Y162.141 E1.88376
G1 X130.207 Y162.562 E1.89668
G1 X130.250 Y163.000 E1.90958
G1 X130.209 Y163.430 E1.92225
G1 X130.086 Y163.844 E1.93492
G1 X129.886 Y164.227 E1.94759
G1 X129.611 Y164.571 E1.96053
G1 X129.376 Y164.780 E1.96977
G1 X129.199 Y164.904 E1.97611
G1 X128.813 Y165.098 E1.98878
G1 X128.397 Y165.215 E2.00145
G1 X127.967 Y165.250 E2.01412
G1 X127.538 Y165.202 E2.02679
G1 X127.126 Y165.073 E2.03946
G1 X126.746 Y164.868 E2.05213
G1 X126.406 Y164.588 E2.06507
G1 X126.132 Y164.254 E2.07773
G1 X125.927 Y163.874 E2.09040
G1 X125.798 Y163.462 E2.10307
G1 X125.750 Y163.000 E2.11671
M204 S1500
G1 X125.390 Y162.688 F9600.000
G1 F1500.000 E0.91671
G92 E0
G1 X166.250 Y163.037 F9600.000
G1 E1.20000 F1500.000
M204 S1500
G1 X166.259 Y162.773 E1.20775 F780.000
G1 X166.294 Y162.512 E1.21549
G1 X166.353 Y162.254 E1.22323
G1 X166.437 Y162.004 E1.23098
G1 X166.544 Y161.763 E1.23872
G1 X166.674 Y161.533 E1.24647
G1 X166.825 Y161.317 E1.25422
G1 X166.997 Y161.116 E1.26196
G1 X167.186 Y160.933 E1.26971
G1 X167.393 Y160.768 E1.27746
G1 X167.614 Y160.624 E1.28520
G1 X167.848 Y160.503 E1.29295
G1 X168.093 Y160.404 E1.30070
G1 X168.346 Y160.329 E1.30844
G1 X168.605 Y160.278 E1.31619
G1 X168.868 Y160.253 E1.32393
G1 X169.134 Y160.253 E1.33174
G1 X169.401 Y160.279 E1.33961
G1 X169.665 Y160.331 E1.34750
G1 X169.922 Y160.409 E1.35538
G1 X170.170 Y160.511 E1.36327
G1 X170.407 Y160.637 E1.37114
G1 X170.631 Y160.786 E1.37902
G1 X170.839 Y160.956 E1.38691
G1 X171.044 Y161.161 E1.39542
G1 X171.214 Y161.369 E1.40330
G1 X171.363 Y161.593 E1.41118
G1 X171.489 Y161.830 E1.41906
G1 X171.591 Y162.078 E1.42694
G1 X171.669 Y162.335 E1.43482
G1 X171.721 Y162.599 E1.44270
G1 X171.747 Y162.866 E1.45059
G1 X171.747 Y163.132 E1.45840
G1 X171.722 Y163.395 E1.46614
G1 X171.671 Y163.654 E1.47389
G1 X171.596 Y163.907 E1.48163
G1 X171.497 Y164.152 E1.48938
G1 X171.376 Y164.386 E1.49712
G1 X171.232 Y164.607 E1.50487
G1 X171.053 Y164.829 E1.51323
G1 X170.786 Y165.092 E1.52423
G1 X170.577 Y165.253 E1.53197
G1 X170.354 Y165.394 E1.53972
G1 X170.118 Y165.513 E1.54747
G1 X169.872 Y165.608 E1.55521
G1 X169.618 Y165.680 E1.56296
G1 X169.358 Y165.727 E1.57071
G1 X169.095 Y165.748 E1.57845
G1 X168.831 Y165.745 E1.58620
G1 X168.569 Y165.716 E1.59394
G1 X168.310 Y165.662 E1.60169
G1 X168.058 Y165.584 E1.60944
G1 X167.815 Y165.482 E1.61718
G1 X167.583 Y165.357 E1.62492
G1 X167.363 Y165.210 E1.63267
G1 X167.143 Y165.029 E1.64103
G1 X166.957 Y164.841 E1.64878
G1 X166.790 Y164.637 E1.65653
G1 X166.643 Y164.417 E1.66427
G1 X166.518 Y164.185 E1.67202
G1 X166.416 Y163.942 E1.67976
G1 X166.338 Y163.690 E1.68751
G1 X166.284 Y163.431 E1.69525
G1 X166.253 Y163.112 E1.70467
M204 S1500
G1 X166.754 Y163.141 F9600.000
M204 S1500
G1 X166.769 Y162.710 E1.71734 F780.000
G1 X166.865 Y162.289 E1.73001
G1 X167.040 Y161.894 E1.74268
G1 X167.288 Y161.540 E1.75535
G1 X167.598 Y161.240 E1.76802
G1 X167.960 Y161.005 E1.78069
G1 X168.360 Y160.843 E1.79336
G1 X168.784 Y160.760 E1.80603
G1 X169.220 Y160.761 E1.81882
G1 X169.651 Y160.846 E1.83173
G1 X170.058 Y161.014 E1.84464
G1 X170.424 Y161.258 E1.85755
G1 X170.742 Y161.576 E1.87073
G1 X170.986 Y161.942 E1.88364
G1 X171.154 Y162.349 E1.89655
G1 X171.239 Y162.780 E1.90946
G1 X171.240 Y163.216 E1.92225
G1 X171.157 Y163.640 E1.93492
G1 X170.995 Y164.040 E1.94759
G1 X170.754 Y164.409 E1.96052
G1 X170.540 Y164.640 E1.96977
G1 X170.376 Y164.780 E1.97611
G1 X170.010 Y165.010 E1.98878
G1 X169.608 Y165.166 E2.00145
G1 X169.183 Y165.243 E2.01412
G1 X168.751 Y165.236 E2.02679
G1 X168.329 Y165.148 E2.03946
G1 X167.931 Y164.980 E2.05213
G1 X167.565 Y164.733 E2.06506
G1 X167.261 Y164.428 E2.07773
G1 X167.020 Y164.069 E2.09040
G1 X166.852 Y163.671 E2.10307
G1 X166.761 Y163.216 E2.11671
M204 S1500
G1 X166.372 Y162.940 F9600.000
G1 F1500.000 E0.91671
G92 E0
G1 X191.250 Y163.037 F9600.000
G1 E1.20000 F1500.000
M204 S1500
G1 X191.259 Y162.773 E1.20775 F780.000
G1 X191.294 Y162.512 E1.21549
G1 X191.353 Y162.254 E1.22323
G1 X191.437 Y162.004 E1.23098
G1 X191.544 Y161.763 E1.23872
G1 X191.674 Y161.533 E1.24647
G1 X191.825 Y161.317 E1.25422
G1 X191.997 Y161.116 E1.26196
G1 X192.186 Y160.933 E1.26971
G1 X192.393 Y160.768 E1.27746
G1 X192.614 Y160.624 E1.28520
G1 X192.848 Y160.503 E1.29295
G1 X193.093 Y160.404 E1.30070
G1 X193.346 Y160.329 E1.30844
G1 X193.605 Y160.278 E1.31619
G1 X193.868 Y160.253 E1.32393
G1 X194.134 Y160.253 E1.33174
G1 X194.401 Y160.279 E1.33962
G1 X194.665 Y160.331 E1.34750
G1 X194.922 Y160.409 E1.35538
G1 X195.170 Y160.511 E1.36327
G1 X195.407 Y160.637 E1.37114
G1 X195.631 Y160.786 E1.37902
G1 X195.839 Y160.956 E1.38691
G1 X196.044 Y161.161 E1.39542
G1 X196.214 Y161.369 E1.40330
G1 X196.363 Y161.593 E1.41118
G1 X196.489 Y161.830 E1.41907
G1 X196.591 Y162.078 E1.42694
G1 X196.669 Y162.335 E1.43483
G1 X196.721 Y162.599 E1.44270
G1 X196.747 Y162.866 E1.45059
G1 X196.747 Y163.132 E1.45840
G1 X196.722 Y163.395 E1.46614
G1 X196.671 Y163.654 E1.47389
G1 X196.596 Y163.907 E1.48163
G1 X196.497 Y164.152 E1.48938
G1 X196.376 Y164.386 E1.49712
G1 X196.232 Y164.607 E1.50487
G1 X196.053 Y164.829 E1.51323
G1 X195.786 Y165.092 E1.52423
G1 X195.577 Y165.253 E1.53197
G1 X195.354 Y165.394 E1.53972
G1 X195.118 Y165.513 E1.54747
G1 X194.872 Y165.608 E1.55521
G1 X194.618 Y165.680 E1.56296
G1 X194.358 Y165.727 E1.57071
G1 X194.095 Y165.748 E1.57845
G1 X193.831 Y165.745 E1.58620
G1 X193.569 Y165.716 E1.59394
G1 X193.310 Y165.662 E1.60169
G1 X193.058 Y165.584 E1.60944
G1 X192.815 Y165.482 E1.61718
G1 X192.583 Y165.357 E1.62492
G1 X192.363 Y165.210 E1.63267
G1 X192.143 Y165.029 E1.64103
G1 X191.957 Y164.841 E1.64878
G1 X191.790 Y164.637 E1.65653
G1 X191.643 Y164.417 E1.66427
G1 X191.518 Y164.185 E1.67202
G1 X191.416 Y163.942 E1.67976
G1 X191.338 Y163.690 E1.68751
G1 X191.284 Y163.431 E1.69525
G1 X191.253 Y163.112 E1.70467
M204 S1500
G1 X191.754 Y163.141 F9600.000
M204 S1500
G1 X191.769 Y162.710 E1.71734 F780.000
G1 X191.865 Y162.289 E1.73001
G1 X192.040 Y161.894 E1.74268
G1 X192.288 Y161.540 E1.75535
G1 X192.598 Y161.240 E1.76802
G1 X192.960 Y161.005 E1.78069
G1 X193.360 Y160.843 E1.79336
G1 X193.784 Y160.760 E1.80603
G1 X194.220 Y160.761 E1.81882
G1 X194.651 Y160.846 E1.83173
G1 X195.058 Y161.014 E1.84464
G1 X195.424 Y161.258 E1.85755
G1 X195.742 Y161.576 E1.87073
G1 X195.986 Y161.942 E1.88364
G1 X196.154 Y162.349 E1.89655
G1 X196.239 Y162.780 E1.90946
G1 X196.240 Y163.216 E1.92225
G1 X196.157 Y163.640 E1.93492
G1 X195.995 Y164.040 E1.94759
G1 X195.754 Y164.409 E1.96052
G1 X195.540 Y164.640 E1.96977
G1 X195.376 Y164.780 E1.97611
G1 X195.010 Y165.010 E1.98878
G1 X194.608 Y165.166 E2.00145
G1 X194.183 Y165.243 E2.01412
G1 X193.751 Y165.236 E2.02679
G1 X193.329 Y165.148 E2.03946
G1 X192.931 Y164.980 E2.05213
G1 X192.565 Y164.733 E2.06506
G1 X192.261 Y164.428 E2.07773
G1 X192.020 Y164.069 E2.09040
G1 X191.852 Y163.671 E2.10307
G1 X191.761 Y163.216 E2.11671
M204 S1500
G1 X191.372 Y162.940 F9600.000
G1 F1500.000 E0.91671
G92 E0
G1 X197.750 Y158.750 F9600.000
G1 E1.20000 F1500.000
M204 S1500
G1 X197.750 Y184.208 E1.94709 F3705.000
G1 X197.180 Y184.081 E1.96423
G1 X196.755 Y183.952 E1.97727
G1 X196.232 Y183.735 E1.99389
G1 X195.816 Y183.513 E2.00772
G1 X195.444 Y183.270 E2.02077
G1 X195.093 Y182.996 E2.03382
G1 X194.664 Y182.587 E2.05121
G1 X194.374 Y182.250 E2.06426
G1 X194.033 Y181.765 E2.08165
G1 X193.815 Y181.378 E2.09470
G1 X193.630 Y180.973 E2.10775
