; generated by Slic3r 1.1.7 on 2015-02-16 at 09:56:34

; perimeters extrusion width = 0.56mm
; infill extrusion width = 0.60mm
; solid infill extrusion width = 0.55mm
; top infill extrusion width = 0.43mm

G21 ; set units to millimeters
M107

M301 P34 I4 D113     ; set PID nozzle
M304 P162 I17 D378 ; set PID Bed

;M104 S230                  ; set extruder temp for budaschnozzle
M104 S250                   ; set extruder temp for hex_hot_end
;M140 S100                  ; set bed temp for PET
M140 S110                   ; set bed temp for PEI (reminder ~G1 Z2 ~ M140 S(@-10 degree change) ;if -m is present in file name)

;G28                            ; home
;G1 Z5 F300                ; move bed down 5mm
;M84                            ; disable steppers
;G4 S300                     ; wait 5 mins to preheat

G28                            ; home

G90 ; use absolute coordinates
G92 E0
M82 ; use absolute distances for extrusion
G1 F1500.000 E-1.20000
G92 E0
G1 Z0.350 F9600.000
G1 X143.951 Y102.689 F9600.000
G1 E1.20000 F1500.000
G1 X147.011 Y98.790 E1.36288 F1260.000
G1 X147.692 Y98.051 E1.39590
G1 X149.679 Y96.341 E1.48202
G1 X150.977 Y95.501 E1.53284
G1 X151.923 Y94.997 E1.56805
G1 X153.461 Y94.341 E1.62301
G1 X155.570 Y93.851 E1.69413
G1 X155.979 Y93.838 E1.70758
G1 X161.153 Y93.838 E1.87761
G1 X163.598 Y94.337 E1.95960
G1 X166.663 Y95.743 E2.07043 F1260.000
G1 X168.428 Y96.994 E2.14150
G1 X169.563 Y98.042 E2.19225
G1 X170.287 Y98.834 E2.22753
G1 X171.229 Y100.062 E2.27838
G1 X171.806 Y100.964 E2.31356
G1 X172.523 Y102.330 E2.36426
G1 X172.940 Y103.321 E2.39959
G1 X173.655 Y105.837 E2.48554
G1 X173.932 Y108.439 E2.57149
G1 X173.885 Y109.981 E2.62221
G1 X173.812 Y110.768 E2.64817
G1 X163.126 Y178.804 E4.91118
G1 X162.395 Y180.904 E4.98425
G1 X160.973 Y182.614 E5.05733
G1 X159.041 Y183.715 E5.13040
G1 X156.970 Y184.069 E5.19942
G1 X138.425 Y184.069 E5.80878
G1 X136.237 Y183.672 E5.88185
G1 X134.328 Y182.533 E5.95493
G1 X132.949 Y180.812 E6.02738
G1 X124.979 Y166.138 E6.57607
G1 X124.224 Y163.164 E6.67691
G1 X124.224 Y133.960 E7.63651
G1 X124.621 Y131.772 E7.70959
G1 X125.281 Y130.488 E7.75701
G1 X143.909 Y102.752 E8.85489
G1 X144.436 Y103.069 F9600.000
G1 X147.495 Y99.170 E9.01776 F1260.000
G1 X148.110 Y98.503 E9.04756
G1 X150.013 Y96.858 E9.13022
G1 X151.311 Y96.018 E9.18103
G1 X152.164 Y95.564 E9.21279
G1 X153.703 Y94.907 E9.26775
G1 X155.603 Y94.465 E9.33184
G1 X161.153 Y94.453 E9.51423
G1 X163.356 Y94.904 E9.58811
G1 X166.329 Y96.261 E9.69548 F1260.000
G1 X168.011 Y97.446 E9.76310
G1 X169.145 Y98.494 E9.81385
G1 X169.799 Y99.209 E9.84567
G1 X170.740 Y100.437 E9.89651
G1 X171.261 Y101.250 E9.92824
G1 X171.977 Y102.617 E9.97894
G1 X172.353 Y103.510 E10.01081
G1 X173.045 Y105.924 E10.09331
G1 X173.316 Y108.420 E10.17581
G1 X173.269 Y109.963 E10.22652
G1 X173.204 Y110.673 E10.24995
G1 X162.518 Y178.709 E12.51296
G1 X161.805 Y180.695 E12.58230
G1 X160.409 Y182.277 E12.65164
G1 X158.528 Y183.233 E12.72097
G1 X156.970 Y183.453 E12.77266
G1 X138.425 Y183.453 E13.38202
G1 X136.353 Y183.057 E13.45136
G1 X134.573 Y181.924 E13.52070
G1 X133.490 Y180.518 E13.57900
G1 X125.521 Y165.844 E14.12769
G1 X124.840 Y163.164 E14.21856
G1 X124.840 Y133.960 E15.17817
G1 X125.236 Y131.887 E15.24751
G1 X125.792 Y130.831 E15.28672
G1 X144.394 Y103.132 E16.38309
G1 F1500.000 E15.18309
G92 E0
G1 X163.377 Y112.731 F9600.000
G1 E1.20000 F1500.000
M204 S800
G1 X162.613 Y113.494 E1.23548 F1890.000
G1 X161.729 Y114.113 E1.27095
G1 X160.751 Y114.570 E1.30642
G1 X159.708 Y114.849 E1.34189
G1 X158.633 Y114.943 E1.37736
G1 X157.557 Y114.849 E1.41283
G1 X156.514 Y114.570 E1.44831
G1 X156.430 Y114.530 E1.45136
G1 X155.536 Y114.113 E1.48378
G1 X154.652 Y113.494 E1.51925
G1 X153.888 Y112.731 E1.55473
G1 X153.269 Y111.847 E1.59020
G1 X152.813 Y110.868 E1.62568
G1 X152.533 Y109.825 E1.66115
G1 X152.439 Y108.750 E1.69662
G1 X152.533 Y107.675 E1.73209
G1 X152.813 Y106.632 E1.76756
G1 X152.852 Y106.548 E1.77061
G1 X153.269 Y105.653 E1.80303
G1 X153.888 Y104.769 E1.83851
G1 X154.652 Y104.006 E1.87399
G1 X155.514 Y103.402 E1.90858
G1 X156.543 Y102.923 E1.94587
G1 X157.639 Y102.643 E1.98303
G1 X158.676 Y102.560 E2.01724
G1 X159.578 Y102.639 E2.04698
M204 S800
M204 S800
G1 X159.742 Y102.660 E2.05239 F1890.000
G1 X160.765 Y102.937 E2.08724
G1 X161.750 Y103.401 E2.12301
G1 X162.613 Y104.006 E2.15765
G1 X163.377 Y104.769 E2.19313
G1 X163.996 Y105.653 E2.22860
G1 X164.452 Y106.632 E2.26407
G1 X164.732 Y107.675 E2.29954
G1 X164.826 Y108.750 E2.33501
G1 X164.732 Y109.825 E2.37048
G1 X164.452 Y110.868 E2.40595
G1 X163.996 Y111.846 E2.44143
G1 X163.420 Y112.669 E2.47444
M204 S800
G1 X162.903 Y112.334 F9600.000
M204 S800
G1 X162.216 Y113.021 E2.50637 F1470.000
G1 X161.420 Y113.578 E2.53830
G1 X160.539 Y113.989 E2.57024
G1 X159.601 Y114.240 E2.60217
G1 X158.594 Y114.322 E2.63536
G1 X157.665 Y114.240 E2.66601
G1 X156.726 Y113.989 E2.69794
G1 X155.845 Y113.578 E2.72987
G1 X155.049 Y113.021 E2.76181
G1 X154.362 Y112.333 E2.79374
G1 X153.805 Y111.537 E2.82567
G1 X153.394 Y110.657 E2.85761
G1 X153.142 Y109.718 E2.88954
G1 X153.058 Y108.750 E2.92147
G1 X153.142 Y107.782 E2.95340
G1 X153.394 Y106.843 E2.98533
G1 X153.805 Y105.963 E3.01726
G1 X154.362 Y105.166 E3.04919
G1 X155.049 Y104.479 E3.08113
G1 X155.838 Y103.927 E3.11276
G1 X156.736 Y103.509 E3.14532
G1 X157.615 Y103.272 E3.17525
G1 X158.631 Y103.176 E3.20876
M204 S800
M204 S800
G1 X159.612 Y103.263 E3.24114 F1470.000
G1 X160.500 Y103.500 E3.27133
G1 X161.427 Y103.927 E3.30486
G1 X162.216 Y104.479 E3.33652
G1 X162.903 Y105.166 E3.36845
G1 X163.461 Y105.963 E3.40038
G1 X163.871 Y106.843 E3.43232
G1 X164.123 Y107.782 E3.46425
G1 X164.208 Y108.750 E3.49618
G1 X164.123 Y109.718 E3.52811
G1 X163.871 Y110.657 E3.56004
G1 X163.461 Y111.537 E3.59197
G1 X162.946 Y112.272 E3.62144
M204 S800
G1 F1500.000 E2.42144
G92 E0
G1 X158.573 Y102.680 F9600.000
G1 X151.361 Y125.806 F9600.000
G1 E1.20000 F1500.000
M204 S800
G1 X152.077 Y126.521 E1.23324 F1890.000
G1 X152.656 Y127.349 E1.26646
G1 X153.084 Y128.266 E1.29970
G1 X153.346 Y129.243 E1.33292
G1 X153.434 Y130.250 E1.36614
G1 X153.346 Y131.257 E1.39936
G1 X153.084 Y132.234 E1.43260
G1 X152.656 Y133.151 E1.46583
G1 X152.077 Y133.979 E1.49905
G1 X151.361 Y134.694 E1.53228
G1 X150.533 Y135.274 E1.56550
G1 X149.616 Y135.701 E1.59874
G1 X148.640 Y135.963 E1.63196
G1 X147.633 Y136.051 E1.66519
G1 X146.625 Y135.963 E1.69842
G1 X145.648 Y135.701 E1.73164
G1 X144.732 Y135.274 E1.76486
G1 X143.904 Y134.694 E1.79809
G1 X143.189 Y133.979 E1.83132
G1 X142.609 Y133.151 E1.86455
G1 X142.182 Y132.234 E1.89776
G1 X141.920 Y131.257 E1.93100
G1 X141.831 Y130.250 E1.96423
G1 X141.920 Y129.242 E1.99746
G1 X142.181 Y128.266 E2.03069
G1 X142.609 Y127.350 E2.06391
G1 X143.189 Y126.521 E2.09714
G1 X143.904 Y125.806 E2.13036
G1 X144.732 Y125.226 E2.16359
G1 X145.649 Y124.799 E2.19682
G1 X146.625 Y124.537 E2.23005
G1 X147.633 Y124.449 E2.26327
G1 X147.724 Y124.457 E2.26630
M204 S800
M204 S800
G1 X148.640 Y124.537 E2.29649 F1890.000
G1 X149.617 Y124.799 E2.32972
G1 X150.533 Y125.226 E2.36296
G1 X151.300 Y125.763 E2.39371
M204 S800
G1 X150.964 Y126.280 F9600.000
M204 S800
G1 X151.603 Y126.919 E2.42340 F1470.000
G1 X152.121 Y127.659 E2.45308
G1 X152.503 Y128.477 E2.48277
G1 X152.737 Y129.350 E2.51246
G1 X152.816 Y130.250 E2.54214
G1 X152.737 Y131.150 E2.57182
G1 X152.503 Y132.023 E2.60151
G1 X152.121 Y132.841 E2.63120
G1 X151.603 Y133.582 E2.66089
G1 X150.964 Y134.220 E2.69057
G1 X150.224 Y134.738 E2.72026
G1 X149.405 Y135.120 E2.74995
G1 X148.533 Y135.354 E2.77963
G1 X147.633 Y135.433 E2.80932
G1 X146.733 Y135.354 E2.83900
G1 X145.860 Y135.120 E2.86869
G1 X145.041 Y134.739 E2.89837
G1 X144.301 Y134.220 E2.92806
G1 X143.662 Y133.582 E2.95775
G1 X143.144 Y132.841 E2.98743
G1 X142.762 Y132.023 E3.01711
G1 X142.528 Y131.150 E3.04681
G1 X142.450 Y130.250 E3.07649
G1 X142.528 Y129.350 E3.10618
G1 X142.762 Y128.477 E3.13587
G1 X143.144 Y127.659 E3.16555
G1 X143.662 Y126.918 E3.19524
G1 X144.301 Y126.280 E3.22492
G1 X145.041 Y125.761 E3.25461
G1 X145.860 Y125.380 E3.28429
G1 X146.733 Y125.146 E3.31398
G1 X147.073 Y125.116 E3.32521
M204 S800
M204 S800
G1 X147.633 Y125.067 E3.34367 F1470.000
G1 X148.533 Y125.146 E3.37335
G1 X149.405 Y125.380 E3.40304
G1 X150.224 Y125.761 E3.43273
G1 X150.903 Y126.237 E3.45994
M204 S800
G1 F1500.000 E2.25994
G92 E0
G1 X146.827 Y124.681 F9600.000
G1 X154.822 Y137.460 F9600.000
G1 E1.20000 F1500.000
M204 S800
G1 X154.822 Y160.040 E1.94193 F1890.000
G1 X132.443 Y160.040 E2.67729
G1 X132.443 Y137.460 E3.41922
G1 X154.747 Y137.460 E4.15211
M204 S800
G1 X154.206 Y138.076 F9600.000
M204 S800
G1 X154.206 Y159.424 E4.85357 F1470.000
G1 X133.059 Y159.424 E5.54846
G1 X133.059 Y138.076 E6.24992
G1 X154.131 Y138.076 E6.94234
M204 S800
G1 X154.706 Y138.076 F9600.000
G1 F1500.000 E5.74234
G92 E0
G1 X156.031 Y176.898 F9600.000
G1 E1.20000 F1500.000
M204 S800
G1 X138.984 Y176.898 E1.76012 F1890.000
G1 X131.395 Y162.925 E2.28261
G1 X131.395 Y134.246 E3.22498
G1 X149.614 Y107.089 E4.29954
G1 X152.612 Y103.269 E4.45909
G1 X153.642 Y102.318 E4.50516
G1 X154.810 Y101.562 E4.55089
G1 X156.107 Y101.009 E4.59722
G1 X160.961 Y101.009 E4.75671
G1 X162.835 Y101.808 E4.82366
G1 X163.623 Y102.318 E4.85450
G1 X164.646 Y103.262 E4.90023
G1 X165.493 Y104.366 E4.94595
G1 X166.139 Y105.599 E4.99168
G1 X166.566 Y106.923 E5.03741
G1 X166.761 Y108.301 E5.08314
G1 X166.719 Y109.692 E5.12887
G1 X166.429 Y111.112 E5.17650
G1 X166.323 Y111.443 E5.18791
G1 X156.218 Y140.547 E6.20024
G1 X156.078 Y141.096 E6.21885
G1 X156.031 Y141.752 E6.24048
G1 X156.031 Y176.823 E7.39287
M204 S800
G1 X156.646 Y177.514 F9600.000
M204 S800
G1 X138.618 Y177.514 E7.98526 F1470.000
G1 X130.779 Y163.081 E8.52493
G1 X130.779 Y134.058 E9.47859
G1 X149.116 Y106.727 E10.56007
G1 X152.158 Y102.850 E10.72200
G1 X153.263 Y101.830 E10.77143
G1 X154.520 Y101.016 E10.82063
G1 X155.981 Y100.393 E10.87282
G1 X161.087 Y100.393 E11.04059
G1 X163.126 Y101.262 E11.11341
G1 X164.002 Y101.830 E11.14772
G1 X165.102 Y102.845 E11.19692
G1 X166.013 Y104.033 E11.24612
G1 X166.709 Y105.359 E11.29532
G1 X167.168 Y106.785 E11.34452
G1 X167.378 Y108.267 E11.39372
G1 X167.333 Y109.764 E11.44292
G1 X167.025 Y111.269 E11.49339
G1 X166.907 Y111.638 E11.50615
G1 X156.808 Y140.725 E12.51787
G1 X156.687 Y141.198 E12.53394
G1 X156.646 Y141.753 E12.55221
G1 X156.646 Y177.439 E13.72481
M204 S800
G1 X156.213 Y177.264 F9600.000
G1 F1500.000 E12.52481
G92 E0
G1 X155.549 Y160.774 F9600.000
G1 E1.20000 F1500.000
M204 S750
G1 X155.604 Y160.806 E1.20207 F1890.000
G1 X155.604 Y161.522 E1.22563
G1 X153.775 Y160.466 E1.29504
G1 X152.533 Y160.466 E1.33584
G1 X155.604 Y162.239 E1.45236
G1 X155.604 Y162.956 E1.47591
G1 X151.291 Y160.466 E1.63954
G1 X150.050 Y160.466 E1.68034
G1 X155.604 Y163.673 E1.89107
G1 X155.604 Y164.390 E1.91463
G1 X148.808 Y160.466 E2.17247
G1 X147.567 Y160.466 E2.21326
G1 X155.604 Y165.106 E2.51821
G1 X155.604 Y165.823 E2.54177
G1 X146.325 Y160.466 E2.89382
G1 X145.084 Y160.466 E2.93462
G1 X155.604 Y166.540 E3.33378
G1 X155.604 Y167.257 E3.35733
G1 X143.842 Y160.466 E3.80360
G1 X142.601 Y160.466 E3.84440
G1 X155.604 Y167.974 E4.33777
G1 X155.604 Y168.690 E4.36132
G1 X141.359 Y160.466 E4.90181
G1 X140.118 Y160.466 E4.94260
G1 X155.604 Y169.407 E5.53019
G1 X155.604 Y170.124 E5.55374
G1 X138.876 Y160.466 E6.18844
G1 X137.635 Y160.466 E6.22924
G1 X155.604 Y170.841 E6.91104
G1 X155.604 Y171.558 E6.93459
G1 X136.393 Y160.466 E7.66350
G1 X135.152 Y160.466 E7.70430
G1 X155.604 Y172.274 E8.48031
G1 X155.604 Y172.991 E8.50386
G1 X133.910 Y160.466 E9.32699
G1 X132.668 Y160.466 E9.36778
G1 X155.604 Y173.708 E10.23801
G1 X155.604 Y174.425 E10.26156
G1 X131.960 Y160.774 E11.15866
G1 X131.822 Y161.411 E11.18008
G1 X155.604 Y175.142 E12.08244
G1 X155.604 Y175.858 E12.10599
G1 X131.822 Y162.128 E13.00835
G1 X131.844 Y162.857 E13.03233
G1 X155.424 Y176.471 E13.92704
G1 X154.183 Y176.471 E13.96784
G1 X132.411 Y163.901 E14.79393
G1 X132.978 Y164.946 E14.83297
G1 X152.941 Y176.471 E15.59043
G1 X151.700 Y176.471 E15.63123
G1 X133.545 Y165.990 E16.32007
G1 X134.112 Y167.034 E16.35911
G1 X150.458 Y176.471 E16.97932
G1 X149.217 Y176.471 E17.02012
G1 X134.679 Y168.078 E17.57170
G1 X135.247 Y169.123 E17.61075
G1 X147.975 Y176.471 E18.09370
G1 X146.734 Y176.471 E18.13450
G1 X135.814 Y170.167 E18.54883
G1 X136.381 Y171.211 E18.58788
G1 X145.492 Y176.471 E18.93358
G1 X144.251 Y176.471 E18.97438
G1 X136.948 Y172.255 E19.25145
G1 X137.515 Y173.300 E19.29050
G1 X143.009 Y176.471 E19.49895
G1 X141.768 Y176.471 E19.53975
G1 X138.082 Y174.344 E19.67957
G1 X138.650 Y175.388 E19.71862
G1 X140.526 Y176.471 E19.78982
G1 X139.285 Y176.471 E19.83062
G1 X139.217 Y176.432 E19.83319
M204 S800
G1 F1500.000 E18.63319
G92 E0
G1 X155.426 Y160.348 F9600.000
G1 E1.20000 F1500.000
G1 X155.426 Y141.751 E1.55876 F945.000
G1 X155.440 Y141.310 E1.56727
G1 F1500.000 E0.36727
G92 E0
G1 X159.016 Y114.970 F9600.000
G1 X131.652 Y133.971 F9600.000
G1 X131.919 Y137.152 F9600.000
G1 E1.20000 F1500.000
G1 X131.919 Y160.348 E1.64748 F945.000
G1 F1500.000 E0.44748
G92 E0
G1 X132.383 Y137.400 F9600.000
G1 X146.211 Y136.695 F9600.000
G1 E1.20000 F1500.000
G1 X147.598 Y136.756 E1.26638 F945.000
G1 X149.054 Y136.695 E1.33606
G1 X149.771 Y137.034 F9600.000
M204 S750
G1 X149.489 Y136.871 E1.34677 F1890.000
G1 X149.515 Y136.170 E1.36981
G1 X151.011 Y137.034 E1.42658
G1 X152.251 Y137.034 E1.46733
G1 X150.248 Y135.877 E1.54334
G1 X150.900 Y135.538 E1.56749
G1 X153.491 Y137.034 E1.66581
M204 S800
G1 F1500.000 E0.46581
G92 E0
G1 X159.016 Y114.970 F9600.000
G1 X155.788 Y140.508 F9600.000
G1 E1.20000 F1500.000
M204 S750
G1 X155.249 Y140.196 E1.22046 F1890.000
G1 X155.249 Y139.481 E1.24399
G1 X155.989 Y139.908 E1.27207
G1 X156.196 Y139.311 E1.29281
G1 X155.249 Y138.765 E1.32875
G1 X155.249 Y138.049 E1.35227
G1 X156.403 Y138.715 E1.39607
G1 X156.610 Y138.119 E1.41681
G1 X151.460 Y135.145 E1.61220
G1 X151.948 Y134.711 E1.63366
G1 X156.817 Y137.522 E1.81841
G1 X157.024 Y136.926 E1.83916
G1 X152.402 Y134.257 E2.01454
G1 X152.759 Y133.747 E2.03500
G1 X157.231 Y136.329 E2.20467
G1 X157.438 Y135.733 E2.22542
G1 X153.093 Y133.224 E2.39029
G1 X153.356 Y132.660 E2.41074
G1 X157.645 Y135.136 E2.57349
G1 X157.852 Y134.540 E2.59424
G1 X153.570 Y132.068 E2.75672
G1 X153.736 Y131.448 E2.77781
G1 X158.059 Y133.944 E2.94185
G1 X158.266 Y133.347 E2.96259
G1 X153.816 Y130.778 E3.13146
G1 X153.847 Y130.080 E3.15442
G1 X158.473 Y132.751 E3.32996
G1 X158.681 Y132.154 E3.35071
G1 X153.781 Y129.326 E3.53661
G1 X153.588 Y128.498 E3.56454
G1 X158.888 Y131.558 E3.76564
G1 X159.095 Y130.961 E3.78638
G1 X153.233 Y127.577 E4.00877
G1 X152.565 Y126.476 E4.05110
G1 X159.302 Y130.365 E4.30669
G1 X159.509 Y129.769 E4.32744
G1 X141.780 Y119.533 E5.00013
G1 X142.126 Y119.017 E5.02055
G1 X159.716 Y129.172 E5.68796
G1 X159.923 Y128.576 E5.70871
G1 X142.472 Y118.501 E6.37084
G1 X142.818 Y117.984 E6.39126
G1 X160.130 Y127.979 E7.04811
G1 X160.337 Y127.383 E7.06885
G1 X143.164 Y117.468 E7.72042
G1 X143.511 Y116.952 E7.74084
G1 X160.544 Y126.787 E8.38713
G1 X160.751 Y126.190 E8.40788
G1 X143.857 Y116.436 E9.04889
G1 X144.203 Y115.920 E9.06931
G1 X160.958 Y125.594 E9.70504
G1 X161.165 Y124.997 E9.72578
G1 X144.549 Y115.404 E10.35623
G1 X144.896 Y114.888 E10.37665
G1 X161.372 Y124.401 E11.00182
G1 X161.579 Y123.804 E11.02257
G1 X145.242 Y114.372 E11.64246
G1 X145.588 Y113.856 E11.66288
G1 X161.787 Y123.208 E12.27749
G1 X161.994 Y122.612 E12.29823
G1 X145.934 Y113.340 E12.90756
G1 X146.280 Y112.824 E12.92798
G1 X162.201 Y122.015 E13.53203
G1 X162.408 Y121.419 E13.55278
G1 X146.627 Y112.308 E14.15155
G1 X146.973 Y111.792 E14.17197
G1 X162.615 Y120.822 E14.76546
G1 X162.822 Y120.226 E14.78620
G1 X147.319 Y111.275 E15.37441
G1 X147.665 Y110.759 E15.39483
G1 X163.029 Y119.630 E15.97776
M204 S800
G1 F1500.000 E14.77776
G92 E0
G1 X166.515 Y110.391 F9600.000
G1 X164.829 Y104.201 F9600.000
G1 E1.20000 F1500.000
M204 S750
G1 X160.038 Y101.435 E1.38178 F1890.000
G1 X160.518 Y102.428 E1.41802
G1 X158.798 Y101.435 E1.48327
G1 X158.781 Y102.142 E1.50649
G1 X157.558 Y101.435 E1.55292
