; generated by Slic3r 1.1.7 on 2015-07-15 at 07:18:40

; perimeters extrusion width = 0.42mm
; infill extrusion width = 0.58mm
; solid infill extrusion width = 0.60mm
; top infill extrusion width = 0.45mm

G21 ; set units to millimeters
M107

M301 P34 I4 D113     ; set PID nozzle
M304 P162 I17 D378 ; set PID Bed

;M104 S230                 ; set extruder temp for budaschnozzle
M104 S250                 ; set extruder temp for hex_hot_end
;M140 S100                 ; set bed temp for PET
M140 S110                 ; set bed temp for PEI (reminder ~G1 Z2 ~ M140 S(@-10 degree change) ;if -m is present in file name)

G28                            ; home
G1 Z5 F300                ; move bed down 5mm
M84                            ; disable steppers
G4 S300                     ; wait 5 mins to preheat

G28                            ; home

G90 ; use absolute coordinates
G92 E0
M82 ; use absolute distances for extrusion
G1 F1200.000 E-1.20000
G92 E0
G1 Z0.350 F9000.000
G1 X100.006 Y80.428 F9000.000
G1 E1.20000 F1200.000
G1 X101.967 Y79.072 E1.27360 F1500.000
G1 X104.128 Y78.451 E1.34301
G1 X148.128 Y73.049 E2.71142
G1 X149.872 Y73.049 E2.76527
G1 X193.872 Y78.451 E4.13369
G1 X196.157 Y79.132 E4.20729 F1500.000
G1 X198.092 Y80.526 E4.28090
G1 X199.401 Y82.354 E4.35030
G1 X205.401 Y94.351 E4.76437
G1 X206.157 Y97.552 E4.86591
G1 X206.157 Y180.552 E7.42800
G1 X205.760 Y182.904 E7.50160
G1 X204.612 Y184.994 E7.57521
G1 X202.842 Y186.591 E7.64881
G1 X201.447 Y187.278 E7.69681
G1 X155.759 Y203.892 E9.19748
G1 X154.657 Y204.229 E9.23306
G1 X154.035 Y204.392 E9.25291
G1 X152.908 Y204.635 E9.28849
G1 X152.275 Y204.745 E9.30834
G1 X150.491 Y204.948 E9.36375
G1 X149.339 Y204.997 E9.39933
G1 X148.696 Y204.998 E9.41918
G1 X147.545 Y204.949 E9.45476
G1 X146.904 Y204.896 E9.47461
G1 X145.761 Y204.750 E9.51019
G1 X145.127 Y204.643 E9.53003
G1 X143.377 Y204.239 E9.58545
G1 X141.890 Y203.774 E9.63357
G1 X96.553 Y187.278 E11.12281
G1 X94.479 Y186.101 E11.19641
G1 X92.907 Y184.308 E11.27002
G1 X92.012 Y182.098 E11.34362
G1 X91.843 Y180.552 E11.39162
G1 X91.843 Y97.552 E13.95370
G1 X92.599 Y94.351 E14.05524
G1 X98.599 Y82.354 E14.46931
G1 X99.961 Y80.489 E14.54060
G1 X100.477 Y80.778 F9000.000
G1 X102.385 Y79.518 E14.61119 F1500.000
G1 X104.198 Y79.025 E14.66918
G1 X148.198 Y73.623 E16.03760
G1 X149.802 Y73.623 E16.08709
G1 X193.802 Y79.025 E17.45551
G1 X195.987 Y79.694 E17.52605 F1500.000
G1 X197.812 Y81.069 E17.59660
G1 X198.884 Y82.612 E17.65459
G1 X204.884 Y94.610 E18.06867
G1 X205.579 Y97.552 E18.16200
G1 X205.579 Y180.552 E20.72408
G1 X205.182 Y182.803 E20.79463
G1 X204.039 Y184.782 E20.86517
G1 X201.249 Y186.734 E20.97027
G1 X155.589 Y203.338 E22.47002
G1 X154.487 Y203.676 E22.50560
G1 X153.913 Y203.827 E22.52394
G1 X152.786 Y204.070 E22.55951
G1 X152.201 Y204.172 E22.57785
G1 X150.466 Y204.370 E22.63175
G1 X149.315 Y204.419 E22.66732
G1 X148.721 Y204.420 E22.68566
G1 X147.569 Y204.371 E22.72124
G1 X146.977 Y204.322 E22.73957
G1 X145.834 Y204.176 E22.77515
G1 X145.249 Y204.077 E22.79348
G1 X143.547 Y203.686 E22.84738
G1 X142.087 Y203.230 E22.89458
G1 X96.751 Y186.734 E24.38381
G1 X94.771 Y185.592 E24.45436
G1 X93.303 Y183.841 E24.52491
G1 X92.421 Y180.552 E24.63000
G1 X92.421 Y97.552 E27.19209
G1 X93.116 Y94.610 E27.28542
G1 X99.116 Y82.612 E27.69949
G1 X100.432 Y80.838 E27.76768
G1 F1200.000 E26.56768
G92 E0
G1 X182.398 Y165.117 F9000.000
G1 E1.20000 F1200.000
M204 S800
G1 X181.521 Y166.074 E1.24007 F1500.000
G1 X180.564 Y166.951 E1.28014
G1 X179.534 Y167.741 E1.32021
G1 X178.440 Y168.438 E1.36028
G1 X177.219 Y169.066 E1.40266
G1 X176.089 Y169.534 E1.44041
G1 X174.851 Y169.925 E1.48048
G1 X173.584 Y170.206 E1.52054
G1 X172.297 Y170.375 E1.56061
G1 X171.000 Y170.432 E1.60068
G1 X169.703 Y170.375 E1.64075
G1 X168.416 Y170.206 E1.68082
G1 X167.149 Y169.925 E1.72089
G1 X165.911 Y169.534 E1.76096
G1 X164.712 Y169.038 E1.80103
G1 X163.497 Y168.398 E1.84341
G1 X162.466 Y167.741 E1.88116
G1 X161.436 Y166.951 E1.92123
G1 X160.479 Y166.074 E1.96130
G1 X159.602 Y165.117 E2.00137
G1 X158.812 Y164.087 E2.04143
G1 X158.114 Y162.992 E2.08150
G1 X157.515 Y161.841 E2.12157
G1 X157.018 Y160.641 E2.16164
G1 X156.628 Y159.403 E2.20171
G1 X156.347 Y158.136 E2.24178
G1 X156.177 Y156.849 E2.28185
G1 X156.121 Y155.572 E2.32133
G1 X156.121 Y125.533 E3.24857
G1 X156.177 Y124.256 E3.28804
G1 X156.347 Y122.969 E3.32811
G1 X156.628 Y121.701 E3.36818
G1 X157.018 Y120.463 E3.40825
G1 X157.515 Y119.264 E3.44832
G1 X158.114 Y118.113 E3.48839
G1 X158.812 Y117.018 E3.52846
G1 X159.602 Y115.988 E3.56853
G1 X160.479 Y115.031 E3.60860
G1 X161.436 Y114.154 E3.64866
G1 X162.466 Y113.364 E3.68873
G1 X163.560 Y112.666 E3.72880
G1 X164.712 Y112.067 E3.76887
G1 X165.911 Y111.570 E3.80894
G1 X167.149 Y111.180 E3.84901
G1 X168.416 Y110.899 E3.88908
G1 X169.703 Y110.730 E3.92915
G1 X171.075 Y110.676 E3.97153
M204 S800
M204 S800
G1 X172.297 Y110.730 E4.00928 F1500.000
G1 X173.584 Y110.899 E4.04935
G1 X174.851 Y111.180 E4.08942
G1 X176.089 Y111.570 E4.12949
G1 X177.288 Y112.067 E4.16955
G1 X178.440 Y112.666 E4.20962
G1 X179.534 Y113.364 E4.24969
G1 X180.564 Y114.154 E4.28976
G1 X181.521 Y115.031 E4.32983
G1 X182.398 Y115.988 E4.36990
G1 X183.188 Y117.018 E4.40997
G1 X183.886 Y118.113 E4.45004
G1 X184.485 Y119.264 E4.49011
G1 X184.982 Y120.463 E4.53018
G1 X185.372 Y121.701 E4.57025
G1 X185.653 Y122.969 E4.61032
G1 X185.823 Y124.256 E4.65038
G1 X185.879 Y125.533 E4.68986
G1 X185.879 Y155.572 E5.61710
G1 X185.823 Y156.849 E5.65658
G1 X185.653 Y158.136 E5.69665
G1 X185.372 Y159.403 E5.73672
G1 X184.982 Y160.641 E5.77679
G1 X184.485 Y161.841 E5.81685
G1 X183.886 Y162.992 E5.85692
G1 X183.188 Y164.087 E5.89699
G1 X182.444 Y165.057 E5.93475
M204 S800
G1 X181.955 Y164.744 F9000.000
M204 S800
G1 X181.112 Y165.664 E5.97326 F1500.000
G1 X180.192 Y166.507 E6.01177
G1 X179.202 Y167.267 E6.05028
G1 X178.150 Y167.937 E6.08878
G1 X176.997 Y168.532 E6.12883
G1 X175.891 Y168.990 E6.16580
G1 X174.701 Y169.365 E6.20431
G1 X173.483 Y169.635 E6.24282
G1 X172.246 Y169.798 E6.28133
G1 X171.000 Y169.853 E6.31984
G1 X169.704 Y169.792 E6.35988
G1 X168.517 Y169.635 E6.39685
G1 X167.299 Y169.365 E6.43536
G1 X166.109 Y168.990 E6.47387
G1 X164.956 Y168.513 E6.51238
G1 X163.850 Y167.937 E6.55089
G1 X162.798 Y167.267 E6.58940
G1 X161.808 Y166.507 E6.62791
G1 X160.888 Y165.664 E6.66642
G1 X160.045 Y164.744 E6.70493
G1 X159.286 Y163.755 E6.74344
G1 X158.616 Y162.703 E6.78195
G1 X158.020 Y161.550 E6.82199
G1 X157.562 Y160.443 E6.85896
G1 X157.187 Y159.254 E6.89747
G1 X156.917 Y158.036 E6.93598
G1 X156.754 Y156.799 E6.97449
G1 X156.700 Y155.559 E7.01280
G1 X156.700 Y125.546 E7.93926
G1 X156.754 Y124.306 E7.97757
G1 X156.917 Y123.069 E8.01608
G1 X157.187 Y121.851 E8.05458
G1 X157.562 Y120.661 E8.09309
G1 X158.040 Y119.509 E8.13160
G1 X158.642 Y118.360 E8.17165
G1 X159.286 Y117.350 E8.20862
G1 X160.045 Y116.360 E8.24713
G1 X160.888 Y115.441 E8.28564
G1 X161.808 Y114.598 E8.32415
G1 X162.798 Y113.838 E8.36266
G1 X163.850 Y113.168 E8.40117
G1 X164.956 Y112.592 E8.43968
G1 X166.109 Y112.115 E8.47819
G1 X167.299 Y111.739 E8.51670
G1 X168.517 Y111.469 E8.55521
G1 X169.804 Y111.304 E8.59525
M204 S800
M204 S800
G1 X171.000 Y111.252 E8.63222 F1500.000
G1 X172.246 Y111.307 E8.67073
G1 X173.483 Y111.469 E8.70924
G1 X174.701 Y111.739 E8.74775
G1 X175.891 Y112.115 E8.78626
G1 X177.044 Y112.592 E8.82477
G1 X178.150 Y113.168 E8.86328
G1 X179.202 Y113.838 E8.90179
G1 X180.192 Y114.598 E8.94030
G1 X181.112 Y115.441 E8.97881
G1 X181.955 Y116.360 E9.01732
G1 X182.714 Y117.350 E9.05583
G1 X183.384 Y118.402 E9.09434
G1 X183.960 Y119.509 E9.13284
G1 X184.438 Y120.661 E9.17135
G1 X184.813 Y121.851 E9.20986
G1 X185.083 Y123.069 E9.24837
G1 X185.246 Y124.306 E9.28688
G1 X185.300 Y125.546 E9.32519
G1 X185.300 Y155.559 E10.25165
G1 X185.246 Y156.799 E10.28996
G1 X185.083 Y158.036 E10.32847
G1 X184.813 Y159.254 E10.36698
G1 X184.438 Y160.443 E10.40549
G1 X183.960 Y161.596 E10.44400
G1 X183.384 Y162.703 E10.48251
G1 X182.714 Y163.755 E10.52102
G1 X182.000 Y164.685 E10.55721
M204 S800
G1 F1200.000 E9.35721
G92 E0
G1 X169.749 Y110.807 F9000.000
G1 X141.653 Y158.136 F9000.000
G1 E1.20000 F1200.000
M204 S800
G1 X141.372 Y159.403 E1.24007 F1500.000
G1 X140.982 Y160.641 E1.28014
G1 X140.485 Y161.841 E1.32021
G1 X139.886 Y162.992 E1.36028
G1 X139.188 Y164.087 E1.40035
G1 X138.398 Y165.117 E1.44041
G1 X137.521 Y166.074 E1.48048
G1 X136.564 Y166.951 E1.52055
G1 X135.534 Y167.741 E1.56062
G1 X134.440 Y168.438 E1.60069
G1 X133.288 Y169.038 E1.64076
G1 X132.089 Y169.534 E1.68083
G1 X130.851 Y169.925 E1.72090
G1 X129.584 Y170.206 E1.76097
G1 X128.222 Y170.378 E1.80335
G1 X127.000 Y170.432 E1.84110
G1 X125.703 Y170.375 E1.88117
G1 X124.416 Y170.206 E1.92124
G1 X123.149 Y169.925 E1.96131
G1 X121.911 Y169.534 E2.00137
G1 X120.712 Y169.038 E2.04144
G1 X119.560 Y168.438 E2.08151
G1 X118.466 Y167.741 E2.12158
G1 X117.436 Y166.951 E2.16165
G1 X116.479 Y166.074 E2.20172
G1 X115.602 Y165.117 E2.24179
G1 X114.812 Y164.087 E2.28186
G1 X114.114 Y162.992 E2.32193
G1 X113.515 Y161.841 E2.36200
G1 X113.018 Y160.641 E2.40207
G1 X112.628 Y159.404 E2.44213
G1 X112.347 Y158.136 E2.48220
G1 X112.177 Y156.849 E2.52228
G1 X112.121 Y155.572 E2.56175
G1 X112.121 Y125.533 E3.48899
G1 X112.177 Y124.256 E3.52847
G1 X112.347 Y122.969 E3.56854
G1 X112.628 Y121.701 E3.60861
G1 X113.018 Y120.463 E3.64867
G1 X113.515 Y119.264 E3.68874
G1 X114.114 Y118.113 E3.72881
G1 X114.812 Y117.018 E3.76888
G1 X115.602 Y115.988 E3.80895
G1 X116.479 Y115.031 E3.84902
G1 X117.436 Y114.154 E3.88909
G1 X118.529 Y113.324 E3.93147
G1 X119.560 Y112.666 E3.96922
G1 X120.712 Y112.067 E4.00929
G1 X121.911 Y111.570 E4.04936
G1 X123.149 Y111.180 E4.08943
G1 X124.416 Y110.899 E4.12950
G1 X125.703 Y110.730 E4.16956
G1 X127.000 Y110.673 E4.20963
G1 X128.297 Y110.730 E4.24970
M204 S800
M204 S800
G1 X129.584 Y110.899 E4.28977 F1500.000
G1 X130.851 Y111.180 E4.32984
G1 X132.159 Y111.599 E4.37222
G1 X133.288 Y112.067 E4.40997
G1 X134.440 Y112.666 E4.45004
G1 X135.534 Y113.364 E4.49011
G1 X136.564 Y114.154 E4.53018
G1 X137.521 Y115.031 E4.57025
G1 X138.398 Y115.988 E4.61032
G1 X139.188 Y117.018 E4.65039
G1 X139.886 Y118.113 E4.69045
G1 X140.514 Y119.334 E4.73284
G1 X140.982 Y120.463 E4.77058
G1 X141.372 Y121.701 E4.81065
G1 X141.653 Y122.969 E4.85072
G1 X141.823 Y124.256 E4.89079
G1 X141.879 Y125.533 E4.93027
G1 X141.879 Y155.572 E5.85751
G1 X141.823 Y156.849 E5.89698
G1 X141.663 Y158.062 E5.93474
M204 S800
G1 X141.083 Y158.036 F9000.000
M204 S800
G1 X140.813 Y159.254 E5.97325 F1500.000
G1 X140.438 Y160.443 E6.01176
G1 X139.960 Y161.596 E6.05027
G1 X139.384 Y162.703 E6.08878
G1 X138.714 Y163.755 E6.12729
G1 X137.955 Y164.744 E6.16580
G1 X137.112 Y165.664 E6.20431
G1 X136.192 Y166.507 E6.24282
G1 X135.202 Y167.267 E6.28133
G1 X134.150 Y167.937 E6.31983
G1 X132.997 Y168.532 E6.35988
G1 X131.891 Y168.990 E6.39685
G1 X130.701 Y169.365 E6.43536
G1 X129.483 Y169.635 E6.47387
G1 X128.246 Y169.798 E6.51238
G1 X127.000 Y169.853 E6.55089
G1 X125.754 Y169.798 E6.58940
G1 X124.517 Y169.635 E6.62791
G1 X123.299 Y169.365 E6.66642
G1 X122.109 Y168.990 E6.70493
G1 X120.956 Y168.513 E6.74344
G1 X119.850 Y167.937 E6.78195
G1 X118.798 Y167.267 E6.82046
G1 X117.808 Y166.507 E6.85897
G1 X116.888 Y165.664 E6.89747
G1 X116.045 Y164.744 E6.93598
G1 X115.286 Y163.755 E6.97449
G1 X114.616 Y162.703 E7.01300
G1 X114.040 Y161.596 E7.05151
G1 X113.562 Y160.443 E7.09002
G1 X113.187 Y159.254 E7.12853
G1 X112.917 Y158.036 E7.16704
G1 X112.754 Y156.799 E7.20555
G1 X112.700 Y155.559 E7.24386
G1 X112.700 Y125.546 E8.17032
G1 X112.754 Y124.306 E8.20863
G1 X112.917 Y123.069 E8.24714
G1 X113.187 Y121.851 E8.28565
G1 X113.562 Y120.661 E8.32416
G1 X114.040 Y119.509 E8.36267
G1 X114.642 Y118.360 E8.40271
G1 X115.286 Y117.350 E8.43968
G1 X116.045 Y116.360 E8.47819
G1 X116.888 Y115.441 E8.51670
G1 X117.808 Y114.598 E8.55521
G1 X118.798 Y113.838 E8.59372
G1 X119.850 Y113.168 E8.63223
G1 X120.956 Y112.592 E8.67074
G1 X122.109 Y112.115 E8.70925
G1 X123.299 Y111.739 E8.74776
G1 X124.517 Y111.469 E8.78627
G1 X125.804 Y111.304 E8.82631
M204 S800
M204 S800
G1 X127.000 Y111.252 E8.86328 F1500.000
G1 X128.246 Y111.307 E8.90179
G1 X129.483 Y111.469 E8.94030
G1 X130.701 Y111.739 E8.97881
G1 X131.891 Y112.115 E9.01732
G1 X133.044 Y112.592 E9.05583
G1 X134.150 Y113.168 E9.09434
G1 X135.202 Y113.838 E9.13285
G1 X136.192 Y114.598 E9.17136
G1 X137.112 Y115.441 E9.20987
G1 X137.955 Y116.360 E9.24838
G1 X138.714 Y117.350 E9.28689
G1 X139.384 Y118.402 E9.32540
G1 X139.960 Y119.509 E9.36391
G1 X140.438 Y120.661 E9.40242
G1 X140.813 Y121.851 E9.44093
G1 X141.083 Y123.069 E9.47944
G1 X141.246 Y124.306 E9.51794
G1 X141.300 Y125.546 E9.55625
G1 X141.300 Y155.559 E10.48271
G1 X141.246 Y156.799 E10.52102
G1 X141.093 Y157.961 E10.55721
M204 S800
G1 F1200.000 E9.35721
G92 E0
G1 X125.735 Y110.809 F9000.000
G1 X148.229 Y185.275 F9000.000
G1 E1.20000 F1200.000
M204 S800
G1 X148.740 Y185.184 E1.21603 F1500.000
G1 X149.044 Y185.175 E1.22541
M204 S800
M204 S800
G1 X149.517 Y185.218 E1.24008 F1500.000
G1 X149.771 Y185.275 E1.24811
G1 X150.259 Y185.452 E1.26413
G1 X150.709 Y185.712 E1.28017
G1 X151.107 Y186.046 E1.29620
G1 X151.441 Y186.444 E1.31223
G1 X151.700 Y186.893 E1.32827
G1 X151.878 Y187.381 E1.34428
G1 X151.968 Y187.893 E1.36033
G1 X151.979 Y191.171 E1.46153
G1 X151.934 Y191.670 E1.47699
G1 X151.800 Y192.171 E1.49300
G1 X151.680 Y192.450 E1.50238
G1 X151.440 Y192.861 E1.51706
G1 X151.107 Y193.259 E1.53309
G1 X150.915 Y193.435 E1.54111
G1 X150.709 Y193.593 E1.54914
G1 X150.259 Y193.853 E1.56516
G1 X150.019 Y193.952 E1.57319
G1 X149.517 Y194.087 E1.58922
G1 X149.000 Y194.132 E1.60526
G1 X148.740 Y194.120 E1.61328
G1 X148.440 Y194.077 E1.62265
G1 X147.981 Y193.952 E1.63733
G1 X147.741 Y193.853 E1.64535
G1 X147.291 Y193.593 E1.66139
G1 X147.085 Y193.435 E1.66941
G1 X146.864 Y193.227 E1.67878
G1 X146.559 Y192.861 E1.69346
G1 X146.420 Y192.642 E1.70148
G1 X146.200 Y192.172 E1.71751
G1 X146.066 Y191.670 E1.73355
G1 X146.021 Y191.172 E1.74898
G1 X146.021 Y188.133 E1.84277
G1 X146.066 Y187.635 E1.85822
G1 X146.200 Y187.134 E1.87424
G1 X146.300 Y186.893 E1.88227
G1 X146.443 Y186.626 E1.89164
G1 X146.718 Y186.237 E1.90632
G1 X146.893 Y186.046 E1.91434
G1 X147.120 Y185.843 E1.92371
G1 X147.510 Y185.572 E1.93839
G1 X147.741 Y185.452 E1.94641
G1 X148.157 Y185.297 E1.96014
M204 S800
G1 X148.379 Y185.834 F9000.000
M204 S800
G1 X148.809 Y185.760 E1.97362 F1500.000
M204 S800
M204 S800
G1 X149.209 Y185.761 E1.98596 F1500.000
G1 X149.417 Y185.789 E1.99243
G1 X149.821 Y185.897 E2.00534
G1 X150.200 Y186.074 E2.01826
G1 X150.543 Y186.314 E2.03117
G1 X150.710 Y186.469 E2.03821
G1 X150.966 Y186.776 E2.05055
G1 X151.175 Y187.138 E2.06347
G1 X151.318 Y187.531 E2.07638
G1 X151.391 Y187.943 E2.08930
G1 X151.400 Y191.159 E2.18856
G1 X151.364 Y191.569 E2.20128
G1 X151.256 Y191.973 E2.21419
G1 X151.167 Y192.183 E2.22123
G1 X150.966 Y192.529 E2.23357
G1 X150.697 Y192.850 E2.24648
G1 X150.543 Y192.991 E2.25295
G1 X150.377 Y193.119 E2.25941
G1 X150.014 Y193.328 E2.27232
G1 X149.821 Y193.408 E2.27879
G1 X149.417 Y193.516 E2.29170
G1 X149.000 Y193.553 E2.30462
G1 X148.565 Y193.512 E2.31811
G1 X148.179 Y193.408 E2.33045
G1 X147.986 Y193.328 E2.33691
G1 X147.623 Y193.119 E2.34983
G1 X147.290 Y192.836 E2.36331
G1 X147.034 Y192.529 E2.37565
G1 X146.921 Y192.353 E2.38212
G1 X146.744 Y191.973 E2.39503
G1 X146.636 Y191.569 E2.40795
G1 X146.600 Y191.159 E2.42066
G1 X146.600 Y188.146 E2.51367
G1 X146.636 Y187.736 E2.52639
G1 X146.682 Y187.531 E2.53285
G1 X146.752 Y187.314 E2.53988
G1 X146.921 Y186.952 E2.55222
G1 X147.034 Y186.776 E2.55869
G1 X147.303 Y186.455 E2.57160
G1 X147.472 Y186.302 E2.57864
G1 X147.800 Y186.074 E2.59098
G1 X147.986 Y185.977 E2.59744
G1 X148.307 Y185.856 E2.60805
M204 S800
G1 X148.979 Y185.399 F9000.000
G1 F1200.000 E1.40805
G92 E0
G1 X99.879 Y179.674 F9000.000
G1 E1.20000 F1200.000
M204 S800
G1 X99.879 Y98.369 E3.70976 F1500.000
G1 X100.206 Y98.325 E3.71997
G1 X100.748 Y98.205 E3.73710
G1 X101.385 Y98.004 E3.75772
G1 X101.926 Y97.778 E3.77582
G1 X102.406 Y97.528 E3.79251
