; generated by Slic3r 1.1.7 on 2015-05-19 at 12:48:52

; perimeters extrusion width = 0.50mm
; infill extrusion width = 0.60mm
; solid infill extrusion width = 0.60mm
; top infill extrusion width = 0.43mm

G21 ; set units to millimeters

M301 P34 I4 D113     ; set PID nozzle
M304 P162 I17 D378 ; set PID Bed

;M104 S230                 ; set extruder temp for budaschnozzle
M104 S250                 ; set extruder temp for hex_hot_end
M140 S110                 ; set bed temp for PEI (reminder ~G1 Z2 ~ M140 S(@-10 degree change) ;if -m is present in file name)

G28                            ; home
G1 Z5 F300                ; move bed down 5mm
M84                            ; disable steppers
G4 S300                     ; wait 5 mins to preheat

G28                            ; home

G90 ; use absolute coordinates
G92 E0
M82 ; use absolute distances for extrusion
M204 S2000
G1 F1200.000 E-1.00000
G92 E0
G1 Z0.350 F9600.000
G1 X142.513 Y133.931 F9600.000
G1 E1.00000 F1200.000
G1 X143.871 Y132.779 E1.05498 F1080.000
G1 X175.871 Y112.779 E2.21983
G1 X177.925 Y111.963 E2.28806
G1 X179.134 Y111.843 E2.32557
G1 X214.866 Y111.843 E3.42854
G1 X217.040 Y112.240 E3.49677
G1 X218.934 Y113.379 E3.56500 F1080.000
G1 X220.601 Y115.762 E3.65477
G1 X252.601 Y197.762 E6.37190
G1 X253.023 Y200.000 E6.44221
G1 X253.023 Y208.000 E6.68916
G1 X252.626 Y210.174 E6.75739
G1 X251.487 Y212.069 E6.82562
G1 X250.129 Y213.221 E6.88060
G1 X218.129 Y233.221 E8.04545
G1 X216.075 Y234.037 E8.11368
G1 X214.866 Y234.157 E8.15118
G1 X179.134 Y234.157 E9.25416
G1 X176.960 Y233.760 E9.32239
G1 X175.066 Y232.621 E9.39062
G1 X173.399 Y230.238 E9.48039
G1 X141.399 Y148.238 E12.19752
G1 X140.977 Y146.000 E12.26783
G1 X140.977 Y138.000 E12.51478
G1 X141.374 Y135.826 E12.58301
G1 X142.474 Y133.996 E12.64892
G1 X143.024 Y134.258 F9600.000
G1 X143.085 Y134.163 E12.65241 F1080.000
G1 X144.178 Y133.269 E12.69598
G1 X176.178 Y113.269 E13.86083
G1 X179.134 Y112.421 E13.95578
G1 X214.866 Y112.421 E15.05875
G1 X216.931 Y112.818 E15.12367
G1 X218.703 Y113.951 E15.18859 F1080.000
G1 X220.063 Y115.972 E15.26378
G1 X252.063 Y197.972 E17.98091
G1 X252.444 Y200.000 E18.04461
G1 X252.444 Y208.000 E18.29156
G1 X252.048 Y210.065 E18.35648
G1 X250.915 Y211.837 E18.42140
G1 X249.822 Y212.731 E18.46496
G1 X217.822 Y232.731 E19.62982
G1 X214.866 Y233.579 E19.72476
G1 X179.134 Y233.579 E20.82774
G1 X177.069 Y233.182 E20.89265
G1 X175.297 Y232.049 E20.95757
G1 X173.937 Y230.028 E21.03277
G1 X141.937 Y148.028 E23.74990
G1 X141.556 Y146.000 E23.81360
G1 X141.556 Y138.000 E24.06055
G1 X141.952 Y135.935 E24.12546
G1 X142.984 Y134.321 E24.18458
G1 F1200.000 E23.18458
G92 E0
G1 X189.015 Y127.068 F9600.000
G1 E1.00000 F1200.000
G1 X188.162 Y127.688 E1.03256 F1800.000
G1 X187.181 Y128.077 E1.06513
G1 X186.134 Y128.209 E1.09770
G1 X185.088 Y128.077 E1.13026
G1 X184.107 Y127.688 E1.16283
G1 X183.253 Y127.068 E1.19539
G1 X182.581 Y126.255 E1.22796
G1 X182.132 Y125.301 E1.26053
G1 X181.934 Y124.264 E1.29309
G1 X182.000 Y123.211 E1.32566
G1 X182.326 Y122.208 E1.35823
G1 X182.891 Y121.317 E1.39079
G1 X183.660 Y120.595 E1.42336
G1 X184.585 Y120.087 E1.45593
G1 X185.607 Y119.824 E1.48849
G1 X186.662 Y119.824 E1.52106
G1 X187.077 Y119.931 E1.53427
G1 X187.684 Y120.087 E1.55362 F1800.000
G1 X188.608 Y120.595 E1.58619
G1 X189.377 Y121.317 E1.61875
G1 X189.943 Y122.208 E1.65132
G1 X190.269 Y123.211 E1.68389
G1 X190.335 Y124.264 E1.71645
G1 X190.137 Y125.301 E1.74902
G1 X189.688 Y126.255 E1.78159
G1 X189.063 Y127.010 E1.81184
G1 X188.616 Y126.643 F9600.000
G1 X187.881 Y127.177 E1.83989 F1350.000
G1 X187.036 Y127.512 E1.86795
G1 X186.134 Y127.626 E1.89600
G1 X185.233 Y127.512 E1.92406
G1 X184.388 Y127.177 E1.95211
G1 X183.652 Y126.643 E1.98016
G1 X183.073 Y125.943 E2.00822
G1 X182.993 Y125.773 E2.01401
G1 X182.686 Y125.120 E2.03627
G1 X182.516 Y124.228 E2.06432
G1 X182.573 Y123.321 E2.09238
G1 X182.854 Y122.456 E2.12043
G1 X183.341 Y121.689 E2.14849
G1 X184.003 Y121.067 E2.17654
G1 X184.800 Y120.629 E2.20460
G1 X185.680 Y120.403 E2.23265
G1 X186.589 Y120.403 E2.26070 F1350.000
G1 X187.469 Y120.629 E2.28876
G1 X187.564 Y120.681 E2.29209
G1 X188.265 Y121.067 E2.31681
G1 X188.928 Y121.689 E2.34486
G1 X189.415 Y122.456 E2.37292
G1 X189.696 Y123.321 E2.40097
G1 X189.753 Y124.228 E2.42903
G1 X189.583 Y125.120 E2.45708
G1 X189.196 Y125.943 E2.48514
G1 X188.664 Y126.585 E2.51088
G1 F1200.000 E1.51088
G92 E0
G1 X185.586 Y119.912 F9600.000
G1 X186.662 Y168.824 F9600.000
G1 E1.00000 F1200.000
G1 X187.123 Y168.943 E1.01469 F1800.000
G1 X187.684 Y169.087 E1.03257 F1800.000
G1 X188.608 Y169.595 E1.06513
G1 X189.377 Y170.317 E1.09770
G1 X189.943 Y171.208 E1.13026
G1 X190.269 Y172.211 E1.16283
G1 X190.335 Y173.264 E1.19540
G1 X190.137 Y174.301 E1.22796
G1 X189.688 Y175.255 E1.26053
G1 X189.015 Y176.068 E1.29310
G1 X188.162 Y176.688 E1.32566
G1 X187.181 Y177.077 E1.35823
G1 X186.134 Y177.209 E1.39080
G1 X185.088 Y177.077 E1.42336
G1 X184.107 Y176.688 E1.45593
G1 X183.762 Y176.438 E1.46909
G1 X183.253 Y176.068 E1.48849
G1 X182.581 Y175.255 E1.52106
G1 X182.132 Y174.301 E1.55363
G1 X181.934 Y173.264 E1.58619
G1 X182.000 Y172.211 E1.61876
G1 X182.326 Y171.208 E1.65133
G1 X182.891 Y170.317 E1.68389
G1 X183.660 Y169.595 E1.71646
G1 X184.585 Y169.087 E1.74902
G1 X185.607 Y168.824 E1.78159
G1 X186.587 Y168.824 E1.81184
G1 X186.589 Y169.403 F9600.000
G1 X187.469 Y169.629 E1.83989 F1350.000
G1 X188.265 Y170.067 E1.86795
G1 X188.928 Y170.689 E1.89600
G1 X189.415 Y171.456 E1.92406
G1 X189.566 Y171.920 E1.93912
G1 X189.696 Y172.321 E1.95211
G1 X189.753 Y173.228 E1.98017
G1 X189.583 Y174.120 E2.00822
G1 X189.196 Y174.943 E2.03627
G1 X188.616 Y175.643 E2.06433
G1 X187.881 Y176.177 E2.09238
G1 X187.036 Y176.512 E2.12044
G1 X186.134 Y176.626 E2.14849
G1 X185.233 Y176.512 E2.17654
G1 X184.832 Y176.353 E2.18986
G1 X184.388 Y176.177 E2.20460
G1 X183.652 Y175.643 E2.23265
G1 X183.073 Y174.943 E2.26071
G1 X182.884 Y174.540 E2.27444
G1 X182.686 Y174.120 E2.28876
G1 X182.516 Y173.228 E2.31681
G1 X182.573 Y172.321 E2.34487
G1 X182.854 Y171.456 E2.37292
G1 X183.341 Y170.689 E2.40098
G1 X184.003 Y170.067 E2.42903
G1 X184.800 Y169.629 E2.45708
G1 X185.680 Y169.403 E2.48514
G1 X186.514 Y169.403 E2.51088 F1350.000
G1 X185.680 Y168.903 F9600.000
G1 F1200.000 E1.51088
G92 E0
G1 X186.589 Y217.824 F9600.000
G1 E1.00000 F1200.000
G1 X186.662 Y217.824 E1.00226 F1800.000
G1 X187.684 Y218.087 E1.03482
G1 X188.608 Y218.595 E1.06739
G1 X189.377 Y219.317 E1.09995
G1 X189.943 Y220.208 E1.13252
G1 X190.269 Y221.211 E1.16509
G1 X190.335 Y222.264 E1.19765
G1 X190.137 Y223.301 E1.23022
G1 X189.688 Y224.255 E1.26279
G1 X189.015 Y225.068 E1.29535
G1 X188.162 Y225.688 E1.32792
G1 X187.640 Y225.895 E1.34524
G1 X187.181 Y226.077 E1.36049
G1 X186.134 Y226.209 E1.39305
G1 X185.088 Y226.077 E1.42562
G1 X184.889 Y225.998 E1.43222
G1 X184.107 Y225.688 E1.45819
G1 X183.253 Y225.068 E1.49075
G1 X182.581 Y224.255 E1.52332
G1 X182.132 Y223.301 E1.55588
G1 X181.934 Y222.264 E1.58844
G1 X182.000 Y221.211 E1.62102
G1 X182.326 Y220.208 E1.65358
G1 X182.891 Y219.317 E1.68614
G1 X183.660 Y218.595 E1.71871
G1 X184.585 Y218.087 E1.75128
G1 X185.607 Y217.824 E1.78384
G1 X186.111 Y217.824 E1.79942
G1 X186.514 Y217.824 E1.81184 F1800.000
G1 X186.589 Y218.403 F9600.000
G1 X187.469 Y218.629 E1.83989 F1350.000
G1 X188.265 Y219.067 E1.86795
G1 X188.928 Y219.689 E1.89600
G1 X189.415 Y220.456 E1.92406
G1 X189.696 Y221.321 E1.95211
G1 X189.753 Y222.228 E1.98016
G1 X189.583 Y223.120 E2.00822
G1 X189.409 Y223.490 E2.02082
G1 X189.196 Y223.943 E2.03627
G1 X188.616 Y224.643 E2.06433
G1 X187.881 Y225.177 E2.09238
G1 X187.427 Y225.357 E2.10744
G1 X187.036 Y225.512 E2.12044
G1 X186.134 Y225.626 E2.14849
G1 X185.233 Y225.512 E2.17654
G1 X185.102 Y225.460 E2.18089
G1 X184.388 Y225.177 E2.20460
G1 X183.652 Y224.643 E2.23265
G1 X183.073 Y223.943 E2.26070
G1 X182.861 Y223.493 E2.27605
G1 X182.686 Y223.120 E2.28876
G1 X182.516 Y222.228 E2.31681
G1 X182.573 Y221.321 E2.34487
G1 X182.854 Y220.456 E2.37292
G1 X183.341 Y219.689 E2.40097
G1 X184.003 Y219.067 E2.42903
G1 X184.800 Y218.629 E2.45708
G1 X185.585 Y218.427 E2.48211
G1 X185.680 Y218.403 E2.48514 F1350.000
G1 X186.514 Y218.403 E2.51088
G1 X185.516 Y218.357 F9600.000
G1 F1200.000 E1.51088
G92 E0
G1 X180.013 Y145.121 F9600.000
G1 E1.00000 F1200.000
G1 X155.971 Y145.121 E1.74213 F1800.000
G1 X156.688 Y144.255 E1.77684
G1 X157.137 Y143.301 E1.80940
G1 X157.335 Y142.264 E1.84196
G1 X157.269 Y141.211 E1.87453
G1 X156.943 Y140.208 E1.90710
G1 X156.377 Y139.317 E1.93967
G1 X155.910 Y138.879 E1.95945
G1 X180.013 Y138.879 E2.70347
G1 X180.013 Y118.879 E3.32084
G1 X192.256 Y118.879 E3.69876
G1 X192.256 Y227.121 E7.04006
G1 X180.013 Y227.121 E7.41798
G1 X180.013 Y145.196 E9.94688
G1 X179.434 Y145.700 F9600.000
G1 X154.582 Y145.700 E10.71403 F1350.000
G1 X154.510 Y145.324 E10.72585
G1 X154.881 Y145.177 E10.73815
G1 X155.616 Y144.643 E10.76621
G1 X156.196 Y143.943 E10.79426
G1 X156.583 Y143.120 E10.82232
G1 X156.753 Y142.228 E10.85037
G1 X156.696 Y141.321 E10.87842
G1 X156.415 Y140.456 E10.90648
G1 X155.928 Y139.689 E10.93453
G1 X155.265 Y139.067 E10.96259
G1 X154.503 Y138.648 E10.98944
G1 X154.592 Y138.300 E11.00052
G1 X179.434 Y138.300 E11.76735
G1 X179.434 Y118.300 E12.38472
G1 X192.834 Y118.300 E12.79836
G1 X192.834 Y227.700 E16.17538
G1 X179.434 Y227.700 E16.58902
G1 X179.434 Y145.775 E19.11792
G1 X179.434 Y145.200 F9600.000
G1 F1200.000 E18.11792
G92 E0
G1 X150.297 Y145.121 F9600.000
G1 E1.00000 F1200.000
G1 X148.013 Y145.121 E1.07052 F1800.000
G1 X148.013 Y138.879 E1.26323
G1 X150.359 Y138.879 E1.33564
G1 X149.891 Y139.317 E1.35542
G1 X149.326 Y140.208 E1.38799
G1 X149.000 Y141.211 E1.42056
G1 X148.934 Y142.264 E1.45312
G1 X149.132 Y143.301 E1.48569
G1 X149.581 Y144.255 E1.51826
G1 X150.250 Y145.064 E1.55064
G1 X151.758 Y145.324 F9600.000
G1 X151.687 Y145.700 E1.56246 F1350.000
G1 X147.434 Y145.700 E1.69372
G1 X147.434 Y138.300 E1.92215
G1 X151.676 Y138.300 E2.05309
G1 X151.766 Y138.648 E2.06417
G1 X151.003 Y139.067 E2.09102
G1 X150.341 Y139.689 E2.11908
G1 X149.854 Y140.456 E2.14713
G1 X149.573 Y141.321 E2.17519
G1 X149.516 Y142.228 E2.20324
G1 X149.686 Y143.120 E2.23130
G1 X150.073 Y143.943 E2.25935
G1 X150.652 Y144.643 E2.28740
G1 X151.388 Y145.177 E2.31546
G1 X151.689 Y145.296 E2.32545
G1 X151.490 Y145.597 F9600.000
G1 F1200.000 E1.32545
G92 E0
G1 X154.180 Y145.191 F9600.000
G1 E1.00000 F1200.000
G1 X153.871 Y145.617 E1.01623 F1350.000
G1 X153.092 Y145.660 E1.04031
G1 X152.398 Y145.617 E1.06177
G1 X152.240 Y145.391 E1.07027
G1 X152.099 Y145.136 E1.07925
G1 F1200.000 E0.07925
G92 E0
G1 X152.020 Y138.434 F9600.000
G1 E1.00000 F1200.000
G1 X152.718 Y138.351 E1.02168 F1350.000
G1 X153.551 Y138.351 E1.04739
G1 X154.248 Y138.434 E1.06907
G1 F1200.000 E0.06907
G92 E0
G1 X156.919 Y139.278 F9600.000
G1 E1.00000 F1200.000
G1 X162.363 Y144.722 E1.23766 F1980.000
G1 X163.182 Y144.722 E1.26295
G1 X157.738 Y139.278 E1.50061
G1 X158.558 Y139.278 E1.52590
G1 X164.002 Y144.722 E1.76356
G1 X164.821 Y144.722 E1.78886
G1 X159.377 Y139.278 E2.02652
G1 X160.196 Y139.278 E2.05181
G1 X165.640 Y144.722 E2.28947
G1 X166.460 Y144.722 E2.31476
G1 X161.016 Y139.278 E2.55242
G1 X161.835 Y139.278 E2.57771
G1 X167.279 Y144.722 E2.81537
G1 X168.098 Y144.722 E2.84066
G1 X162.654 Y139.278 E3.07832
G1 X163.474 Y139.278 E3.10362
G1 X168.918 Y144.722 E3.34128
G1 X169.737 Y144.722 E3.36657
G1 X164.293 Y139.278 E3.60423
G1 X165.112 Y139.278 E3.62952
G1 X170.557 Y144.722 E3.86718
G1 X171.376 Y144.722 E3.89247
G1 X165.932 Y139.278 E4.13013
G1 X166.751 Y139.278 E4.15543
G1 X172.195 Y144.722 E4.39308
G1 X173.015 Y144.722 E4.41838
G1 X167.571 Y139.278 E4.65604
G1 X168.390 Y139.278 E4.68133
G1 X173.834 Y144.722 E4.91899
G1 X174.653 Y144.722 E4.94428
G1 X169.209 Y139.278 E5.18194
G1 X170.029 Y139.278 E5.20723
G1 X175.473 Y144.722 E5.44489
G1 X176.292 Y144.722 E5.47019
G1 X170.848 Y139.278 E5.70785
G1 X171.667 Y139.278 E5.73314
G1 X177.111 Y144.722 E5.97080
G1 X177.931 Y144.722 E5.99609
G1 X172.487 Y139.278 E6.23375
G1 X173.306 Y139.278 E6.25904
G1 X178.750 Y144.722 E6.49670
G1 X179.570 Y144.722 E6.52199
G1 X174.126 Y139.278 E6.75965
G1 X174.945 Y139.278 E6.78495
G1 X191.856 Y156.189 E7.52321
G1 X191.856 Y155.370 E7.54851
G1 X175.764 Y139.278 E8.25100
G1 X176.584 Y139.278 E8.27629
G1 X191.856 Y154.551 E8.94302
G1 X191.856 Y153.731 E8.96831
G1 X177.403 Y139.278 E9.59927
G1 X178.222 Y139.278 E9.62457
G1 X191.856 Y152.912 E10.21975
G1 X191.856 Y152.093 E10.24505
G1 X179.042 Y139.278 E10.80447
G1 X179.861 Y139.278 E10.82976
G1 X191.856 Y151.273 E11.35341
G1 X191.856 Y150.454 E11.37870
G1 X180.412 Y139.010 E11.87829
G1 X180.412 Y138.190 E11.90358
G1 X191.856 Y149.635 E12.40317
G1 X191.856 Y148.815 E12.42846
G1 X180.412 Y137.371 E12.92805
G1 X180.412 Y136.552 E12.95334
G1 X191.856 Y147.996 E13.45293
G1 X191.856 Y147.176 E13.47822
G1 X180.412 Y135.732 E13.97781
G1 X180.412 Y134.913 E14.00310
G1 X191.856 Y146.357 E14.50269
G1 X191.856 Y145.538 E14.52798
G1 X180.412 Y134.094 E15.02757
G1 X180.412 Y133.274 E15.05286
G1 X191.856 Y144.718 E15.55245
G1 X191.856 Y143.899 E15.57774
G1 X180.412 Y132.455 E16.07733
G1 X180.412 Y131.636 E16.10262
G1 X191.856 Y143.080 E16.60221
G1 X191.856 Y142.260 E16.62751
G1 X180.412 Y130.816 E17.12709
G1 X180.412 Y129.997 E17.15239
G1 X191.856 Y141.441 E17.65197
G1 X191.856 Y140.621 E17.67727
G1 X180.412 Y129.177 E18.17685
G1 X180.412 Y128.358 E18.20215
G1 X191.856 Y139.802 E18.70173
G1 X191.856 Y138.983 E18.72703
G1 X180.412 Y127.539 E19.22661
G1 X180.412 Y126.719 E19.25191
G1 X191.856 Y138.163 E19.75149
G1 X191.856 Y137.344 E19.77679
G1 X180.412 Y125.900 E20.27637
G1 F1200.000 E19.27637
G92 E0
G1 X181.652 Y119.000 F9600.000
G1 X184.442 Y119.278 F9600.000
G1 E1.00000 F1200.000
G1 X184.511 Y119.347 E1.00300 F1980.000
G1 X184.192 Y119.847 E1.02131
G1 X183.623 Y119.278 E1.04616
G1 X182.803 Y119.278 E1.07145
G1 X183.663 Y120.138 E1.10899
G1 X183.193 Y120.487 E1.12707
G1 X181.984 Y119.278 E1.17983
G1 X181.165 Y119.278 E1.20512
G1 X182.770 Y120.883 E1.27521
G1 X182.405 Y121.338 E1.29320
G1 X180.412 Y119.345 E1.38020
G1 X180.412 Y120.164 E1.40549
G1 X182.087 Y121.839 E1.47860
G1 X181.840 Y122.411 E1.49785
G1 X180.412 Y120.984 E1.56017
G1 X180.412 Y121.803 E1.58547
G1 X181.639 Y123.030 E1.63902
G1 X181.564 Y123.775 E1.66213
G1 X180.412 Y122.622 E1.71242
G1 X180.412 Y123.442 E1.73772
G1 X181.596 Y124.626 E1.78940
G1 X181.902 Y125.751 E1.82539
G1 X180.412 Y124.261 E1.89043
G1 X180.412 Y125.081 E1.91572
G1 X191.856 Y136.525 E2.41531
G1 X191.856 Y135.705 E2.44060
G1 X184.375 Y128.224 E2.76719
G1 X185.502 Y128.531 E2.80325
G1 X191.856 Y134.886 E3.08065
G1 X191.856 Y134.067 E3.10594
G1 X186.371 Y128.581 E3.34540
G1 X187.099 Y128.490 E3.36803
G1 X191.856 Y133.247 E3.57572
G1 X191.856 Y132.428 E3.60102
G1 X187.721 Y128.292 E3.78155
G1 X188.308 Y128.060 E3.80104
G1 X191.856 Y131.608 E3.95594
G1 X191.856 Y130.789 E3.98124
G1 X188.792 Y127.724 E4.11503
G1 X189.266 Y127.380 E4.13313
G1 X191.856 Y129.970 E4.24621
G1 X191.856 Y129.150 E4.27150
G1 X189.643 Y126.937 E4.36814
G1 X190.014 Y126.488 E4.38611
G1 X191.856 Y128.331 E4.46655
G1 X191.856 Y127.512 E4.49185
G1 X190.280 Y125.935 E4.56067
G1 X190.531 Y125.367 E4.57984
G1 X191.856 Y126.692 E4.63770
G1 X191.856 Y125.873 E4.66299
G1 X190.662 Y124.679 E4.71512
G1 X190.713 Y123.910 E4.73890
G1 X191.856 Y125.054 E4.78883
G1 X191.856 Y124.234 E4.81412
G1 X190.619 Y122.997 E4.86815
G1 X190.009 Y121.568 F9600.000
G1 X191.856 Y123.415 E4.94879 F1980.000
G1 X191.856 Y122.595 E4.97408
G1 X188.539 Y119.278 E5.11890
G1 X189.358 Y119.278 E5.14420
G1 X191.856 Y121.776 E5.25325
G1 X191.856 Y120.957 E5.27854
G1 X190.178 Y119.278 E5.35183
G1 X190.997 Y119.278 E5.37712
G1 X191.856 Y120.137 E5.41463
G1 X191.856 Y119.318 E5.43993
G1 X191.816 Y119.278 E5.44167
G1 F1200.000 E4.44167
G92 E0
G1 X188.547 Y120.106 F9600.000
G1 E1.00000 F1200.000
G1 X187.761 Y119.320 E1.03431 F1980.000
G1 F1200.000 E0.03431
G92 E0
G1 X181.652 Y119.000 F9600.000
G1 X180.412 Y145.565 F9600.000
G1 E1.00000 F1200.000
G1 X191.856 Y157.009 E1.49959 F1980.000
