; generated by Slic3r 1.1.7 on 2015-02-16 at 09:43:05

; perimeters extrusion width = 0.50mm
; infill extrusion width = 0.54mm
; solid infill extrusion width = 0.45mm
; top infill extrusion width = 0.40mm

G21 ; set units to millimeters
M107

M301 P34 I4 D113     ; set PID nozzle
M304 P162 I17 D378 ; set PID Bed

M104 S230                  ; set extruder temp for budaschnozzle
;M104 S240                 ; set extruder temp for hex_hot_end
M140 S95                    ; set bed temp for PET
;M140 S110                 ; set bed temp for PEI (reminder ~G1 Z2 ~ M140 S(@-10 degree change) ;if -m is present in file name)

G28                            ; home
G1 Z5 F300                ; move bed down 5mm
M84                            ; disable steppers
G4 S300                     ; wait 5 mins to preheat

G28                            ; home

G90 ; use absolute coordinates
G92 E0
M82 ; use absolute distances for extrusion
G1 F1500.000 E-1.20000
G92 E0
G1 Z0.350 F9000.000
G1 X34.570 Y14.318 F9000.000
G1 E1.20000 F1500.000
G1 X35.989 Y12.606 E1.27307 F1260.000
G1 X37.919 Y11.501 E1.34614
G1 X40.000 Y11.143 E1.41554
G1 X128.000 Y11.143 E4.30714
G1 X130.188 Y11.540 E4.38021
G1 X132.098 Y12.680 E4.45328 F1260.000
G1 X133.485 Y14.417 E4.52635
G1 X134.232 Y17.375 E4.62657
G1 X134.231 Y80.968 E6.71621
G1 X133.655 Y119.219 E7.97323
G1 X133.225 Y121.401 E8.04630
G1 X132.057 Y123.293 E8.11938
G1 X129.342 Y125.054 E8.22570
G1 X112.342 Y130.554 E8.81282
G1 X110.424 Y130.857 E8.87663
G1 X26.353 Y130.718 E11.63911
G1 X24.166 Y130.318 E11.71218
G1 X22.258 Y129.175 E11.78525
G1 X20.874 Y127.434 E11.85832
G1 X20.133 Y124.546 E11.95630
G1 X19.768 Y86.375 E13.21064
G1 X19.791 Y42.761 E14.64373
G1 X20.031 Y41.030 E14.70117
G1 X20.563 Y39.365 E14.75861
G1 X21.086 Y38.272 E14.79841
G1 X34.533 Y14.383 E15.69919
G1 X35.106 Y14.620 F9000.000
G1 X36.468 Y13.008 E15.76853 F1260.000
G1 X38.329 Y12.013 E15.83787
G1 X40.000 Y11.759 E15.89340
G1 X128.000 Y11.759 E18.78500
G1 X130.073 Y12.155 E18.85433
G1 X131.853 Y13.289 E18.92367 F1260.000
G1 X133.089 Y14.999 E18.99301
G1 X133.616 Y17.375 E19.07298
G1 X133.615 Y80.959 E21.16230
G1 X133.039 Y119.210 E22.41933
G1 X132.611 Y121.276 E22.48867
G1 X131.451 Y123.039 E22.55800
G1 X129.153 Y124.469 E22.64696
G1 X112.153 Y129.969 E23.23407
G1 X110.424 Y130.241 E23.29157
G1 X26.354 Y130.102 E26.05402
G1 X24.283 Y129.702 E26.12335
G1 X22.505 Y128.566 E26.19269
G1 X21.272 Y126.854 E26.26203
G1 X20.749 Y124.540 E26.33996
G1 X20.384 Y86.375 E27.59410
G1 X20.405 Y42.814 E29.02547
G1 X20.627 Y41.186 E29.07945
G1 X21.123 Y39.620 E29.13343
G1 X21.622 Y38.574 E29.17152
G1 X35.069 Y14.685 E30.07230
G1 F1500.000 E28.87230
G92 E0
G1 X83.060 Y79.935 F9000.000
G1 E1.20000 F1500.000
M204 S600
G1 X83.060 Y85.435 E1.38072 F1890.000
G1 X80.940 Y85.435 E1.45041
G1 X80.940 Y80.834 E1.60159
G1 X80.988 Y80.273 E1.62010
G1 X81.120 Y79.768 E1.63727
G1 X81.337 Y79.292 E1.65445
G1 X81.632 Y78.860 E1.67162
G1 X81.996 Y78.485 E1.68880
G1 X82.419 Y78.178 E1.70597
G1 X82.888 Y77.947 E1.72315
G1 X83.428 Y77.787 E1.74165
G1 X93.246 Y75.784 E2.07092
G1 X94.187 Y75.508 E2.10316
G1 X95.105 Y75.059 E2.13671
G1 X95.933 Y74.462 E2.17025
G1 X96.649 Y73.735 E2.20381
G1 X97.233 Y72.897 E2.23735
G1 X97.667 Y71.973 E2.27090
G1 X97.939 Y70.989 E2.30446
G1 X98.042 Y69.973 E2.33800
G1 X97.973 Y68.955 E2.37154
G1 X97.732 Y67.962 E2.40509
G1 X97.329 Y67.024 E2.43865
G1 X96.773 Y66.168 E2.47219
G1 X96.080 Y65.417 E2.50575
G1 X95.272 Y64.794 E2.53930
G1 X94.940 Y64.618 E2.55165
G1 X94.940 Y55.814 E2.84093
G1 X100.060 Y55.814 E3.00919
G1 X100.060 Y79.935 E3.80178
G1 X83.135 Y79.935 E4.35792
M204 S800
G1 X83.676 Y80.551 F9000.000
M204 S600
G1 X83.676 Y86.051 E4.53864 F1323.000
G1 X80.324 Y86.051 E4.64880
G1 X80.324 Y80.808 E4.82109
G1 X80.379 Y80.168 E4.84219
G1 X80.538 Y79.560 E4.86284
G1 X80.799 Y78.988 E4.88349
G1 X81.153 Y78.469 E4.90414
G1 X81.591 Y78.018 E4.92479
G1 X82.099 Y77.649 E4.94543
G1 X82.663 Y77.371 E4.96608
G1 X83.279 Y77.189 E4.98719
G1 X93.097 Y75.186 E5.31646
G1 X93.964 Y74.932 E5.34613
G1 X94.787 Y74.529 E5.37625
G1 X95.531 Y73.993 E5.40637
G1 X96.147 Y73.368 E5.43522
G1 X96.698 Y72.588 E5.46659
G1 X97.087 Y71.758 E5.49670
G1 X97.332 Y70.875 E5.52682
G1 X97.424 Y69.963 E5.55694
G1 X97.362 Y69.049 E5.58705
G1 X97.146 Y68.158 E5.61717
G1 X96.784 Y67.316 E5.64729
G1 X96.285 Y66.547 E5.67741
G1 X95.663 Y65.873 E5.70753
G1 X94.937 Y65.314 E5.73765
G1 X94.324 Y64.988 E5.76046
G1 X94.324 Y55.198 E6.08215
G1 X100.676 Y55.198 E6.29089
G1 X100.676 Y80.551 E7.12395
G1 X83.751 Y80.551 E7.68009
M204 S800
G1 X83.176 Y80.551 F9000.000
G1 X81.366 Y84.969 F9000.000
M204 S800
G1 X81.406 Y85.009 E7.68195 F2310.000
G1 X82.292 Y85.009 E7.71106
G1 X81.366 Y84.083 E7.75409
G1 X81.366 Y83.197 E7.78320
G1 X82.634 Y84.465 E7.84212
G1 X82.634 Y83.579 E7.87123
G1 X81.366 Y82.311 E7.93014
G1 X81.366 Y81.425 E7.95926
G1 X82.634 Y82.693 E8.01817
G1 X82.634 Y81.807 E8.04729
G1 X81.391 Y80.564 E8.10505
G1 X81.555 Y79.842 E8.12937
G1 X82.634 Y80.921 E8.17949
G1 X82.634 Y80.035 E8.20861
G1 X81.869 Y79.270 E8.24415
G1 X82.287 Y78.801 E8.26477
G1 X82.994 Y79.509 E8.29763
G1 X83.880 Y79.509 E8.32674
G1 X82.824 Y78.453 E8.37578
G1 X83.475 Y78.218 E8.39852
G1 X84.766 Y79.509 E8.45849
G1 X85.652 Y79.509 E8.48761
G1 X84.207 Y78.064 E8.55475
G1 X84.942 Y77.913 E8.57943
G1 X86.538 Y79.509 E8.65355
G1 X87.424 Y79.509 E8.68267
G1 X85.678 Y77.763 E8.76376
G1 X86.414 Y77.613 E8.78844
G1 X88.309 Y79.509 E8.87651
G1 X89.195 Y79.509 E8.90563
G1 X87.150 Y77.463 E9.00067
G1 X87.886 Y77.313 E9.02535
G1 X90.081 Y79.509 E9.12738
G1 X90.967 Y79.509 E9.15649
G1 X88.622 Y77.163 E9.26549
G1 X89.358 Y77.013 E9.29016
G1 X91.853 Y79.509 E9.40614
G1 X92.739 Y79.509 E9.43525
G1 X90.093 Y76.863 E9.55820
G1 X90.829 Y76.713 E9.58288
G1 X93.625 Y79.509 E9.71280
G1 X94.511 Y79.509 E9.74191
G1 X91.565 Y76.563 E9.87882
G1 X92.301 Y76.412 E9.90349
G1 X95.397 Y79.509 E10.04737
G1 X96.283 Y79.509 E10.07648
G1 X93.037 Y76.262 E10.22733
G1 X93.743 Y76.083 E10.25128
G1 X97.169 Y79.509 E10.41048
G1 X98.055 Y79.509 E10.43959
G1 X94.417 Y75.870 E10.60865
G1 X95.012 Y75.579 E10.63042
G1 X98.941 Y79.509 E10.81301
G1 X99.634 Y79.316 E10.83664
G1 X95.569 Y75.250 E11.02555
G1 X96.084 Y74.879 E11.04641
G1 X99.634 Y78.430 E11.21138
G1 X99.634 Y77.544 E11.24049
G1 X96.542 Y74.452 E11.38417
G1 X96.981 Y74.005 E11.40476
G1 X99.634 Y76.658 E11.52804
G1 X99.634 Y75.772 E11.55715
G1 X97.345 Y73.483 E11.66353
G1 X97.685 Y72.937 E11.68466
G1 X99.634 Y74.886 E11.77522
G1 X99.634 Y74.000 E11.80433
G1 X97.968 Y72.334 E11.88172
G1 X98.193 Y71.673 E11.90468
G1 X99.634 Y73.114 E11.97166
G1 X99.634 Y72.228 E12.00077
G1 X98.370 Y70.964 E12.05949
G1 X98.452 Y70.160 E12.08606
G1 X99.634 Y71.342 E12.14099
G1 X99.634 Y70.456 E12.17010
G1 X98.420 Y69.242 E12.22653
G1 X98.217 Y68.154 E12.26289
G1 X99.634 Y69.570 E12.32871
G1 X99.634 Y68.684 E12.35782
G1 X97.583 Y66.633 E12.45312
M204 S800
G1 X95.366 Y63.530 F9000.000
M204 S800
G1 X99.634 Y67.798 E12.65145 F2310.000
G1 X99.634 Y66.912 E12.68056
G1 X95.366 Y62.644 E12.87889
G1 X95.366 Y61.758 E12.90800
G1 X99.634 Y66.026 E13.10633
G1 X99.634 Y65.140 E13.13544
G1 X95.366 Y60.872 E13.33377
G1 X95.366 Y59.986 E13.36288
G1 X99.634 Y64.254 E13.56120
G1 X99.634 Y63.368 E13.59032
G1 X95.366 Y59.100 E13.78864
G1 X95.366 Y58.215 E13.81775
G1 X99.634 Y62.482 E14.01608
G1 X99.634 Y61.596 E14.04519
G1 X95.366 Y57.329 E14.24352
G1 X95.366 Y56.443 E14.27263
G1 X99.634 Y60.710 E14.47096
G1 X99.634 Y59.825 E14.50007
G1 X96.050 Y56.241 E14.66661
G1 X96.936 Y56.241 E14.69572
G1 X99.634 Y58.939 E14.82109
G1 X99.634 Y58.053 E14.85020
G1 X97.822 Y56.241 E14.93440
G1 X98.708 Y56.241 E14.96351
G1 X99.634 Y57.167 E15.00654
G1 X99.634 Y56.281 E15.03565
G1 X99.594 Y56.241 E15.03751
M204 S800
G1 F1500.000 E13.83751
G92 E0
G1 X110.060 Y79.935 F9000.000
G1 E1.20000 F1500.000
M204 S600
G1 X110.060 Y85.435 E1.38072 F1890.000
G1 X107.940 Y85.435 E1.45041
G1 X107.940 Y80.834 E1.60159
G1 X107.988 Y80.273 E1.62010
G1 X108.120 Y79.768 E1.63727
G1 X108.337 Y79.292 E1.65445
G1 X108.632 Y78.860 E1.67162
G1 X108.996 Y78.485 E1.68880
G1 X109.419 Y78.178 E1.70597
G1 X109.888 Y77.947 E1.72315
G1 X110.428 Y77.787 E1.74165
G1 X120.246 Y75.784 E2.07092
G1 X121.187 Y75.508 E2.10316
G1 X122.105 Y75.059 E2.13671
G1 X122.933 Y74.462 E2.17025
G1 X123.649 Y73.735 E2.20381
G1 X124.233 Y72.897 E2.23735
G1 X124.667 Y71.973 E2.27090
G1 X124.939 Y70.989 E2.30446
G1 X125.042 Y69.973 E2.33800
G1 X124.973 Y68.955 E2.37154
G1 X124.732 Y67.962 E2.40509
G1 X124.329 Y67.024 E2.43865
G1 X123.773 Y66.168 E2.47219
G1 X123.080 Y65.417 E2.50575
G1 X122.272 Y64.794 E2.53930
G1 X121.940 Y64.618 E2.55165
G1 X121.940 Y55.814 E2.84093
G1 X127.060 Y55.814 E3.00919
G1 X127.060 Y79.935 E3.80178
G1 X110.135 Y79.935 E4.35792
M204 S800
G1 X110.676 Y80.551 F9000.000
M204 S600
G1 X110.676 Y86.051 E4.53864 F1323.000
G1 X107.324 Y86.051 E4.64880
G1 X107.324 Y80.808 E4.82109
G1 X107.379 Y80.168 E4.84219
G1 X107.538 Y79.560 E4.86284
G1 X107.799 Y78.988 E4.88349
G1 X108.153 Y78.469 E4.90414
G1 X108.591 Y78.018 E4.92479
G1 X109.099 Y77.649 E4.94543
G1 X109.663 Y77.371 E4.96608
G1 X110.279 Y77.189 E4.98719
G1 X120.097 Y75.186 E5.31646
G1 X120.964 Y74.932 E5.34613
G1 X121.787 Y74.529 E5.37625
G1 X122.531 Y73.993 E5.40637
G1 X123.147 Y73.368 E5.43522
G1 X123.698 Y72.588 E5.46659
G1 X124.087 Y71.758 E5.49670
G1 X124.332 Y70.875 E5.52682
G1 X124.424 Y69.963 E5.55694
G1 X124.362 Y69.049 E5.58705
G1 X124.146 Y68.158 E5.61717
G1 X123.784 Y67.316 E5.64729
G1 X123.285 Y66.547 E5.67741
G1 X122.663 Y65.873 E5.70753
G1 X121.937 Y65.314 E5.73765
G1 X121.324 Y64.988 E5.76046
G1 X121.324 Y55.198 E6.08215
G1 X127.676 Y55.198 E6.29089
G1 X127.676 Y80.551 E7.12395
G1 X110.751 Y80.551 E7.68009
M204 S800
G1 X110.176 Y80.551 F9000.000
G1 X108.366 Y84.969 F9000.000
M204 S800
G1 X108.406 Y85.009 E7.68195 F2310.000
G1 X109.292 Y85.009 E7.71106
G1 X108.366 Y84.083 E7.75409
G1 X108.366 Y83.197 E7.78320
G1 X109.634 Y84.465 E7.84212
G1 X109.634 Y83.579 E7.87123
G1 X108.366 Y82.311 E7.93014
G1 X108.366 Y81.425 E7.95926
G1 X109.634 Y82.693 E8.01817
G1 X109.634 Y81.807 E8.04729
G1 X108.391 Y80.564 E8.10505
G1 X108.555 Y79.842 E8.12937
G1 X109.634 Y80.921 E8.17949
G1 X109.634 Y80.035 E8.20861
G1 X108.869 Y79.270 E8.24415
G1 X109.287 Y78.801 E8.26477
G1 X109.994 Y79.509 E8.29763
G1 X110.880 Y79.509 E8.32674
G1 X109.824 Y78.453 E8.37578
G1 X110.475 Y78.218 E8.39852
G1 X111.766 Y79.509 E8.45849
G1 X112.652 Y79.509 E8.48761
G1 X111.207 Y78.064 E8.55475
G1 X111.942 Y77.913 E8.57943
G1 X113.538 Y79.509 E8.65355
G1 X114.424 Y79.509 E8.68267
G1 X112.678 Y77.763 E8.76376
G1 X113.414 Y77.613 E8.78844
G1 X115.309 Y79.509 E8.87651
G1 X116.195 Y79.509 E8.90563
G1 X114.150 Y77.463 E9.00067
G1 X114.886 Y77.313 E9.02535
G1 X117.081 Y79.509 E9.12738
G1 X117.967 Y79.509 E9.15649
G1 X115.622 Y77.163 E9.26549
G1 X116.358 Y77.013 E9.29016
G1 X118.853 Y79.509 E9.40614
G1 X119.739 Y79.509 E9.43525
G1 X117.093 Y76.863 E9.55820
G1 X117.829 Y76.713 E9.58288
G1 X120.625 Y79.509 E9.71280
G1 X121.511 Y79.509 E9.74191
G1 X118.565 Y76.563 E9.87882
G1 X119.301 Y76.412 E9.90349
G1 X122.397 Y79.509 E10.04737
G1 X123.283 Y79.509 E10.07648
G1 X120.037 Y76.262 E10.22733
G1 X120.743 Y76.083 E10.25128
G1 X124.169 Y79.509 E10.41048
G1 X125.055 Y79.509 E10.43959
G1 X121.417 Y75.870 E10.60865
G1 X122.012 Y75.579 E10.63042
G1 X125.941 Y79.509 E10.81301
G1 X126.634 Y79.316 E10.83664
G1 X122.569 Y75.250 E11.02555
G1 X123.084 Y74.879 E11.04641
G1 X126.634 Y78.430 E11.21138
G1 X126.634 Y77.544 E11.24049
G1 X123.542 Y74.452 E11.38417
G1 X123.981 Y74.005 E11.40476
G1 X126.634 Y76.658 E11.52804
G1 X126.634 Y75.772 E11.55715
G1 X124.345 Y73.483 E11.66353
G1 X124.685 Y72.937 E11.68466
G1 X126.634 Y74.886 E11.77522
G1 X126.634 Y74.000 E11.80433
G1 X124.968 Y72.334 E11.88172
G1 X125.193 Y71.673 E11.90468
G1 X126.634 Y73.114 E11.97166
G1 X126.634 Y72.228 E12.00077
G1 X125.370 Y70.964 E12.05949
G1 X125.452 Y70.160 E12.08606
G1 X126.634 Y71.342 E12.14099
G1 X126.634 Y70.456 E12.17010
G1 X125.420 Y69.242 E12.22653
G1 X125.217 Y68.154 E12.26289
G1 X126.634 Y69.570 E12.32871
G1 X126.634 Y68.684 E12.35782
G1 X124.583 Y66.633 E12.45312
M204 S800
G1 X122.366 Y63.530 F9000.000
M204 S800
G1 X126.634 Y67.798 E12.65145 F2310.000
G1 X126.634 Y66.912 E12.68056
G1 X122.366 Y62.644 E12.87889
G1 X122.366 Y61.758 E12.90800
G1 X126.634 Y66.026 E13.10633
G1 X126.634 Y65.140 E13.13544
G1 X122.366 Y60.872 E13.33377
G1 X122.366 Y59.986 E13.36288
G1 X126.634 Y64.254 E13.56120
G1 X126.634 Y63.368 E13.59032
G1 X122.366 Y59.100 E13.78864
G1 X122.366 Y58.215 E13.81775
G1 X126.634 Y62.482 E14.01608
G1 X126.634 Y61.596 E14.04519
G1 X122.366 Y57.329 E14.24352
G1 X122.366 Y56.443 E14.27263
G1 X126.634 Y60.710 E14.47096
G1 X126.634 Y59.825 E14.50007
G1 X123.050 Y56.241 E14.66661
G1 X123.936 Y56.241 E14.69572
G1 X126.634 Y58.939 E14.82109
G1 X126.634 Y58.053 E14.85020
G1 X124.822 Y56.241 E14.93440
G1 X125.708 Y56.241 E14.96351
G1 X126.634 Y57.167 E15.00654
G1 X126.634 Y56.281 E15.03565
G1 X126.594 Y56.241 E15.03751
M204 S800
G1 F1500.000 E13.83751
G92 E0
G1 X110.060 Y42.435 F9000.000
G1 E1.20000 F1500.000
M204 S600
G1 X110.060 Y47.935 E1.38072 F1890.000
G1 X107.940 Y47.935 E1.45041
G1 X107.940 Y43.334 E1.60159
G1 X107.988 Y42.773 E1.62010
G1 X108.120 Y42.268 E1.63727
G1 X108.337 Y41.792 E1.65445
G1 X108.632 Y41.360 E1.67162
G1 X108.996 Y40.985 E1.68880
G1 X109.419 Y40.678 E1.70597
G1 X109.888 Y40.447 E1.72315
G1 X110.428 Y40.287 E1.74165
G1 X120.246 Y38.284 E2.07092
G1 X121.187 Y38.008 E2.10316
G1 X122.105 Y37.559 E2.13671
G1 X122.933 Y36.962 E2.17025
G1 X123.649 Y36.235 E2.20381
G1 X124.233 Y35.397 E2.23735
G1 X124.667 Y34.473 E2.27090
G1 X124.939 Y33.489 E2.30446
G1 X125.042 Y32.473 E2.33800
G1 X124.973 Y31.455 E2.37154
G1 X124.732 Y30.462 E2.40509
G1 X124.329 Y29.524 E2.43865
G1 X123.773 Y28.668 E2.47219
G1 X123.080 Y27.917 E2.50575
G1 X122.272 Y27.294 E2.53930
G1 X121.940 Y27.118 E2.55165
G1 X121.940 Y18.314 E2.84093
G1 X127.060 Y18.314 E3.00919
G1 X127.060 Y42.435 E3.80178
G1 X110.135 Y42.435 E4.35792
M204 S800
G1 X110.676 Y43.051 F9000.000
M204 S600
G1 X110.676 Y48.551 E4.53864 F1323.000
G1 X107.324 Y48.551 E4.64880
G1 X107.324 Y43.308 E4.82109
G1 X107.379 Y42.668 E4.84219
G1 X107.538 Y42.060 E4.86284
G1 X107.799 Y41.488 E4.88349
G1 X108.153 Y40.969 E4.90414
G1 X108.591 Y40.518 E4.92479
G1 X109.099 Y40.149 E4.94543
G1 X109.663 Y39.871 E4.96608
G1 X110.279 Y39.689 E4.98719
G1 X120.097 Y37.686 E5.31646
G1 X120.964 Y37.432 E5.34613
G1 X121.787 Y37.029 E5.37625
G1 X122.531 Y36.493 E5.40637
G1 X123.147 Y35.868 E5.43522
G1 X123.698 Y35.088 E5.46659
G1 X124.087 Y34.258 E5.49670
G1 X124.332 Y33.375 E5.52682
G1 X124.424 Y32.463 E5.55694
G1 X124.362 Y31.549 E5.58705
G1 X124.146 Y30.658 E5.61717
G1 X123.784 Y29.816 E5.64729
G1 X123.285 Y29.047 E5.67741
G1 X122.663 Y28.373 E5.70753
G1 X121.937 Y27.814 E5.73765
G1 X121.324 Y27.488 E5.76046
G1 X121.324 Y17.698 E6.08215
G1 X127.676 Y17.698 E6.29089
G1 X127.676 Y43.051 E7.12395
G1 X110.751 Y43.051 E7.68009
M204 S800
G1 X110.176 Y43.051 F9000.000
G1 X108.366 Y47.469 F9000.000
M204 S800
G1 X108.406 Y47.509 E7.68195 F2310.000
G1 X109.292 Y47.509 E7.71106
G1 X108.366 Y46.583 E7.75409
G1 X108.366 Y45.697 E7.78320
G1 X109.634 Y46.965 E7.84212
G1 X109.634 Y46.079 E7.87123
G1 X108.366 Y44.811 E7.93014
G1 X108.366 Y43.925 E7.95926
G1 X109.634 Y45.193 E8.01817
G1 X109.634 Y44.307 E8.04729
G1 X108.391 Y43.064 E8.10505
G1 X108.555 Y42.342 E8.12937
G1 X109.634 Y43.421 E8.17949
G1 X109.634 Y42.535 E8.20861
G1 X108.869 Y41.770 E8.24415
G1 X109.287 Y41.301 E8.26477
G1 X109.994 Y42.009 E8.29763
G1 X110.880 Y42.009 E8.32674
G1 X109.824 Y40.953 E8.37578
G1 X110.475 Y40.718 E8.39852
G1 X111.766 Y42.009 E8.45849
G1 X112.652 Y42.009 E8.48761
G1 X111.207 Y40.564 E8.55475
G1 X111.942 Y40.413 E8.57943
G1 X113.538 Y42.009 E8.65355
G1 X114.424 Y42.009 E8.68267
G1 X112.678 Y40.263 E8.76376
G1 X113.414 Y40.113 E8.78844
G1 X115.309 Y42.009 E8.87651
G1 X116.195 Y42.009 E8.90563
G1 X114.150 Y39.963 E9.00067
G1 X114.886 Y39.813 E9.02535
G1 X117.081 Y42.009 E9.12738
