; generated by Slic3r 1.1.7 on 2015-04-30 at 14:12:09

; perimeters extrusion width = 0.50mm
; infill extrusion width = 0.61mm
; solid infill extrusion width = 0.50mm
; top infill extrusion width = 0.43mm

G21 ; set units to millimeters
M107

M301 P34 I4 D113     ; set PID nozzle
M304 P162 I17 D378 ; set PID Bed

M104 S230                 ; set extruder temp for budaschnozzle
;M104 S250                 ; set extruder temp for hex_hot_end
M140 S100                 ; set bed temp for PET
;M140 S110                 ; set bed temp for PEI (reminder ~G1 Z2 ~ M140 S(@-10 degree change) ;if -m is present in file name)

;G28                            ; home
;G1 Z5 F300                ; move bed down 5mm
;M84                            ; disable steppers
;G4 S300                     ; wait 5 mins to preheat

G28                            ; home

G90 ; use absolute coordinates
G92 E0
M82 ; use absolute distances for extrusion
M204 S1800
G1 F1500.000 E-1.40000
G92 E0
G1 Z0.350 F9600.000
G1 X180.838 Y29.317 F9600.000
G1 E1.40000 F1500.000
G1 X181.339 Y28.815 E1.42340 F1365.000
G1 X182.304 Y28.005 E1.46492
G1 X183.353 Y27.309 E1.50643
G1 X184.474 Y26.734 E1.54795
G1 X185.652 Y26.289 E1.58947
G1 X186.180 Y26.137 E1.60758
G1 X186.873 Y25.978 E1.63100
G1 X188.120 Y25.806 E1.67252
G1 X189.030 Y25.764 E1.70253
G1 X253.380 Y25.774 E3.82374
G1 X254.634 Y25.884 E3.86525 F1365.000
G1 X255.175 Y25.976 E3.88335
G1 X255.869 Y26.133 E3.90679
G1 X257.068 Y26.520 E3.94831
G1 X257.576 Y26.730 E3.96644
G1 X258.216 Y27.038 E3.98984
G1 X258.697 Y27.304 E4.00796
G1 X259.298 Y27.681 E4.03137
G1 X259.746 Y27.998 E4.04945
G1 X260.302 Y28.441 E4.07290
G1 X261.215 Y29.309 E4.11442
G1 X262.025 Y30.274 E4.15594
G1 X262.721 Y31.323 E4.19745
G1 X263.296 Y32.444 E4.23898
G1 X263.506 Y32.953 E4.25712
G1 X263.741 Y33.622 E4.28051
G1 X263.893 Y34.151 E4.29864
G1 X264.052 Y34.843 E4.32203
G1 X264.144 Y35.386 E4.34021
G1 X264.224 Y36.091 E4.36357
G1 X264.265 Y37.000 E4.39358
G1 X264.256 Y105.350 E6.64664
G1 X264.224 Y105.906 E6.66500
G1 X264.146 Y106.604 E6.68818
G1 X264.053 Y107.154 E6.70656
G1 X263.896 Y107.839 E6.72971
G1 X263.510 Y109.037 E6.77122
G1 X263.297 Y109.554 E6.78964
G1 X262.992 Y110.186 E6.81277
G1 X262.349 Y111.269 E6.85428
G1 X262.028 Y111.720 E6.87254
G1 X261.589 Y112.272 E6.89581
G1 X261.217 Y112.688 E6.91418
G1 X260.720 Y113.185 E6.93735
G1 X259.756 Y113.995 E6.97887
G1 X259.302 Y114.316 E6.99720
G1 X258.706 Y114.691 E7.02039
G1 X258.223 Y114.959 E7.03862
G1 X257.586 Y115.266 E7.06193
G1 X257.075 Y115.477 E7.08016
G1 X256.407 Y115.711 E7.10347
G1 X255.187 Y116.022 E7.14498
G1 X254.641 Y116.115 E7.16323
G1 X253.939 Y116.194 E7.18651
G1 X253.386 Y116.225 E7.20479
G1 X229.000 Y116.236 E8.00863
G1 X188.621 Y116.035 E9.33972
G1 X187.366 Y115.925 E9.38123
G1 X186.131 Y115.676 E9.42275
G1 X185.599 Y115.522 E9.44100
G1 X184.932 Y115.289 E9.46428
G1 X183.784 Y114.771 E9.50580
G1 X182.702 Y114.128 E9.54732
G1 X181.698 Y113.368 E9.58883
G1 X181.286 Y112.999 E9.60705
G1 X180.785 Y112.500 E9.63037
G1 X179.975 Y111.535 E9.67189
G1 X179.654 Y111.081 E9.69022
G1 X179.279 Y110.486 E9.71341
G1 X179.010 Y109.999 E9.73175
G1 X178.704 Y109.365 E9.75495
G1 X178.493 Y108.854 E9.77318
G1 X178.259 Y108.186 E9.79649
G1 X177.948 Y106.966 E9.83800
G1 X177.855 Y106.420 E9.85625
G1 X177.776 Y105.718 E9.87954
G1 X177.745 Y105.166 E9.89778
G1 X177.735 Y78.800 E10.76690
G1 X177.804 Y36.650 E12.15631
G1 X177.835 Y36.103 E12.17439
G1 X177.914 Y35.396 E12.19785
G1 X178.006 Y34.854 E12.21594
G1 X178.163 Y34.161 E12.23937
G1 X178.549 Y32.962 E12.28089
G1 X178.760 Y32.454 E12.29904
G1 X179.068 Y31.814 E12.32243
G1 X179.333 Y31.333 E12.34054
G1 X179.711 Y30.732 E12.36396
G1 X180.028 Y30.284 E12.38205
G1 X180.471 Y29.728 E12.40549
G1 X180.788 Y29.373 E12.42115
G1 X181.298 Y29.729 F9600.000
G1 X181.751 Y29.276 E12.44227 F1365.000
G1 X182.662 Y28.509 E12.48151
G1 X183.652 Y27.850 E12.52074
G1 X184.711 Y27.305 E12.55998
G1 X185.823 Y26.882 E12.59921
G1 X186.351 Y26.730 E12.61732
G1 X186.976 Y26.587 E12.63846
G1 X188.155 Y26.422 E12.67769
G1 X189.030 Y26.382 E12.70656
G1 X253.345 Y26.391 E14.82663
G1 X254.531 Y26.493 E14.86586 F1365.000
G1 X255.072 Y26.585 E14.88395
G1 X255.698 Y26.727 E14.90511
G1 X256.831 Y27.090 E14.94435
G1 X257.339 Y27.301 E14.96247
G1 X257.917 Y27.578 E14.98360
G1 X258.398 Y27.844 E15.00171
G1 X258.941 Y28.185 E15.02284
G1 X259.388 Y28.502 E15.04093
G1 X259.891 Y28.902 E15.06209
G1 X260.754 Y29.721 E15.10133
G1 X261.521 Y30.632 E15.14056
G1 X262.180 Y31.622 E15.17980
G1 X262.725 Y32.681 E15.21903
G1 X262.935 Y33.189 E15.23717
G1 X263.148 Y33.793 E15.25828
G1 X263.300 Y34.322 E15.27641
G1 X263.443 Y34.946 E15.29752
G1 X263.535 Y35.490 E15.31570
G1 X263.607 Y36.125 E15.33678
G1 X263.648 Y37.000 E15.36565
G1 X263.639 Y105.315 E17.61757
G1 X263.608 Y105.871 E17.63591
G1 X263.537 Y106.501 E17.65682
G1 X263.444 Y107.050 E17.67518
G1 X263.303 Y107.668 E17.69607
G1 X262.940 Y108.801 E17.73530
G1 X262.726 Y109.317 E17.75369
G1 X262.452 Y109.887 E17.77455
G1 X261.845 Y110.911 E17.81378
G1 X261.525 Y111.363 E17.83204
G1 X261.128 Y111.861 E17.85303
G1 X260.757 Y112.276 E17.87139
G1 X260.309 Y112.724 E17.89229
G1 X259.398 Y113.491 E17.93152
G1 X258.945 Y113.812 E17.94984
G1 X258.408 Y114.150 E17.97076
G1 X257.924 Y114.418 E17.98899
G1 X257.349 Y114.695 E18.01002
G1 X256.838 Y114.907 E18.02825
G1 X256.236 Y115.118 E18.04927
G1 X255.083 Y115.413 E18.08850
G1 X254.538 Y115.506 E18.10674
G1 X253.905 Y115.578 E18.12775
G1 X253.351 Y115.609 E18.14602
G1 X229.003 Y115.618 E18.94863
G1 X188.655 Y115.418 E20.27867
G1 X187.469 Y115.316 E20.31790
G1 X186.302 Y115.082 E20.35713
G1 X185.770 Y114.929 E20.37538
G1 X185.169 Y114.719 E20.39639
G1 X184.083 Y114.231 E20.43562
G1 X183.059 Y113.624 E20.47485
G1 X182.109 Y112.907 E20.51409
G1 X181.697 Y112.539 E20.53231
G1 X181.246 Y112.088 E20.55334
G1 X180.479 Y111.177 E20.59257
G1 X180.158 Y110.724 E20.61089
G1 X179.820 Y110.187 E20.63181
G1 X179.551 Y109.700 E20.65014
G1 X179.275 Y109.128 E20.67107
G1 X179.063 Y108.617 E20.68930
G1 X178.852 Y108.015 E20.71032
G1 X178.557 Y106.863 E20.74955
G1 X178.464 Y106.317 E20.76780
G1 X178.393 Y105.684 E20.78880
G1 X178.352 Y104.809 E20.81767
G1 X178.352 Y78.801 E21.67499
G1 X178.421 Y36.685 E23.06329
G1 X178.452 Y36.137 E23.08138
G1 X178.523 Y35.499 E23.10255
G1 X178.615 Y34.958 E23.12064
G1 X178.757 Y34.332 E23.14179
G1 X179.120 Y33.199 E23.18103
G1 X179.331 Y32.690 E23.19917
G1 X179.608 Y32.113 E23.22028
G1 X179.874 Y31.632 E23.23839
G1 X180.215 Y31.089 E23.25953
G1 X180.532 Y30.641 E23.27762
G1 X180.932 Y30.139 E23.29877
G1 X181.248 Y29.785 E23.31443
G1 F1500.000 E21.91443
G92 E0
G1 X254.571 Y46.185 F9600.000
G1 E1.40000 F1500.000
G1 X254.161 Y46.678 E1.42114 F2100.000
G1 X253.708 Y47.132 E1.44229
G1 X253.214 Y47.541 E1.46343
G1 X252.685 Y47.904 E1.48457
G1 X252.125 Y48.216 E1.50571
G1 X251.538 Y48.475 E1.52686
G1 X250.930 Y48.679 E1.54800
G1 X250.306 Y48.826 E1.56914
G1 X249.671 Y48.914 E1.59028
G1 X249.030 Y48.944 E1.61143
G1 X248.389 Y48.914 E1.63257
G1 X247.754 Y48.826 E1.65371
G1 X247.130 Y48.679 E1.67485
G1 X246.521 Y48.475 E1.69599
G1 X245.935 Y48.216 E1.71714
G1 X245.374 Y47.904 E1.73828
G1 X244.901 Y47.580 E1.75719
G1 X244.352 Y47.132 E1.78055
G1 X243.898 Y46.678 E1.80169
G1 X243.488 Y46.184 E1.82284
G1 X243.126 Y45.655 E1.84398
G1 X242.814 Y45.095 E1.86513
G1 X242.555 Y44.508 E1.88627
G1 X242.351 Y43.900 E1.90740
G1 X242.204 Y43.276 E1.92855
G1 X242.116 Y42.641 E1.94969
G1 X242.086 Y42.000 E1.97084
G1 X242.116 Y41.359 E1.99198
G1 X242.204 Y40.724 E2.01312
G1 X242.351 Y40.100 E2.03426
G1 X242.555 Y39.491 E2.05541
G1 X242.814 Y38.905 E2.07654
G1 X243.126 Y38.345 E2.09769
G1 X243.489 Y37.815 E2.11883
G1 X243.898 Y37.322 E2.13997
G1 X244.352 Y36.868 E2.16112
G1 X244.845 Y36.459 E2.18226
G1 X245.374 Y36.096 E2.20340
G1 X245.935 Y35.784 E2.22454
G1 X246.521 Y35.525 E2.24569
G1 X247.130 Y35.321 E2.26683
G1 X247.754 Y35.174 E2.28797
G1 X248.389 Y35.086 E2.30911
G1 X249.030 Y35.056 E2.33025
G1 X249.603 Y35.083 E2.34916
G1 X250.306 Y35.174 E2.37253 F2100.000
G1 X250.930 Y35.321 E2.39367
G1 X251.538 Y35.525 E2.41481
G1 X252.284 Y35.854 E2.44168
G1 X252.284 Y35.873 E2.44229
G1 X252.685 Y36.096 E2.45744
G1 X253.214 Y36.459 E2.47858
G1 X253.708 Y36.868 E2.49972
G1 X254.161 Y37.322 E2.52086
G1 X254.571 Y37.815 E2.54200
G1 X254.895 Y38.289 E2.56091
G1 X255.246 Y38.905 E2.58428
G1 X255.505 Y39.492 E2.60542
G1 X255.709 Y40.100 E2.62656
G1 X255.855 Y40.724 E2.64771
G1 X255.944 Y41.359 E2.66885
G1 X255.974 Y42.000 E2.68999
G1 X255.944 Y42.641 E2.71113
G1 X255.855 Y43.276 E2.73228
G1 X255.709 Y43.900 E2.75342
G1 X255.505 Y44.509 E2.77456
G1 X255.246 Y45.095 E2.79570
G1 X254.934 Y45.655 E2.81684
G1 X254.614 Y46.123 E2.83551
G1 X254.078 Y45.812 F9600.000
G1 X253.704 Y46.261 E2.85477 F1575.000
G1 X253.291 Y46.675 E2.87403
G1 X252.842 Y47.048 E2.89329
G1 X252.360 Y47.378 E2.91255
G1 X251.849 Y47.662 E2.93181
G1 X251.315 Y47.898 E2.95107
G1 X250.761 Y48.084 E2.97033
G1 X250.192 Y48.218 E2.98959
G1 X249.613 Y48.298 E3.00885
G1 X249.030 Y48.325 E3.02810
G1 X248.446 Y48.298 E3.04736
G1 X247.868 Y48.218 E3.06662
G1 X247.299 Y48.084 E3.08588
G1 X246.745 Y47.898 E3.10514
G1 X246.210 Y47.662 E3.12440
G1 X245.700 Y47.378 E3.14366
G1 X245.250 Y47.070 E3.16163
G1 X244.769 Y46.674 E3.18217
G1 X244.355 Y46.261 E3.20143
G1 X243.982 Y45.812 E3.22069
G1 X243.652 Y45.330 E3.23995
G1 X243.368 Y44.819 E3.25921
G1 X243.132 Y44.285 E3.27847
G1 X242.946 Y43.731 E3.29773
G1 X242.812 Y43.162 E3.31699
G1 X242.731 Y42.584 E3.33625
G1 X242.705 Y42.000 E3.35551
G1 X242.731 Y41.416 E3.37476
G1 X242.812 Y40.838 E3.39402
G1 X242.946 Y40.269 E3.41328
G1 X243.132 Y39.715 E3.43254
G1 X243.368 Y39.181 E3.45180
G1 X243.652 Y38.670 E3.47106
G1 X243.982 Y38.188 E3.49032
G1 X244.355 Y37.739 E3.50958
G1 X244.769 Y37.325 E3.52884
G1 X245.188 Y36.977 E3.54680
G1 X245.700 Y36.622 E3.56735
G1 X246.210 Y36.338 E3.58661
G1 X246.745 Y36.102 E3.60587
G1 X247.299 Y35.916 E3.62513
G1 X247.868 Y35.782 E3.64439
G1 X248.485 Y35.700 E3.66494
G1 X249.030 Y35.675 E3.68290 F1575.000
G1 X249.613 Y35.702 E3.70216
G1 X250.192 Y35.782 E3.72142
G1 X250.761 Y35.916 E3.74068
G1 X251.315 Y36.102 E3.75994
G1 X251.849 Y36.338 E3.77920
G1 X252.360 Y36.622 E3.79846
G1 X252.842 Y36.952 E3.81772
G1 X253.291 Y37.326 E3.83697
G1 X253.704 Y37.739 E3.85623
G1 X254.053 Y38.158 E3.87420
G1 X254.408 Y38.670 E3.89475
G1 X254.692 Y39.181 E3.91401
G1 X254.928 Y39.715 E3.93327
G1 X255.114 Y40.269 E3.95252
G1 X255.248 Y40.838 E3.97178
G1 X255.328 Y41.416 E3.99104
G1 X255.355 Y42.000 E4.01030
G1 X255.328 Y42.584 E4.02956
G1 X255.248 Y43.162 E4.04882
G1 X255.114 Y43.731 E4.06808
G1 X254.928 Y44.285 E4.08734
G1 X254.692 Y44.819 E4.10660
G1 X254.408 Y45.330 E4.12586
G1 X254.120 Y45.750 E4.14264
G1 F1500.000 E2.74264
G92 E0
G1 X248.379 Y35.211 F9600.000
G1 X239.855 Y43.276 F9600.000
G1 E1.40000 F1500.000
G1 X239.709 Y43.900 E1.42114 F2100.000
G1 X239.526 Y44.444 E1.44005
G1 X239.246 Y45.095 E1.46341
G1 X238.934 Y45.655 E1.48456
G1 X238.571 Y46.185 E1.50570
G1 X238.161 Y46.678 E1.52684
G1 X237.756 Y47.084 E1.54575
G1 X237.214 Y47.541 E1.56912
G1 X236.685 Y47.904 E1.59026
G1 X236.125 Y48.216 E1.61141
G1 X235.538 Y48.475 E1.63255
G1 X234.930 Y48.679 E1.65369
G1 X234.306 Y48.826 E1.67483
G1 X233.671 Y48.914 E1.69597
G1 X233.030 Y48.944 E1.71712
G1 X232.389 Y48.914 E1.73826
G1 X231.754 Y48.826 E1.75940
G1 X231.130 Y48.679 E1.78054
G1 X230.521 Y48.475 E1.80169
G1 X229.935 Y48.216 E1.82283
G1 X229.374 Y47.904 E1.84397
G1 X228.845 Y47.541 E1.86512
G1 X228.352 Y47.132 E1.88625
G1 X227.898 Y46.678 E1.90739
G1 X227.488 Y46.184 E1.92854
G1 X227.126 Y45.655 E1.94968
G1 X226.847 Y45.154 E1.96859
G1 X226.555 Y44.508 E1.99196
G1 X226.351 Y43.900 E2.01310
G1 X226.204 Y43.276 E2.03425
G1 X226.116 Y42.641 E2.05539
G1 X226.086 Y42.000 E2.07653
G1 X226.116 Y41.359 E2.09767
G1 X226.204 Y40.724 E2.11881
G1 X226.351 Y40.100 E2.13995
G1 X226.555 Y39.491 E2.16110
G1 X226.814 Y38.905 E2.18223
G1 X227.126 Y38.345 E2.20338
G1 X227.489 Y37.815 E2.22452
G1 X227.898 Y37.322 E2.24566
G1 X228.352 Y36.868 E2.26681
G1 X228.793 Y36.502 E2.28571
G1 X229.374 Y36.096 E2.30908
G1 X229.935 Y35.784 E2.33023
G1 X230.521 Y35.525 E2.35137
G1 X231.130 Y35.321 E2.37251
G1 X231.754 Y35.174 E2.39365
G1 X232.389 Y35.086 E2.41479
G1 X233.030 Y35.056 E2.43594
G1 X233.603 Y35.083 E2.45484
G1 X234.306 Y35.174 E2.47821 F2100.000
G1 X234.930 Y35.321 E2.49936
G1 X235.538 Y35.525 E2.52050
G1 X236.284 Y35.854 E2.54737
G1 X236.284 Y35.873 E2.54797
G1 X236.685 Y36.096 E2.56312
G1 X237.214 Y36.459 E2.58426
G1 X237.708 Y36.868 E2.60540
G1 X238.161 Y37.322 E2.62654
G1 X238.571 Y37.815 E2.64769
G1 X238.934 Y38.345 E2.66884
G1 X239.246 Y38.905 E2.68997
G1 X239.505 Y39.492 E2.71111
G1 X239.709 Y40.100 E2.73225
G1 X239.855 Y40.724 E2.75340
G1 X239.944 Y41.359 E2.77454
G1 X239.974 Y42.000 E2.79568
G1 X239.944 Y42.641 E2.81682
G1 X239.866 Y43.202 E2.83549
G1 X239.248 Y43.162 F9600.000
G1 X239.114 Y43.731 E2.85475 F1575.000
G1 X238.941 Y44.248 E2.87272
G1 X238.692 Y44.819 E2.89327
G1 X238.408 Y45.330 E2.91253
G1 X238.078 Y45.812 E2.93178
G1 X237.704 Y46.261 E2.95104
G1 X237.291 Y46.675 E2.97031
G1 X236.842 Y47.048 E2.98956
G1 X236.360 Y47.378 E3.00882
G1 X235.849 Y47.662 E3.02808
G1 X235.315 Y47.898 E3.04734
G1 X234.761 Y48.084 E3.06660
G1 X234.192 Y48.218 E3.08586
G1 X233.613 Y48.298 E3.10512
G1 X233.030 Y48.325 E3.12438
G1 X232.446 Y48.298 E3.14364
G1 X231.868 Y48.218 E3.16290
G1 X231.299 Y48.084 E3.18216
G1 X230.745 Y47.898 E3.20141
G1 X230.246 Y47.678 E3.21938
G1 X229.700 Y47.378 E3.23993
G1 X229.218 Y47.048 E3.25919
G1 X228.769 Y46.674 E3.27845
G1 X228.355 Y46.261 E3.29770
G1 X227.982 Y45.812 E3.31697
G1 X227.652 Y45.330 E3.33622
G1 X227.368 Y44.819 E3.35548
G1 X227.132 Y44.285 E3.37474
G1 X226.946 Y43.731 E3.39400
G1 X226.812 Y43.162 E3.41326
G1 X226.731 Y42.584 E3.43252
G1 X226.705 Y42.000 E3.45178
G1 X226.731 Y41.416 E3.47104
G1 X226.812 Y40.838 E3.49030
G1 X226.946 Y40.269 E3.50956
G1 X227.132 Y39.715 E3.52882
G1 X227.368 Y39.181 E3.54807
G1 X227.652 Y38.670 E3.56733
G1 X227.982 Y38.188 E3.58659
G1 X228.355 Y37.739 E3.60585
G1 X228.769 Y37.325 E3.62511
G1 X229.218 Y36.952 E3.64437
G1 X229.734 Y36.603 E3.66492
G1 X230.210 Y36.338 E3.68288
G1 X230.745 Y36.102 E3.70214
G1 X231.299 Y35.916 E3.72140
G1 X231.868 Y35.782 E3.74066
G1 X232.485 Y35.700 E3.76121
G1 X233.030 Y35.675 E3.77917 F1575.000
G1 X233.613 Y35.702 E3.79843
G1 X234.192 Y35.782 E3.81769
G1 X234.761 Y35.916 E3.83695
G1 X235.315 Y36.102 E3.85621
G1 X235.849 Y36.338 E3.87547
G1 X236.360 Y36.622 E3.89473
G1 X236.842 Y36.952 E3.91399
G1 X237.291 Y37.326 E3.93325
G1 X237.704 Y37.739 E3.95251
G1 X238.078 Y38.188 E3.97177
G1 X238.408 Y38.670 E3.99103
G1 X238.692 Y39.181 E4.01028
G1 X238.928 Y39.715 E4.02954
G1 X239.114 Y40.269 E4.04880
G1 X239.248 Y40.838 E4.06806
G1 X239.328 Y41.416 E4.08732
G1 X239.355 Y42.000 E4.10658
G1 X239.328 Y42.584 E4.12584
G1 X239.258 Y43.088 E4.14263
G1 F1500.000 E2.74263
G92 E0
G1 X232.342 Y35.221 F9600.000
G1 X240.553 Y55.038 F9600.000
G1 E1.40000 F1500.000
G1 X240.895 Y55.017 E1.41129 F2100.000
G1 X241.507 Y55.038 E1.43148
G1 X242.112 Y55.133 E1.45167 F2100.000
G1 X242.374 Y55.201 E1.46058
G1 X242.701 Y55.303 E1.47187
G1 X243.264 Y55.543 E1.49207
G1 X243.794 Y55.850 E1.51226
G1 X244.013 Y56.009 E1.52117
G1 X244.282 Y56.220 E1.53246
G1 X244.722 Y56.647 E1.55266
G1 X245.105 Y57.125 E1.57286
G1 X245.250 Y57.353 E1.58176
G1 X245.427 Y57.647 E1.59306
G1 X245.683 Y58.203 E1.61326
G1 X245.868 Y58.788 E1.63346
G1 X245.919 Y59.053 E1.64237
G1 X245.981 Y59.390 E1.65367
G1 X246.018 Y60.000 E1.67381
G1 X245.981 Y60.610 E1.69395
G1 X245.919 Y60.947 E1.70525
G1 X245.868 Y61.212 E1.71415
G1 X245.683 Y61.797 E1.73435
G1 X245.427 Y62.353 E1.75456
G1 X245.250 Y62.647 E1.76585
G1 X245.105 Y62.875 E1.77475
G1 X244.722 Y63.353 E1.79495
G1 X244.282 Y63.780 E1.81515
G1 X244.013 Y63.991 E1.82645
G1 X243.794 Y64.150 E1.83535
G1 X243.264 Y64.457 E1.85555
G1 X242.701 Y64.697 E1.87574
G1 X242.112 Y64.867 E1.89593
G1 X241.507 Y64.962 E1.91612
G1 X241.165 Y64.983 E1.92742
