; generated by Slic3r 1.1.4 on 2014-07-01 at 11:47:38

; perimeters extrusion width = 0.50mm
; infill extrusion width = 0.59mm
; solid infill extrusion width = 0.60mm
; top infill extrusion width = 0.43mm

G21 ; set units to millimeters
G28 ; home all axes
G90 ; use absolute coordinates
G92 E0
M82 ; use absolute distances for extrusion
M204 S2000
G1 F1500.000 E-1.20000
G92 E0
G1 Z0.350 F9600.000
G1 X12.220 Y7.240 F9600.000
G1 E1.20000 F1500.000
G1 X13.901 Y6.146 E1.25771 F2700.000
G1 X15.776 Y5.787 E1.31264
G1 X130.231 Y5.936 E4.60587
G1 X132.196 Y6.335 E4.66358
G1 X133.854 Y7.464 E4.72129
G1 X134.946 Y9.146 E4.77900
G1 X135.302 Y11.015 E4.83374
G1 X135.302 Y49.329 E5.93616
G1 X135.153 Y99.329 E7.37482
G1 X134.751 Y101.294 E7.43253
G1 X133.915 Y102.636 E7.47804
G1 X123.169 Y115.058 E7.95063
G1 X120.941 Y116.551 E8.02779
G1 X80.941 Y129.950 E9.24158
G1 X79.328 Y130.213 E9.28861
G1 X75.251 Y130.212 E9.40591
G1 X65.401 Y130.063 E9.68938
G1 X63.864 Y129.801 E9.73423
G1 X23.864 Y116.401 E10.94801
G1 X21.475 Y114.712 E11.03221
G1 X11.774 Y102.290 E11.48571
G1 X10.876 Y100.497 E11.54342
G1 X10.698 Y99.164 E11.58211
G1 X10.698 Y10.866 E14.12275
G1 X11.094 Y8.899 E14.18046
G1 X12.178 Y7.302 E14.23601
G1 X12.750 Y7.482 F9600.000
G1 X14.396 Y6.541 E14.29054 F2700.000
G1 X15.776 Y6.326 E14.33074
G1 X130.230 Y6.475 E17.62396
G1 X132.083 Y6.874 E17.67848
G1 X133.612 Y7.993 E17.73301
G1 X134.550 Y9.640 E17.78754
G1 X134.763 Y11.015 E17.82757
G1 X134.763 Y49.327 E18.92994
G1 X134.614 Y99.327 E20.36861
G1 X134.213 Y101.179 E20.42314
G1 X133.508 Y102.283 E20.46084
G1 X122.761 Y114.705 E20.93343
G1 X120.770 Y116.039 E21.00239
G1 X80.770 Y129.439 E22.21618
G1 X79.328 Y129.674 E22.25822
G1 X75.260 Y129.673 E22.37529
G1 X65.409 Y129.524 E22.65876
G1 X64.036 Y129.289 E22.69884
G1 X24.036 Y115.890 E23.91263
G1 X21.900 Y114.380 E23.98789
G1 X12.199 Y101.958 E24.44138
G1 X11.370 Y100.254 E24.49591
G1 X11.237 Y99.164 E24.52751
G1 X11.237 Y10.866 E27.06815
G1 X11.632 Y9.012 E27.12268
G1 X12.706 Y7.542 E27.17505
G1 F1500.000 E25.97505
G92 E0
G1 X66.292 Y65.022 F9600.000
G1 E1.20000 F1500.000
G1 X60.292 Y65.022 E1.37264 F4500.000
G1 X60.292 Y60.900 E1.49122
G1 X33.663 Y60.900 E2.25741
G1 X33.663 Y62.647 E2.30768
G1 X31.236 Y62.647 E2.37751
G1 X26.292 Y60.999 E2.52748
G1 X26.292 Y58.400 E2.60225
G1 X58.005 Y58.400 E3.51473
G1 X58.578 Y58.328 E3.53136
G1 X59.139 Y58.096 E3.54882
G1 X59.583 Y57.755 E3.56493
G1 X59.965 Y57.277 E3.58256
G1 X60.018 Y57.175 E3.58583
G1 X60.214 Y56.701 E3.60060
G1 X60.233 Y56.588 E3.60389
G1 X60.292 Y56.139 E3.61693
G1 X60.292 Y55.532 E3.63439
G1 X60.214 Y54.970 E3.65072
G1 X59.965 Y54.395 E3.66875
G1 X59.661 Y53.999 E3.68312
G1 X59.583 Y53.916 E3.68639
G1 X59.139 Y53.575 E3.70250
G1 X58.578 Y53.343 E3.71995
G1 X58.005 Y53.272 E3.73658
G1 X26.292 Y53.272 E4.64907
G1 X26.292 Y50.673 E4.72384
G1 X31.236 Y49.025 E4.87380
G1 X33.663 Y49.025 E4.94364
G1 X33.663 Y50.772 E4.99391
G1 X60.292 Y50.771 E5.76010
G1 X60.292 Y46.650 E5.87868
G1 X66.292 Y46.650 E6.05132
G1 X66.292 Y37.501 E6.31458
G1 X68.663 Y37.501 E6.38281
G1 X68.663 Y74.171 E7.43793
G1 X66.292 Y74.171 E7.50617
G1 X66.292 Y65.097 E7.76727
G1 X65.753 Y65.561 F9600.000
G1 X59.753 Y65.561 E7.93991 F3375.000
G1 X59.753 Y61.440 E8.05849
G1 X34.203 Y61.439 E8.79364
G1 X34.203 Y63.186 E8.84391
G1 X31.149 Y63.186 E8.93178
G1 X25.753 Y61.388 E9.09545
G1 X25.753 Y57.861 E9.19692
G1 X57.987 Y57.861 E10.12440
G1 X58.437 Y57.803 E10.13748
G1 X58.867 Y57.625 E10.15084
G1 X59.221 Y57.353 E10.16369
G1 X59.528 Y56.948 E10.17833
G1 X59.699 Y56.509 E10.19189
G1 X59.753 Y56.104 E10.20364
G1 X59.753 Y55.568 E10.21906
G1 X59.692 Y55.120 E10.23207
G1 X59.508 Y54.686 E10.24564
G1 X59.250 Y54.349 E10.25783
G1 X58.867 Y54.047 E10.27190
G1 X58.437 Y53.869 E10.28526
G1 X57.987 Y53.811 E10.29834
G1 X25.753 Y53.811 E11.22582
G1 X25.753 Y50.284 E11.32730
G1 X31.149 Y48.485 E11.49096
G1 X34.203 Y48.485 E11.57883
G1 X34.203 Y50.232 E11.62910
G1 X59.753 Y50.232 E12.36425
G1 X59.753 Y46.111 E12.48283
G1 X65.753 Y46.111 E12.65547
G1 X65.753 Y36.961 E12.91873
G1 X69.203 Y36.961 E13.01800
G1 X69.203 Y74.710 E14.10416
G1 X65.753 Y74.710 E14.20342
G1 X65.753 Y65.636 E14.46452
G1 X65.753 Y65.061 F9600.000
G1 X65.124 Y64.651 F9600.000
G1 X59.020 Y58.547 E14.71290 F4950.000
G1 X59.515 Y58.275 E14.72915
G1 X65.891 Y64.651 E14.98860
G1 X66.658 Y64.651 E15.01066
G1 X59.927 Y57.919 E15.28457
G1 X60.267 Y57.493 E15.30027
G1 X68.292 Y65.518 E15.62683
G1 X68.292 Y66.285 E15.64890
G1 X66.663 Y64.655 E15.71521
G1 X66.663 Y65.422 E15.73727
G1 X68.292 Y67.052 E15.80358
G1 X68.292 Y67.819 E15.82565
G1 X66.663 Y66.189 E15.89196
G1 X66.663 Y66.956 E15.91402
G1 X68.292 Y68.585 E15.98033
G1 X68.292 Y69.352 E16.00239
G1 X66.663 Y67.723 E16.06870
G1 X66.663 Y68.490 E16.09077
G1 X68.292 Y70.119 E16.15708
G1 X68.292 Y70.886 E16.17914
G1 X66.663 Y69.256 E16.24545
G1 X66.663 Y70.023 E16.26752
G1 X68.292 Y71.653 E16.33382
G1 X68.292 Y72.420 E16.35589
G1 X66.663 Y70.790 E16.42220
G1 X66.663 Y71.557 E16.44426
G1 X68.292 Y73.187 E16.51057
G1 X68.139 Y73.800 E16.52877
G1 X66.663 Y72.324 E16.58883
G1 X66.663 Y73.091 E16.61090
G1 X67.372 Y73.800 E16.63976
G1 F1500.000 E15.43976
G92 E0
G1 X68.292 Y64.751 F9600.000
G1 E1.20000 F1500.000
G1 X60.506 Y56.965 E1.51683 F4950.000
G1 X60.641 Y56.333 E1.53544
G1 X68.292 Y63.984 E1.84680
G1 X68.292 Y63.218 E1.86887
G1 X60.663 Y55.588 E2.17932
G1 X60.470 Y54.629 E2.20748
G1 X68.292 Y62.451 E2.52578
G1 F1500.000 E1.32578
G92 E0
G1 X61.290 Y64.651 F9600.000
G1 E1.20000 F1500.000
G1 X60.663 Y64.023 E1.22553 F4950.000
G1 X60.663 Y63.256 E1.24759
G1 X62.057 Y64.651 E1.30432
G1 X62.824 Y64.651 E1.32638
G1 X60.663 Y62.490 E1.41432
G1 X60.663 Y61.723 E1.43638
G1 X63.591 Y64.651 E1.55552
G1 X64.358 Y64.651 E1.57759
G1 X58.428 Y58.721 E1.81887
G1 X57.711 Y58.771 E1.83955
G1 X59.469 Y60.529 E1.91110
G1 X58.703 Y60.529 E1.93316
G1 X56.944 Y58.771 E2.00471
G1 X56.177 Y58.771 E2.02678
G1 X57.936 Y60.529 E2.09833
G1 X57.169 Y60.529 E2.12039
G1 X55.411 Y58.771 E2.19194
G1 X54.644 Y58.771 E2.21400
G1 X56.402 Y60.529 E2.28555
G1 X55.635 Y60.529 E2.30762
G1 X53.877 Y58.771 E2.37916
G1 X53.110 Y58.771 E2.40123
G1 X54.868 Y60.529 E2.47278
G1 X54.101 Y60.529 E2.49484
G1 X52.343 Y58.771 E2.56639
G1 X51.576 Y58.771 E2.58845
G1 X53.335 Y60.529 E2.66000
G1 X52.568 Y60.529 E2.68206
G1 X50.809 Y58.771 E2.75361
G1 X50.043 Y58.771 E2.77567
G1 X51.801 Y60.529 E2.84722
G1 X51.034 Y60.529 E2.86928
G1 X49.276 Y58.771 E2.94083
G1 X48.509 Y58.771 E2.96289
G1 X50.267 Y60.529 E3.03444
G1 X49.500 Y60.529 E3.05650
G1 X47.742 Y58.771 E3.12805
G1 X46.975 Y58.771 E3.15011
G1 X48.733 Y60.529 E3.22165
G1 X47.967 Y60.529 E3.24372
G1 X46.208 Y58.771 E3.31526
G1 X45.442 Y58.771 E3.33732
G1 X47.200 Y60.529 E3.40887
G1 X46.433 Y60.529 E3.43093
G1 X44.675 Y58.771 E3.50247
G1 X43.908 Y58.771 E3.52454
G1 X45.666 Y60.529 E3.59608
G1 X44.899 Y60.529 E3.61814
G1 X43.141 Y58.771 E3.68968
G1 X42.374 Y58.771 E3.71175
G1 X44.132 Y60.529 E3.78329
G1 X43.365 Y60.529 E3.80535
G1 X41.607 Y58.771 E3.87689
G1 X40.840 Y58.771 E3.89895
G1 X42.599 Y60.529 E3.97049
G1 X41.832 Y60.529 E3.99256
G1 X40.074 Y58.771 E4.06410
G1 X39.307 Y58.771 E4.08616
G1 X41.065 Y60.529 E4.15770
G1 X40.298 Y60.529 E4.17976
G1 X38.540 Y58.771 E4.25130
G1 X37.773 Y58.771 E4.27336
G1 X39.531 Y60.529 E4.34490
G1 X38.764 Y60.529 E4.36697
G1 X37.006 Y58.771 E4.43850
G1 X36.239 Y58.771 E4.46057
G1 X37.997 Y60.529 E4.53210
G1 X37.231 Y60.529 E4.55417
G1 X35.473 Y58.771 E4.62570
G1 X34.706 Y58.771 E4.64776
G1 X36.464 Y60.529 E4.71930
G1 X35.697 Y60.529 E4.74136
G1 X33.939 Y58.771 E4.81290
G1 X33.172 Y58.771 F9600.000
G1 X34.930 Y60.529 E4.88443 F4950.000
G1 X34.163 Y60.529 E4.90649
G1 X32.405 Y58.771 E4.97803
G1 X31.638 Y58.771 E5.00009
G1 X33.396 Y60.529 E5.07162
G1 X33.292 Y61.192 E5.09093
G1 X30.871 Y58.771 E5.18944
G1 X30.105 Y58.771 E5.21151
G1 X33.292 Y61.959 E5.34122
G1 X32.843 Y62.276 E5.35705
G1 X29.338 Y58.771 E5.49968
G1 X28.571 Y58.771 E5.52174
G1 X32.076 Y62.276 E5.66437
G1 X31.309 Y62.276 E5.68644
G1 X27.804 Y58.771 E5.82906
G1 X27.037 Y58.771 E5.85113
G1 X30.165 Y61.899 E5.97841
G1 X29.015 Y61.516 E6.01330
G1 X26.663 Y59.163 E6.10901
G1 X26.663 Y59.930 E6.13107
G1 X27.865 Y61.132 E6.17998
G1 X26.714 Y60.749 E6.21487
G1 X26.663 Y60.697 E6.21697
G1 F1500.000 E5.01697
G92 E0
G1 X51.748 Y60.715 F9600.000
G1 X68.478 Y57.223 F9600.000
G1 X66.478 Y46.150 F9600.000
G1 X68.478 Y47.223 F9600.000
G1 X57.385 Y53.086 F9600.000
G1 X26.663 Y52.262 F9600.000
G1 E1.20000 F1500.000
G1 X27.302 Y52.901 E1.22599 F4950.000
G1 X28.068 Y52.901 E1.24806
G1 X26.663 Y51.495 E1.30525
G1 X26.822 Y50.887 E1.32333
G1 X28.835 Y52.901 E1.40526
G1 X29.602 Y52.901 E1.42733
G1 X27.397 Y50.695 E1.51706
G1 X27.972 Y50.504 E1.53451
G1 X30.369 Y52.901 E1.63204
G1 X31.136 Y52.901 E1.65411
G1 X28.547 Y50.312 E1.75944
G1 X29.122 Y50.120 E1.77688
G1 X31.903 Y52.901 E1.89002
G1 X32.670 Y52.901 E1.91209
G1 X29.697 Y49.929 E2.03302
G1 X30.273 Y49.737 E2.05047
G1 X33.436 Y52.901 E2.17921
G1 X34.203 Y52.901 E2.20127
G1 X30.848 Y49.545 E2.33781
G1 X31.465 Y49.396 E2.35609
G1 X34.970 Y52.901 E2.49871
G1 X35.737 Y52.901 E2.52078
G1 X33.979 Y51.143 E2.59231
G1 X34.746 Y51.143 E2.61437
G1 X36.504 Y52.901 E2.68590
G1 X37.271 Y52.901 E2.70797
G1 X35.513 Y51.143 E2.77950
G1 X36.279 Y51.143 E2.80157
G1 X38.037 Y52.901 E2.87310
G1 X38.804 Y52.901 E2.89517
G1 X37.046 Y51.143 E2.96670
G1 X37.813 Y51.143 E2.98876
G1 X39.571 Y52.901 E3.06030
G1 X40.338 Y52.901 E3.08236
G1 X38.580 Y51.143 E3.15390
G1 X39.347 Y51.143 E3.17596
G1 X41.105 Y52.901 E3.24750
G1 X41.872 Y52.901 E3.26956
G1 X40.114 Y51.143 E3.34110
G1 X40.880 Y51.143 E3.36316
G1 X42.639 Y52.901 E3.43470
G1 X43.405 Y52.901 E3.45676
G1 X41.647 Y51.143 E3.52830
G1 X42.414 Y51.143 E3.55037
G1 X44.172 Y52.901 E3.62190
G1 X44.939 Y52.901 E3.64397
G1 X43.181 Y51.143 E3.71551
G1 X43.948 Y51.143 E3.73757
G1 X45.706 Y52.901 E3.80911
G1 X46.473 Y52.901 E3.83118
G1 X44.715 Y51.143 E3.90272
G1 X45.481 Y51.142 E3.92478
G1 X47.240 Y52.901 E3.99632
G1 X48.006 Y52.901 E4.01838
G1 X46.248 Y51.142 E4.08993
G1 X47.015 Y51.142 E4.11199
G1 X48.773 Y52.901 E4.18353
G1 X49.540 Y52.901 E4.20560
G1 X47.782 Y51.142 E4.27714
G1 X48.549 Y51.142 E4.29920
G1 X50.307 Y52.901 E4.37074
G1 X51.074 Y52.901 E4.39281
G1 X49.316 Y51.142 E4.46435
G1 X50.082 Y51.142 E4.48642
G1 X51.841 Y52.901 E4.55796
G1 X52.608 Y52.901 E4.58002
G1 X50.849 Y51.142 E4.65157
G1 X51.616 Y51.142 E4.67363
G1 X53.374 Y52.901 E4.74518
G1 X54.141 Y52.901 E4.76724
G1 X52.383 Y51.142 E4.83879
G1 X53.150 Y51.142 E4.86085
G1 X54.908 Y52.901 E4.93240
G1 X55.675 Y52.901 E4.95446
G1 X53.917 Y51.142 E5.02601
G1 X54.683 Y51.142 E5.04807
G1 X56.442 Y52.901 E5.11962
G1 X57.209 Y52.901 E5.14168
G1 X55.450 Y51.142 E5.21323
G1 X56.217 Y51.142 E5.23530
G1 X57.975 Y52.901 E5.30684
G1 X58.929 Y53.087 E5.33479
G1 X56.984 Y51.142 E5.41393
G1 X57.751 Y51.142 E5.43599
G1 X68.292 Y61.684 E5.86495
G1 X68.292 Y60.917 E5.88701
G1 X58.518 Y51.142 E6.28476
G1 X59.284 Y51.142 E6.30682
G1 X68.292 Y60.150 E6.67337
G1 X68.292 Y59.383 E6.69543
G1 X60.051 Y51.142 E7.03078
G1 X60.663 Y50.987 E7.04893
G1 X68.292 Y58.616 E7.35939
G1 X68.292 Y57.850 E7.38145
G1 X60.663 Y50.220 E7.69191
G1 X60.663 Y49.453 E7.71398
G1 X68.292 Y57.083 E8.02444
G1 X68.292 Y56.316 E8.04650
G1 X60.663 Y48.686 E8.35696
G1 X60.663 Y47.920 E8.37902
G1 X68.292 Y55.549 E8.68948
G1 X68.292 Y54.782 E8.71155
G1 X60.663 Y47.153 E9.02200
G1 X61.298 Y47.021 E9.04067
G1 X68.292 Y54.015 E9.32528
G1 X68.292 Y53.249 E9.34735
G1 X62.065 Y47.021 E9.60075
G1 X62.832 Y47.021 E9.62282
G1 X68.292 Y52.482 E9.84502
G1 X68.292 Y51.715 E9.86708
G1 X63.599 Y47.021 E10.05808
G1 X64.365 Y47.021 E10.08015
G1 X68.292 Y50.948 E10.23994
G1 X68.292 Y50.181 E10.26201
G1 X65.132 Y47.021 E10.39060
G1 X65.899 Y47.021 E10.41266
G1 X68.292 Y49.414 E10.51005
G1 X68.292 Y48.647 E10.53211
G1 X66.663 Y47.018 E10.59842
G1 X66.663 Y46.251 E10.62049
G1 X68.292 Y47.881 E10.68680
G1 X68.292 Y47.114 E10.70886
G1 X66.663 Y45.484 E10.77517
G1 X66.663 Y44.717 E10.79723
G1 X68.292 Y46.347 E10.86354
G1 X68.292 Y45.580 E10.88561
G1 X66.663 Y43.951 E10.95192
G1 X66.663 Y43.184 E10.97398
G1 X68.292 Y44.813 E11.04029
G1 X68.292 Y44.046 E11.06236
G1 X66.663 Y42.417 E11.12867
G1 X66.663 Y41.650 E11.15073
G1 X68.292 Y43.280 E11.21704
G1 X68.292 Y42.513 E11.23910
G1 X66.663 Y40.883 E11.30541
G1 X66.663 Y40.116 E11.32748
G1 X68.292 Y41.746 E11.39379
G1 X68.292 Y40.979 E11.41585
G1 X66.663 Y39.349 E11.48216
G1 X66.663 Y38.583 E11.50423
G1 X68.292 Y40.212 E11.57054
G1 X68.292 Y39.445 E11.59260
G1 X66.719 Y37.872 E11.65664
G1 X67.486 Y37.872 E11.67870
G1 X68.292 Y38.678 E11.71153
G1 X68.292 Y37.912 E11.73360
G1 X68.252 Y37.872 E11.73522
G1 F1500.000 E10.53522
G92 E0
G1 X68.478 Y47.223 F9600.000
G1 X57.385 Y53.086 F9600.000
G1 X27.385 Y53.086 F9600.000
G1 X32.999 Y49.396 F9600.000
G1 E1.20000 F1500.000
G1 X33.292 Y49.689 E1.21195 F4950.000
G1 X33.292 Y50.456 E1.23402
G1 X32.232 Y49.396 E1.27717
M204 S2000
G1 F1500.000 E0.07717
G92 E0
G1 X18.962 Y70.829 F9600.000
G1 E1.20000 F1500.000
G1 X24.962 Y70.829 E1.37264 F4500.000
G1 X24.962 Y74.950 E1.49122
G1 X51.590 Y74.951 E2.25741
G1 X51.590 Y73.204 E2.30768
G1 X54.017 Y73.204 E2.37752
G1 X58.962 Y74.852 E2.52748
G1 X58.962 Y77.451 E2.60225
G1 X27.249 Y77.451 E3.51474
G1 X26.676 Y77.522 E3.53136
G1 X26.115 Y77.755 E3.54882
G1 X25.671 Y78.096 E3.56493
G1 X25.289 Y78.574 E3.58256
G1 X25.236 Y78.675 E3.58583
G1 X25.040 Y79.149 E3.60060
G1 X25.021 Y79.262 E3.60389
G1 X24.962 Y79.712 E3.61693
G1 X24.962 Y80.318 E3.63439
G1 X25.040 Y80.880 E3.65072
G1 X25.289 Y81.456 E3.66875
G1 X25.593 Y81.852 E3.68312
G1 X25.671 Y81.934 E3.68639
G1 X26.115 Y82.275 E3.70250
G1 X26.676 Y82.507 E3.71995
G1 X27.249 Y82.579 E3.73658
G1 X58.962 Y82.579 E4.64907
G1 X58.962 Y85.178 E4.72384
G1 X54.017 Y86.826 E4.87380
G1 X51.590 Y86.826 E4.94364
G1 X51.590 Y85.079 E4.99391
G1 X24.962 Y85.079 E5.76010
G1 X24.962 Y89.201 E5.87868
G1 X18.962 Y89.201 E6.05132
G1 X18.962 Y98.350 E6.31458
G1 X16.590 Y98.350 E6.38281
G1 X16.590 Y61.680 E7.43793
G1 X18.962 Y61.680 E7.50617
G1 X18.962 Y70.754 E7.76727
G1 X19.501 Y70.290 F9600.000
G1 X25.501 Y70.290 E7.93991 F3375.000
G1 X25.501 Y74.411 E8.05849
G1 X51.051 Y74.412 E8.79364
G1 X51.051 Y72.664 E8.84391
G1 X54.105 Y72.664 E8.93178
G1 X59.501 Y74.463 E9.09545
G1 X59.501 Y77.990 E9.19692
G1 X27.267 Y77.990 E10.12441
G1 X26.816 Y78.048 E10.13748
G1 X26.387 Y78.226 E10.15084
G1 X26.033 Y78.498 E10.16369
G1 X25.726 Y78.903 E10.17833
G1 X25.554 Y79.342 E10.19189
G1 X25.501 Y79.747 E10.20364
G1 X25.501 Y80.283 E10.21906
G1 X25.562 Y80.731 E10.23207
G1 X25.745 Y81.165 E10.24564
G1 X26.003 Y81.501 E10.25783
G1 X26.387 Y81.804 E10.27190
G1 X26.816 Y81.982 E10.28526
G1 X27.267 Y82.040 E10.29834
G1 X59.501 Y82.040 E11.22582
G1 X59.501 Y85.567 E11.32730
G1 X54.105 Y87.365 E11.49096
G1 X51.051 Y87.365 E11.57883
G1 X51.051 Y85.618 E11.62910
G1 X25.501 Y85.619 E12.36425
G1 X25.501 Y89.740 E12.48283
G1 X19.501 Y89.740 E12.65547
G1 X19.501 Y98.889 E12.91873
G1 X16.051 Y98.889 E13.01800
G1 X16.051 Y61.141 E14.10416
G1 X19.501 Y61.141 E14.20342
G1 X19.501 Y70.215 E14.46452
G1 X19.501 Y70.790 F9600.000
G1 X19.363 Y71.200 F9600.000
G1 X25.738 Y77.576 E14.72397 F4950.000
G1 X25.327 Y77.932 E14.73961
G1 X16.961 Y69.566 E15.08003
G1 X16.961 Y70.333 E15.10209
G1 X24.987 Y78.358 E15.42865
G1 X24.748 Y78.886 E15.44532
G1 X16.961 Y71.100 E15.76216
G1 X16.961 Y71.866 E15.78422
G1 X24.613 Y79.518 E16.09559
G1 X24.591 Y80.263 E16.11702
G1 X16.961 Y72.633 E16.42748
G1 X16.961 Y73.400 E16.44954
G1 X24.784 Y81.222 E16.76784
G1 F1500.000 E15.56784
G92 E0
G1 X16.776 Y77.478 F9600.000
G1 X26.325 Y82.764 F9600.000
G1 E1.20000 F1500.000
G1 X28.270 Y84.708 E1.27914 F4950.000
G1 X29.037 Y84.708 E1.30120
G1 X27.278 Y82.950 E1.37275
G1 X28.045 Y82.950 E1.39481
G1 X29.803 Y84.708 E1.46636
G1 X30.570 Y84.708 E1.48842
G1 X28.812 Y82.950 E1.55997
G1 X29.579 Y82.950 E1.58204
G1 X31.337 Y84.708 E1.65358
G1 X32.104 Y84.708 E1.67565
G1 X30.346 Y82.950 E1.74719
G1 X31.113 Y82.950 E1.76926
G1 X32.871 Y84.708 E1.84080
G1 X33.638 Y84.708 E1.86287
