; generated by Slic3r 1.1.7 on 2015-02-16 at 10:27:09

; perimeters extrusion width = 0.56mm
; infill extrusion width = 0.60mm
; solid infill extrusion width = 0.55mm
; top infill extrusion width = 0.43mm

G21 ; set units to millimeters
M107

M301 P34 I4 D113     ; set PID nozzle
M304 P162 I17 D378 ; set PID Bed

;M104 S230                  ; set extruder temp for budaschnozzle
M104 S250                 ; set extruder temp for hex_hot_end
;M140 S100                    ; set bed temp for PET
M140 S110                 ; set bed temp for PEI (reminder ~G1 Z2 ~ M140 S(@-10 degree change) ;if -m is present in file name)

G28                            ; home
G1 Z5 F300                ; move bed down 5mm
M84                            ; disable steppers
G4 S300                     ; wait 5 mins to preheat

G28                            ; home

G90 ; use absolute coordinates
G92 E0
M82 ; use absolute distances for extrusion
G1 F1500.000 E-1.20000
G92 E0
G1 Z0.350 F9600.000
G1 X78.768 Y134.066 F9600.000
G1 E1.20000 F1500.000
G1 X80.496 Y131.963 E1.28946 F1260.000
G1 X82.248 Y130.469 E1.36513
G1 X84.486 Y129.129 E1.45083
G1 X86.115 Y128.434 E1.50902
G1 X88.184 Y127.946 E1.57888
G1 X88.625 Y127.931 E1.59336
G1 X94.303 Y127.931 E1.77996
G1 X96.748 Y128.430 E1.86195
G1 X98.073 Y128.995 E1.90926 F1260.000
G1 X99.018 Y129.497 E1.94442
G1 X101.163 Y130.994 E2.03038
G1 X102.084 Y131.844 E2.07157
G1 X102.766 Y132.582 E2.10458
G1 X104.621 Y134.947 E2.20334
G1 X104.898 Y135.326 E2.21878
G1 X124.880 Y165.112 E3.39733
G1 X125.769 Y167.150 E3.47040
G1 X125.937 Y168.583 E3.51783
G1 X125.937 Y198.154 E4.48951
G1 X125.181 Y201.129 E4.59034
G1 X117.841 Y214.642 E5.09566
G1 X116.448 Y216.376 E5.16873
G1 X114.535 Y217.510 E5.24180
G1 X112.365 Y217.900 E5.31425
G1 X93.030 Y217.900 E5.94959
G1 X90.842 Y217.503 E6.02266
G1 X88.932 Y216.363 E6.09574
G1 X87.545 Y214.625 E6.16881
G1 X86.874 Y212.637 E6.23775
G1 X76.115 Y143.991 E8.52094
G1 X76.073 Y142.588 E8.56706
G1 X76.127 Y141.375 E8.60696
G1 X76.584 Y138.799 E8.69291
G1 X77.015 Y137.464 E8.73903
G1 X77.473 Y136.339 E8.77892
G1 X78.191 Y134.969 E8.82976
G1 X78.727 Y134.129 E8.86249
G1 X79.256 Y134.441 F9600.000
G1 X80.913 Y132.415 E8.94849 F1260.000
G1 X82.583 Y130.986 E9.02071
G1 X84.728 Y129.695 E9.10296
G1 X86.357 Y129.001 E9.16115
G1 X88.221 Y128.561 E9.22410
G1 X88.625 Y128.547 E9.23736
G1 X94.303 Y128.547 E9.42396
G1 X96.507 Y128.997 E9.49785
G1 X97.831 Y129.562 E9.54515 F1260.000
G1 X98.683 Y130.014 E9.57687
G1 X100.745 Y131.446 E9.65937
G1 X101.666 Y132.297 E9.70056
G1 X102.282 Y132.962 E9.73033
G1 X104.137 Y135.326 E9.82909
G1 X104.386 Y135.670 E9.84302
G1 X124.368 Y165.455 E11.02158
G1 X125.194 Y167.397 E11.09092
G1 X125.321 Y168.583 E11.13013
G1 X125.321 Y198.154 E12.10181
G1 X124.640 Y200.835 E12.19268
G1 X117.300 Y214.348 E12.69799
G1 X115.963 Y215.980 E12.76733
G1 X114.117 Y217.004 E12.83667
G1 X112.365 Y217.284 E12.89497
G1 X93.030 Y217.284 E13.53030
G1 X90.957 Y216.887 E13.59964
G1 X89.177 Y215.754 E13.66898
G1 X87.941 Y214.044 E13.73831
G1 X87.482 Y212.542 E13.78993
G1 X76.731 Y143.972 E16.07059
G1 X76.688 Y142.569 E16.11670
G1 X76.737 Y141.461 E16.15314
G1 X77.170 Y138.988 E16.23564
G1 X77.601 Y137.653 E16.28176
G1 X78.018 Y136.625 E16.31819
G1 X78.736 Y135.256 E16.36901
G1 X79.216 Y134.504 E16.39830
G1 F1500.000 E15.19830
G92 E0
G1 X96.112 Y146.731 F9600.000
G1 E1.20000 F1500.000
M204 S800
G1 X95.348 Y147.494 E1.23548 F1890.000
G1 X94.464 Y148.113 E1.27095
G1 X93.485 Y148.570 E1.30642
G1 X92.443 Y148.849 E1.34190
G1 X91.368 Y148.943 E1.37736
G1 X90.292 Y148.849 E1.41283
G1 X89.249 Y148.570 E1.44831
G1 X89.165 Y148.530 E1.45136
G1 X88.271 Y148.114 E1.48377
G1 X87.386 Y147.494 E1.51925
G1 X86.623 Y146.731 E1.55472
G1 X86.570 Y146.655 E1.55777
G1 X86.004 Y145.847 E1.59020
G1 X85.548 Y144.868 E1.62567
G1 X85.268 Y143.825 E1.66115
G1 X85.174 Y142.750 E1.69662
G1 X85.268 Y141.674 E1.73210
G1 X85.548 Y140.632 E1.76756
G1 X86.004 Y139.653 E1.80304
G1 X86.623 Y138.769 E1.83851
G1 X87.387 Y138.006 E1.87398
G1 X88.214 Y137.412 E1.90744
G1 X89.202 Y136.952 E1.94327
G1 X90.254 Y136.661 E1.97911
G1 X91.411 Y136.561 E2.01729
M204 S800
M204 S800
G1 X92.412 Y136.649 E2.05031 F1890.000
G1 X93.406 Y136.908 E2.08407
G1 X93.539 Y136.955 E2.08870
G1 X94.486 Y137.402 E2.12308
G1 X95.348 Y138.006 E2.15769
G1 X96.112 Y138.769 E2.19316
G1 X96.731 Y139.653 E2.22864
G1 X97.187 Y140.632 E2.26410
G1 X97.211 Y140.721 E2.26715
G1 X97.467 Y141.675 E2.29959
G1 X97.561 Y142.750 E2.33505
G1 X97.466 Y143.826 E2.37053
G1 X97.187 Y144.868 E2.40600
G1 X96.731 Y145.847 E2.44148
G1 X96.155 Y146.669 E2.47448
M204 S800
G1 X95.638 Y146.334 F9600.000
M204 S800
G1 X94.951 Y147.021 E2.50642 F1470.000
G1 X94.155 Y147.578 E2.53834
G1 X93.274 Y147.989 E2.57028
G1 X92.335 Y148.240 E2.60221
G1 X91.329 Y148.322 E2.63540
G1 X90.399 Y148.240 E2.66605
G1 X89.461 Y147.989 E2.69798
G1 X88.580 Y147.578 E2.72991
G1 X87.784 Y147.021 E2.76185
G1 X87.097 Y146.334 E2.79378
G1 X86.539 Y145.537 E2.82571
G1 X86.129 Y144.657 E2.85764
G1 X85.877 Y143.718 E2.88958
G1 X85.792 Y142.750 E2.92151
G1 X85.877 Y141.782 E2.95344
G1 X86.129 Y140.843 E2.98537
G1 X86.539 Y139.962 E3.01731
G1 X87.097 Y139.166 E3.04924
G1 X87.784 Y138.479 E3.08117
G1 X88.573 Y137.925 E3.11286
G1 X89.500 Y137.500 E3.14637
G1 X90.384 Y137.264 E3.17642
G1 X91.337 Y137.177 E3.20789
M204 S800
M204 S800
G1 X92.349 Y137.263 E3.24126 F1470.000
G1 X93.271 Y137.511 E3.27263
G1 X94.162 Y137.927 E3.30494
G1 X94.951 Y138.479 E3.33658
G1 X95.638 Y139.166 E3.36851
G1 X96.196 Y139.963 E3.40044
G1 X96.616 Y140.881 E3.43364
G1 X96.858 Y141.782 E3.46429
G1 X96.942 Y142.750 E3.49622
G1 X96.858 Y143.718 E3.52815
G1 X96.606 Y144.657 E3.56008
G1 X96.195 Y145.538 E3.59202
G1 X95.681 Y146.272 E3.62148
M204 S800
G1 F1500.000 E2.42148
G92 E0
G1 X91.278 Y136.681 F9600.000
G1 X100.383 Y158.799 F9600.000
G1 E1.20000 F1500.000
M204 S800
G1 X101.360 Y158.537 E1.23321 F1890.000
G1 X102.367 Y158.449 E1.26645
G1 X102.459 Y158.457 E1.26947
M204 S800
M204 S800
G1 X103.375 Y158.537 E1.29967 F1890.000
G1 X104.352 Y158.799 E1.33290
G1 X105.268 Y159.226 E1.36612
G1 X106.096 Y159.806 E1.39936
G1 X106.811 Y160.521 E1.43259
G1 X107.391 Y161.349 E1.46581
G1 X107.819 Y162.266 E1.49905
G1 X108.080 Y163.243 E1.53226
G1 X108.168 Y164.250 E1.56549
G1 X108.080 Y165.257 E1.59871
G1 X107.819 Y166.234 E1.63195
G1 X107.391 Y167.150 E1.66517
G1 X106.811 Y167.979 E1.69840
G1 X106.096 Y168.694 E1.73163
G1 X105.268 Y169.274 E1.76485
G1 X104.351 Y169.701 E1.79809
G1 X103.375 Y169.963 E1.83131
G1 X102.367 Y170.051 E1.86453
G1 X101.360 Y169.963 E1.89776
G1 X100.383 Y169.701 E1.93099
G1 X99.467 Y169.274 E1.96422
G1 X98.639 Y168.694 E1.99744
G1 X97.924 Y167.979 E2.03066
G1 X97.344 Y167.151 E2.06389
G1 X96.916 Y166.234 E2.09711
G1 X96.654 Y165.257 E2.13035
G1 X96.566 Y164.250 E2.16358
G1 X96.654 Y163.243 E2.19680
G1 X96.916 Y162.266 E2.23004
G1 X97.343 Y161.350 E2.26325
G1 X97.924 Y160.521 E2.29649
G1 X98.639 Y159.806 E2.32972
G1 X99.467 Y159.226 E2.36294
G1 X100.315 Y158.830 E2.39371
M204 S800
G1 X100.595 Y159.380 F9600.000
M204 S800
G1 X101.467 Y159.146 E2.42339 F1470.000
G1 X102.290 Y159.074 E2.45052
M204 S800
M204 S800
G1 X103.267 Y159.146 E2.48273 F1470.000
G1 X104.140 Y159.380 E2.51241
G1 X104.959 Y159.761 E2.54210
G1 X105.699 Y160.280 E2.57179
G1 X106.338 Y160.919 E2.60147
G1 X106.856 Y161.659 E2.63116
G1 X107.238 Y162.477 E2.66085
G1 X107.472 Y163.350 E2.69053
G1 X107.550 Y164.250 E2.72022
G1 X107.462 Y165.187 E2.75114
G1 X107.238 Y166.023 E2.77957
G1 X106.856 Y166.841 E2.80925
G1 X106.338 Y167.582 E2.83894
G1 X105.699 Y168.220 E2.86863
G1 X104.959 Y168.739 E2.89831
G1 X104.140 Y169.120 E2.92800
G1 X103.267 Y169.354 E2.95769
G1 X102.367 Y169.433 E2.98737
G1 X101.467 Y169.354 E3.01706
G1 X100.595 Y169.120 E3.04675
G1 X99.776 Y168.739 E3.07643
G1 X99.036 Y168.220 E3.10612
G1 X98.397 Y167.582 E3.13580
G1 X97.879 Y166.841 E3.16549
G1 X97.497 Y166.023 E3.19517
G1 X97.263 Y165.150 E3.22486
G1 X97.184 Y164.250 E3.25455
G1 X97.263 Y163.350 E3.28423
G1 X97.497 Y162.477 E3.31392
G1 X97.879 Y161.659 E3.34360
G1 X98.397 Y160.918 E3.37329
G1 X99.036 Y160.280 E3.40298
G1 X99.776 Y159.761 E3.43267
G1 X100.527 Y159.411 E3.45989
M204 S800
G1 F1500.000 E2.25989
G92 E0
G1 X102.522 Y158.631 F9600.000
G1 X95.178 Y171.460 F9600.000
G1 E1.20000 F1500.000
M204 S800
G1 X117.557 Y171.460 E1.93536 F1890.000
G1 X117.557 Y194.040 E2.67729
G1 X95.178 Y194.040 E3.41265
G1 X95.178 Y171.535 E4.15211
M204 S800
G1 X95.794 Y172.076 F9600.000
M204 S800
G1 X116.941 Y172.076 E4.84700 F1470.000
G1 X116.941 Y193.424 E5.54846
G1 X95.794 Y193.424 E6.24334
G1 X95.794 Y172.151 E6.94234
M204 S800
G1 X95.794 Y171.576 F9600.000
G1 F1500.000 E5.74234
G92 E0
G1 X93.969 Y210.728 F9600.000
G1 E1.20000 F1500.000
M204 S800
G1 X93.969 Y175.660 E2.35232 F1890.000
G1 X93.922 Y175.095 E2.37093
G1 X93.782 Y174.547 E2.38954
G1 X83.677 Y145.443 E3.40186
G1 X83.571 Y145.112 E3.41327
G1 X83.281 Y143.692 E3.46090
G1 X83.239 Y142.301 E3.50663
G1 X83.434 Y140.923 E3.55236
G1 X83.861 Y139.599 E3.59809
G1 X84.507 Y138.366 E3.64382
G1 X85.419 Y137.177 E3.69305
G1 X86.212 Y136.445 E3.72850
G1 X87.374 Y135.694 E3.77397
G1 X88.761 Y135.102 E3.82353
G1 X94.111 Y135.102 E3.99934
G1 X95.190 Y135.562 E4.03785
G1 X96.358 Y136.318 E4.08358
G1 X97.171 Y137.068 E4.11993
G1 X98.962 Y139.351 E4.21527
G1 X118.765 Y168.869 E5.38328
G1 X118.765 Y197.916 E6.33771
G1 X111.806 Y210.728 E6.81682
G1 X94.044 Y210.728 E7.40045
M204 S800
G1 X93.354 Y211.344 F9600.000
M204 S800
G1 X93.354 Y175.686 E8.57216 F1470.000
G1 X93.313 Y175.198 E8.58823
G1 X93.192 Y174.725 E8.60430
G1 X83.093 Y145.638 E9.61602
G1 X82.975 Y145.269 E9.62877
G1 X82.667 Y143.764 E9.67924
G1 X82.622 Y142.267 E9.72844
G1 X82.832 Y140.785 E9.77764
G1 X83.291 Y139.359 E9.82684
G1 X83.986 Y138.033 E9.87604
G1 X84.963 Y136.761 E9.92875
G1 X85.833 Y135.957 E9.96767
G1 X87.083 Y135.148 E10.01661
G1 X88.635 Y134.486 E10.07204
G1 X94.237 Y134.486 E10.25612
G1 X95.480 Y135.016 E10.30051
G1 X96.737 Y135.830 E10.34971
G1 X97.625 Y136.649 E10.38942
G1 X99.461 Y138.989 E10.48713
G1 X119.381 Y168.682 E11.66205
G1 X119.381 Y198.072 E12.62778
G1 X112.173 Y211.344 E13.12407
G1 X93.429 Y211.344 E13.73998
M204 S800
G1 X93.604 Y210.911 F9600.000
G1 X94.396 Y210.270 F9600.000
M204 S750
G1 X94.451 Y210.302 E13.74205 F1890.000
G1 X95.688 Y210.302 E13.78271
G1 X94.396 Y209.556 E13.83172
G1 X94.396 Y208.842 E13.85520
G1 X96.925 Y210.302 E13.95116
G1 X98.162 Y210.302 E13.99182
G1 X94.396 Y208.127 E14.13473
G1 X94.396 Y207.413 E14.15820
G1 X99.400 Y210.302 E14.34806
G1 X100.637 Y210.302 E14.38871
G1 X94.396 Y206.699 E14.62552
G1 X94.396 Y205.984 E14.64899
G1 X101.874 Y210.302 E14.93274
G1 X103.112 Y210.302 E14.97339
G1 X94.396 Y205.270 E15.30408
G1 X94.396 Y204.556 E15.32756
G1 X104.349 Y210.302 E15.70520
G1 X105.586 Y210.302 E15.74585
G1 X94.396 Y203.841 E16.17044
G1 X94.396 Y203.127 E16.19391
G1 X106.824 Y210.302 E16.66544
G1 X108.061 Y210.302 E16.70610
G1 X94.396 Y202.413 E17.22457
G1 X94.396 Y201.698 E17.24804
G1 X109.298 Y210.302 E17.81347
G1 X110.535 Y210.302 E17.85412
G1 X94.396 Y200.984 E18.46649
G1 X94.396 Y200.270 E18.48996
G1 X111.590 Y210.197 E19.14234
G1 X111.899 Y209.661 E19.16267
G1 X94.396 Y199.555 E19.82679
G1 X94.396 Y198.841 E19.85026
G1 X112.196 Y209.118 E20.52563
G1 X112.491 Y208.574 E20.54597
G1 X94.396 Y198.126 E21.23255
G1 X94.396 Y197.412 E21.25602
G1 X112.787 Y208.030 E21.95380
G1 X113.082 Y207.486 E21.97414
G1 X94.396 Y196.698 E22.68313
G1 X94.396 Y195.983 E22.70660
G1 X113.377 Y206.942 E23.42680
G1 X113.673 Y206.399 E23.44713
G1 X94.396 Y195.269 E24.17853
G1 X94.776 Y194.774 E24.19904
G1 X113.968 Y205.855 E24.92724
G1 X114.263 Y205.311 E24.94758
G1 X95.480 Y194.466 E25.66028
G1 X96.717 Y194.466 E25.70093
G1 X114.559 Y204.767 E26.37789
G1 X114.854 Y204.223 E26.39823
G1 X97.954 Y194.466 E27.03945
G1 X99.192 Y194.466 E27.08011
G1 X115.149 Y203.679 E27.68559
G1 X115.445 Y203.136 E27.70592
G1 X100.429 Y194.466 E28.27567
G1 X101.666 Y194.466 E28.31633
G1 X115.740 Y202.592 E28.85033
G1 X116.036 Y202.048 E28.87067
G1 X102.903 Y194.466 E29.36893
G1 X104.141 Y194.466 E29.40959
G1 X116.331 Y201.504 E29.87212
G1 X116.626 Y200.960 E29.89245
G1 X105.378 Y194.466 E30.31924
G1 X106.615 Y194.466 E30.35990
G1 X116.922 Y200.416 E30.75095
G1 X117.217 Y199.873 E30.77128
G1 X107.853 Y194.466 E31.12660
G1 X109.090 Y194.466 E31.16725
G1 X117.512 Y199.329 E31.48682
G1 X117.808 Y198.785 E31.50716
G1 X110.327 Y194.466 E31.79099
G1 X111.564 Y194.466 E31.83165
G1 X118.103 Y198.241 E32.07974
G1 X118.339 Y197.663 E32.10026
G1 X112.802 Y194.466 E32.31036
G1 X114.039 Y194.466 E32.35101
G1 X118.339 Y196.949 E32.51416
G1 X118.339 Y196.234 E32.53763
G1 X115.276 Y194.466 E32.65383
G1 X116.514 Y194.466 E32.69449
G1 X118.339 Y195.520 E32.76374
G1 X118.339 Y194.806 E32.78721
G1 X118.284 Y194.774 E32.78929
M204 S800
G1 X118.161 Y194.347 F9600.000
G1 X118.161 Y171.152 E33.23677 F945.000
G1 F1500.000 E32.03677
G92 E0
G1 X103.789 Y170.695 F9600.000
G1 E1.20000 F1500.000
G1 X102.333 Y170.756 E1.26968 F945.000
G1 X100.946 Y170.695 E1.33606
G1 F1500.000 E0.13606
G92 E0
G1 X95.117 Y171.400 F9600.000
G1 X94.560 Y175.310 F9600.000
G1 E1.20000 F1500.000
G1 X94.574 Y175.647 E1.20651 F945.000
G1 X94.574 Y194.347 E1.56728
G1 F1500.000 E0.36728
G92 E0
G1 X94.358 Y174.892 F9600.000
G1 E1.20000 F1500.000
M204 S750
G1 X94.302 Y174.859 E1.20215 F1890.000
G1 X94.041 Y173.994 E1.23182
G1 X94.751 Y174.404 E1.25876
G1 X94.751 Y173.690 E1.28223
G1 X93.731 Y173.101 E1.32094
G1 X93.421 Y172.208 E1.35201
G1 X94.751 Y172.976 E1.40249
G1 X94.751 Y172.261 E1.42595
G1 X93.111 Y171.314 E1.48820
G1 X92.801 Y170.421 E1.51927
G1 X94.751 Y171.547 E1.59328
G1 X95.099 Y171.034 E1.61366
G1 X92.491 Y169.528 E1.71264
G1 X92.180 Y168.634 E1.74371
G1 X96.337 Y171.034 E1.90141
G1 X97.574 Y171.034 E1.94206
G1 X91.870 Y167.741 E2.15845
G1 X91.560 Y166.848 E2.18952
G1 X98.811 Y171.034 E2.46463
G1 X100.048 Y171.034 E2.50528
G1 X91.250 Y165.955 E2.83909
M204 S800
G1 F1500.000 E1.63909
G92 E0
G1 X100.523 Y170.594 F9600.000
G1 E1.20000 F1500.000
M204 S750
G1 X90.940 Y165.061 E1.56362 F1890.000
G1 X90.630 Y164.168 E1.59469
G1 X97.520 Y168.146 E1.85612
G1 X96.814 Y167.024 E1.89967
G1 X90.320 Y163.275 E2.14608
G1 X90.010 Y162.381 E2.17715
G1 X96.437 Y166.092 E2.42101
G1 X96.226 Y165.256 E2.44933
G1 X89.699 Y161.488 E2.69697
G1 X89.389 Y160.595 E2.72805
G1 X96.160 Y164.504 E2.98496
G1 X96.178 Y163.800 E3.00811
G1 X89.079 Y159.701 E3.27744
G1 X88.769 Y158.808 E3.30851
G1 X96.245 Y163.124 E3.59216
G1 X96.410 Y162.506 E3.61320
G1 X88.459 Y157.915 E3.91490
G1 X88.149 Y157.022 E3.94597
G1 X96.612 Y161.908 E4.26711
G1 X96.875 Y161.345 E4.28751
G1 X87.839 Y156.128 E4.63037
G1 X87.528 Y155.235 E4.66144
G1 X97.196 Y160.817 E5.02825
G1 X97.552 Y160.308 E5.04865
G1 X87.218 Y154.342 E5.44074
G1 X86.908 Y153.448 E5.47181
G1 X97.993 Y159.848 E5.89240
G1 X98.465 Y159.407 E5.91365
G1 X86.598 Y152.555 E6.36392
G1 X86.288 Y151.662 E6.39499
G1 X99.024 Y159.015 E6.87824
G1 X99.658 Y158.667 E6.90200
G1 X85.978 Y150.769 E7.42104
G1 X85.668 Y149.875 E7.45211
G1 X100.367 Y158.362 E8.00983
G1 X101.212 Y158.135 E8.03857
G1 X85.357 Y148.982 E8.64011
G1 X85.047 Y148.089 E8.67118
G1 X102.266 Y158.030 E9.32449
M204 S800
G1 X103.827 Y158.217 F9600.000
M204 S750
G1 X84.737 Y147.195 E10.04879 F1890.000
M204 S800
G1 F1500.000 E8.84879
G92 E0
G1 X87.353 Y147.991 F9600.000
G1 E1.20000 F1500.000
M204 S750
G1 X84.427 Y146.302 E1.31100 F1890.000
G1 X84.117 Y145.409 E1.34207
G1 X85.896 Y146.436 E1.40957
G1 X85.320 Y145.389 E1.44883
G1 X83.895 Y144.566 E1.50290
G1 X83.729 Y143.757 E1.53006
G1 X85.006 Y144.493 E1.57849
G1 X84.827 Y143.676 E1.60598
G1 X83.687 Y143.018 E1.64923
G1 X83.670 Y142.294 E1.67303
G1 X84.761 Y142.924 E1.71442
G1 X84.792 Y142.227 E1.73733
G1 X83.764 Y141.634 E1.77633
G1 X83.864 Y140.978 E1.79815
G1 X84.860 Y141.552 E1.83590
G1 X85.025 Y140.934 E1.85694
G1 X84.059 Y140.375 E1.89362
G1 X84.253 Y139.773 E1.91441
G1 X85.218 Y140.330 E1.95102
G1 X85.480 Y139.768 E1.97143
G1 X84.539 Y139.224 E2.00714
G1 X84.841 Y138.684 E2.02747
