; generated by Slic3r 1.1.4 on 2015-01-12 at 11:05:26

; perimeters extrusion width = 0.50mm
; infill extrusion width = 0.60mm
; solid infill extrusion width = 0.60mm
; top infill extrusion width = 0.43mm

G21 ; set units to millimeters
M107

M301 P34 I4 D113     ; set PID nozzle
M304 P162 I17 D378 ; set PID Bed

M104 S230                 ; set extruder temp for budaschnozzle
;M104 S240                 ; set extruder temp for hex_hot_end
M140 S100                 ; set bed temp for PET
;M140 S110                 ; set bed temp for PEI (reminder: heatmod=M140 @10 degree change at @G1 Z2)

G28                            ; home
G1 Z5 F300                ; move bed down 5mm
M84                            ; disable steppers
G4 S300                     ; wait 5 mins to preheat

G28                            ; home

G90 ; use absolute coordinates
G92 E0
M82 ; use absolute distances for extrusion
M204 S2000
G1 F1800.000 E-2.00000
G92 E0
G1 Z0.350 F9600.000
G1 X74.941 Y135.245 F9600.000
G1 E2.00000 F1800.000
G1 X76.609 Y133.772 E2.07333 F1260.000
G1 X78.687 Y132.979 E2.14666
G1 X79.836 Y132.873 E2.18469
G1 X121.969 Y132.873 E3.57358
G1 X124.158 Y133.269 E3.64691
G1 X126.069 Y134.409 E3.72024
G1 X127.890 Y137.150 E3.82870
G1 X128.226 Y138.167 E3.86401
G1 X128.359 Y138.652 E3.88061
G1 X128.644 Y140.102 E3.92932
G1 X128.731 Y141.416 E3.97272
G1 X128.916 Y180.586 E5.26392
G1 X128.912 Y187.776 E5.50093
G1 X128.853 Y189.425 E5.55533
G1 X128.624 Y191.568 E5.62637
G1 X128.286 Y193.442 E5.68913
G1 X127.829 Y195.260 E5.75092
G1 X127.201 Y197.190 E5.81783
G1 X126.659 Y198.545 E5.86595
G1 X125.644 Y200.648 E5.94291
G1 X124.876 Y202.008 E5.99439
G1 X123.698 Y203.786 E6.06470
G1 X122.535 Y205.295 E6.12752
G1 X121.312 Y206.680 E6.18842
G1 X119.924 Y208.048 E6.25267
G1 X118.629 Y209.171 E6.30916
G1 X116.962 Y210.420 E6.37781
G1 X115.722 Y211.232 E6.42669
G1 X113.541 Y212.452 E6.50907
G1 X112.058 Y213.141 E6.56297
G1 X110.199 Y213.858 E6.62865
G1 X108.396 Y214.414 E6.69085
G1 X106.539 Y214.852 E6.75372
G1 X104.877 Y215.134 E6.80930
G1 X102.851 Y215.336 E6.87643
G1 X100.880 Y215.389 E6.94142
G1 X99.263 Y215.332 E6.99475
G1 X97.097 Y215.102 E7.06655
G1 X95.611 Y214.845 E7.11624
G1 X94.975 Y214.704 E7.13773
G1 X93.367 Y214.296 E7.19241
G1 X91.573 Y213.711 E7.25462
G1 X89.971 Y213.073 E7.31144
G1 X88.105 Y212.172 E7.37977
G1 X86.683 Y211.370 E7.43358
G1 X84.877 Y210.176 E7.50494
G1 X83.638 Y209.236 E7.55621
G1 X81.839 Y207.660 E7.63506
G1 X81.099 Y206.920 E7.66956
G1 X80.645 Y206.421 E7.69178
G1 X79.295 Y204.851 E7.76004
G1 X78.241 Y203.437 E7.81820
G1 X77.250 Y201.908 E7.87824
G1 X76.293 Y200.178 E7.94340
G1 X75.534 Y198.562 E8.00226
G1 X74.808 Y196.684 E8.06863
G1 X74.280 Y194.998 E8.12687
G1 X73.812 Y193.021 E8.19385
G1 X73.537 Y191.415 E8.24756
G1 X73.327 Y189.347 E8.31607
G1 X73.269 Y187.593 E8.37394
G1 X73.084 Y148.423 E9.66514
G1 X73.102 Y140.973 E9.91073
G1 X73.196 Y139.849 E9.94791
G1 X73.307 Y139.228 E9.96868
G1 X73.534 Y138.342 E9.99882
G1 X73.896 Y137.209 E10.03806
G1 X74.906 Y135.311 E10.10892
G1 X75.494 Y135.543 F9600.000
G1 X77.116 Y134.193 E10.17849 F1260.000
G1 X79.836 Y133.490 E10.27109
G1 X121.969 Y133.490 E11.65998
G1 X124.042 Y133.887 E11.72955
G1 X125.823 Y135.020 E11.79912
G1 X127.303 Y137.344 E11.88994
G1 X127.637 Y138.354 E11.92501
G1 X127.757 Y138.792 E11.93998
G1 X128.030 Y140.165 E11.98613
G1 X128.113 Y141.419 E12.02755
G1 X128.298 Y180.586 E13.31865
G1 X128.295 Y187.755 E13.55498
G1 X128.237 Y189.387 E13.60881
G1 X128.015 Y191.463 E13.67763
G1 X127.686 Y193.295 E13.73900
G1 X127.240 Y195.075 E13.79947
G1 X126.627 Y196.963 E13.86492
G1 X126.096 Y198.291 E13.91204
G1 X125.106 Y200.345 E13.98722
G1 X124.347 Y201.688 E14.03805
G1 X123.206 Y203.412 E14.10623
G1 X122.069 Y204.889 E14.16766
G1 X120.872 Y206.246 E14.22731
G1 X119.518 Y207.582 E14.29003
G1 X118.242 Y208.689 E14.34571
G1 X116.623 Y209.903 E14.41239
G1 X115.392 Y210.710 E14.46094
G1 X113.275 Y211.894 E14.54086
G1 X111.831 Y212.566 E14.59338
G1 X110.012 Y213.269 E14.65767
G1 X108.250 Y213.814 E14.71847
G1 X106.434 Y214.243 E14.77995
G1 X104.794 Y214.522 E14.83480
G1 X102.823 Y214.719 E14.90011
G1 X100.901 Y214.772 E14.96349
G1 X99.299 Y214.715 E15.01631
G1 X97.202 Y214.493 E15.08583
G1 X95.721 Y214.237 E15.13537
G1 X95.122 Y214.103 E15.15562
G1 X93.554 Y213.707 E15.20892
G1 X91.800 Y213.136 E15.26974
G1 X90.222 Y212.509 E15.32570
G1 X88.408 Y211.634 E15.39210
G1 X87.000 Y210.840 E15.44536
G1 X85.251 Y209.684 E15.51450
G1 X84.019 Y208.749 E15.56547
G1 X82.276 Y207.223 E15.64183
G1 X81.537 Y206.485 E15.67626
G1 X81.111 Y206.015 E15.69717
G1 X79.787 Y204.478 E15.76403
G1 X78.757 Y203.098 E15.82080
G1 X77.785 Y201.599 E15.87968
G1 X76.851 Y199.913 E15.94323
G1 X76.105 Y198.326 E16.00105
G1 X75.397 Y196.497 E16.06568
G1 X74.877 Y194.840 E16.12294
G1 X74.421 Y192.916 E16.18811
G1 X74.148 Y191.326 E16.24129
G1 X73.945 Y189.317 E16.30784
G1 X73.887 Y187.590 E16.36482
G1 X73.702 Y148.423 E17.65593
G1 X73.718 Y141.019 E17.89997
G1 X73.809 Y139.927 E17.93610
G1 X73.909 Y139.368 E17.95483
G1 X74.122 Y138.531 E17.98331
G1 X74.485 Y137.397 E18.02254
G1 X75.458 Y135.609 E18.08964
G1 F1800.000 E16.08964
G92 E0
G1 X107.602 Y192.761 F9600.000
G1 E2.00000 F1800.000
G1 X106.980 Y193.457 E2.03078 F1575.000
G1 X106.283 Y194.079 E2.06155
G1 X105.522 Y194.620 E2.09233
G1 X104.705 Y195.071 E2.12311
G1 X103.842 Y195.428 E2.15388
G1 X102.945 Y195.687 E2.18466
G1 X102.025 Y195.843 E2.21543
G1 X101.093 Y195.896 E2.24621
G1 X100.192 Y195.845 E2.27595
G1 X99.240 Y195.687 E2.30776
G1 X98.343 Y195.428 E2.33853
G1 X97.480 Y195.071 E2.36931
G1 X96.663 Y194.620 E2.40008
G1 X95.902 Y194.079 E2.43086
G1 X95.205 Y193.457 E2.46164
G1 X94.583 Y192.761 E2.49241
G1 X94.043 Y192.000 E2.52319
G1 X93.592 Y191.182 E2.55396
G1 X93.234 Y190.320 E2.58474
G1 X92.976 Y189.423 E2.61552
G1 X92.819 Y188.502 E2.64629
G1 X92.767 Y187.570 E2.67707
G1 X92.818 Y186.669 E2.70681
G1 X92.976 Y185.717 E2.73862
G1 X93.234 Y184.820 E2.76939
G1 X93.580 Y183.987 E2.79914
G1 X94.043 Y183.140 E2.83095
G1 X94.581 Y182.383 E2.86157
G1 X95.201 Y181.689 E2.89225
G1 X95.897 Y181.064 E2.92308
G1 X96.661 Y180.522 E2.95397
G1 X97.470 Y180.075 E2.98444
G1 X98.342 Y179.712 E3.01557
G1 X99.247 Y179.452 E3.04658
G1 X100.154 Y179.298 E3.07692
G1 X101.092 Y179.245 E3.10791
G1 X102.031 Y179.298 E3.13889
G1 X102.937 Y179.452 E3.16918
G1 X103.842 Y179.712 E3.20022
G1 X104.685 Y180.061 E3.23031
G1 X105.533 Y180.528 E3.26224
G1 X106.288 Y181.064 E3.29273
G1 X106.976 Y181.680 E3.32318
G1 X107.603 Y182.382 E3.35421
G1 X108.142 Y183.140 E3.38487
G1 X108.605 Y183.987 E3.41668
G1 X108.951 Y184.820 E3.44642
G1 X109.209 Y185.717 E3.47720
G1 X109.366 Y186.638 E3.50798
G1 X109.418 Y187.570 E3.53876
G1 X109.366 Y188.502 E3.56953
G1 X109.209 Y189.423 E3.60031
G1 X108.951 Y190.320 E3.63109
G1 X108.594 Y191.182 E3.66186
G1 X108.142 Y192.000 E3.69264
G1 X107.645 Y192.700 E3.72094
G1 X107.776 Y193.230 F9600.000
G1 F1800.000 E1.72094
G92 E0
G1 X119.454 Y196.984 F9600.000
G1 E2.00000 F1800.000
G1 X119.469 Y196.984 E2.00049 F1995.000
G1 X118.731 Y198.297 E2.05012
G1 X117.959 Y199.474 E2.09653
G1 X117.105 Y200.600 E2.14311
G1 X116.181 Y201.659 E2.18943
G1 X115.182 Y202.659 E2.23604
G1 X114.121 Y203.584 E2.28243
G1 X112.998 Y204.435 E2.32887
G1 X111.886 Y205.164 E2.37271
G1 X110.444 Y205.976 E2.42727
G1 X109.394 Y206.475 E2.46557
G1 X108.006 Y207.022 E2.51478
G1 X106.665 Y207.448 E2.56114
G1 X105.231 Y207.797 E2.60979
G1 X106.504 Y206.045 E2.68118
G1 X107.074 Y204.606 E2.73221
G1 X107.268 Y203.070 E2.78323
G1 X107.074 Y201.534 E2.83426
G1 X106.504 Y200.095 E2.88528
G1 X105.594 Y198.843 E2.93631
G1 X104.401 Y197.856 E2.98734
G1 X103.001 Y197.197 E3.03836
G1 X101.562 Y196.923 E3.08663
G1 X101.591 Y196.486 E3.10104
G1 X102.094 Y196.458 E3.11764
G1 X103.083 Y196.290 E3.15071
G1 X104.047 Y196.013 E3.18377
G1 X104.973 Y195.629 E3.21683
G1 X105.905 Y195.105 E3.25205
G1 X106.669 Y194.563 E3.28295
G1 X107.417 Y193.895 E3.31600
G1 X108.086 Y193.147 E3.34907
G1 X108.666 Y192.329 E3.38213
G1 X109.151 Y191.451 E3.41520
G1 X109.535 Y190.524 E3.44826
G1 X109.813 Y189.561 E3.48132
G1 X109.981 Y188.572 E3.51439
G1 X110.001 Y188.215 E3.52616
G1 X110.422 Y188.174 E3.54012
G1 X110.851 Y189.843 E3.59695
G1 X111.597 Y191.200 E3.64798
G1 X112.656 Y192.328 E3.69900
G1 X113.963 Y193.158 E3.75003
G1 X115.435 Y193.636 E3.80105
G1 X116.980 Y193.733 E3.85208
G1 X118.501 Y193.443 E3.90311
G1 X119.901 Y192.784 E3.95413
G1 X120.913 Y191.947 E3.99741
G1 X121.215 Y192.137 E4.00917
G1 X120.971 Y193.138 E4.04314
G1 X120.512 Y194.587 E4.09325
G1 X120.111 Y195.602 E4.12924
G1 X119.486 Y196.917 E4.17722
G1 F1800.000 E2.17722
G92 E0
G1 X121.396 Y183.758 F9600.000
G1 E2.00000 F1800.000
G1 X121.094 Y183.343 E2.01691 F1995.000
G1 X119.901 Y182.356 E2.06794
G1 X118.501 Y181.697 E2.11896
G1 X116.980 Y181.407 E2.16999
G1 X115.435 Y181.504 E2.22102
G1 X113.963 Y181.983 E2.27204
G1 X112.656 Y182.812 E2.32307
G1 X111.597 Y183.940 E2.37409
G1 X110.851 Y185.297 E2.42512
G1 X110.422 Y186.967 E2.48195
G1 X110.001 Y186.925 E2.49591
G1 X109.981 Y186.568 E2.50769
G1 X109.813 Y185.580 E2.54075
G1 X109.535 Y184.615 E2.57383
G1 X109.151 Y183.689 E2.60689
G1 X108.665 Y182.811 E2.63997
G1 X108.091 Y182.002 E2.67266
G1 X107.380 Y181.212 E2.70772
G1 X106.673 Y180.581 E2.73894
G1 X105.882 Y180.017 E2.77098
G1 X105.065 Y179.562 E2.80180
G1 X105.160 Y179.191 E2.81442
G1 X121.451 Y179.191 E3.35142
G1 X121.567 Y179.482 E3.36173
G1 X121.691 Y180.019 E3.37992
G1 X121.737 Y180.622 E3.39983
G1 X121.737 Y183.647 E3.49956
G1 X121.467 Y183.735 E3.50893
G1 F1800.000 E1.50893
G92 E0
G1 X100.683 Y196.491 F9600.000
G1 E2.00000 F1800.000
G1 X100.684 Y196.957 E2.01535 F1995.000
G1 X99.935 Y197.004 E2.04008
G1 X98.463 Y197.483 E2.09111
G1 X97.156 Y198.312 E2.14213
G1 X96.097 Y199.440 E2.19316
G1 X95.351 Y200.797 E2.24419
G1 X94.966 Y202.296 E2.29521
G1 X94.966 Y203.844 E2.34624
G1 X95.351 Y205.343 E2.39726
G1 X96.097 Y206.700 E2.44829
G1 X96.736 Y207.380 E2.47906
G1 X96.550 Y207.699 E2.49122
G1 X95.526 Y207.449 E2.52595
G1 X94.176 Y207.021 E2.57263
G1 X92.869 Y206.506 E2.61895
G1 X91.595 Y205.899 E2.66547
G1 X90.366 Y205.208 E2.71195
G1 X89.189 Y204.437 E2.75833
G1 X88.063 Y203.582 E2.80493
G1 X86.892 Y202.561 E2.85615
G1 X86.202 Y201.872 E2.88829
G1 X84.995 Y200.488 E2.94882
G1 X84.225 Y199.472 E2.99086
G1 X83.455 Y198.298 E3.03711
G1 X82.762 Y197.066 E3.08372
G1 X82.158 Y195.796 E3.13007
G1 X81.640 Y194.482 E3.17664
G1 X81.215 Y193.141 E3.22301
G1 X80.969 Y192.135 E3.25715
G1 X81.304 Y191.954 E3.26970
G1 X81.656 Y192.328 E3.28665
G1 X82.963 Y193.158 E3.33768
G1 X84.435 Y193.636 E3.38870
G1 X85.980 Y193.733 E3.43973
G1 X87.501 Y193.443 E3.49075
G1 X88.901 Y192.784 E3.54178
G1 X90.094 Y191.797 E3.59281
G1 X91.004 Y190.545 E3.64383
G1 X91.574 Y189.106 E3.69486
G1 X91.720 Y187.952 E3.73320
G1 X92.171 Y187.968 E3.74807
G1 X92.204 Y188.572 E3.76801
G1 X92.372 Y189.560 E3.80107
G1 X92.650 Y190.524 E3.83414
G1 X93.034 Y191.451 E3.86720
G1 X93.519 Y192.329 E3.90026
G1 X94.100 Y193.147 E3.93333
G1 X94.768 Y193.895 E3.96638
G1 X95.516 Y194.563 E3.99946
G1 X96.334 Y195.143 E4.03251
G1 X97.212 Y195.629 E4.06558
G1 X98.138 Y196.012 E4.09864
G1 X99.102 Y196.290 E4.13170
G1 X100.091 Y196.458 E4.16476
G1 X100.608 Y196.487 E4.18182
G1 F1800.000 E2.18182
G92 E0
G1 X92.171 Y187.173 F9600.000
G1 E2.00000 F1800.000
G1 X91.720 Y187.188 E2.01487 F1995.000
G1 X91.574 Y186.034 E2.05321
G1 X91.004 Y184.595 E2.10424
G1 X90.094 Y183.343 E2.15526
G1 X88.901 Y182.356 E2.20629
G1 X87.501 Y181.697 E2.25732
G1 X85.980 Y181.407 E2.30834
G1 X84.668 Y181.490 E2.35168
G1 X84.435 Y181.504 E2.35937
G1 X82.963 Y181.983 E2.41039
G1 X81.656 Y182.812 E2.46142
G1 X80.448 Y184.099 E2.51961
G1 X80.448 Y180.622 E2.63423
G1 X80.501 Y179.920 E2.65742
G1 X80.560 Y179.665 E2.66606
G1 X80.749 Y179.191 E2.68287
G1 X97.025 Y179.191 E3.21937
G1 X97.120 Y179.562 E3.23199
G1 X96.327 Y180.000 E3.26187
G1 X95.512 Y180.581 E3.29486
G1 X94.810 Y181.208 E3.32590
G1 X94.092 Y182.004 E3.36121
G1 X93.520 Y182.811 E3.39382
G1 X93.034 Y183.689 E3.42690
G1 X92.650 Y184.616 E3.45998
G1 X92.373 Y185.579 E3.49303
G1 X92.204 Y186.569 E3.52611
G1 X92.175 Y187.098 E3.54358
G1 F1800.000 E1.54358
G92 E0
G1 X80.262 Y186.179 F9600.000
G1 E2.00000 F1800.000
G1 X79.830 Y186.124 E2.01436 F1575.000
G1 X79.830 Y180.598 E2.19652
G1 X79.889 Y179.827 E2.22202
G1 X79.969 Y179.480 E2.23376
G1 X80.331 Y178.573 E2.26592
G1 X121.870 Y178.573 E3.63521
G1 X122.158 Y179.296 E3.66087
G1 X122.304 Y179.926 E3.68216
G1 X122.355 Y180.598 E3.70439
G1 X122.355 Y186.069 E3.88474
G1 X121.953 Y186.146 E3.89821
G1 X121.458 Y184.895 E3.94255
G1 X120.640 Y183.769 E3.98843
G1 X119.568 Y182.882 E4.03431
G1 X118.308 Y182.289 E4.08019
G1 X116.941 Y182.029 E4.12607
G1 X115.552 Y182.116 E4.17195
G1 X114.228 Y182.546 E4.21783
G1 X113.053 Y183.292 E4.26371
G1 X112.100 Y184.306 E4.30959
G1 X111.430 Y185.526 E4.35547
G1 X111.084 Y186.874 E4.40135
G1 X111.084 Y188.266 E4.44724
G1 X111.391 Y189.464 E4.48800
G1 X111.430 Y189.614 E4.49312
G1 X112.100 Y190.834 E4.53900
G1 X113.053 Y191.848 E4.58488
G1 X113.184 Y191.932 E4.58999
G1 X114.228 Y192.594 E4.63076
G1 X115.552 Y193.024 E4.67664
G1 X116.941 Y193.112 E4.72252
G1 X118.308 Y192.851 E4.76840
G1 X119.568 Y192.258 E4.81428
G1 X120.640 Y191.371 E4.86016
G1 X121.458 Y190.245 E4.90604
G1 X121.853 Y189.249 E4.94137
G1 X122.271 Y189.351 E4.95556
G1 X122.157 Y190.464 E4.99245
G1 X121.910 Y191.897 E5.04040
G1 X121.567 Y193.305 E5.08814
G1 X121.094 Y194.794 E5.13964
G1 X120.678 Y195.849 E5.17702
G1 X119.920 Y197.442 E5.23518
G1 X119.259 Y198.618 E5.27965
G1 X118.464 Y199.830 E5.32745
G1 X117.585 Y200.990 E5.37542
G1 X116.633 Y202.081 E5.42313
G1 X115.603 Y203.111 E5.47114
G1 X114.511 Y204.063 E5.51891
G1 X113.355 Y204.940 E5.56675
G1 X112.207 Y205.693 E5.61198
G1 X110.728 Y206.524 E5.66793
G1 X109.640 Y207.042 E5.70762
G1 X108.208 Y207.606 E5.75837
G1 X106.832 Y208.043 E5.80598
G1 X105.414 Y208.388 E5.85406
G1 X103.988 Y208.634 E5.90178
G1 X102.944 Y208.742 E5.93636
G1 X102.833 Y208.340 E5.95012
G1 X104.068 Y207.758 E5.99512
G1 X105.140 Y206.871 E6.04100
G1 X105.958 Y205.745 E6.08688
G1 X106.471 Y204.451 E6.13276
G1 X106.645 Y203.070 E6.17864
G1 X106.490 Y201.843 E6.21941
G1 X106.471 Y201.689 E6.22452
G1 X105.958 Y200.395 E6.27040
G1 X105.140 Y199.269 E6.31628
G1 X104.187 Y198.481 E6.35705
G1 X104.068 Y198.382 E6.36216
G1 X102.808 Y197.789 E6.40804
G1 X101.441 Y197.529 E6.45392
G1 X100.207 Y197.606 E6.49469
G1 X100.052 Y197.616 E6.49980
G1 X98.728 Y198.046 E6.54568
G1 X97.553 Y198.792 E6.59156
G1 X96.600 Y199.806 E6.63745
G1 X95.930 Y201.026 E6.68333
G1 X95.622 Y202.224 E6.72409
G1 X95.584 Y202.374 E6.72921
G1 X95.584 Y203.766 E6.77509
G1 X95.930 Y205.114 E6.82097
G1 X96.600 Y206.334 E6.86685
G1 X97.553 Y207.348 E6.91273
G1 X98.728 Y208.094 E6.95861
G1 X99.405 Y208.314 E6.98205
G1 X99.313 Y208.749 E6.99670
G1 X98.201 Y208.635 E7.03355
G1 X96.774 Y208.389 E7.08128
G1 X95.361 Y208.045 E7.12921
G1 X93.969 Y207.604 E7.17734
G1 X92.626 Y207.074 E7.22493
G1 X91.310 Y206.448 E7.27296
G1 X90.042 Y205.735 E7.32095
G1 X88.833 Y204.942 E7.36861
G1 X87.673 Y204.062 E7.41660
G1 X86.470 Y203.013 E7.46921
G1 X85.750 Y202.294 E7.50274
G1 X84.516 Y200.878 E7.56466
G1 X83.720 Y199.828 E7.60809
G1 X82.927 Y198.620 E7.65574
G1 X82.213 Y197.350 E7.70374
G1 X81.591 Y196.042 E7.75148
G1 X81.058 Y194.689 E7.79944
G1 X80.619 Y193.308 E7.84720
G1 X80.275 Y191.895 E7.89514
G1 X80.028 Y190.465 E7.94297
G1 X79.932 Y189.531 E7.97391
G1 X80.318 Y189.411 E7.98723
G1 X81.100 Y190.834 E8.04075
G1 X82.053 Y191.848 E8.08663
G1 X83.228 Y192.594 E8.13251
G1 X84.552 Y193.024 E8.17839
G1 X85.941 Y193.112 E8.22428
G1 X87.308 Y192.851 E8.27016
G1 X88.568 Y192.258 E8.31604
G1 X89.640 Y191.371 E8.36192
G1 X90.458 Y190.245 E8.40780
G1 X90.971 Y188.951 E8.45368
G1 X91.145 Y187.570 E8.49956
G1 X90.971 Y186.189 E8.54544
G1 X90.515 Y185.039 E8.58621
G1 X90.458 Y184.895 E8.59132
G1 X89.640 Y183.769 E8.63720
G1 X88.568 Y182.882 E8.68308
G1 X87.308 Y182.289 E8.72896
G1 X85.941 Y182.029 E8.77484
G1 X84.552 Y182.116 E8.82072
