;Generated by Cura LulzBot Edition GCodeWriter Version: 3.6.8
;FLAVOR:Marlin
;TIME:4225
;Filament used: 3.3983m
;Layer height: 0.38
;Generated with Cura_SteamEngine 3.6.8
M82 ;absolute extrusion mode
M221 S100
;This G-Code has been generated specifically for the LulzBot Mini 2 with SE 0.5mm Tool Head
M73 P0                  ; clear GLCD progress bar
M75 					; Start GLCD Print Timer
G26 					; clear potential 'probe fail' condition
M107 					; disable fans
M420 S0                 ; disable leveling matrix
G90 					; absolute positioning
M82 					; set extruder to absolute mode
G92 E0 					; set extruder position to 0
M140 S115 	; start bed heating up
G28                       ; Home Axis
G0 X160 F9999             ; Move toolhead to the right
G0 Z5 F6000               ; Move to bottom of printer
G91                       ; Set relative motion mode
M211 S0		  	  ; Turn off soft endstops
M400                      ; Finish moves
G0 Z-15 F500              ; Skip steppers against lower Z mounts
G90                       ; Return to absolute mode
M400                      ; Finish moves
M211 S1			  ; Turn soft endstops back on
M400                      ; Finish moves
G28                       ; Rehome
M140 S112 	; start bed heating up
G0 X0 Y187 Z156 F200 			; move away from endstops
M117 Mini 2 Wiping...			; progress indicator message on LCD
M109 R170 	; soften filament before retraction
G1 E-15 F75 				; retract filament
M109 R170 	; wait for extruder to reach wiping temp
G1 X45 Y176 F11520 			; move above wiper pad
G1 Z0 F1200 				; push nozzle into wiper
G1 X45 Y178 Z-.5 F4000		; wiping
G1 X55 Y176 Z-.5 F4000		; wiping
G1 X45 Y177 Z0 F4000		; wiping
G1 X55 Y176 F4000		; wiping
G1 X45 Y178 F4000		; wiping
G1 X55 Y176 F4000		; wiping
G1 X45 Y178 F4000		; wiping
G1 X55 Y176 F4000		; wiping
G1 X60 Y178 F4000		; wiping
G1 X80 Y176 F4000		; wiping
G1 X60 Y178 F4000		; wiping
G1 X80 Y176 F4000		; wiping
G1 X60 Y178 F4000		; wiping
G1 X90 Y176 F4000		; wiping
G1 X80 Y178 F4000		; wiping
G1 X100 Y176 F4000		; wiping
G1 X80 Y178 F4000		; wiping
G1 X100 Y176 F4000		; wiping
G1 X80 Y178 F4000		; wiping
G1 X100 Y176 F4000		; wiping
G1 X110 Y178 F4000		; wiping
G1 X100 Y176 F4000		; wiping
G1 X110 Y178 F4000		; wiping
G1 X100 Y176 F4000		; wiping
G1 X110 Y178 F4000		; wiping
G1 X115 Y176 Z-0.5 F1000	; wiping
G1 Z10					; raise extruder
G28 X0 Y0				; home X and Y
M109 R170	; wait for extruder to reach probe temp
M204 S300				; set probing acceleration
G29					; start auto-leveling sequence
M420 S1                     ; enable leveling matrix
M425 Z			     		; use measured Z backlash for compensation
M425 Z F0		     		; turn off measured Z backlash compensation. (if activated in the quality settings, this command will automatically be ignored)
M204 S2000				; restore standard acceleration
G1 X5 Y15 Z10 F5000			; move up off last probe point
G4 S1					; pause
M400					; wait for moves to finish
M117 Heating...				; progress indicator message on LCD
M109 R245	; wait for extruder to reach initial printing temp
M190 S112 ; wait for bed to reach printing temp
G1 Z2 E0 F75				; prime tiny bit of filment into the nozzle
M117 Mini 2 Printing...		; progress indicator message on LCD

G92 E0
G1 F600 E-1
;LAYER_COUNT:39
;LAYER:0
M107
G0 F2625 X40.652 Y55.593 Z0.425
;TYPE:SKIRT
G1 F600 E0
G1 F900 X41.214 Y55.27 E0.02159
G1 X41.811 Y55.019 E0.04316
G1 X42.552 Y54.819 E0.06873
G1 X44.455 Y54.453 E0.13328
G1 X49.739 Y53.234 E0.31392
G1 X52.273 Y52.535 E0.40148
G1 X57.406 Y50.88 E0.58113
G1 X62.411 Y48.948 E0.75984
G1 X67.327 Y46.724 E0.93957
G1 X70.172 Y45.283 E1.0458
G1 X70.767 Y45.027 E1.06737
G1 X71.388 Y44.846 E1.08892
G1 X72.028 Y44.742 E1.11052
G1 X72.543 Y44.717 E1.12769
G1 X83.529 Y44.718 E1.49364
G1 X84.176 Y44.758 E1.51524
G1 X84.813 Y44.877 E1.53682
G1 X85.43 Y45.074 E1.5584
G1 X86.018 Y45.346 E1.57998
G1 X86.605 Y45.713 E1.60304
G1 X89.63 Y47.9 E1.72738
G1 X94.122 Y50.841 E1.90622
G1 X98.767 Y53.521 E2.08486
G1 X103.556 Y55.933 E2.26347
G1 X108.512 Y58.087 E2.44348
G1 X111.003 Y59.048 E2.53241
G1 X113.468 Y59.916 E2.61946
G1 X118.545 Y61.476 E2.79638
G1 X119.152 Y61.704 E2.81798
G1 X119.725 Y62.005 E2.83954
G1 X120.257 Y62.374 E2.86111
G1 X120.74 Y62.806 E2.8827
G1 X121.166 Y63.295 E2.9043
G1 X121.528 Y63.832 E2.92587
G1 X121.821 Y64.409 E2.94743
G1 X122.041 Y65.018 E2.969
G1 X122.185 Y65.65 E2.99059
G1 X122.253 Y66.494 E3.01879
G1 X122.252 Y106.469 E4.35037
G1 X122.212 Y107.116 E4.37197
G1 X122.093 Y107.752 E4.39352
G1 X121.896 Y108.369 E4.41509
G1 X121.625 Y108.958 E4.43669
G1 X121.283 Y109.508 E4.45827
G1 X120.876 Y110.012 E4.47984
G1 X120.41 Y110.462 E4.50142
G1 X119.893 Y110.852 E4.523
G1 X119.331 Y111.174 E4.54457
G1 X118.734 Y111.425 E4.56614
G1 X117.993 Y111.625 E4.59171
G1 X116.09 Y111.991 E4.65626
G1 X110.806 Y113.21 E4.8369
G1 X108.272 Y113.909 E4.92446
G1 X103.139 Y115.564 E5.10411
G1 X98.134 Y117.496 E5.28281
G1 X93.218 Y119.72 E5.46255
G1 X90.373 Y121.161 E5.56878
G1 X89.778 Y121.417 E5.59035
G1 X89.157 Y121.598 E5.6119
G1 X88.517 Y121.702 E5.6335
G1 X88.002 Y121.727 E5.65067
G1 X77.018 Y121.726 E6.01655
G1 X76.371 Y121.686 E6.03815
G1 X75.734 Y121.567 E6.05973
G1 X75.117 Y121.37 E6.08131
G1 X74.529 Y121.098 E6.10289
G1 X74.001 Y120.773 E6.12354
G1 X68.665 Y117.026 E6.34073
G1 X64.12 Y114.231 E6.51846
G1 X59.399 Y111.683 E6.69716
G1 X54.539 Y109.406 E6.87594
G1 X49.514 Y107.386 E7.05634
G1 X47.084 Y106.531 E7.14215
G1 X42 Y104.968 E7.31932
G1 X41.394 Y104.74 E7.34089
G1 X40.821 Y104.439 E7.36245
G1 X40.288 Y104.07 E7.38404
G1 X39.806 Y103.637 E7.40563
G1 X39.38 Y103.149 E7.4272
G1 X39.018 Y102.612 E7.44878
G1 X38.725 Y102.035 E7.47033
G1 X38.505 Y101.425 E7.49193
G1 X38.361 Y100.794 E7.51349
G1 X38.293 Y99.95 E7.5417
G1 X38.293 Y59.975 E8.87328
G1 X38.333 Y59.328 E8.89487
G1 X38.452 Y58.692 E8.91643
G1 X38.649 Y58.075 E8.938
G1 X38.92 Y57.486 E8.9596
G1 X39.262 Y56.936 E8.98117
G1 X39.669 Y56.432 E9.00275
G1 X40.135 Y55.982 E9.02433
G1 X40.652 Y55.593 E9.04588
G1 F600 E8.04588
;MESH:
G0 F2625 X71.868 Y55.593
G0 X73.303 Y55.593
G0 X78.283 Y54.708
;TYPE:WALL-INNER
G1 F600 E9.04588
G1 F900 X78.283 Y76.208 E9.76205
G1 X82.283 Y76.208 E9.89529
G1 X82.283 Y78.708 E9.97857
G1 X71.283 Y78.708 E10.34498
G1 X71.283 Y98.708 E11.01119
G1 X44.783 Y98.708 E11.89392
G1 X44.783 Y61.216 E13.14279
G1 X73.783 Y61.212 E14.10879
G1 X73.783 Y51.208 E14.44203
G1 X82.283 Y51.208 E14.72516
G1 X82.283 Y54.708 E14.84175
G1 X78.283 Y54.708 E14.97499
G0 F2625 X78.783 Y55.208
G1 F900 X78.783 Y75.708 E15.65785
G1 X82.783 Y75.708 E15.7911
G1 X82.783 Y79.208 E15.90768
G1 X71.783 Y79.208 E16.2741
G1 X71.783 Y99.208 E16.9403
G1 X44.283 Y99.208 E17.85634
G1 X44.283 Y60.716 E19.13852
G1 X73.283 Y60.712 E20.10452
G1 X73.283 Y50.708 E20.43776
G1 X82.783 Y50.708 E20.75421
G1 X82.783 Y55.208 E20.9041
G1 X78.783 Y55.208 E21.03734
G0 F2625 X79.283 Y55.708
;TYPE:WALL-OUTER
G1 F900 X79.283 Y75.208 E21.6869
G1 X83.283 Y75.208 E21.82014
G1 X83.283 Y79.708 E21.97003
G1 X72.283 Y79.708 E22.33645
G1 X72.283 Y99.708 E23.00266
G1 X43.783 Y99.708 E23.952
G1 X43.783 Y60.216 E25.26749
G1 X72.783 Y60.212 E26.23349
G1 X72.783 Y50.208 E26.56673
G1 X83.283 Y50.208 E26.91649
G1 X83.283 Y55.708 E27.0997
G1 X79.283 Y55.708 E27.23294
G0 F2625 X79.283 Y55.958
G0 X78.683 Y55.958
G0 X77.793 Y54.218
;TYPE:SKIN
G1 F900 X77.793 Y76.698 E27.98175
G1 X81.793 Y76.698 E28.115
G1 X81.793 Y78.218 E28.16563
G1 X70.793 Y78.218 E28.53204
G1 X70.793 Y98.218 E29.19825
G1 X45.273 Y98.218 E30.04833
G1 X45.273 Y61.706 E31.26456
G1 X74.273 Y61.702 E32.23056
G1 X74.273 Y51.698 E32.56379
G1 X81.793 Y51.698 E32.81429
G1 X81.793 Y54.218 E32.89823
G1 X77.793 Y54.218 E33.03147
G0 F2625 X81.567 Y52.576
G1 F900 X80.914 Y51.923 E33.06223
G0 F2625 X80.207 Y51.923
G1 F900 X81.567 Y53.283 E33.1263
G0 F2625 X81.567 Y53.99
G1 F900 X79.5 Y51.923 E33.22367
G0 F2625 X78.793 Y51.923
G1 F900 X80.862 Y53.992 E33.32114
G0 F2625 X80.155 Y53.992
G1 F900 X78.086 Y51.923 E33.41861
G0 F2625 X77.379 Y51.923
G1 F900 X79.448 Y53.992 E33.51607
G0 F2625 X78.741 Y53.992
G1 F900 X76.672 Y51.923 E33.61354
G0 F2625 X75.965 Y51.923
G1 F900 X78.034 Y53.992 E33.711
G0 F2625 X77.567 Y54.232
G1 F900 X75.258 Y51.923 E33.81978
G0 F2625 X74.55 Y51.923
G1 F900 X77.567 Y54.94 E33.9619
G0 F2625 X77.567 Y55.647
G1 F900 X74.497 Y52.576 E34.10655
G0 F2625 X74.497 Y53.284
G1 F900 X77.567 Y56.354 E34.25117
G0 F2625 X77.567 Y57.061
G1 F900 X74.497 Y53.991 E34.39579
G0 F2625 X74.497 Y54.698
G1 F900 X77.567 Y57.768 E34.54041
G0 F2625 X77.567 Y58.475
G1 F900 X74.497 Y55.405 E34.68503
G0 F2625 X74.497 Y56.112
G1 F900 X77.567 Y59.182 E34.82965
G0 F2625 X77.567 Y59.889
G1 F900 X74.497 Y56.819 E34.97428
G0 F2625 X74.497 Y57.526
G1 F900 X77.567 Y60.596 E35.1189
G0 F2625 X77.567 Y61.304
G1 F900 X74.497 Y58.233 E35.26354
G0 F2625 X74.497 Y58.94
G1 F900 X77.567 Y62.011 E35.40819
G0 F2625 X77.567 Y62.718
G1 F900 X74.497 Y59.647 E35.55283
G0 F2625 X74.497 Y60.355
G1 F900 X77.567 Y63.425 E35.69745
G0 F2625 X77.567 Y64.132
G1 F900 X74.497 Y61.062 E35.84207
G0 F2625 X74.497 Y61.769
G1 F900 X77.567 Y64.839 E35.9867
G0 F2625 X77.567 Y65.546
G1 F900 X73.948 Y61.927 E36.15718
G0 F2625 X73.241 Y61.927
G1 F900 X77.567 Y66.253 E36.36097
G0 F2625 X77.567 Y66.96
G1 F900 X72.534 Y61.927 E36.59806
G0 F2625 X71.827 Y61.927
G1 F900 X77.567 Y67.667 E36.86846
G0 F2625 X77.567 Y68.375
G1 F900 X71.12 Y61.927 E37.17219
G0 F2625 X70.412 Y61.927
G1 F900 X77.567 Y69.082 E37.50925
G0 F2625 X77.567 Y69.789
G1 F900 X69.705 Y61.927 E37.87961
G0 F2625 X68.998 Y61.927
G1 F900 X77.567 Y70.496 E38.28328
G0 F2625 X77.567 Y71.203
G1 F900 X68.291 Y61.927 E38.72025
G0 F2625 X67.584 Y61.927
G1 F900 X77.567 Y71.91 E39.19053
G0 F2625 X77.567 Y72.617
G1 F900 X66.878 Y61.928 E39.69407
G0 F2625 X66.171 Y61.928
G1 F900 X77.567 Y73.324 E40.23091
G0 F2625 X77.567 Y74.031
G1 F900 X65.463 Y61.928 E40.80108
G0 F2625 X64.756 Y61.928
G1 F900 X77.567 Y74.739 E41.40458
G0 F2625 X77.567 Y75.446
G1 F900 X64.049 Y61.928 E42.04139
G0 F2625 X63.342 Y61.928
G1 F900 X77.567 Y76.153 E42.7115
G0 F2625 X77.567 Y76.86
G1 F900 X62.635 Y61.928 E43.41492
G0 F2625 X61.928 Y61.928
G1 F900 X77.992 Y77.992 E44.17166
G0 F2625 X78.699 Y77.992
G1 F900 X77.63 Y76.923 E44.22202
G1 X77.542 Y76.835
G0 F2625 X77.285 Y77.992
G1 F900 X61.221 Y61.928 E44.97876
G0 F2625 X60.514 Y61.928
G1 F900 X76.578 Y77.992 E45.7355
G0 F2625 X75.871 Y77.992
G1 F900 X59.807 Y61.929 E46.49222
G0 F2625 X59.1 Y61.929
G1 F900 X75.164 Y77.992 E47.24894
G0 F2625 X74.456 Y77.992
G1 F900 X58.393 Y61.929 E48.00563
G0 F2625 X57.686 Y61.929
G1 F900 X73.749 Y77.992 E48.76233
G0 F2625 X73.042 Y77.992
G1 F900 X56.979 Y61.929 E49.51902
G0 F2625 X56.272 Y61.929
G1 F900 X72.335 Y77.992 E50.27572
G0 F2625 X71.628 Y77.992
G1 F900 X55.565 Y61.929 E51.03241
G0 F2625 X54.858 Y61.929
G1 F900 X70.921 Y77.992 E51.78911
G0 F2625 X70.567 Y78.346
G1 F900 X54.15 Y61.929 E52.56248
G0 F2625 X53.443 Y61.929
G1 F900 X70.567 Y79.053 E53.36916
G0 F2625 X70.567 Y79.76
G1 F900 X52.737 Y61.929 E54.20912
G0 F2625 X52.03 Y61.929
G1 F900 X70.567 Y80.467 E55.08238
G0 F2625 X70.567 Y81.174
G1 F900 X51.323 Y61.929 E55.98895
G0 F2625 X50.616 Y61.929
G1 F900 X70.567 Y81.881 E56.92882
G0 F2625 X70.567 Y82.588
G1 F900 X49.909 Y61.929 E57.902
G0 F2625 X49.201 Y61.929
G1 F900 X70.567 Y83.295 E58.90851
G0 F2625 X70.567 Y84.002
G1 F900 X48.494 Y61.929 E59.94833
G0 F2625 X47.787 Y61.929
G1 F900 X70.567 Y84.709 E61.02145
G0 F2625 X70.567 Y85.417
G1 F900 X47.08 Y61.929 E62.12789
G0 F2625 X46.373 Y61.929
G1 F900 X70.567 Y86.124 E63.26765
G0 F2625 X70.567 Y86.831
G1 F900 X45.666 Y61.929 E64.44071
G0 F2625 X45.498 Y62.468
G1 F900 X70.567 Y87.538 E65.62168
G0 F2625 X70.567 Y88.245
G1 F900 X45.498 Y63.175 E66.80265
G0 F2625 X45.498 Y63.882
G1 F900 X70.567 Y88.952 E67.98363
G0 F2625 X70.567 Y89.659
G1 F900 X45.498 Y64.589 E69.1646
G0 F2625 X45.498 Y65.297
G1 F900 X70.567 Y90.366 E70.34555
G0 F2625 X70.567 Y91.073
G1 F900 X45.498 Y66.004 E71.5265
G0 F2625 X45.498 Y66.711
G1 F900 X70.567 Y91.781 E72.70747
G0 F2625 X70.567 Y92.488
G1 F900 X45.498 Y67.418 E73.88844
G0 F2625 X45.498 Y68.125
G1 F900 X70.567 Y93.195 E75.06942
G0 F2625 X70.567 Y93.902
G1 F900 X45.498 Y68.832 E76.25039
G0 F2625 X45.498 Y69.539
G1 F900 X70.567 Y94.609 E77.43136
G0 F2625 X70.567 Y95.316
G1 F900 X45.498 Y70.246 E78.61234
G0 F2625 X45.498 Y70.953
G1 F900 X70.567 Y96.023 E79.79331
G0 F2625 X70.567 Y96.73
G1 F900 X45.498 Y71.661 E80.97426
G0 F2625 X45.498 Y72.368
G1 F900 X70.567 Y97.437 E82.15521
G0 F2625 X70.415 Y97.992
G1 F900 X45.498 Y73.075 E83.329
G0 F2625 X45.498 Y73.782
G1 F900 X69.708 Y97.992 E84.46948
G0 F2625 X69 Y97.992
G1 F900 X45.498 Y74.489 E85.57664
G0 F2625 X45.498 Y75.196
G1 F900 X68.293 Y97.992 E86.65049
G0 F2625 X67.586 Y97.992
G1 F900 X45.498 Y75.903 E87.69103
G0 F2625 X45.498 Y76.61
G1 F900 X66.879 Y97.992 E88.69827
G0 F2625 X66.172 Y97.992
G1 F900 X45.498 Y77.317 E89.6722
G0 F2625 X45.498 Y78.024
G1 F900 X65.465 Y97.992 E90.61283
G0 F2625 X64.758 Y97.992
G1 F900 X45.498 Y78.732 E91.52013
G0 F2625 X45.498 Y79.439
G1 F900 X64.051 Y97.992 E92.39412
G0 F2625 X63.344 Y97.992
G1 F900 X45.498 Y80.146 E93.23481
G0 F2625 X45.498 Y80.853
G1 F900 X62.636 Y97.992 E94.04217
G0 F2625 X61.929 Y97.992
G1 F900 X45.498 Y81.56 E94.81623
G0 F2625 X45.498 Y82.267
G1 F900 X61.222 Y97.992 E95.55698
G0 F2625 X60.515 Y97.992
G1 F900 X45.498 Y82.974 E96.26442
G0 F2625 X45.498 Y83.681
G1 F900 X59.808 Y97.992 E96.93856
G0 F2625 X59.101 Y97.992
G1 F900 X45.498 Y84.388 E97.57939
G0 F2625 X45.498 Y85.096
G1 F900 X58.394 Y97.992 E98.1869
G0 F2625 X57.687 Y97.992
G1 F900 X45.498 Y85.803 E98.7611
G0 F2625 X45.498 Y86.51
G1 F900 X56.98 Y97.992 E99.30199
G0 F2625 X56.272 Y97.992
G1 F900 X45.498 Y87.217 E99.80955
G0 F2625 X45.498 Y87.924
G1 F900 X55.565 Y97.992 E100.28381
G0 F2625 X54.858 Y97.992
G1 F900 X45.498 Y88.631 E100.72477
G0 F2625 X45.498 Y89.338
G1 F900 X54.151 Y97.992 E101.13242
G0 F2625 X53.444 Y97.992
G1 F900 X45.498 Y90.045 E101.50676
G0 F2625 X45.498 Y90.752
G1 F900 X52.737 Y97.992 E101.8478
G0 F2625 X52.03 Y97.992
G1 F900 X45.498 Y91.46 E102.15551
G0 F2625 X45.498 Y92.167
G1 F900 X51.323 Y97.992 E102.42991
G0 F2625 X50.616 Y97.992
G1 F900 X45.498 Y92.874 E102.67101
G0 F2625 X45.498 Y93.581
G1 F900 X49.909 Y97.992 E102.8788
G0 F2625 X49.201 Y97.992
G1 F900 X45.498 Y94.288 E103.05327
G0 F2625 X45.498 Y94.995
G1 F900 X48.494 Y97.992 E103.19443
G0 F2625 X47.787 Y97.992
G1 F900 X45.498 Y95.702 E103.30228
G0 F2625 X45.498 Y96.409
G1 F900 X47.08 Y97.992 E103.37683
G0 F2625 X46.373 Y97.992
G1 F900 X45.498 Y97.116 E103.41807
G0 F2625 X45.498 Y97.823
G1 F900 X45.666 Y97.992 E103.42601
G0 F2625 X71.755 Y79.18
G0 X78.337 Y76.923
G1 F900 X79.406 Y77.992 E103.47637
G0 F2625 X80.113 Y77.992
G1 F900 X79.044 Y76.923 E103.52673
G0 F2625 X79.751 Y76.923
G1 F900 X80.82 Y77.992 E103.57708
G0 F2625 X81.527 Y77.992
G1 F900 X80.458 Y76.923 E103.62744
G0 F2625 X81.165 Y76.923
G1 F900 X81.567 Y77.324 E103.64636
G1 F600 E102.64636
G0 F2625 X82.769 Y75.722
G0 X84.198 Y75.722
G0 X87.347 Y75.722
G0 X88.782 Y75.722
G0 X115.762 Y67.736
;TYPE:WALL-INNER
G1 F600 E103.64636
G1 F900 X115.762 Y105.228 E104.89523
G1 X86.762 Y105.232 E105.86123
G1 X86.762 Y115.236 E106.19447
G1 X78.262 Y115.236 E106.4776
G1 X78.262 Y111.736 E106.59419
G1 X82.262 Y111.736 E106.72743
G1 X82.262 Y90.236 E107.4436
G1 X78.262 Y90.236 E107.57685
G1 X78.262 Y87.736 E107.66012
G1 X89.262 Y87.736 E108.02654
G1 X89.262 Y67.736 E108.69274
G1 X115.762 Y67.736 E109.57547
G0 F2625 X116.262 Y67.236
G1 F900 X116.262 Y105.728 E110.85765
G1 X87.262 Y105.732 E111.82365
G1 X87.262 Y115.736 E112.15689
G1 X77.762 Y115.736 E112.47334
G1 X77.762 Y111.236 E112.62323
G1 X81.762 Y111.236 E112.75647
G1 X81.762 Y90.736 E113.43934
G1 X77.762 Y90.736 E113.57258
G1 X77.762 Y87.236 E113.68916
G1 X88.762 Y87.236 E114.05558
G1 X88.762 Y67.236 E114.72179
G1 X116.262 Y67.236 E115.63782
G0 F2625 X116.762 Y66.736
;TYPE:WALL-OUTER
G1 F900 X116.762 Y106.228 E116.95331
G1 X87.762 Y106.232 E117.91931
G1 X87.762 Y116.236 E118.25255
G1 X77.262 Y116.236 E118.60231
G1 X77.262 Y110.736 E118.78552
G1 X81.262 Y110.736 E118.91876
