;Generated by Cura 2 GCodeWriter Version: 2.6.43
;FLAVOR:RepRap
;TIME:6845
;Filament used: 3.73922m
;Layer height: 0.2592
;Generated with Cura_SteamEngine 2.6.43
;This G-Code has been generated specifically for the LulzBot Mini with standard extruder
G26                                ; clear potential 'probe fail' condition
G21                                ; set units to Millimetres
M107                               ; disable fans
G90                                ; absolute positioning
M82                                ; set extruder to absolute mode
G92 E0                             ; set extruder position to 0
M140 S50   ; start bed heating up
G28                                ; home all axes
M109 R180  ; wait for extruder to reach wiping temp
G1 Z150 E-15 F75                   ; retract filament
G1 X45 Y174 F11520                 ; move above wiper pad
G1 Z0  F1200                       ; push nozzle into wiper
G1 X45 Y174 Z-.5 F4000             ; wiping
G1 X55 Y172 Z-.5 F4000             ; wiping
G1 X45 Y174 Z0 F4000               ; wiping
G1 X55 Y172 F4000                  ; wiping
G1 X45 Y174 F4000                  ; wiping
G1 X55 Y172 F4000                  ; wiping
G1 X45 Y174 F4000                  ; wiping
G1 X55 Y172 F4000                  ; wiping
G1 X60 Y174 F4000                  ; wiping
G1 X80 Y172 F4000                  ; wiping
G1 X60 Y174 F4000                  ; wiping
G1 X80 Y172 F4000                  ; wiping
G1 X60 Y174 F4000                  ; wiping
G1 X90 Y172 F4000                  ; wiping
G1 X80 Y174 F4000                  ; wiping
G1 X100 Y172 F4000                 ; wiping
G1 X80 Y174 F4000                  ; wiping
G1 X100 Y172 F4000                 ; wiping
G1 X80 Y174 F4000                  ; wiping
G1 X100 Y172 F4000                 ; wiping
G1 X110 Y174 F4000                 ; wiping
G1 X100 Y172 F4000                 ; wiping
G1 X110 Y174 F4000                 ; wiping
G1 X100 Y172 F4000                 ; wiping
G1 X110 Y174 F4000                 ; wiping
G1 X115 Y172 Z-0.5 F1000           ; wiping
G1 Z10                             ; raise extruder
G28 X0 Y0                          ; home X and Y
M109 R180 ; wait for extruder to reach probe temp
M204 S300                          ; set probing acceleration
M18 E; Turn extrudre off
G29                                ; start auto-leveling sequence
G92 E-15;
M204 S2000                         ; restore standard acceleration
G1 X5 Y15 Z10 F5000                ; move up off last probe point
G4 S1                              ; pause
M400                               ; wait for moves to finish
M117 Heating...                    ; progress indicator message on LCD
M109 R235 ; wait for extruder to reach printing temp
M190 S50   ; wait for bed to reach printing temp
G1 Z2 E0 F75                       ; prime tiny bit of filment into the nozzle
M117 Mini Printing...              ; progress indicator message on LCD
;LAYER_COUNT:7
;LAYER:0
M107
M204 S800
M205 X2
G0 F6300 X104.648 Y22.1
G0 F6300 Z0.5
;TYPE:SKIRT
G1 F900 X105.049 Y20.306 E0.09703
G1 X105.083 Y20.182 E0.10381
G1 X105.866 Y17.794 E0.23646
G1 X105.918 Y17.661 E0.24399
G1 X106.888 Y15.518 E0.36815
G1 X106.951 Y15.395 E0.37544
G1 X108.142 Y13.36 E0.4999
G1 X108.223 Y13.238 E0.50763
G1 X109.759 Y11.173 E0.64346
G1 X109.853 Y11.06 E0.65122
G1 X111.493 Y9.301 E0.77816
G1 X111.584 Y9.212 E0.78487
G1 X113.028 Y7.935 E0.88662
G1 X113.127 Y7.856 E0.8933
G1 X115.047 Y6.46 E1.0186
G1 X115.167 Y6.382 E1.02615
G1 X117.329 Y5.143 E1.15768
G1 X117.444 Y5.085 E1.16447
G1 X119.153 Y4.315 E1.26341
G1 X119.254 Y4.274 E1.26916
G1 X120.97 Y3.665 E1.36527
G1 X121.073 Y3.633 E1.37096
G1 X122.865 Y3.157 E1.46883
G1 X122.973 Y3.134 E1.47465
G1 X124.808 Y2.807 E1.57303
G1 X124.931 Y2.791 E1.57958
G1 X127.303 Y2.595 E1.7052
G1 X127.448 Y2.59 E1.71286
G1 X130 Y2.66 E1.84761
G1 X130.146 Y2.673 E1.85534
G1 X132.545 Y3.006 E1.98318
G1 X132.668 Y3.029 E1.98978
G1 X134.445 Y3.45 E2.08617
G1 X134.566 Y3.484 E2.09281
G1 X136.875 Y4.268 E2.22151
G1 X136.993 Y4.315 E2.22822
G1 X138.703 Y5.085 E2.3272
G1 X138.819 Y5.144 E2.33407
G1 X141.011 Y6.402 E2.46746
G1 X141.131 Y6.48 E2.47502
G1 X143.021 Y7.857 E2.59844
G1 X143.13 Y7.945 E2.60584
G1 X144.923 Y9.567 E2.73345
G1 X145.013 Y9.657 E2.74017
G1 X146.303 Y11.071 E2.84119
G1 X146.374 Y11.155 E2.847
G1 X147.465 Y12.571 E2.94135
G1 X147.536 Y12.674 E2.94795
G1 X148.862 Y14.778 E3.07921
G1 X148.942 Y14.924 E3.088
G1 X150.277 Y17.784 E3.25459
G1 X150.331 Y17.92 E3.26231
G1 X150.902 Y19.611 E3.35652
G1 X150.932 Y19.713 E3.36213
G1 X151.387 Y21.527 E3.46084
G1 X151.409 Y21.634 E3.4666
G1 X151.705 Y23.435 E3.56294
G1 X151.72 Y23.561 E3.56964
G1 X151.887 Y26.033 E3.70041
G1 X151.889 Y26.177 E3.70801
G1 X151.788 Y28.604 E3.83622
G1 X151.774 Y28.747 E3.8438
G1 X151.411 Y31.145 E3.97181
G1 X151.386 Y31.269 E3.97849
G1 X150.935 Y33.072 E4.07659
G1 X150.899 Y33.193 E4.08325
G1 X150.073 Y35.519 E4.21353
G1 X150.017 Y35.653 E4.2212
G1 X148.935 Y37.888 E4.35226
G1 X148.882 Y37.987 E4.35818
G1 X148.229 Y39.088 E4.42575
G1 X148.17 Y39.178 E4.43143
G1 X146.789 Y41.126 E4.55746
G1 X146.714 Y41.223 E4.56393
G1 X145.559 Y42.569 E4.65755
G1 X145.473 Y42.66 E4.66416
G1 X143.685 Y44.384 E4.79525
G1 X143.573 Y44.48 E4.80304
G1 X141.584 Y46.011 E4.93552
G1 X141.462 Y46.094 E4.94331
G1 X139.333 Y47.383 E5.07467
G1 X139.206 Y47.451 E5.08227
G1 X137.008 Y48.474 E5.21023
G1 X136.892 Y48.522 E5.21686
G1 X135.176 Y49.131 E5.31297
G1 X135.057 Y49.167 E5.31953
G1 X132.709 Y49.759 E5.44734
G1 X132.583 Y49.784 E5.45412
G1 X130.707 Y50.068 E5.55426
G1 X130.581 Y50.081 E5.56095
G1 X128.146 Y50.213 E5.68966
G1 X128.003 Y50.213 E5.69721
G1 X125.581 Y50.083 E5.82522
G1 X125.437 Y50.067 E5.83287
G1 X122.988 Y49.664 E5.96387
G1 X122.863 Y49.638 E5.97061
G1 X121.073 Y49.163 E6.06836
G1 X120.951 Y49.124 E6.07512
G1 X118.618 Y48.256 E6.2065
G1 X118.485 Y48.198 E6.21416
G1 X116.297 Y47.099 E6.3434
G1 X116.172 Y47.028 E6.35098
G1 X114.142 Y45.715 E6.47859
G1 X114.027 Y45.63 E6.48613
G1 X112.135 Y44.093 E6.6148
G1 X112.039 Y44.008 E6.62156
G1 X110.663 Y42.649 E6.72364
G1 X110.577 Y42.555 E6.73036
G1 X109.045 Y40.719 E6.85658
G1 X108.959 Y40.604 E6.86415
G1 X107.574 Y38.522 E6.99614
G1 X107.501 Y38.398 E7.00373
G1 X106.419 Y36.311 E7.12781
G1 X106.361 Y36.183 E7.13523
G1 X105.468 Y33.896 E7.26481
G1 X105.426 Y33.772 E7.27172
G1 X104.903 Y31.908 E7.37391
G1 X104.878 Y31.8 E7.37976
G1 X104.53 Y29.992 E7.47694
G1 X104.512 Y29.867 E7.4836
G1 X104.279 Y27.405 E7.61413
G1 X104.273 Y27.26 E7.62179
G1 X104.311 Y24.798 E7.75175
G1 X104.321 Y24.653 E7.75942
G1 X104.626 Y22.224 E7.88864
G1 X104.648 Y22.1 E7.89528
G1 F240 E5.89528
G0 F6300 X105.291 Y22.217
G0 X106.703 Y22.47
G0 X106.817 Y22.292
G0 X106.719 Y22.274
;TYPE:WALL-INNER
G1 F240 E7.89528
G1 F900 X106.842 Y21.68 E7.91991
G1 X106.975 Y21.115 E7.94348
G1 X107.128 Y20.541 E7.9676
G1 X107.302 Y19.951 E7.99257
G1 X107.478 Y19.404 E8.0159
G1 X107.677 Y18.845 E8.03999
G1 X107.896 Y18.279 E8.06463
G1 X108.123 Y17.735 E8.08856
G1 X108.364 Y17.201 E8.11235
G1 X108.624 Y16.664 E8.13657
G1 X108.896 Y16.138 E8.16062
G1 X109.184 Y15.618 E8.18475
G1 X109.496 Y15.088 E8.20972
G1 X109.801 Y14.602 E8.23302
G1 X110.136 Y14.098 E8.25759
G1 X110.476 Y13.616 E8.28154
G1 X110.828 Y13.145 E8.30541
G1 X111.195 Y12.679 E8.32949
G1 X111.576 Y12.224 E8.35359
G1 X111.97 Y11.779 E8.37772
G1 X112.384 Y11.335 E8.40237
G1 X112.793 Y10.921 E8.42599
G1 X113.236 Y10.495 E8.45095
G1 X113.66 Y10.11 E8.4742
G1 X114.111 Y9.722 E8.49835
G1 X114.588 Y9.334 E8.52332
G1 X115.042 Y8.984 E8.54659
G1 X115.522 Y8.635 E8.57069
G1 X116.019 Y8.295 E8.59514
G1 X116.521 Y7.97 E8.61942
G1 X117.018 Y7.667 E8.64305
G1 X117.534 Y7.373 E8.66716
G1 X118.076 Y7.083 E8.69212
G1 X118.59 Y6.825 E8.71547
G1 X119.135 Y6.57 E8.7399
G1 X119.691 Y6.328 E8.76452
G1 X120.223 Y6.113 E8.78782
G1 X120.792 Y5.903 E8.81244
G1 X121.344 Y5.716 E8.8361
G1 X121.931 Y5.534 E8.86106
G1 X122.49 Y5.377 E8.88463
G1 X123.07 Y5.231 E8.90891
G1 X123.639 Y5.105 E8.93257
G1 X124.242 Y4.989 E8.9575
G1 X124.822 Y4.892 E8.98138
G1 X125.408 Y4.812 E9.00539
G1 X125.999 Y4.747 E9.02953
G1 X126.581 Y4.699 E9.05324
G1 X127.181 Y4.667 E9.07764
G1 X127.787 Y4.65 E9.10225
G1 X128.36 Y4.65 E9.12552
G1 X128.966 Y4.667 E9.15013
G1 X129.566 Y4.699 E9.17452
G1 X130.148 Y4.747 E9.19823
G1 X130.738 Y4.812 E9.22233
G1 X131.325 Y4.892 E9.24639
G1 X131.905 Y4.989 E9.27026
G1 X132.508 Y5.105 E9.29519
G1 X133.077 Y5.232 E9.31886
G1 X133.657 Y5.377 E9.34314
G1 X134.217 Y5.534 E9.36675
G1 X134.791 Y5.711 E9.39114
G1 X135.366 Y5.907 E9.4158
G1 X135.924 Y6.114 E9.43997
G1 X136.456 Y6.327 E9.46323
G1 X137.001 Y6.565 E9.48738
G1 X137.557 Y6.825 E9.5123
G1 X138.071 Y7.083 E9.53565
G1 X138.605 Y7.369 E9.56024
G1 X139.117 Y7.661 E9.58417
G1 X139.637 Y7.977 E9.60888
G1 X140.128 Y8.295 E9.63263
G1 X140.608 Y8.623 E9.65623
G1 X141.105 Y8.984 E9.68117
G1 X141.559 Y9.334 E9.70445
G1 X142.03 Y9.717 E9.72909
G1 X142.478 Y10.102 E9.75308
G1 X142.911 Y10.495 E9.77682
G1 X143.34 Y10.907 E9.80097
G1 X143.757 Y11.329 E9.82506
G1 X144.169 Y11.77 E9.84956
G1 X144.566 Y12.218 E9.87386
G1 X144.944 Y12.67 E9.89778
G1 X145.312 Y13.136 E9.92189
G1 X145.664 Y13.606 E9.94573
G1 X146.011 Y14.098 E9.97018
G1 X146.342 Y14.596 E9.99446
G1 X146.651 Y15.088 E10.01804
G1 X146.959 Y15.611 E10.04269
G1 X147.241 Y16.119 E10.06628
G1 X147.518 Y16.654 E10.09074
G1 X147.78 Y17.194 E10.11511
G1 X148.019 Y17.723 E10.13867
G1 X148.248 Y18.271 E10.16279
G1 X148.462 Y18.825 E10.1869
G1 X148.664 Y19.393 E10.21138
G1 X148.846 Y19.95 E10.23517
G1 X149.014 Y20.521 E10.25933
G1 X149.167 Y21.094 E10.28341
G1 X149.303 Y21.673 E10.30756
G1 X149.426 Y22.264 E10.33207
G1 X149.533 Y22.853 E10.35637
G1 X149.619 Y23.425 E10.37986
G1 X149.693 Y24.028 E10.40452
G1 X149.75 Y24.616 E10.42851
G1 X149.79 Y25.2 E10.45228
G1 X149.815 Y25.806 E10.4769
G1 X149.823 Y26.388 E10.50053
G1 X149.815 Y26.983 E10.52469
G1 X149.791 Y27.584 E10.54911
G1 X149.751 Y28.168 E10.57288
G1 X149.694 Y28.761 E10.59707
G1 X149.62 Y29.362 E10.62165
G1 X149.532 Y29.944 E10.64555
G1 X149.428 Y30.522 E10.66939
G1 X149.305 Y31.116 E10.69402
G1 X149.172 Y31.681 E10.71759
G1 X149.019 Y32.255 E10.74171
G1 X148.845 Y32.845 E10.76668
G1 X148.668 Y33.391 E10.78999
G1 X148.469 Y33.952 E10.81415
G1 X148.256 Y34.506 E10.83825
G1 X148.024 Y35.061 E10.86267
G1 X147.783 Y35.595 E10.88646
G1 X147.523 Y36.132 E10.91069
G1 X147.251 Y36.658 E10.93473
G1 X146.963 Y37.178 E10.95886
G1 X146.651 Y37.708 E10.98383
G1 X146.346 Y38.194 E11.00713
G1 X146.011 Y38.698 E11.0317
G1 X145.671 Y39.18 E11.05565
G1 X145.319 Y39.65 E11.07949
G1 X144.943 Y40.125 E11.10408
G1 X144.565 Y40.578 E11.12804
G1 X144.177 Y41.017 E11.15183
G1 X143.763 Y41.461 E11.17647
G1 X143.354 Y41.875 E11.2001
G1 X142.911 Y42.301 E11.22505
G1 X142.487 Y42.686 E11.24831
G1 X142.036 Y43.074 E11.27246
G1 X141.559 Y43.462 E11.29743
G1 X141.105 Y43.812 E11.3207
G1 X140.625 Y44.161 E11.34479
G1 X140.128 Y44.501 E11.36924
G1 X139.637 Y44.819 E11.39299
G1 X139.117 Y45.135 E11.4177
G1 X138.605 Y45.428 E11.44165
G1 X138.071 Y45.713 E11.46623
G1 X137.557 Y45.971 E11.48958
G1 X137.012 Y46.226 E11.51401
G1 X136.456 Y46.468 E11.53862
G1 X135.924 Y46.683 E11.56192
G1 X135.355 Y46.893 E11.58655
G1 X134.803 Y47.08 E11.61021
G1 X134.216 Y47.262 E11.63516
G1 X133.657 Y47.419 E11.65874
G1 X133.077 Y47.565 E11.68302
G1 X132.508 Y47.691 E11.70668
G1 X131.906 Y47.807 E11.73157
G1 X131.326 Y47.903 E11.75544
G1 X130.734 Y47.984 E11.7797
G1 X130.148 Y48.049 E11.80364
G1 X129.566 Y48.097 E11.82735
G1 X128.966 Y48.129 E11.85174
G1 X128.36 Y48.146 E11.87636
G1 X127.787 Y48.146 E11.89962
G1 X127.181 Y48.129 E11.92423
G1 X126.581 Y48.097 E11.94863
G1 X125.999 Y48.049 E11.97234
G1 X125.412 Y47.984 E11.99632
G1 X124.821 Y47.903 E12.02054
G1 X124.241 Y47.807 E12.04441
G1 X123.639 Y47.691 E12.0693
G1 X123.07 Y47.564 E12.09297
G1 X122.49 Y47.419 E12.11724
G1 X121.93 Y47.262 E12.14085
G1 X121.353 Y47.084 E12.16537
G1 X120.781 Y46.889 E12.18991
G1 X120.223 Y46.682 E12.21407
G1 X119.691 Y46.469 E12.23734
G1 X119.135 Y46.226 E12.26197
G1 X118.59 Y45.971 E12.2864
G1 X118.076 Y45.713 E12.30975
G1 X117.534 Y45.423 E12.33471
G1 X117.018 Y45.128 E12.35884
G1 X116.521 Y44.826 E12.38245
G1 X116.019 Y44.501 E12.40673
G1 X115.522 Y44.161 E12.43118
G1 X115.042 Y43.812 E12.45528
G1 X114.588 Y43.462 E12.47855
G1 X114.111 Y43.074 E12.50352
G1 X113.66 Y42.686 E12.52767
G1 X113.236 Y42.301 E12.55092
G1 X112.793 Y41.875 E12.57588
G1 X112.384 Y41.461 E12.5995
G1 X111.97 Y41.017 E12.62415
G1 X111.582 Y40.578 E12.64794
G1 X111.204 Y40.125 E12.67189
G1 X110.828 Y39.65 E12.69649
G1 X110.476 Y39.18 E12.72033
G1 X110.135 Y38.698 E12.7443
G1 X109.801 Y38.194 E12.76885
G1 X109.496 Y37.708 E12.79215
G1 X109.184 Y37.178 E12.81712
G1 X108.896 Y36.658 E12.84125
G1 X108.624 Y36.132 E12.86529
G1 X108.364 Y35.595 E12.88952
G1 X108.123 Y35.061 E12.9133
G1 X107.896 Y34.517 E12.93724
G1 X107.676 Y33.951 E12.96189
G1 X107.479 Y33.392 E12.98595
G1 X107.302 Y32.845 E13.0093
G1 X107.128 Y32.255 E13.03427
G1 X106.975 Y31.681 E13.05839
G1 X106.842 Y31.116 E13.08196
G1 X106.719 Y30.522 E13.10658
G1 X106.614 Y29.943 E13.13048
G1 X106.527 Y29.362 E13.15433
G1 X106.453 Y28.761 E13.17891
G1 X106.396 Y28.168 E13.2031
G1 X106.356 Y27.584 E13.22687
G1 X106.332 Y26.983 E13.25129
G1 X106.323 Y26.409 E13.27459
G1 X106.332 Y25.813 E13.2988
G1 X106.356 Y25.212 E13.32322
G1 X106.396 Y24.628 E13.34698
G1 X106.453 Y24.035 E13.37117
G1 X106.525 Y23.447 E13.39522
G1 X106.615 Y22.852 E13.41965
G1 X106.719 Y22.274 E13.4435
G0 F6300 X106.817 Y22.292
G0 X118.369 Y24.71
G0 X118.467 Y24.727
G1 F900 X118.404 Y25.144 E13.46062
G1 X118.36 Y25.561 E13.47764
G1 X118.332 Y25.978 E13.49461
G1 X118.323 Y26.398 E13.51167
G1 X118.332 Y26.818 E13.52873
G1 X118.36 Y27.235 E13.54569
G1 X118.404 Y27.652 E13.56272
G1 X118.467 Y28.069 E13.57984
G1 X118.548 Y28.481 E13.59689
G1 X118.647 Y28.888 E13.6139
G1 X118.762 Y29.291 E13.63091
G1 X118.895 Y29.689 E13.64795
G1 X119.045 Y30.08 E13.66495
G1 X119.212 Y30.466 E13.68203
G1 X119.396 Y30.843 E13.69906
G1 X119.595 Y31.213 E13.71612
G1 X119.811 Y31.573 E13.73316
G1 X120.039 Y31.922 E13.75009
G1 X120.285 Y32.264 E13.76719
G1 X120.545 Y32.594 E13.78425
G1 X120.818 Y32.912 E13.80126
G1 X121.105 Y33.218 E13.8183
G1 X121.404 Y33.511 E13.83529
G1 X121.717 Y33.792 E13.85237
G1 X122.041 Y34.058 E13.86939
G1 X122.377 Y34.311 E13.88647
G1 X122.723 Y34.548 E13.9035
G1 X123.078 Y34.771 E13.92052
G1 X123.443 Y34.978 E13.93755
G1 X123.817 Y35.17 E13.95462
G1 X124.197 Y35.344 E13.97159
G1 X124.585 Y35.503 E13.98862
G1 X124.981 Y35.645 E14.0057
G1 X125.381 Y35.769 E14.0227
G1 X125.787 Y35.876 E14.03975
G1 X126.196 Y35.966 E14.05675
G1 X126.61 Y36.038 E14.07381
G1 X127.027 Y36.092 E14.09088
G1 X127.445 Y36.127 E14.10791
G1 X127.863 Y36.146 E14.1249
G1 X128.284 Y36.146 E14.14199
G1 X128.702 Y36.127 E14.15898
G1 X129.12 Y36.092 E14.17601
G1 X129.537 Y36.038 E14.19309
G1 X129.951 Y35.966 E14.21015
G1 X130.36 Y35.876 E14.22715
G1 X130.766 Y35.769 E14.2442
G1 X131.166 Y35.645 E14.2612
G1 X131.562 Y35.503 E14.27828
G1 X131.95 Y35.344 E14.2953
G1 X132.33 Y35.17 E14.31227
G1 X132.704 Y34.978 E14.32934
G1 X133.069 Y34.771 E14.34638
G1 X133.424 Y34.548 E14.3634
G1 X133.77 Y34.311 E14.38043
G1 X134.106 Y34.058 E14.3975
G1 X134.43 Y33.792 E14.41452
G1 X134.743 Y33.511 E14.4316
G1 X135.042 Y33.218 E14.4486
G1 X135.329 Y32.912 E14.46563
G1 X135.602 Y32.593 E14.48268
G1 X135.861 Y32.264 E14.49968
G1 X136.107 Y31.924 E14.51672
G1 X136.336 Y31.574 E14.5337
G1 X136.552 Y31.213 E14.55078
G1 X136.751 Y30.843 E14.56784
G1 X136.935 Y30.466 E14.58487
G1 X137.102 Y30.08 E14.60194
G1 X137.252 Y29.689 E14.61895
G1 X137.385 Y29.291 E14.63598
G1 X137.5 Y28.888 E14.653
G1 X137.599 Y28.48 E14.67004
G1 X137.679 Y28.069 E14.68704
G1 X137.743 Y27.654 E14.70409
G1 X137.787 Y27.235 E14.7212
G1 X137.815 Y26.817 E14.73821
G1 X137.823 Y26.398 E14.75522
G1 X137.815 Y25.979 E14.77224
G1 X137.787 Y25.561 E14.78925
G1 X137.743 Y25.142 E14.80635
G1 X137.679 Y24.727 E14.8234
G1 X137.599 Y24.316 E14.8404
