;This Gcode has been generated specifically for the LulzBot Mini
;Basic settings: Layer height: 0.3 Walls: 0.6 Fill: 24
;Filament Diameter: 2.9
;Nozzle Size: 0.6
G21                          ; metric values
G90                          ; absolute positioning
M82                          ; set extruder to absolute mode
M107                         ; start with the fan off
G92 E0                       ; set extruder position to 0
M140 S40; get bed heating up
G28                          ; home all
M907 X500                    ; reduce extruder torque for safety
M109 S160                    ; set to cleaning temp and wait
G1 Z150 E-30 F55             ; suck up XXmm of filament
M109 S170                    ; heat up rest of way
G1 X45 Y174 F11520           ; move behind scraper
G1 Z0  F1200                 ; CRITICAL: set Z to height of top of scraper
G1 X45 Y174 Z-.5 F4000       ; wiping ; plunge into wipe pad
G1 X55 Y172 Z-.5 F4000       ; wiping
G1 X45 Y174 Z0 F4000         ; wiping
G1 X55 Y172 F4000            ; wiping
G1 X45 Y174 F4000            ; wiping
G1 X55 Y172 F4000            ; wiping
G1 X45 Y174 F4000            ; wiping
G1 X55 Y172 F4000            ; wiping
G1 X60 Y174 F4000            ; wiping
G1 X80 Y172 F4000            ; wiping
G1 X60 Y174 F4000            ; wiping
G1 X80 Y172 F4000            ; wiping
G1 X60 Y174 F4000            ; wiping
G1 X90 Y172 F4000            ; wiping
G1 X80 Y174 F4000            ; wiping
G1 X100 Y172 F4000           ; wiping
G1 X80 Y174 F4000            ; wiping
G1 X100 Y172 F4000           ; wiping
G1 X80 Y174 F4000            ; wiping
G1 X100 Y172 F4000           ; wiping
G1 X110 Y174 F4000           ; wiping
G1 X100 Y172 F4000           ; wiping
G1 X110 Y174 F4000           ; wiping
G1 X100 Y172 F4000           ; wiping
G1 X110 Y174 F4000           ; wiping
G1 X115 Y172 Z-0.5 F1000     ; wipe slower and bury noz in cleanish area
G1 Z10                       ; raise z
G28 X0 Y0                    ; home x and y
M109 S180                    ; set to probing temp
M204 S300                    ; Set probing acceleration
G29                          ; Probe
M204 S2000                   ; Restore standard acceleration
G1 X5 Y15 Z10 F5000          ; get out the way
G4 S1                        ; pause
M400                         ; clear buffer
M109 S235    ; set extruder temp and wait
G1 Z2 E0 F45                 ; extrude filament back into nozzle
M140 S40; get bed temping up during first layer

;Layer count: 7
;LAYER:0
M107
G0 F10500 X88.087 Y53.503 Z0.300
;TYPE:SKIRT
G1 F480 X88.591 Y53.674 E0.01450
G1 X89.250 Y53.916 E0.03363
G1 X89.952 Y54.197 E0.05424
G1 X90.556 Y54.459 E0.07218
G1 X91.236 Y54.776 E0.09263
G1 X91.822 Y55.069 E0.11048
G1 X92.444 Y55.400 E0.12968
G1 X93.101 Y55.775 E0.15030
G1 X93.662 Y56.116 E0.16819
G1 X94.293 Y56.521 E0.18862
G1 X94.836 Y56.894 E0.20657
G1 X95.406 Y57.305 E0.22572
G1 X96.004 Y57.765 E0.24628
G1 X96.514 Y58.178 E0.26417
G1 X97.086 Y58.669 E0.28471
G1 X97.573 Y59.111 E0.30263
G1 X98.116 Y59.631 E0.32312
G1 X98.577 Y60.099 E0.34102
G1 X99.057 Y60.610 E0.36013
G1 X99.559 Y61.176 E0.38075
G1 X99.981 Y61.680 E0.39866
G1 X100.449 Y62.269 E0.41916
G1 X100.841 Y62.794 E0.43702
G1 X101.248 Y63.367 E0.45617
G1 X101.667 Y63.995 E0.47674
G1 X102.017 Y64.552 E0.49467
G1 X102.400 Y65.199 E0.51516
G1 X102.689 Y65.721 E0.53142
G1 X102.741 Y65.814 E0.53432
G1 X103.044 Y66.403 E0.55237
G1 X103.371 Y67.073 E0.57269
G1 X103.644 Y67.676 E0.59073
G1 X103.936 Y68.373 E0.61132
G1 X104.172 Y68.985 E0.62919
G1 X104.407 Y69.642 E0.64821
G1 X104.499 Y69.923 E0.65627
G1 X104.557 Y69.743 E0.66142
G1 X104.791 Y69.080 E0.68058
G1 X105.043 Y68.423 E0.69976
G1 X105.334 Y67.723 E0.72042
G1 X105.605 Y67.123 E0.73836
G1 X105.907 Y66.496 E0.75732
G1 X106.230 Y65.866 E0.77661
G1 X106.572 Y65.247 E0.79589
G1 X106.929 Y64.639 E0.81510
G1 X107.328 Y64.001 E0.83561
G1 X107.691 Y63.453 E0.85352
G1 X108.097 Y62.878 E0.87270
G1 X108.517 Y62.313 E0.89189
G1 X108.953 Y61.760 E0.91108
G1 X109.434 Y61.182 E0.93157
G1 X109.871 Y60.687 E0.94956
G1 X110.350 Y60.173 E0.96871
G1 X110.843 Y59.671 E0.98788
G1 X111.351 Y59.181 E1.00712
G1 X111.872 Y58.706 E1.02633
G1 X112.407 Y58.244 E1.04559
G1 X112.951 Y57.801 E1.06471
G1 X113.547 Y57.339 E1.08526
G1 X114.080 Y56.953 E1.10320
G1 X114.656 Y56.555 E1.12228
G1 X115.248 Y56.171 E1.14151
G1 X115.850 Y55.803 E1.16073
G1 X116.506 Y55.427 E1.18134
G1 X117.087 Y55.115 E1.19931
G1 X117.713 Y54.801 E1.21839
G1 X118.350 Y54.502 E1.23757
G1 X118.954 Y54.238 E1.25553
G1 X119.035 Y54.202 E1.25795
G1 X119.653 Y53.954 E1.27610
G1 X120.357 Y53.691 E1.29658
G1 X120.913 Y53.502 E1.31258
G1 X120.366 Y53.318 E1.32831
G1 X119.746 Y53.089 E1.34632
G1 X119.094 Y52.827 E1.36547
G1 X118.446 Y52.548 E1.38469
G1 X117.806 Y52.249 E1.40394
G1 X117.133 Y51.914 E1.42443
G1 X116.552 Y51.603 E1.44239
G1 X115.943 Y51.257 E1.46148
G1 X115.298 Y50.867 E1.48202
G1 X114.745 Y50.509 E1.49997
G1 X114.163 Y50.113 E1.51915
G1 X113.554 Y49.670 E1.53967
G1 X113.033 Y49.271 E1.55756
G1 X112.448 Y48.797 E1.57808
G1 X111.948 Y48.367 E1.59605
G1 X111.427 Y47.895 E1.61520
G1 X110.883 Y47.374 E1.63573
G1 X110.422 Y46.906 E1.65363
G1 X109.943 Y46.396 E1.67270
G1 X109.439 Y45.830 E1.69335
G1 X109.017 Y45.324 E1.71131
G1 X108.603 Y44.803 E1.72944
G1 X108.545 Y44.728 E1.73203
G1 X108.128 Y44.171 E1.75099
G1 X107.749 Y43.635 E1.76888
G1 X107.360 Y43.051 E1.78800
G1 X106.984 Y42.456 E1.80718
G1 X106.625 Y41.849 E1.82640
G1 X106.282 Y41.233 E1.84561
G1 X105.933 Y40.561 E1.86625
G1 X105.648 Y39.973 E1.88405
G1 X105.358 Y39.335 E1.90315
G1 X105.083 Y38.681 E1.92249
G1 X104.828 Y38.024 E1.94169
G1 X104.574 Y37.314 E1.96224
G1 X104.499 Y37.084 E1.96883
G1 X104.426 Y37.311 E1.97533
G1 X104.190 Y37.974 E1.99451
G1 X103.937 Y38.631 E2.01370
G1 X103.683 Y39.239 E2.03165
G1 X103.374 Y39.925 E2.05216
G1 X103.067 Y40.559 E2.07135
G1 X102.744 Y41.185 E2.09055
G1 X102.401 Y41.804 E2.10983
G1 X102.043 Y42.411 E2.12904
G1 X101.696 Y42.963 E2.14681
G1 X101.309 Y43.549 E2.16594
G1 X100.873 Y44.168 E2.18658
G1 X100.480 Y44.695 E2.20449
G1 X100.047 Y45.243 E2.22352
G1 X99.597 Y45.786 E2.24274
G1 X99.096 Y46.354 E2.26338
G1 X98.647 Y46.834 E2.28129
G1 X98.156 Y47.334 E2.30039
G1 X97.613 Y47.858 E2.32095
G1 X97.124 Y48.303 E2.33897
G1 X96.592 Y48.761 E2.35810
G1 X96.048 Y49.205 E2.37724
G1 X95.452 Y49.665 E2.39775
G1 X94.919 Y50.053 E2.41572
G1 X94.299 Y50.480 E2.43623
G1 X93.747 Y50.836 E2.45413
G1 X93.149 Y51.202 E2.47324
G1 X92.536 Y51.554 E2.49250
G1 X91.915 Y51.888 E2.51172
G1 X91.288 Y52.203 E2.53084
G1 X90.603 Y52.526 E2.55148
G1 X90.032 Y52.773 E2.56843
G1 X89.964 Y52.803 E2.57046
G1 X89.347 Y53.051 E2.58858
G1 X88.689 Y53.297 E2.60772
G1 X88.087 Y53.503 E2.62506
G0 F10500 X71.914 Y53.502
G1 F480 X71.367 Y53.318 E2.64079
G1 X70.747 Y53.089 E2.65880
G1 X70.095 Y52.827 E2.67795
G1 X69.447 Y52.548 E2.69718
G1 X68.807 Y52.249 E2.71643
G1 X68.134 Y51.914 E2.73691
G1 X67.553 Y51.603 E2.75487
G1 X66.944 Y51.257 E2.77396
G1 X66.299 Y50.867 E2.79450
G1 X65.746 Y50.509 E2.81245
G1 X65.164 Y50.113 E2.83164
G1 X64.555 Y49.670 E2.85216
G1 X64.034 Y49.271 E2.87004
G1 X63.449 Y48.797 E2.89056
G1 X62.949 Y48.367 E2.90853
G1 X62.428 Y47.895 E2.92769
G1 X61.884 Y47.374 E2.94822
G1 X61.423 Y46.906 E2.96612
G1 X60.944 Y46.396 E2.98518
G1 X60.440 Y45.830 E3.00584
G1 X60.018 Y45.324 E3.02379
G1 X59.604 Y44.803 E3.04193
G1 X59.546 Y44.728 E3.04451
G1 X59.129 Y44.171 E3.06347
G1 X58.750 Y43.635 E3.08136
G1 X58.361 Y43.051 E3.10048
G1 X57.985 Y42.456 E3.11966
G1 X57.626 Y41.849 E3.13888
G1 X57.283 Y41.233 E3.15810
G1 X56.934 Y40.561 E3.17873
G1 X56.649 Y39.973 E3.19654
G1 X56.359 Y39.335 E3.21564
G1 X56.084 Y38.681 E3.23497
G1 X55.829 Y38.024 E3.25418
G1 X55.575 Y37.314 E3.27472
G1 X55.500 Y37.084 E3.28132
G1 X55.427 Y37.311 E3.28782
G1 X55.191 Y37.974 E3.30699
G1 X54.938 Y38.631 E3.32618
G1 X54.684 Y39.239 E3.34414
G1 X54.375 Y39.925 E3.36464
G1 X54.068 Y40.559 E3.38384
G1 X53.745 Y41.185 E3.40303
G1 X53.402 Y41.804 E3.42232
G1 X53.044 Y42.411 E3.44152
G1 X52.697 Y42.963 E3.45929
G1 X52.310 Y43.549 E3.47843
G1 X51.874 Y44.168 E3.49906
G1 X51.481 Y44.695 E3.51697
G1 X51.048 Y45.243 E3.53601
G1 X50.598 Y45.786 E3.55523
G1 X50.097 Y46.354 E3.57587
G1 X49.648 Y46.834 E3.59378
G1 X49.157 Y47.334 E3.61287
G1 X48.614 Y47.858 E3.63344
G1 X48.125 Y48.303 E3.65145
G1 X47.593 Y48.761 E3.67059
G1 X47.049 Y49.205 E3.68972
G1 X46.453 Y49.665 E3.71024
G1 X45.920 Y50.053 E3.72820
G1 X45.300 Y50.480 E3.74872
G1 X44.748 Y50.836 E3.76662
G1 X44.150 Y51.202 E3.78572
G1 X43.537 Y51.554 E3.80499
G1 X42.916 Y51.888 E3.82420
G1 X42.289 Y52.203 E3.84332
G1 X41.604 Y52.526 E3.86396
G1 X41.033 Y52.773 E3.88092
G1 X40.965 Y52.803 E3.88294
G1 X40.348 Y53.051 E3.90106
G1 X39.690 Y53.297 E3.92021
G1 X39.088 Y53.503 E3.93755
G1 X39.592 Y53.674 E3.95205
G1 X40.251 Y53.916 E3.97118
G1 X40.953 Y54.197 E3.99179
G1 X41.557 Y54.459 E4.00973
G1 X42.237 Y54.776 E4.03017
G1 X42.823 Y55.069 E4.04803
G1 X43.445 Y55.400 E4.06723
G1 X44.102 Y55.775 E4.08784
G1 X44.663 Y56.116 E4.10574
G1 X45.294 Y56.521 E4.12617
G1 X45.837 Y56.894 E4.14412
G1 X46.407 Y57.305 E4.16327
G1 X47.005 Y57.765 E4.18383
G1 X47.515 Y58.178 E4.20171
G1 X48.087 Y58.669 E4.22226
G1 X48.574 Y59.111 E4.24018
G1 X49.117 Y59.631 E4.26067
G1 X49.578 Y60.099 E4.27857
G1 X50.058 Y60.610 E4.29768
G1 X50.560 Y61.176 E4.31829
G1 X50.982 Y61.680 E4.33621
G1 X51.450 Y62.269 E4.35671
G1 X51.842 Y62.794 E4.37456
G1 X52.249 Y63.367 E4.39371
G1 X52.668 Y63.995 E4.41429
G1 X53.018 Y64.552 E4.43221
G1 X53.401 Y65.199 E4.45270
G1 X53.690 Y65.721 E4.46896
G1 X53.742 Y65.814 E4.47187
G1 X54.045 Y66.403 E4.48992
G1 X54.372 Y67.073 E4.51023
G1 X54.645 Y67.676 E4.52827
G1 X54.937 Y68.373 E4.54887
G1 X55.173 Y68.985 E4.56674
G1 X55.408 Y69.642 E4.58576
G1 X55.500 Y69.923 E4.59381
G1 X55.558 Y69.743 E4.59897
G1 X55.792 Y69.080 E4.61813
G1 X56.044 Y68.423 E4.63730
G1 X56.335 Y67.723 E4.65796
G1 X56.606 Y67.123 E4.67590
G1 X56.908 Y66.496 E4.69487
G1 X57.231 Y65.866 E4.71416
G1 X57.573 Y65.247 E4.73343
G1 X57.930 Y64.639 E4.75265
G1 X58.329 Y64.001 E4.77315
G1 X58.692 Y63.453 E4.79107
G1 X59.098 Y62.878 E4.81025
G1 X59.518 Y62.313 E4.82943
G1 X59.954 Y61.760 E4.84862
G1 X60.435 Y61.182 E4.86912
G1 X60.872 Y60.687 E4.88711
G1 X61.351 Y60.173 E4.90626
G1 X61.844 Y59.671 E4.92543
G1 X62.352 Y59.181 E4.94466
G1 X62.873 Y58.706 E4.96388
G1 X63.408 Y58.244 E4.98314
G1 X63.952 Y57.801 E5.00226
G1 X64.548 Y57.339 E5.02281
G1 X65.081 Y56.953 E5.04074
G1 X65.657 Y56.555 E5.05982
G1 X66.249 Y56.171 E5.07905
G1 X66.851 Y55.803 E5.09828
G1 X67.507 Y55.427 E5.11888
G1 X68.088 Y55.115 E5.13686
G1 X68.714 Y54.801 E5.15594
G1 X69.351 Y54.502 E5.17512
G1 X69.955 Y54.238 E5.19308
G1 X70.036 Y54.202 E5.19550
G1 X70.654 Y53.954 E5.21364
G1 X71.358 Y53.691 E5.23412
G1 X71.914 Y53.502 E5.25013
G0 F10500 X55.500 Y86.079
G1 F480 X55.427 Y86.306 E5.25662
G1 X55.191 Y86.970 E5.27583
G1 X54.938 Y87.625 E5.29496
G1 X54.684 Y88.233 E5.31292
G1 X54.375 Y88.920 E5.33345
G1 X54.068 Y89.554 E5.35264
G1 X53.745 Y90.180 E5.37184
G1 X53.402 Y90.799 E5.39112
G1 X53.044 Y91.406 E5.41033
G1 X52.697 Y91.958 E5.42810
G1 X52.310 Y92.544 E5.44723
G1 X51.874 Y93.163 E5.46787
G1 X51.481 Y93.690 E5.48578
G1 X51.047 Y94.240 E5.50488
G1 X50.598 Y94.780 E5.52401
G1 X50.098 Y95.348 E5.54463
G1 X49.648 Y95.829 E5.56258
G1 X49.156 Y96.330 E5.58172
G1 X48.613 Y96.853 E5.60226
G1 X48.126 Y97.295 E5.62019
G1 X47.593 Y97.756 E5.63939
G1 X47.049 Y98.199 E5.65851
G1 X46.453 Y98.661 E5.67906
G1 X45.920 Y99.047 E5.69699
G1 X45.301 Y99.474 E5.71749
G1 X44.748 Y99.831 E5.73542
G1 X44.150 Y100.197 E5.75453
G1 X43.537 Y100.549 E5.77379
G1 X42.916 Y100.883 E5.79301
G1 X42.287 Y101.199 E5.81219
G1 X41.605 Y101.520 E5.83273
G1 X41.059 Y101.756 E5.84894
G1 X40.965 Y101.798 E5.85175
G1 X40.348 Y102.046 E5.86987
G1 X39.690 Y102.292 E5.88901
G1 X39.088 Y102.498 E5.90635
G1 X39.589 Y102.667 E5.92076
G1 X40.253 Y102.911 E5.94004
G1 X40.952 Y103.192 E5.96057
G1 X41.556 Y103.453 E5.97850
G1 X42.239 Y103.772 E5.99904
G1 X42.823 Y104.064 E6.01684
G1 X43.445 Y104.395 E6.03604
G1 X44.100 Y104.768 E6.05658
G1 X44.663 Y105.110 E6.07453
G1 X45.294 Y105.516 E6.09498
G1 X45.837 Y105.888 E6.11291
G1 X46.407 Y106.301 E6.13209
G1 X47.003 Y106.757 E6.15255
G1 X47.516 Y107.174 E6.17056
G1 X48.088 Y107.665 E6.19110
G1 X48.574 Y108.106 E6.20899
G1 X49.117 Y108.626 E6.22948
G1 X49.578 Y109.094 E6.24738
G1 X50.057 Y109.604 E6.26645
G1 X50.561 Y110.170 E6.28710
G1 X50.984 Y110.677 E6.30509
G1 X51.450 Y111.264 E6.32552
G1 X51.842 Y111.789 E6.34337
G1 X52.249 Y112.362 E6.36252
G1 X52.668 Y112.990 E6.38310
G1 X53.018 Y113.547 E6.40102
G1 X53.401 Y114.194 E6.42151
G1 X53.690 Y114.716 E6.43777
G1 X53.742 Y114.809 E6.44068
G1 X54.045 Y115.398 E6.45873
G1 X54.372 Y116.068 E6.47904
G1 X54.644 Y116.670 E6.49705
G1 X54.937 Y117.366 E6.51763
G1 X55.173 Y117.980 E6.53555
G1 X55.408 Y118.637 E6.55457
G1 X55.500 Y118.917 E6.56260
G1 X55.558 Y118.737 E6.56775
G1 X55.792 Y118.075 E6.58689
G1 X56.044 Y117.418 E6.60606
G1 X56.335 Y116.718 E6.62672
G1 X56.606 Y116.118 E6.64466
G1 X56.908 Y115.491 E6.66363
G1 X57.231 Y114.861 E6.68292
G1 X57.573 Y114.242 E6.70219
G1 X57.930 Y113.634 E6.72141
G1 X58.329 Y112.996 E6.74191
G1 X58.692 Y112.448 E6.75982
G1 X59.098 Y111.873 E6.77901
G1 X59.518 Y111.308 E6.79819
G1 X59.953 Y110.757 E6.81732
G1 X60.436 Y110.176 E6.83791
G1 X60.873 Y109.681 E6.85591
G1 X61.351 Y109.168 E6.87501
G1 X61.843 Y108.667 E6.89415
G1 X62.350 Y108.177 E6.91336
G1 X62.875 Y107.699 E6.93271
G1 X63.408 Y107.239 E6.95190
G1 X63.952 Y106.795 E6.97103
G1 X64.548 Y106.335 E6.99155
G1 X65.081 Y105.947 E7.00952
G1 X65.659 Y105.549 E7.02864
G1 X66.249 Y105.166 E7.04781
G1 X66.851 Y104.798 E7.06704
G1 X67.507 Y104.422 E7.08764
G1 X68.088 Y104.110 E7.10561
G1 X68.712 Y103.797 E7.12464
G1 X69.351 Y103.496 E7.14389
G1 X69.959 Y103.231 E7.16196
G1 X70.036 Y103.197 E7.16426
G1 X70.652 Y102.949 E7.18235
G1 X71.359 Y102.685 E7.20292
G1 X71.915 Y102.497 E7.21891
G1 X71.365 Y102.311 E7.23473
G1 X70.749 Y102.084 E7.25262
G1 X70.095 Y101.822 E7.27182
G1 X69.447 Y101.542 E7.29106
G1 X68.809 Y101.246 E7.31023
G1 X68.134 Y100.909 E7.33079
G1 X67.553 Y100.598 E7.34875
G1 X66.942 Y100.251 E7.36789
G1 X66.297 Y99.860 E7.38845
G1 X65.746 Y99.503 E7.40634
G1 X65.166 Y99.108 E7.42546
G1 X64.554 Y98.665 E7.44605
G1 X64.032 Y98.264 E7.46399
G1 X63.449 Y97.791 E7.48445
G1 X62.950 Y97.362 E7.50238
G1 X62.430 Y96.891 E7.52150
G1 X61.884 Y96.369 E7.54209
G1 X61.423 Y95.901 E7.55999
G1 X60.943 Y95.390 E7.57909
G1 X60.441 Y94.824 E7.59971
G1 X60.019 Y94.320 E7.61762
G1 X59.604 Y93.798 E7.63580
G1 X59.546 Y93.723 E7.63838
G1 X59.129 Y93.166 E7.65734
G1 X58.750 Y92.630 E7.67523
G1 X58.361 Y92.046 E7.69435
G1 X57.985 Y91.451 E7.71353
G1 X57.626 Y90.844 E7.73275
G1 X57.283 Y90.228 E7.75197
G1 X56.934 Y89.556 E7.77260
G1 X56.649 Y88.968 E7.79041
G1 X56.358 Y88.329 E7.80954
G1 X56.083 Y87.674 E7.82890
G1 X55.830 Y87.019 E7.84804
G1 X55.575 Y86.309 E7.86859
G1 X55.500 Y86.079 E7.87519
G0 F10500 X88.087 Y102.498
G1 F480 X88.588 Y102.667 E7.88959
G1 X89.252 Y102.911 E7.90887
G1 X89.951 Y103.192 E7.92940
G1 X90.555 Y103.453 E7.94733
G1 X91.238 Y103.772 E7.96788
G1 X91.822 Y104.064 E7.98567
G1 X92.444 Y104.395 E8.00487
G1 X93.099 Y104.768 E8.02541
G1 X93.662 Y105.110 E8.04336
G1 X94.293 Y105.516 E8.06381
G1 X94.836 Y105.888 E8.08175
G1 X95.406 Y106.301 E8.10093
G1 X96.002 Y106.757 E8.12138
G1 X96.515 Y107.174 E8.13940
G1 X97.087 Y107.665 E8.15994
G1 X97.573 Y108.106 E8.17782
G1 X98.116 Y108.626 E8.19831
G1 X98.577 Y109.094 E8.21621
G1 X99.056 Y109.604 E8.23528
G1 X99.560 Y110.170 E8.25593
G1 X99.983 Y110.677 E8.27393
G1 X100.449 Y111.264 E8.29435
G1 X100.841 Y111.789 E8.31221
G1 X101.248 Y112.362 E8.33136
G1 X101.667 Y112.990 E8.35193
G1 X102.017 Y113.547 E8.36986
G1 X102.400 Y114.194 E8.39035
G1 X102.689 Y114.716 E8.40661
G1 X102.741 Y114.809 E8.40951
G1 X103.044 Y115.398 E8.42756
G1 X103.371 Y116.068 E8.44788
G1 X103.643 Y116.670 E8.46588
G1 X103.936 Y117.366 E8.48646
G1 X104.172 Y117.980 E8.50439
G1 X104.407 Y118.637 E8.52340
G1 X104.499 Y118.917 E8.53143
G1 X104.557 Y118.737 E8.53659
G1 X104.791 Y118.075 E8.55572
G1 X105.043 Y117.418 E8.57490
G1 X105.334 Y116.718 E8.59555
G1 X105.605 Y116.118 E8.61350
G1 X105.907 Y115.491 E8.63246
G1 X106.230 Y114.861 E8.65175
G1 X106.572 Y114.242 E8.67103
G1 X106.929 Y113.634 E8.69024
G1 X107.328 Y112.996 E8.71075
G1 X107.691 Y112.448 E8.72866
G1 X108.097 Y111.873 E8.74784
G1 X108.517 Y111.308 E8.76703
G1 X108.952 Y110.757 E8.78616
G1 X109.435 Y110.176 E8.80675
G1 X109.872 Y109.681 E8.82474
G1 X110.350 Y109.168 E8.84385
G1 X110.842 Y108.667 E8.86298
G1 X111.349 Y108.177 E8.88220
G1 X111.874 Y107.699 E8.90155
G1 X112.407 Y107.239 E8.92073
G1 X112.951 Y106.795 E8.93987
G1 X113.547 Y106.335 E8.96039
G1 X114.080 Y105.947 E8.97835
G1 X114.658 Y105.549 E8.99748
G1 X115.248 Y105.166 E9.01664
G1 X115.850 Y104.798 E9.03587
G1 X116.506 Y104.422 E9.05648
G1 X117.087 Y104.110 E9.07445
G1 X117.711 Y103.797 E9.09347
G1 X118.350 Y103.496 E9.11272
G1 X118.958 Y103.231 E9.13080
G1 X119.035 Y103.197 E9.13309
G1 X119.651 Y102.949 E9.15119
G1 X120.358 Y102.685 E9.17175
G1 X120.914 Y102.497 E9.18775
G1 X120.364 Y102.311 E9.20357
G1 X119.748 Y102.084 E9.22146
G1 X119.094 Y101.822 E9.24066
G1 X118.446 Y101.542 E9.25989
G1 X117.808 Y101.246 E9.27906
G1 X117.133 Y100.909 E9.29962
G1 X116.552 Y100.598 E9.31758
G1 X115.941 Y100.251 E9.33673
G1 X115.296 Y99.860 E9.35728
G1 X114.745 Y99.503 E9.37517
G1 X114.165 Y99.108 E9.39430
G1 X113.553 Y98.665 E9.41489
G1 X113.031 Y98.264 E9.43282
G1 X112.448 Y97.791 E9.45328
G1 X111.949 Y97.362 E9.47122
G1 X111.429 Y96.891 E9.49033
G1 X110.883 Y96.369 E9.51092
G1 X110.422 Y95.901 E9.52882
G1 X109.942 Y95.390 E9.54793
G1 X109.440 Y94.824 E9.56854
G1 X109.018 Y94.320 E9.58646
G1 X108.603 Y93.798 E9.60463
G1 X108.545 Y93.723 E9.60721
G1 X108.128 Y93.166 E9.62618
G1 X107.749 Y92.630 E9.64406
G1 X107.360 Y92.046 E9.66319
G1 X106.984 Y91.451 E9.68237
G1 X106.625 Y90.844 E9.70159
G1 X106.282 Y90.228 E9.72080
G1 X105.933 Y89.556 E9.74143
G1 X105.648 Y88.968 E9.75924
G1 X105.357 Y88.329 E9.77838
G1 X105.082 Y87.674 E9.79773
G1 X104.829 Y87.019 E9.81687
G1 X104.574 Y86.309 E9.83743
G1 X104.499 Y86.079 E9.84402
G1 X104.426 Y86.306 E9.85052
G1 X104.190 Y86.970 E9.86972
G1 X103.937 Y87.625 E9.88886
G1 X103.683 Y88.233 E9.90681
G1 X103.374 Y88.920 E9.92734
G1 X103.067 Y89.554 E9.94654
G1 X102.744 Y90.180 E9.96573
G1 X102.401 Y90.799 E9.98502
G1 X102.043 Y91.406 E10.00422
G1 X101.696 Y91.958 E10.02199
G1 X101.309 Y92.544 E10.04113
G1 X100.873 Y93.163 E10.06176
G1 X100.480 Y93.690 E10.07968
G1 X100.046 Y94.240 E10.09877
G1 X99.597 Y94.780 E10.11791
G1 X99.097 Y95.348 E10.13853
G1 X98.647 Y95.829 E10.15648
G1 X98.155 Y96.330 E10.17561
G1 X97.612 Y96.853 E10.19616
G1 X97.125 Y97.295 E10.21408
G1 X96.592 Y97.756 E10.23329
G1 X96.048 Y98.199 E10.25240
G1 X95.452 Y98.661 E10.27295
G1 X94.919 Y99.047 E10.29089
G1 X94.300 Y99.474 E10.31138
G1 X93.747 Y99.831 E10.32932
G1 X93.149 Y100.197 E10.34842
G1 X92.536 Y100.549 E10.36769
G1 X91.915 Y100.883 E10.38690
G1 X91.286 Y101.199 E10.40609
G1 X90.604 Y101.520 E10.42663
G1 X90.058 Y101.756 E10.44284
G1 X89.964 Y101.798 E10.44564
G1 X89.347 Y102.046 E10.46376
G1 X88.689 Y102.292 E10.48291
G1 X88.087 Y102.498 E10.50025
G0 F10500 X104.499 Y135.075
G1 F480 X104.426 Y135.302 E10.50674
G1 X104.190 Y135.966 E10.52595
G1 X103.936 Y136.622 E10.54512
G1 X103.683 Y137.228 E10.56301
G1 X103.375 Y137.915 E10.58353
G1 X103.067 Y138.550 E10.60276
G1 X102.743 Y139.177 E10.62200
G1 X102.401 Y139.794 E10.64122
G1 X102.044 Y140.401 E10.66041
G1 X101.696 Y140.956 E10.67826
G1 X101.308 Y141.540 E10.69737
G1 X100.874 Y142.157 E10.71793
G1 X100.481 Y142.684 E10.73584
G1 X100.046 Y143.236 E10.75499
G1 X99.597 Y143.776 E10.77413
G1 X99.097 Y144.344 E10.79475
G1 X98.646 Y144.827 E10.81276
G1 X98.155 Y145.325 E10.83182
G1 X97.613 Y145.848 E10.85235
G1 X97.124 Y146.293 E10.87036
G1 X96.592 Y146.751 E10.88949
G1 X96.050 Y147.194 E10.90857
G1 X95.452 Y147.657 E10.92918
G1 X94.919 Y148.043 E10.94711
G1 X94.300 Y148.470 E10.96761
G1 X93.747 Y148.827 E10.98554
G1 X93.149 Y149.193 E11.00465
G1 X92.536 Y149.545 E11.02391
G1 X91.915 Y149.879 E11.04313
G1 X91.286 Y150.195 E11.06231
G1 X90.604 Y150.516 E11.08285
G1 X89.998 Y150.778 E11.10084
G1 X89.349 Y151.040 E11.11992
G1 X88.691 Y151.286 E11.13906
G1 X87.977 Y151.531 E11.15963
G1 X87.347 Y151.727 E11.17761
G1 X86.669 Y151.918 E11.19681
G1 X85.987 Y152.089 E11.21597
G1 X85.304 Y152.243 E11.23505
G1 X84.561 Y152.390 E11.25569
G1 X83.909 Y152.497 E11.27369
G1 X83.216 Y152.594 E11.29276
G1 X82.516 Y152.672 E11.31196
G1 X81.812 Y152.731 E11.33121
G1 X81.108 Y152.770 E11.35042
G1 X80.407 Y152.791 E11.36953
G1 X79.654 Y152.793 E11.39005
G1 X78.996 Y152.776 E11.40799
G1 X78.295 Y152.739 E11.42712
G1 X77.592 Y152.683 E11.44634
G1 X76.887 Y152.608 E11.46566
G1 X76.141 Y152.505 E11.48618
G1 X75.493 Y152.399 E11.50408
G1 X74.803 Y152.266 E11.52323
G1 X74.116 Y152.116 E11.54239
G1 X73.431 Y151.945 E11.56163
G1 X72.751 Y151.756 E11.58086
G1 X72.078 Y151.548 E11.60006
G1 X71.365 Y151.307 E11.62057
G1 X70.749 Y151.080 E11.63846
G1 X70.095 Y150.818 E11.65766
G1 X69.447 Y150.538 E11.67689
G1 X68.809 Y150.242 E11.69606
G1 X68.134 Y149.905 E11.71662
G1 X67.553 Y149.594 E11.73458
G1 X66.942 Y149.247 E11.75373
G1 X66.297 Y148.856 E11.77428
G1 X65.746 Y148.499 E11.79217
G1 X65.166 Y148.104 E11.81130
G1 X64.554 Y147.661 E11.83189
G1 X64.032 Y147.260 E11.84982
G1 X63.449 Y146.787 E11.87028
G1 X62.949 Y146.357 E11.88825
G1 X62.428 Y145.885 E11.90741
G1 X61.885 Y145.366 E11.92788
G1 X61.424 Y144.899 E11.94576
G1 X60.943 Y144.386 E11.96493
G1 X60.441 Y143.820 E11.98554
G1 X60.019 Y143.316 E12.00346
G1 X59.604 Y142.794 E12.02163
G1 X59.545 Y142.718 E12.02425
G1 X59.128 Y142.160 E12.04324
G1 X58.751 Y141.626 E12.06105
G1 X58.361 Y141.044 E12.08014
G1 X57.984 Y140.446 E12.09940
G1 X57.626 Y139.839 E12.11861
G1 X57.283 Y139.225 E12.13778
G1 X56.934 Y138.552 E12.15843
G1 X56.649 Y137.964 E12.17624
G1 X56.358 Y137.325 E12.19538
G1 X56.083 Y136.670 E12.21473
G1 X55.830 Y136.015 E12.23387
G1 X55.575 Y135.305 E12.25443
G1 X55.500 Y135.075 E12.26102
G1 X55.427 Y135.302 E12.26752
G1 X55.191 Y135.966 E12.28672
G1 X54.937 Y136.622 E12.30589
G1 X54.684 Y137.228 E12.32379
G1 X54.376 Y137.915 E12.34431
G1 X54.068 Y138.550 E12.36354
G1 X53.744 Y139.177 E12.38277
G1 X53.402 Y139.794 E12.40200
G1 X53.045 Y140.401 E12.42119
G1 X52.697 Y140.956 E12.43904
G1 X52.309 Y141.540 E12.45814
G1 X51.875 Y142.157 E12.47870
G1 X51.482 Y142.684 E12.49662
G1 X51.047 Y143.236 E12.51577
G1 X50.598 Y143.776 E12.53491
G1 X50.098 Y144.344 E12.55553
G1 X49.647 Y144.827 E12.57354
G1 X49.156 Y145.325 E12.59259
G1 X48.614 Y145.848 E12.61312
G1 X48.125 Y146.293 E12.63114
G1 X47.593 Y146.751 E12.65027
G1 X47.051 Y147.194 E12.66934
G1 X46.453 Y147.657 E12.68995
G1 X45.920 Y148.043 E12.70789
G1 X45.301 Y148.470 E12.72838
G1 X44.748 Y148.827 E12.74632
G1 X44.150 Y149.193 E12.76542
G1 X43.537 Y149.545 E12.78469
G1 X42.916 Y149.879 E12.80390
G1 X42.287 Y150.195 E12.82309
G1 X41.605 Y150.516 E12.84363
G1 X40.999 Y150.778 E12.86162
G1 X40.350 Y151.040 E12.88069
G1 X39.692 Y151.286 E12.89983
G1 X38.978 Y151.531 E12.92041
G1 X38.348 Y151.727 E12.93839
G1 X37.670 Y151.918 E12.95758
G1 X36.988 Y152.089 E12.97674
G1 X36.305 Y152.243 E12.99582
G1 X35.562 Y152.390 E13.01646
G1 X34.910 Y152.497 E13.03447
G1 X34.217 Y152.594 E13.05354
G1 X33.517 Y152.672 E13.07273
G1 X32.813 Y152.731 E13.09198
G1 X32.109 Y152.770 E13.11120
G1 X31.408 Y152.791 E13.13031
G1 X30.654 Y152.793 E13.15086
G1 X29.996 Y152.776 E13.16879
G1 X29.295 Y152.739 E13.18792
G1 X28.592 Y152.683 E13.20714
G1 X27.887 Y152.608 E13.22646
G1 X27.141 Y152.505 E13.24698
G1 X26.493 Y152.399 E13.26488
G1 X25.803 Y152.266 E13.28403
G1 X25.116 Y152.116 E13.30319
G1 X24.431 Y151.945 E13.32243
G1 X23.751 Y151.756 E13.34166
G1 X23.078 Y151.548 E13.36086
G1 X22.365 Y151.307 E13.38137
G1 X21.749 Y151.080 E13.39926
G1 X21.095 Y150.818 E13.41846
G1 X20.447 Y150.538 E13.43770
G1 X19.809 Y150.242 E13.45686
G1 X19.134 Y149.905 E13.47742
G1 X18.553 Y149.594 E13.49538
G1 X17.942 Y149.247 E13.51453
G1 X17.297 Y148.856 E13.53508
G1 X16.746 Y148.499 E13.55297
G1 X16.166 Y148.104 E13.57210
G1 X15.554 Y147.661 E13.59269
G1 X15.032 Y147.260 E13.61062
G1 X14.449 Y146.787 E13.63108
G1 X13.949 Y146.357 E13.64905
G1 X13.428 Y145.885 E13.66821
G1 X12.885 Y145.366 E13.68868
G1 X12.424 Y144.899 E13.70656
G1 X11.943 Y144.386 E13.72573
G1 X11.441 Y143.820 E13.74634
G1 X11.019 Y143.316 E13.76426
G1 X10.604 Y142.794 E13.78243
G1 X10.545 Y142.718 E13.78505
G1 X10.128 Y142.160 E13.80404
G1 X9.751 Y141.626 E13.82185
G1 X9.361 Y141.044 E13.84094
G1 X8.984 Y140.446 E13.86021
G1 X8.626 Y139.839 E13.87941
G1 X8.283 Y139.225 E13.89858
G1 X7.934 Y138.552 E13.91924
G1 X7.649 Y137.964 E13.93704
G1 X7.358 Y137.325 E13.95618
G1 X7.083 Y136.670 E13.97554
G1 X6.830 Y136.015 E13.99467
G1 X6.575 Y135.305 E14.01523
G1 X6.372 Y134.678 E14.03319
G1 X6.174 Y134.011 E14.05215
G1 X5.990 Y133.328 E14.07143
G1 X5.826 Y132.640 E14.09070
G1 X5.671 Y131.902 E14.11125
G1 X5.556 Y131.256 E14.12913
G1 X5.448 Y130.561 E14.14830
G1 X5.361 Y129.860 E14.16755
G1 X5.292 Y129.160 E14.18672
G1 X5.243 Y128.458 E14.20589
G1 X5.210 Y127.706 E14.22641
G1 X5.201 Y127.088 E14.24325
G1 X5.202 Y127.088 E14.24328
G1 X5.200 Y127.007 E14.24548
G1 X5.209 Y126.340 E14.26366
G1 X5.236 Y125.642 E14.28270
G1 X5.282 Y124.935 E14.30201
G1 X5.354 Y124.184 E14.32256
G1 X5.434 Y123.533 E14.34044
G1 X5.538 Y122.838 E14.35959
G1 X5.661 Y122.145 E14.37877
G1 X5.803 Y121.454 E14.39799
G1 X5.963 Y120.766 E14.41724
G1 X6.156 Y120.038 E14.43777
G1 X6.341 Y119.408 E14.45566
G1 X6.558 Y118.737 E14.47488
G1 X6.792 Y118.075 E14.49401
G1 X7.044 Y117.418 E14.51319
G1 X7.335 Y116.718 E14.53385
G1 X7.606 Y116.118 E14.55179
G1 X7.908 Y115.491 E14.57075
G1 X8.231 Y114.861 E14.59005
G1 X8.573 Y114.242 E14.60932
G1 X8.930 Y113.634 E14.62853
G1 X9.329 Y112.996 E14.64904
G1 X9.692 Y112.448 E14.66695
G1 X10.098 Y111.873 E14.68613
G1 X10.518 Y111.308 E14.70532
G1 X10.953 Y110.757 E14.72445
G1 X11.436 Y110.176 E14.74504
G1 X11.873 Y109.681 E14.76303
G1 X12.351 Y109.168 E14.78214
G1 X12.843 Y108.667 E14.80128
G1 X13.350 Y108.177 E14.82049
G1 X13.875 Y107.699 E14.83984
G1 X14.408 Y107.239 E14.85903
G1 X14.952 Y106.795 E14.87816
G1 X15.548 Y106.335 E14.89868
G1 X16.081 Y105.947 E14.91664
G1 X16.659 Y105.549 E14.93577
G1 X17.249 Y105.166 E14.95494
G1 X17.851 Y104.798 E14.97416
G1 X18.507 Y104.422 E14.99477
G1 X19.088 Y104.110 E15.01274
G1 X19.712 Y103.797 E15.03177
G1 X20.351 Y103.496 E15.05101
G1 X20.959 Y103.231 E15.06909
G1 X21.036 Y103.197 E15.07138
G1 X21.652 Y102.949 E15.08948
G1 X22.359 Y102.685 E15.11004
G1 X22.915 Y102.497 E15.12604
G1 X22.365 Y102.311 E15.14186
G1 X21.749 Y102.084 E15.15975
G1 X21.095 Y101.822 E15.17895
G1 X20.447 Y101.542 E15.19819
G1 X19.809 Y101.246 E15.21735
G1 X19.134 Y100.909 E15.23791
G1 X18.553 Y100.598 E15.25587
G1 X17.942 Y100.251 E15.27502
G1 X17.297 Y99.860 E15.29558
G1 X16.746 Y99.503 E15.31347
G1 X16.166 Y99.108 E15.33259
G1 X15.554 Y98.665 E15.35318
G1 X15.032 Y98.264 E15.37112
G1 X14.449 Y97.791 E15.39158
G1 X13.950 Y97.362 E15.40951
G1 X13.430 Y96.891 E15.42863
G1 X12.884 Y96.369 E15.44921
G1 X12.423 Y95.901 E15.46711
G1 X11.943 Y95.390 E15.48622
G1 X11.441 Y94.824 E15.50684
G1 X11.019 Y94.320 E15.52475
G1 X10.604 Y93.798 E15.54292
G1 X10.546 Y93.723 E15.54551
G1 X10.129 Y93.166 E15.56447
G1 X9.750 Y92.630 E15.58236
G1 X9.361 Y92.046 E15.60148
G1 X8.985 Y91.451 E15.62066
G1 X8.626 Y90.844 E15.63988
G1 X8.283 Y90.228 E15.65909
G1 X7.934 Y89.556 E15.67973
G1 X7.649 Y88.968 E15.69753
G1 X7.358 Y88.329 E15.71667
G1 X7.083 Y87.674 E15.73603
G1 X6.830 Y87.019 E15.75516
G1 X6.575 Y86.309 E15.77572
G1 X6.372 Y85.682 E15.79368
G1 X6.174 Y85.015 E15.81264
G1 X5.990 Y84.332 E15.83192
G1 X5.826 Y83.644 E15.85119
G1 X5.671 Y82.906 E15.87174
G1 X5.556 Y82.260 E15.88962
G1 X5.448 Y81.565 E15.90879
G1 X5.361 Y80.864 E15.92804
G1 X5.292 Y80.164 E15.94721
G1 X5.243 Y79.462 E15.96638
G1 X5.210 Y78.710 E15.98690
G1 X5.201 Y78.094 E16.00369
G1 X5.202 Y78.094 E16.00371
G1 X5.200 Y78.012 E16.00595
G1 X5.209 Y77.345 E16.02413
G1 X5.236 Y76.647 E16.04316
G1 X5.282 Y75.940 E16.06247
G1 X5.354 Y75.189 E16.08303
G1 X5.434 Y74.538 E16.10090
G1 X5.538 Y73.843 E16.12005
G1 X5.661 Y73.150 E16.13923
G1 X5.803 Y72.459 E16.15846
G1 X5.963 Y71.771 E16.17771
G1 X6.156 Y71.042 E16.19826
G1 X6.341 Y70.414 E16.21610
G1 X6.558 Y69.743 E16.23532
G1 X6.792 Y69.080 E16.25448
G1 X7.044 Y68.423 E16.27365
G1 X7.335 Y67.723 E16.29431
G1 X7.606 Y67.123 E16.31225
G1 X7.908 Y66.496 E16.33122
G1 X8.231 Y65.866 E16.35051
G1 X8.573 Y65.247 E16.36978
G1 X8.930 Y64.639 E16.38900
G1 X9.329 Y64.001 E16.40950
G1 X9.692 Y63.453 E16.42742
G1 X10.098 Y62.878 E16.44660
G1 X10.518 Y62.313 E16.46578
G1 X10.954 Y61.760 E16.48497
G1 X11.435 Y61.182 E16.50547
G1 X11.872 Y60.687 E16.52346
G1 X12.351 Y60.173 E16.54261
G1 X12.844 Y59.671 E16.56178
G1 X13.352 Y59.181 E16.58101
G1 X13.873 Y58.706 E16.60023
G1 X14.408 Y58.244 E16.61949
G1 X14.952 Y57.801 E16.63861
G1 X15.548 Y57.339 E16.65916
G1 X16.081 Y56.953 E16.67709
G1 X16.657 Y56.555 E16.69617
G1 X17.249 Y56.171 E16.71540
G1 X17.851 Y55.803 E16.73463
G1 X18.507 Y55.427 E16.75523
G1 X19.088 Y55.115 E16.77321
G1 X19.714 Y54.801 E16.79229
G1 X20.351 Y54.502 E16.81147
G1 X20.955 Y54.238 E16.82943
G1 X21.036 Y54.202 E16.83185
G1 X21.654 Y53.954 E16.84999
G1 X22.358 Y53.691 E16.87047
G1 X22.914 Y53.502 E16.88648
G1 X22.367 Y53.318 E16.90220
G1 X21.747 Y53.089 E16.92021
G1 X21.095 Y52.827 E16.93936
G1 X20.447 Y52.548 E16.95859
G1 X19.807 Y52.249 E16.97784
G1 X19.134 Y51.914 E16.99833
G1 X18.553 Y51.603 E17.01628
G1 X17.944 Y51.257 E17.03537
G1 X17.299 Y50.867 E17.05591
G1 X16.746 Y50.509 E17.07386
G1 X16.164 Y50.113 E17.09305
G1 X15.555 Y49.670 E17.11357
G1 X15.034 Y49.271 E17.13145
G1 X14.449 Y48.797 E17.15197
G1 X13.949 Y48.367 E17.16994
G1 X13.428 Y47.895 E17.18910
G1 X12.884 Y47.374 E17.20963
G1 X12.423 Y46.906 E17.22753
G1 X11.944 Y46.396 E17.24660
G1 X11.440 Y45.830 E17.26725
G1 X11.018 Y45.324 E17.28520
G1 X10.604 Y44.803 E17.30334
G1 X10.546 Y44.728 E17.30592
G1 X10.129 Y44.171 E17.32488
G1 X9.750 Y43.635 E17.34277
G1 X9.361 Y43.051 E17.36190
G1 X8.985 Y42.456 E17.38108
G1 X8.626 Y41.849 E17.40029
G1 X8.283 Y41.233 E17.41951
G1 X7.934 Y40.561 E17.44014
G1 X7.649 Y39.973 E17.45795
G1 X7.359 Y39.335 E17.47705
G1 X7.084 Y38.681 E17.49638
G1 X6.829 Y38.024 E17.51559
G1 X6.575 Y37.314 E17.53614
G1 X6.372 Y36.688 E17.55407
G1 X6.174 Y36.019 E17.57308
G1 X5.990 Y35.337 E17.59233
G1 X5.826 Y34.649 E17.61161
G1 X5.671 Y33.911 E17.63216
G1 X5.556 Y33.265 E17.65004
G1 X5.448 Y32.570 E17.66921
G1 X5.361 Y31.869 E17.68846
G1 X5.292 Y31.170 E17.70760
G1 X5.243 Y30.468 E17.72677
G1 X5.210 Y29.715 E17.74731
G1 X5.201 Y29.099 E17.76410
G1 X5.202 Y29.099 E17.76413
G1 X5.200 Y29.017 E17.76636
G1 X5.209 Y28.349 E17.78457
G1 X5.236 Y27.651 E17.80361
G1 X5.282 Y26.944 E17.82291
G1 X5.354 Y26.193 E17.84347
G1 X5.434 Y25.542 E17.86135
G1 X5.538 Y24.847 E17.88050
G1 X5.661 Y24.154 E17.89968
G1 X5.803 Y23.463 E17.91890
G1 X5.963 Y22.775 E17.93815
G1 X6.156 Y22.046 E17.95870
G1 X6.341 Y21.418 E17.97654
G1 X6.558 Y20.747 E17.99576
G1 X6.792 Y20.084 E18.01492
G1 X7.044 Y19.426 E18.03412
G1 X7.335 Y18.727 E18.05475
G1 X7.605 Y18.129 E18.07264
G1 X7.907 Y17.501 E18.09163
G1 X8.232 Y16.869 E18.11099
G1 X8.573 Y16.252 E18.13020
G1 X8.929 Y15.645 E18.14938
G1 X9.330 Y15.004 E18.16998
G1 X9.693 Y14.457 E18.18787
G1 X10.097 Y13.884 E18.20698
G1 X10.517 Y13.318 E18.22619
G1 X10.954 Y12.764 E18.24542
G1 X11.435 Y12.186 E18.26591
G1 X11.872 Y11.691 E18.28390
G1 X12.352 Y11.176 E18.30309
G1 X12.844 Y10.676 E18.32220
G1 X13.350 Y10.187 E18.34138
G1 X13.875 Y9.709 E18.36073
G1 X14.408 Y9.249 E18.37991
G1 X14.950 Y8.806 E18.39899
G1 X15.548 Y8.343 E18.41960
G1 X16.081 Y7.957 E18.43753
G1 X16.657 Y7.559 E18.45661
G1 X17.249 Y7.175 E18.47584
G1 X17.851 Y6.807 E18.49507
G1 X18.507 Y6.431 E18.51567
G1 X19.088 Y6.119 E18.53365
G1 X19.714 Y5.805 E18.55273
G1 X20.351 Y5.506 E18.57191
G1 X20.998 Y5.223 E18.59115
G1 X21.650 Y4.960 E18.61031
G1 X22.356 Y4.696 E18.63085
G1 X22.981 Y4.483 E18.64885
G1 X23.650 Y4.274 E18.66795
G1 X24.331 Y4.082 E18.68723
G1 X25.011 Y3.911 E18.70633
G1 X25.744 Y3.745 E18.72682
G1 X26.395 Y3.619 E18.74489
G1 X27.088 Y3.504 E18.76403
G1 X27.784 Y3.406 E18.78318
G1 X28.484 Y3.328 E18.80238
G1 X29.238 Y3.264 E18.82300
G1 X29.896 Y3.230 E18.84095
G1 X30.592 Y3.209 E18.85993
G1 X31.296 Y3.207 E18.87911
G1 X32.001 Y3.224 E18.89833
G1 X32.707 Y3.261 E18.91760
G1 X33.458 Y3.321 E18.93813
G1 X34.114 Y3.392 E18.95611
G1 X34.811 Y3.487 E18.97528
G1 X35.507 Y3.601 E18.99450
G1 X36.247 Y3.743 E19.01503
G1 X36.890 Y3.886 E19.03298
G1 X37.618 Y4.067 E19.05343
G1 X38.252 Y4.245 E19.07137
G1 X38.971 Y4.467 E19.09188
G1 X39.592 Y4.678 E19.10975
G1 X40.251 Y4.920 E19.12888
G1 X40.953 Y5.201 E19.14949
G1 X41.557 Y5.463 E19.16743
G1 X42.237 Y5.780 E19.18788
G1 X42.823 Y6.073 E19.20573
G1 X43.445 Y6.404 E19.22493
G1 X44.102 Y6.779 E19.24555
G1 X44.663 Y7.120 E19.26344
G1 X45.294 Y7.525 E19.28387
G1 X45.837 Y7.898 E19.30182
G1 X46.407 Y8.309 E19.32097
G1 X47.005 Y8.769 E19.34153
G1 X47.516 Y9.184 E19.35947
G1 X48.088 Y9.675 E19.38001
G1 X48.574 Y10.116 E19.39790
G1 X49.116 Y10.634 E19.41833
G1 X49.577 Y11.101 E19.43621
G1 X50.058 Y11.614 E19.45538
G1 X50.560 Y12.180 E19.47599
G1 X50.982 Y12.684 E19.49391
G1 X51.451 Y13.275 E19.51447
G1 X51.843 Y13.801 E19.53234
G1 X52.248 Y14.371 E19.55140
G1 X52.668 Y14.998 E19.57196
G1 X53.018 Y15.557 E19.58994
G1 X53.401 Y16.204 E19.61043
G1 X53.690 Y16.725 E19.62666
G1 X53.742 Y16.818 E19.62957
G1 X54.045 Y17.407 E19.64762
G1 X54.372 Y18.077 E19.66793
G1 X54.645 Y18.680 E19.68597
G1 X54.937 Y19.377 E19.70656
G1 X55.173 Y19.989 E19.72444
G1 X55.408 Y20.646 E19.74345
G1 X55.500 Y20.927 E19.75151
G1 X55.558 Y20.747 E19.75667
G1 X55.792 Y20.084 E19.77583
G1 X56.044 Y19.426 E19.79503
G1 X56.335 Y18.727 E19.81566
G1 X56.605 Y18.129 E19.83354
G1 X56.907 Y17.501 E19.85253
G1 X57.232 Y16.869 E19.87190
G1 X57.573 Y16.252 E19.89111
G1 X57.929 Y15.645 E19.91028
G1 X58.330 Y15.004 E19.93089
G1 X58.693 Y14.457 E19.94878
G1 X59.097 Y13.884 E19.96789
G1 X59.517 Y13.318 E19.98709
G1 X59.954 Y12.764 E20.00632
G1 X60.435 Y12.186 E20.02681
G1 X60.872 Y11.691 E20.04481
G1 X61.352 Y11.176 E20.06399
G1 X61.844 Y10.676 E20.08311
G1 X62.350 Y10.187 E20.10228
G1 X62.875 Y9.709 E20.12163
G1 X63.408 Y9.249 E20.14082
G1 X63.950 Y8.806 E20.15989
G1 X64.548 Y8.343 E20.18050
G1 X65.081 Y7.957 E20.19844
G1 X65.657 Y7.559 E20.21752
G1 X66.249 Y7.175 E20.23675
G1 X66.851 Y6.807 E20.25597
G1 X67.507 Y6.431 E20.27658
G1 X68.088 Y6.119 E20.29455
G1 X68.714 Y5.805 E20.31364
G1 X69.351 Y5.506 E20.33281
G1 X69.998 Y5.223 E20.35206
G1 X70.650 Y4.960 E20.37122
G1 X71.356 Y4.696 E20.39176
G1 X71.981 Y4.483 E20.40975
G1 X72.650 Y4.274 E20.42885
G1 X73.331 Y4.082 E20.44813
G1 X74.011 Y3.911 E20.46724
G1 X74.744 Y3.745 E20.48772
G1 X75.395 Y3.619 E20.50579
G1 X76.088 Y3.504 E20.52493
G1 X76.784 Y3.406 E20.54409
G1 X77.484 Y3.328 E20.56328
G1 X78.238 Y3.264 E20.58390
G1 X78.896 Y3.230 E20.60186
G1 X79.592 Y3.209 E20.62083
G1 X80.295 Y3.207 E20.63999
G1 X81.000 Y3.224 E20.65921
G1 X81.706 Y3.261 E20.67848
G1 X82.457 Y3.321 E20.69901
G1 X83.113 Y3.392 E20.71699
G1 X83.810 Y3.487 E20.73616
G1 X84.506 Y3.601 E20.75538
G1 X85.246 Y3.743 E20.77591
G1 X85.889 Y3.886 E20.79386
G1 X86.617 Y4.067 E20.81430
G1 X87.251 Y4.245 E20.83225
G1 X87.970 Y4.467 E20.85276
G1 X88.591 Y4.678 E20.87063
G1 X89.250 Y4.920 E20.88976
G1 X89.952 Y5.201 E20.91037
G1 X90.556 Y5.463 E20.92831
G1 X91.236 Y5.780 E20.94875
G1 X91.822 Y6.073 E20.96661
G1 X92.444 Y6.404 E20.98581
G1 X93.101 Y6.779 E21.00642
G1 X93.662 Y7.120 E21.02431
G1 X94.293 Y7.525 E21.04475
G1 X94.836 Y7.898 E21.06270
G1 X95.406 Y8.309 E21.08185
G1 X96.004 Y8.769 E21.10241
G1 X96.515 Y9.184 E21.12035
G1 X97.087 Y9.675 E21.14089
G1 X97.573 Y10.116 E21.15878
G1 X98.115 Y10.634 E21.17921
G1 X98.576 Y11.101 E21.19709
G1 X99.057 Y11.614 E21.21625
G1 X99.559 Y12.180 E21.23687
G1 X99.981 Y12.684 E21.25478
G1 X100.450 Y13.275 E21.27534
G1 X100.842 Y13.801 E21.29322
G1 X101.247 Y14.371 E21.31228
G1 X101.667 Y14.998 E21.33284
G1 X102.017 Y15.557 E21.35081
G1 X102.400 Y16.204 E21.37130
G1 X102.689 Y16.725 E21.38754
G1 X102.741 Y16.818 E21.39044
G1 X103.044 Y17.407 E21.40849
G1 X103.371 Y18.077 E21.42881
G1 X103.644 Y18.680 E21.44685
G1 X103.936 Y19.377 E21.46744
G1 X104.172 Y19.989 E21.48532
G1 X104.407 Y20.646 E21.50433
G1 X104.499 Y20.927 E21.51239
G1 X104.557 Y20.747 E21.51754
G1 X104.791 Y20.084 E21.53670
G1 X105.043 Y19.426 E21.55590
G1 X105.334 Y18.727 E21.57654
G1 X105.604 Y18.129 E21.59442
G1 X105.906 Y17.501 E21.61341
G1 X106.231 Y16.869 E21.63277
G1 X106.572 Y16.252 E21.65199
G1 X106.928 Y15.645 E21.67116
G1 X107.329 Y15.004 E21.69177
G1 X107.692 Y14.457 E21.70966
G1 X108.096 Y13.884 E21.72876
G1 X108.516 Y13.318 E21.74797
G1 X108.953 Y12.764 E21.76720
G1 X109.434 Y12.186 E21.78769
G1 X109.871 Y11.691 E21.80568
G1 X110.351 Y11.176 E21.82487
G1 X110.843 Y10.676 E21.84399
G1 X111.349 Y10.187 E21.86316
G1 X111.874 Y9.709 E21.88251
G1 X112.407 Y9.249 E21.90170
G1 X112.949 Y8.806 E21.92077
G1 X113.547 Y8.343 E21.94138
G1 X114.080 Y7.957 E21.95932
G1 X114.656 Y7.559 E21.97840
G1 X115.248 Y7.175 E21.99763
G1 X115.850 Y6.807 E22.01685
G1 X116.506 Y6.431 E22.03746
G1 X117.087 Y6.119 E22.05543
G1 X117.713 Y5.805 E22.07451
G1 X118.350 Y5.506 E22.09369
G1 X118.997 Y5.223 E22.11294
G1 X119.649 Y4.960 E22.13209
G1 X120.355 Y4.696 E22.15263
G1 X120.980 Y4.483 E22.17063
G1 X121.649 Y4.274 E22.18973
G1 X122.330 Y4.082 E22.20901
G1 X123.010 Y3.911 E22.22812
G1 X123.743 Y3.745 E22.24860
G1 X124.394 Y3.619 E22.26667
G1 X125.087 Y3.504 E22.28581
G1 X125.783 Y3.406 E22.30497
G1 X126.483 Y3.328 E22.32416
G1 X127.237 Y3.264 E22.34478
G1 X127.895 Y3.230 E22.36274
G1 X128.591 Y3.209 E22.38171
G1 X129.295 Y3.207 E22.40090
G1 X130.000 Y3.224 E22.42011
G1 X130.706 Y3.261 E22.43938
G1 X131.457 Y3.321 E22.45991
G1 X132.113 Y3.392 E22.47789
G1 X132.810 Y3.487 E22.49706
G1 X133.506 Y3.601 E22.51628
G1 X134.246 Y3.743 E22.53682
G1 X134.889 Y3.886 E22.55477
G1 X135.617 Y4.067 E22.57521
G1 X136.251 Y4.245 E22.59315
G1 X136.970 Y4.467 E22.61366
G1 X137.591 Y4.678 E22.63153
G1 X138.250 Y4.920 E22.65067
G1 X138.952 Y5.201 E22.67127
G1 X139.556 Y5.463 E22.68921
G1 X140.236 Y5.780 E22.70966
G1 X140.822 Y6.073 E22.72751
G1 X141.444 Y6.404 E22.74671
G1 X142.101 Y6.779 E22.76733
G1 X142.662 Y7.120 E22.78522
G1 X143.293 Y7.525 E22.80565
G1 X143.836 Y7.898 E22.82360
G1 X144.406 Y8.309 E22.84276
G1 X145.004 Y8.769 E22.86331
G1 X145.515 Y9.184 E22.88125
G1 X146.087 Y9.675 E22.90180
G1 X146.573 Y10.116 E22.91968
G1 X147.115 Y10.634 E22.94011
G1 X147.576 Y11.101 E22.95799
G1 X148.057 Y11.614 E22.97716
G1 X148.559 Y12.180 E22.99778
G1 X148.981 Y12.684 E23.01569
G1 X149.450 Y13.275 E23.03625
G1 X149.842 Y13.801 E23.05413
G1 X150.247 Y14.371 E23.07318
G1 X150.667 Y14.998 E23.09375
G1 X151.017 Y15.557 E23.11172
G1 X151.400 Y16.204 E23.13221
G1 X151.689 Y16.725 E23.14844
G1 X151.741 Y16.818 E23.15135
G1 X152.044 Y17.407 E23.16940
G1 X152.371 Y18.077 E23.18972
G1 X152.644 Y18.680 E23.20775
G1 X152.936 Y19.377 E23.22835
G1 X153.172 Y19.989 E23.24622
G1 X153.407 Y20.646 E23.26524
G1 X153.643 Y21.366 E23.28589
G1 X153.828 Y21.994 E23.30373
G1 X154.023 Y22.721 E23.32424
G1 X154.174 Y23.364 E23.34224
G1 X154.329 Y24.098 E23.36268
G1 X154.444 Y24.744 E23.38056
G1 X154.552 Y25.438 E23.39970
G1 X154.646 Y26.190 E23.42035
G1 X154.708 Y26.843 E23.43823
G1 X154.761 Y27.592 E23.45869
G1 X154.788 Y28.249 E23.47661
G1 X154.799 Y28.913 E23.49471
G1 X154.800 Y29.059 E23.49869
G1 X154.790 Y29.712 E23.51648
G1 X154.764 Y30.362 E23.53421
G1 X154.714 Y31.114 E23.55475
G1 X154.651 Y31.769 E23.57268
G1 X154.560 Y32.515 E23.59316
G1 X154.454 Y33.216 E23.61248
G1 X154.329 Y33.908 E23.63165
G1 X154.197 Y34.548 E23.64945
G1 X154.025 Y35.282 E23.67000
G1 X153.843 Y35.964 E23.68923
G1 X153.658 Y36.594 E23.70713
G1 X153.426 Y37.311 E23.72766
G1 X153.190 Y37.974 E23.74684
G1 X152.937 Y38.631 E23.76603
G1 X152.683 Y39.239 E23.78398
G1 X152.374 Y39.925 E23.80449
G1 X152.067 Y40.559 E23.82368
G1 X151.744 Y41.185 E23.84288
G1 X151.401 Y41.804 E23.86216
G1 X151.043 Y42.411 E23.88137
G1 X150.696 Y42.963 E23.89914
G1 X150.309 Y43.549 E23.91827
G1 X149.873 Y44.168 E23.93891
G1 X149.480 Y44.695 E23.95682
G1 X149.047 Y45.243 E23.97586
G1 X148.597 Y45.786 E23.99507
G1 X148.096 Y46.354 E24.01571
G1 X147.647 Y46.834 E24.03362
G1 X147.156 Y47.334 E24.05272
G1 X146.613 Y47.858 E24.07329
G1 X146.124 Y48.303 E24.09130
G1 X145.592 Y48.761 E24.11043
G1 X145.048 Y49.205 E24.12957
G1 X144.452 Y49.665 E24.15009
G1 X143.919 Y50.053 E24.16805
G1 X143.299 Y50.480 E24.18857
G1 X142.747 Y50.836 E24.20647
G1 X142.149 Y51.202 E24.22557
G1 X141.536 Y51.554 E24.24484
G1 X140.915 Y51.888 E24.26405
G1 X140.288 Y52.203 E24.28317
G1 X139.603 Y52.526 E24.30381
G1 X139.032 Y52.773 E24.32076
G1 X138.964 Y52.803 E24.32279
G1 X138.347 Y53.051 E24.34091
G1 X137.689 Y53.297 E24.36006
G1 X137.087 Y53.503 E24.37739
G1 X137.591 Y53.674 E24.39190
G1 X138.250 Y53.916 E24.41103
G1 X138.952 Y54.197 E24.43164
G1 X139.556 Y54.459 E24.44958
G1 X140.236 Y54.776 E24.47002
G1 X140.822 Y55.069 E24.48788
G1 X141.444 Y55.400 E24.50708
G1 X142.101 Y55.775 E24.52769
G1 X142.662 Y56.116 E24.54558
G1 X143.293 Y56.521 E24.56602
G1 X143.836 Y56.894 E24.58397
G1 X144.406 Y57.305 E24.60312
G1 X145.004 Y57.765 E24.62368
G1 X145.514 Y58.178 E24.64156
G1 X146.086 Y58.669 E24.66211
G1 X146.573 Y59.111 E24.68003
G1 X147.116 Y59.631 E24.70052
G1 X147.577 Y60.099 E24.71842
G1 X148.057 Y60.610 E24.73752
G1 X148.559 Y61.176 E24.75814
G1 X148.981 Y61.680 E24.77605
G1 X149.449 Y62.269 E24.79655
G1 X149.841 Y62.794 E24.81441
G1 X150.248 Y63.367 E24.83356
G1 X150.667 Y63.995 E24.85414
G1 X151.017 Y64.552 E24.87206
G1 X151.400 Y65.199 E24.89255
G1 X151.689 Y65.721 E24.90881
G1 X151.741 Y65.814 E24.91172
G1 X152.044 Y66.403 E24.92977
G1 X152.371 Y67.073 E24.95008
G1 X152.644 Y67.676 E24.96812
G1 X152.936 Y68.373 E24.98871
G1 X153.172 Y68.985 E25.00659
G1 X153.407 Y69.642 E25.02560
G1 X153.643 Y70.362 E25.04625
G1 X153.828 Y70.990 E25.06409
G1 X154.023 Y71.717 E25.08461
G1 X154.174 Y72.360 E25.10260
G1 X154.329 Y73.094 E25.12305
G1 X154.444 Y73.740 E25.14093
G1 X154.552 Y74.434 E25.16007
G1 X154.646 Y75.186 E25.18072
G1 X154.708 Y75.839 E25.19860
G1 X154.761 Y76.588 E25.21906
G1 X154.788 Y77.245 E25.23698
G1 X154.799 Y77.908 E25.25505
G1 X154.800 Y78.054 E25.25903
G1 X154.790 Y78.707 E25.27682
G1 X154.764 Y79.358 E25.29458
G1 X154.714 Y80.108 E25.31506
G1 X154.651 Y80.764 E25.33302
G1 X154.560 Y81.510 E25.35350
G1 X154.454 Y82.211 E25.37282
G1 X154.329 Y82.903 E25.39198
G1 X154.197 Y83.543 E25.40979
G1 X154.025 Y84.277 E25.43034
G1 X153.843 Y84.960 E25.44960
G1 X153.658 Y85.588 E25.46744
G1 X153.426 Y86.306 E25.48800
G1 X153.190 Y86.970 E25.50721
G1 X152.937 Y87.625 E25.52634
G1 X152.683 Y88.233 E25.54430
G1 X152.374 Y88.920 E25.56483
G1 X152.067 Y89.554 E25.58402
G1 X151.744 Y90.180 E25.60322
G1 X151.401 Y90.799 E25.62250
G1 X151.043 Y91.406 E25.64171
G1 X150.696 Y91.958 E25.65948
G1 X150.309 Y92.544 E25.67861
G1 X149.873 Y93.163 E25.69925
G1 X149.480 Y93.690 E25.71716
G1 X149.046 Y94.240 E25.73625
G1 X148.597 Y94.780 E25.75539
G1 X148.097 Y95.348 E25.77601
G1 X147.647 Y95.829 E25.79396
G1 X147.155 Y96.330 E25.81310
G1 X146.612 Y96.853 E25.83364
G1 X146.125 Y97.295 E25.85157
G1 X145.592 Y97.756 E25.87077
G1 X145.048 Y98.199 E25.88989
G1 X144.452 Y98.661 E25.91044
G1 X143.919 Y99.047 E25.92837
G1 X143.300 Y99.474 E25.94887
G1 X142.747 Y99.831 E25.96680
G1 X142.149 Y100.197 E25.98591
G1 X141.536 Y100.549 E26.00517
G1 X140.915 Y100.883 E26.02439
G1 X140.286 Y101.199 E26.04357
G1 X139.604 Y101.520 E26.06411
G1 X139.058 Y101.756 E26.08032
G1 X138.964 Y101.798 E26.08313
G1 X138.347 Y102.046 E26.10125
G1 X137.689 Y102.292 E26.12039
G1 X137.087 Y102.498 E26.13773
G1 X137.588 Y102.667 E26.15214
G1 X138.252 Y102.911 E26.17142
G1 X138.951 Y103.192 E26.19195
G1 X139.555 Y103.453 E26.20988
G1 X140.238 Y103.772 E26.23042
G1 X140.822 Y104.064 E26.24821
G1 X141.444 Y104.395 E26.26742
G1 X142.099 Y104.768 E26.28796
G1 X142.662 Y105.110 E26.30591
G1 X143.293 Y105.516 E26.32635
G1 X143.836 Y105.888 E26.34429
G1 X144.406 Y106.301 E26.36347
G1 X145.002 Y106.757 E26.38392
G1 X145.515 Y107.174 E26.40194
G1 X146.087 Y107.665 E26.42248
G1 X146.573 Y108.106 E26.44037
G1 X147.116 Y108.626 E26.46086
G1 X147.577 Y109.094 E26.47876
G1 X148.056 Y109.604 E26.49782
G1 X148.560 Y110.170 E26.51848
G1 X148.983 Y110.677 E26.53647
G1 X149.449 Y111.264 E26.55689
G1 X149.841 Y111.789 E26.57475
G1 X150.248 Y112.362 E26.59390
G1 X150.667 Y112.990 E26.61448
G1 X151.017 Y113.547 E26.63240
G1 X151.400 Y114.194 E26.65289
G1 X151.689 Y114.716 E26.66915
G1 X151.741 Y114.809 E26.67206
G1 X152.044 Y115.398 E26.69011
G1 X152.371 Y116.068 E26.71042
G1 X152.643 Y116.670 E26.72843
G1 X152.936 Y117.366 E26.74900
G1 X153.172 Y117.980 E26.76693
G1 X153.407 Y118.637 E26.78594
G1 X153.643 Y119.356 E26.80657
G1 X153.828 Y119.986 E26.82446
G1 X154.023 Y120.712 E26.84495
G1 X154.174 Y121.355 E26.86295
G1 X154.329 Y122.089 E26.88339
G1 X154.444 Y122.735 E26.90127
G1 X154.552 Y123.429 E26.92041
G1 X154.645 Y124.180 E26.94103
G1 X154.708 Y124.833 E26.95891
G1 X154.761 Y125.583 E26.97940
G1 X154.788 Y126.240 E26.99732
G1 X154.799 Y126.903 E27.01539
G1 X154.800 Y127.049 E27.01937
G1 X154.790 Y127.703 E27.03719
G1 X154.764 Y128.354 E27.05495
G1 X154.714 Y129.104 E27.07543
G1 X154.651 Y129.760 E27.09339
G1 X154.560 Y130.506 E27.11387
G1 X154.454 Y131.207 E27.13319
G1 X154.329 Y131.899 E27.15235
G1 X154.197 Y132.539 E27.17016
G1 X154.025 Y133.273 E27.19070
G1 X153.843 Y133.956 E27.20997
G1 X153.658 Y134.584 E27.22781
G1 X153.426 Y135.302 E27.24837
G1 X153.190 Y135.966 E27.26757
G1 X152.936 Y136.622 E27.28674
G1 X152.683 Y137.228 E27.30464
G1 X152.375 Y137.915 E27.32516
G1 X152.067 Y138.550 E27.34439
G1 X151.743 Y139.177 E27.36362
G1 X151.401 Y139.794 E27.38285
G1 X151.044 Y140.401 E27.40204
G1 X150.696 Y140.956 E27.41989
G1 X150.308 Y141.540 E27.43900
G1 X149.874 Y142.157 E27.45955
G1 X149.481 Y142.684 E27.47747
G1 X149.046 Y143.236 E27.49662
G1 X148.597 Y143.776 E27.51576
G1 X148.097 Y144.344 E27.53638
G1 X147.646 Y144.827 E27.55439
G1 X147.155 Y145.325 E27.57345
G1 X146.613 Y145.848 E27.59397
G1 X146.124 Y146.293 E27.61199
G1 X145.592 Y146.751 E27.63112
G1 X145.050 Y147.194 E27.65020
G1 X144.452 Y147.657 E27.67081
G1 X143.919 Y148.043 E27.68874
G1 X143.300 Y148.470 E27.70923
G1 X142.747 Y148.827 E27.72717
G1 X142.149 Y149.193 E27.74628
G1 X141.536 Y149.545 E27.76554
G1 X140.915 Y149.879 E27.78475
G1 X140.286 Y150.195 E27.80394
G1 X139.604 Y150.516 E27.82448
G1 X138.998 Y150.778 E27.84247
G1 X138.349 Y151.040 E27.86154
G1 X137.691 Y151.286 E27.88069
G1 X136.977 Y151.531 E27.90126
G1 X136.347 Y151.727 E27.91924
G1 X135.669 Y151.918 E27.93843
G1 X134.987 Y152.089 E27.95759
G1 X134.304 Y152.243 E27.97667
G1 X133.561 Y152.390 E27.99731
G1 X132.909 Y152.497 E28.01532
G1 X132.216 Y152.594 E28.03439
G1 X131.516 Y152.672 E28.05358
G1 X130.812 Y152.731 E28.07283
G1 X130.108 Y152.770 E28.09205
G1 X129.407 Y152.791 E28.11116
G1 X128.653 Y152.793 E28.13171
G1 X127.995 Y152.776 E28.14964
G1 X127.294 Y152.739 E28.16877
G1 X126.591 Y152.683 E28.18799
G1 X125.886 Y152.608 E28.20731
G1 X125.140 Y152.505 E28.22784
G1 X124.492 Y152.399 E28.24573
G1 X123.802 Y152.266 E28.26488
G1 X123.115 Y152.116 E28.28404
G1 X122.430 Y151.945 E28.30328
G1 X121.750 Y151.756 E28.32251
G1 X121.077 Y151.548 E28.34171
G1 X120.364 Y151.307 E28.36222
G1 X119.748 Y151.080 E28.38011
G1 X119.094 Y150.818 E28.39931
G1 X118.446 Y150.538 E28.41855
G1 X117.808 Y150.242 E28.43771
G1 X117.133 Y149.905 E28.45827
G1 X116.552 Y149.594 E28.47623
G1 X115.941 Y149.247 E28.49538
G1 X115.296 Y148.856 E28.51593
G1 X114.745 Y148.499 E28.53383
G1 X114.165 Y148.104 E28.55295
G1 X113.553 Y147.661 E28.57354
G1 X113.031 Y147.260 E28.59148
G1 X112.448 Y146.787 E28.61193
G1 X111.948 Y146.357 E28.62991
G1 X111.427 Y145.885 E28.64906
G1 X110.884 Y145.366 E28.66953
G1 X110.423 Y144.899 E28.68742
G1 X109.942 Y144.386 E28.70658
G1 X109.440 Y143.820 E28.72720
G1 X109.018 Y143.316 E28.74511
G1 X108.603 Y142.794 E28.76328
G1 X108.544 Y142.718 E28.76590
G1 X108.127 Y142.160 E28.78489
G1 X107.750 Y141.626 E28.80270
G1 X107.360 Y141.044 E28.82179
G1 X106.983 Y140.446 E28.84106
G1 X106.625 Y139.839 E28.86026
G1 X106.282 Y139.225 E28.87943
G1 X105.933 Y138.552 E28.90009
G1 X105.648 Y137.964 E28.91789
G1 X105.357 Y137.325 E28.93703
G1 X105.082 Y136.670 E28.95639
G1 X104.829 Y136.015 E28.97552
G1 X104.574 Y135.305 E28.99608
G1 X104.499 Y135.075 E29.00267
G1 F240 E27.00267
G1 Z0.400
G0 F10500 X43.837 Y47.116
;TYPE:WALL-OUTER
G1 Z0.300
G1 F240 E29.00267
G1 F480 X43.306 Y47.482 E29.02025
G1 X42.829 Y47.790 E29.03572
G1 X42.318 Y48.103 E29.05205
G1 X41.792 Y48.405 E29.06858
G1 X41.258 Y48.692 E29.08510
G1 X40.709 Y48.968 E29.10185
G1 X40.121 Y49.246 E29.11957
G1 X39.605 Y49.468 E29.13488
G1 X39.050 Y49.693 E29.15120
G1 X38.482 Y49.905 E29.16772
G1 X37.864 Y50.116 E29.18552
G1 X37.322 Y50.284 E29.20098
G1 X36.745 Y50.447 E29.21732
G1 X36.157 Y50.596 E29.23385
G1 X35.557 Y50.731 E29.25061
G1 X34.926 Y50.855 E29.26813
G1 X34.366 Y50.947 E29.28360
G1 X33.764 Y51.031 E29.30016
G1 X33.170 Y51.097 E29.31645
G1 X32.565 Y51.148 E29.33299
G1 X31.952 Y51.183 E29.34973
G1 X31.346 Y51.201 E29.36625
G1 X30.700 Y51.203 E29.38385
G1 X30.142 Y51.188 E29.39906
G1 X29.528 Y51.155 E29.41582
G1 X28.922 Y51.107 E29.43239
G1 X28.327 Y51.044 E29.44869
G1 X27.682 Y50.955 E29.46644
G1 X27.129 Y50.864 E29.48171
G1 X26.526 Y50.748 E29.49844
G1 X25.932 Y50.618 E29.51501
G1 X25.353 Y50.474 E29.53127
G1 X24.766 Y50.310 E29.54788
G1 X24.181 Y50.130 E29.56456
G1 X23.562 Y49.922 E29.58236
G1 X23.044 Y49.730 E29.59741
G1 X22.481 Y49.505 E29.61393
G1 X21.917 Y49.261 E29.63068
G1 X21.375 Y49.008 E29.64698
G1 X20.785 Y48.714 E29.66494
G1 X20.290 Y48.449 E29.68024
G1 X19.762 Y48.149 E29.69679
G1 X19.203 Y47.811 E29.71459
G1 X18.734 Y47.508 E29.72981
G1 X18.233 Y47.166 E29.74634
G1 X17.704 Y46.782 E29.76415
G1 X17.261 Y46.442 E29.77937
G1 X16.753 Y46.030 E29.79720
G1 X16.328 Y45.665 E29.81246
G1 X15.880 Y45.258 E29.82896
G1 X15.414 Y44.812 E29.84654
G1 X15.015 Y44.407 E29.86203
G1 X14.599 Y43.965 E29.87857
G1 X14.165 Y43.477 E29.89637
G1 X13.812 Y43.053 E29.91140
G1 X13.430 Y42.572 E29.92814
G1 X13.038 Y42.050 E29.94593
G1 X12.719 Y41.599 E29.96098
G1 X12.379 Y41.088 E29.97771
G1 X12.055 Y40.575 E29.99425
G1 X11.746 Y40.053 E30.01078
G1 X11.451 Y39.523 E30.02731
G1 X11.154 Y38.951 E30.04487
G1 X10.907 Y38.440 E30.06034
G1 X10.659 Y37.895 E30.07665
G1 X10.421 Y37.329 E30.09339
G1 X10.202 Y36.764 E30.10990
G1 X9.981 Y36.148 E30.12773
G1 X9.811 Y35.624 E30.14275
G1 X9.637 Y35.035 E30.15948
G1 X9.479 Y34.448 E30.17605
G1 X9.341 Y33.866 E30.19235
G1 X9.205 Y33.219 E30.21037
G1 X9.106 Y32.669 E30.22559
G1 X9.014 Y32.077 E30.24192
G1 X8.939 Y31.467 E30.25867
G1 X8.880 Y30.864 E30.27518
G1 X8.838 Y30.267 E30.29149
G1 X8.809 Y29.606 E30.30952
G1 X8.801 Y29.047 E30.32475
G1 X8.800 Y29.009 E30.32579
G1 X8.808 Y28.449 E30.34105
G1 X8.832 Y27.835 E30.35780
G1 X8.870 Y27.238 E30.37410
G1 X8.933 Y26.587 E30.39192
G1 X9.001 Y26.031 E30.40719
G1 X9.092 Y25.423 E30.42394
G1 X9.195 Y24.835 E30.44021
G1 X9.320 Y24.233 E30.45696
G1 X9.456 Y23.650 E30.47328
G1 X9.623 Y23.019 E30.49107
G1 X9.781 Y22.482 E30.50632
G1 X9.967 Y21.904 E30.52287
G1 X10.172 Y21.325 E30.53961
G1 X10.386 Y20.766 E30.55592
G1 X10.636 Y20.165 E30.57366
G1 X10.867 Y19.653 E30.58896
G1 X11.130 Y19.106 E30.60550
G1 X11.407 Y18.567 E30.62202
G1 X11.700 Y18.037 E30.63852
G1 X12.011 Y17.506 E30.65529
G1 X12.353 Y16.959 E30.67287
G1 X12.662 Y16.494 E30.68808
G1 X13.012 Y15.997 E30.70465
G1 X13.374 Y15.510 E30.72119
G1 X13.749 Y15.034 E30.73770
G1 X14.166 Y14.533 E30.75546
G1 X14.542 Y14.107 E30.77095
G1 X14.950 Y13.668 E30.78728
G1 X15.375 Y13.236 E30.80379
G1 X15.811 Y12.815 E30.82031
G1 X16.265 Y12.401 E30.83705
G1 X16.719 Y12.010 E30.85338
G1 X17.189 Y11.626 E30.86992
G1 X17.704 Y11.227 E30.88768
G1 X18.157 Y10.898 E30.90293
G1 X18.656 Y10.554 E30.91945
G1 X19.172 Y10.219 E30.93621
G1 X19.683 Y9.906 E30.95254
G1 X20.249 Y9.581 E30.97033
G1 X20.750 Y9.314 E30.98580
G1 X21.284 Y9.045 E31.00210
G1 X21.840 Y8.784 E31.01883
G1 X22.396 Y8.541 E31.03537
G1 X22.951 Y8.317 E31.05168
G1 X23.563 Y8.088 E31.06949
G1 X24.101 Y7.905 E31.08497
G1 X24.671 Y7.727 E31.10124
G1 X25.263 Y7.560 E31.11801
G1 X25.844 Y7.414 E31.13433
G1 X26.480 Y7.270 E31.15210
G1 X27.037 Y7.162 E31.16756
G1 X27.636 Y7.062 E31.18411
G1 X28.237 Y6.978 E31.20065
G1 X28.831 Y6.912 E31.21694
G1 X29.481 Y6.857 E31.23471
G1 X30.048 Y6.827 E31.25019
G1 X30.655 Y6.809 E31.26674
G1 X31.255 Y6.807 E31.28309
G1 X31.859 Y6.822 E31.29955
G1 X32.473 Y6.854 E31.31631
G1 X33.125 Y6.906 E31.33413
G1 X33.673 Y6.965 E31.34915
G1 X34.274 Y7.047 E31.36568
G1 X34.872 Y7.145 E31.38219
G1 X35.521 Y7.270 E31.40021
G1 X36.068 Y7.391 E31.41547
G1 X36.693 Y7.547 E31.43303
G1 X37.233 Y7.698 E31.44831
G1 X37.865 Y7.893 E31.46633
G1 X38.388 Y8.071 E31.48139
G1 X38.965 Y8.283 E31.49814
G1 X39.563 Y8.522 E31.51569
G1 X40.076 Y8.745 E31.53093
G1 X40.675 Y9.024 E31.54894
G1 X41.169 Y9.271 E31.56399
G1 X41.712 Y9.560 E31.58075
G1 X42.279 Y9.883 E31.59854
G1 X42.757 Y10.174 E31.61379
G1 X43.299 Y10.522 E31.63134
G1 X43.761 Y10.839 E31.64661
G1 X44.252 Y11.194 E31.66312
G1 X44.777 Y11.597 E31.68115
G1 X45.206 Y11.945 E31.69621
G1 X45.701 Y12.370 E31.71399
G1 X46.116 Y12.747 E31.72927
G1 X46.588 Y13.198 E31.74706
G1 X46.981 Y13.596 E31.76230
G1 X47.402 Y14.044 E31.77905
G1 X47.830 Y14.527 E31.79664
G1 X48.194 Y14.962 E31.81210
G1 X48.594 Y15.466 E31.82963
G1 X48.930 Y15.917 E31.84496
G1 X49.286 Y16.418 E31.86171
G1 X49.644 Y16.953 E31.87925
G1 X49.942 Y17.427 E31.89451
G1 X50.279 Y17.997 E31.91255
G1 X50.550 Y18.486 E31.92779
G1 X50.825 Y19.018 E31.94411
G1 X51.115 Y19.612 E31.96212
G1 X51.342 Y20.114 E31.97713
G1 X51.595 Y20.716 E31.99493
G1 X51.799 Y21.246 E32.01040
G1 X52.001 Y21.809 E32.02670
G1 X52.204 Y22.430 E32.04451
G1 X52.362 Y22.967 E32.05976
G1 X52.532 Y23.597 E32.07755
G1 X52.660 Y24.143 E32.09283
G1 X52.796 Y24.790 E32.11085
G1 X52.894 Y25.333 E32.12588
G1 X52.987 Y25.932 E32.14240
G1 X53.067 Y26.579 E32.16017
G1 X53.121 Y27.145 E32.17566
G1 X53.167 Y27.788 E32.19323
G1 X53.190 Y28.347 E32.20847
G1 X53.199 Y28.961 E32.22521
G1 X53.200 Y29.047 E32.22755
G1 X53.192 Y29.607 E32.24281
G1 X53.169 Y30.174 E32.25828
G1 X53.127 Y30.818 E32.27587
G1 X53.073 Y31.376 E32.29114
G1 X52.994 Y32.023 E32.30891
G1 X52.902 Y32.631 E32.32566
G1 X52.796 Y33.220 E32.34197
G1 X52.681 Y33.776 E32.35744
G1 X52.534 Y34.404 E32.37502
G1 X52.378 Y34.990 E32.39155
G1 X52.218 Y35.535 E32.40702
G1 X52.020 Y36.148 E32.42458
G1 X51.813 Y36.727 E32.44134
G1 X51.598 Y37.286 E32.45766
G1 X51.382 Y37.803 E32.47293
G1 X51.115 Y38.398 E32.49070
G1 X50.850 Y38.944 E32.50724
G1 X50.568 Y39.490 E32.52398
G1 X50.279 Y40.014 E32.54029
G1 X49.972 Y40.535 E32.55677
G1 X49.669 Y41.016 E32.57226
G1 X49.339 Y41.516 E32.58859
G1 X48.963 Y42.050 E32.60639
G1 X48.627 Y42.499 E32.62167
G1 X48.252 Y42.975 E32.63818
G1 X47.859 Y43.448 E32.65494
G1 X47.434 Y43.931 E32.67247
G1 X47.051 Y44.341 E32.68776
G1 X46.626 Y44.774 E32.70430
G1 X46.156 Y45.227 E32.72209
G1 X45.736 Y45.609 E32.73756
G1 X45.282 Y46.000 E32.75389
G1 X44.806 Y46.389 E32.77064
G1 X44.297 Y46.783 E32.78818
G1 X43.837 Y47.116 E32.80365
G0 F10500 X43.613 Y46.787
G0 X34.659 Y45.048
G0 X34.263 Y45.002
G1 F480 X34.291 Y44.751 E32.81054
G1 X34.300 Y44.488 E32.81771
G1 X34.290 Y44.236 E32.82458
G1 X34.214 Y43.753 E32.83790
G1 X34.074 Y43.304 E32.85072
G1 X33.964 Y43.052 E32.85821
G1 X33.718 Y42.631 E32.87150
G1 X33.408 Y42.247 E32.88495
G1 X33.045 Y41.914 E32.89838
G1 X32.650 Y41.646 E32.91138
G1 X32.196 Y41.429 E32.92510
G1 X31.951 Y41.345 E32.93215
G1 X31.498 Y41.242 E32.94481
G1 X31.247 Y41.214 E32.95170
G1 X30.983 Y41.205 E32.95890
G1 X30.748 Y41.214 E32.96530
G1 X30.266 Y41.287 E32.97859
G1 X29.778 Y41.438 E32.99251
G1 X29.334 Y41.655 E33.00598
G1 X28.929 Y41.936 E33.01941
G1 X28.569 Y42.273 E33.03285
G1 X28.263 Y42.661 E33.04631
G1 X28.020 Y43.089 E33.05973
G1 X27.844 Y43.543 E33.07300
G1 X27.783 Y43.770 E33.07940
G1 X27.710 Y44.259 E33.09287
G1 X27.700 Y44.527 E33.10018
G1 X27.737 Y44.998 E33.11306
G1 X27.853 Y45.499 E33.12707
G1 X28.136 Y46.146 E33.14632
G1 X28.289 Y46.387 E33.15410
G1 X28.739 Y46.909 E33.17288
G1 X29.142 Y47.232 E33.18695
G1 X29.585 Y47.486 E33.20087
G1 X30.044 Y47.663 E33.21427
G1 X30.503 Y47.767 E33.22710
G1 X31.022 Y47.805 E33.24128
G1 X31.494 Y47.768 E33.25418
G1 X31.989 Y47.653 E33.26803
G1 X32.428 Y47.481 E33.28088
G1 X32.655 Y47.360 E33.28789
G1 X33.059 Y47.085 E33.30121
G1 X33.431 Y46.737 E33.31509
G1 X33.728 Y46.364 E33.32808
G1 X33.974 Y45.936 E33.34154
G1 X34.159 Y45.461 E33.35543
G1 X34.263 Y45.002 E33.36825
G0 F10500 X34.659 Y45.048
G0 X34.543 Y43.128
G0 X32.843 Y38.527
G0 X32.758 Y38.137
G1 F480 X33.213 Y38.038 E33.38094
G1 X33.950 Y37.825 E33.40185
G1 X34.697 Y37.539 E33.42365
G1 X35.418 Y37.189 E33.44549
G1 X36.105 Y36.779 E33.46729
G1 X36.730 Y36.330 E33.48826
G1 X37.361 Y35.790 E33.51089
G1 X37.920 Y35.218 E33.53269
G1 X38.430 Y34.600 E33.55452
G1 X38.882 Y33.940 E33.57632
G1 X39.278 Y33.245 E33.59812
G1 X39.612 Y32.517 E33.61995
G1 X39.872 Y31.793 E33.64091
G1 X40.086 Y30.991 E33.66353
G1 X40.223 Y30.205 E33.68528
G1 X40.266 Y29.800 E33.69637
G1 X40.300 Y29.005 E33.71806
G1 X40.266 Y28.205 E33.73988
G1 X40.163 Y27.412 E33.76167
G1 X39.992 Y26.630 E33.78348
G1 X39.755 Y25.866 E33.80528
G1 X39.453 Y25.125 E33.82709
G1 X39.088 Y24.413 E33.84889
G1 X38.663 Y23.734 E33.87072
G1 X38.182 Y23.095 E33.89252
G1 X37.673 Y22.528 E33.91328
G1 X37.064 Y21.952 E33.93613
G1 X36.466 Y21.481 E33.95687
G1 X35.766 Y21.018 E33.97974
G1 X35.088 Y20.652 E34.00074
G1 X34.328 Y20.320 E34.02334
G1 X33.596 Y20.076 E34.04437
G1 X32.791 Y19.878 E34.06696
G1 X31.999 Y19.758 E34.08879
G1 X31.201 Y19.707 E34.11058
G1 X30.401 Y19.723 E34.13238
G1 X29.605 Y19.810 E34.15420
G1 X28.822 Y19.964 E34.17595
G1 X27.674 Y20.320 E34.20870
G1 X26.967 Y20.625 E34.22969
G1 X26.235 Y21.018 E34.25233
G1 X25.564 Y21.459 E34.27421
G1 X24.664 Y22.197 E34.30593
G1 X24.101 Y22.769 E34.32780
G1 X23.590 Y23.386 E34.34963
G1 X23.119 Y24.068 E34.37222
G1 X22.723 Y24.765 E34.39406
G1 X22.389 Y25.492 E34.41586
G1 X22.120 Y26.242 E34.43758
G1 X21.838 Y27.412 E34.47038
G1 X21.735 Y28.205 E34.49217
G1 X21.700 Y29.005 E34.51399
G1 X21.733 Y29.771 E34.53488
G1 X21.778 Y30.204 E34.54675
G1 X21.915 Y30.990 E34.56849
G1 X22.119 Y31.764 E34.59030
G1 X22.389 Y32.517 E34.61210
G1 X22.710 Y33.217 E34.63309
G1 X23.103 Y33.915 E34.65492
G1 X23.554 Y34.575 E34.67670
G1 X24.080 Y35.217 E34.69932
G1 X24.639 Y35.790 E34.72113
G1 X25.246 Y36.312 E34.74295
G1 X25.896 Y36.779 E34.76476
G1 X26.557 Y37.174 E34.78574
G1 X27.276 Y37.525 E34.80755
G1 X28.050 Y37.825 E34.83017
G1 X28.820 Y38.046 E34.85200
G1 X29.605 Y38.200 E34.87380
G1 X30.401 Y38.286 E34.89562
G1 X31.200 Y38.303 E34.91740
G1 X31.999 Y38.252 E34.93922
G1 X32.758 Y38.137 E34.96014
G0 F10500 X32.843 Y38.527
G0 X35.655 Y37.630
G0 X38.292 Y35.551
G0 X40.075 Y32.706
G0 X40.801 Y29.005
G0 X40.225 Y25.697
G0 X38.568 Y22.777
G0 X36.022 Y20.589
G0 X32.888 Y19.388
G0 X31.008 Y17.205
G0 X31.022 Y16.805
G1 F480 X31.494 Y16.768 E34.97304
G1 X31.989 Y16.653 E34.98689
G1 X32.428 Y16.481 E34.99973
G1 X32.655 Y16.360 E35.00674
G1 X33.059 Y16.085 E35.02006
G1 X33.431 Y15.737 E35.03394
G1 X33.728 Y15.364 E35.04694
G1 X33.974 Y14.936 E35.06039
G1 X34.159 Y14.461 E35.07428
G1 X34.263 Y14.002 E35.08711
G1 X34.291 Y13.751 E35.09399
G1 X34.300 Y13.488 E35.10116
G1 X34.290 Y13.236 E35.10803
G1 X34.214 Y12.753 E35.12136
G1 X34.074 Y12.304 E35.13418
G1 X33.964 Y12.052 E35.14167
G1 X33.718 Y11.631 E35.15496
G1 X33.408 Y11.247 E35.16840
G1 X33.045 Y10.914 E35.18183
G1 X32.650 Y10.646 E35.19484
G1 X32.196 Y10.429 E35.20855
G1 X31.951 Y10.345 E35.21561
G1 X31.498 Y10.242 E35.22827
G1 X31.247 Y10.214 E35.23515
G1 X30.983 Y10.205 E35.24235
G1 X30.748 Y10.214 E35.24876
G1 X30.266 Y10.287 E35.26204
G1 X29.778 Y10.438 E35.27596
G1 X29.334 Y10.655 E35.28943
G1 X28.929 Y10.936 E35.30286
G1 X28.569 Y11.273 E35.31630
G1 X28.263 Y11.661 E35.32977
G1 X28.020 Y12.089 E35.34318
G1 X27.844 Y12.543 E35.35645
G1 X27.783 Y12.770 E35.36285
G1 X27.710 Y13.259 E35.37633
G1 X27.700 Y13.527 E35.38364
G1 X27.737 Y13.998 E35.39651
G1 X27.853 Y14.499 E35.41053
G1 X28.136 Y15.146 E35.42977
G1 X28.289 Y15.387 E35.43755
G1 X28.739 Y15.909 E35.45633
G1 X29.142 Y16.232 E35.47041
G1 X29.585 Y16.486 E35.48432
G1 X30.044 Y16.663 E35.49773
G1 X30.503 Y16.767 E35.51055
G1 X31.022 Y16.805 E35.52473
G0 F10500 X31.015 Y17.014
;TYPE:SKIN
G1 F480 X33.984 Y19.983 E35.63916
G0 F10500 X32.822 Y19.670
G1 F480 X30.027 Y16.875 E35.74687
G0 F10500 X29.984 Y17.058
G0 X31.032 Y17.306
G0 X31.811 Y17.105
G0 X31.769 Y16.920
G1 F480 X35.467 Y20.617 E35.88937
G0 F10500 X35.557 Y20.451
G0 X38.040 Y22.190
G0 X39.557 Y24.453
G0 X39.387 Y24.538
G1 F480 X51.584 Y36.735 E36.35943
G0 F10500 X51.345 Y37.345
G1 F480 X40.022 Y26.021 E36.79583
G0 F10500 X40.324 Y27.172
G1 F480 X51.090 Y37.938 E37.21074
G0 F10500 X50.822 Y38.518
G1 F480 X40.471 Y28.168 E37.60964
G0 F10500 X40.506 Y29.051
G1 F480 X50.539 Y39.084 E37.99630
G0 F10500 X50.245 Y39.638
G1 F480 X40.469 Y29.862 E38.37306
G0 F10500 X40.364 Y30.606
G1 F480 X49.938 Y40.179 E38.74202
G0 F10500 X49.616 Y40.706
G1 F480 X40.218 Y31.308 E39.10421
G0 F10500 X40.031 Y31.970
G1 F480 X49.282 Y41.221 E39.46073
G0 F10500 X48.936 Y41.724
G1 F480 X39.805 Y32.593 E39.81263
G0 F10500 X39.539 Y33.175
G1 F480 X48.577 Y42.213 E40.16095
G0 F10500 X48.207 Y42.691
G1 F480 X39.243 Y33.728 E40.50639
G0 F10500 X38.920 Y34.253
G1 F480 X47.825 Y43.158 E40.84959
G0 F10500 X47.432 Y43.614
G1 F480 X38.574 Y34.755 E41.19098
G0 F10500 X38.190 Y35.220
G1 F480 X47.027 Y44.057 E41.53155
G0 F10500 X46.611 Y44.489
G1 F480 X37.780 Y35.659 E41.87187
G0 F10500 X37.348 Y36.075
G1 F480 X46.181 Y44.909 E42.21231
G0 F10500 X45.742 Y45.317
G1 F480 X36.891 Y36.467 E42.55340
G0 F10500 X36.400 Y36.824
G1 F480 X45.290 Y45.714 E42.89601
G0 F10500 X44.827 Y46.099
G1 F480 X35.882 Y37.155 E43.24073
G0 F10500 X35.339 Y37.460
G1 F480 X44.352 Y46.473 E43.58808
G0 F10500 X43.865 Y46.835
G1 F480 X34.767 Y37.736 E43.93873
G0 F10500 X34.153 Y37.972
G1 F480 X43.366 Y47.184 E44.29377
G0 F10500 X42.854 Y47.521
G1 F480 X33.505 Y38.172 E44.65407
G0 F10500 X32.821 Y38.337
G1 F480 X42.330 Y47.846 E45.02054
G0 F10500 X41.795 Y48.159
G1 F480 X32.087 Y38.451 E45.39468
G0 F10500 X31.293 Y38.506
G1 F480 X41.246 Y48.458 E45.77824
G0 F10500 X40.683 Y48.744
G1 F480 X30.435 Y38.497 E46.17317
G0 F10500 X29.479 Y38.388
G1 F480 X32.367 Y41.276 E46.28447
G0 F10500 X31.244 Y41.003
G1 F480 X28.379 Y38.137 E46.39490
G0 F10500 X27.031 Y37.638
G1 F480 X30.440 Y41.047 E46.52628
G0 F10500 X29.765 Y41.220
G1 F480 X10.257 Y21.712 E47.27810
G0 F10500 X10.485 Y21.092
G1 F480 X22.367 Y32.974 E47.73602
G0 F10500 X21.865 Y31.623
G1 F480 X10.728 Y20.486 E48.16523
G0 F10500 X10.904 Y20.560
G0 X10.224 Y22.407
G0 X10.044 Y22.348
G1 F480 X29.192 Y41.495 E48.90316
G0 F10500 X28.704 Y41.856
G1 F480 X9.847 Y22.999 E49.62989
G0 F10500 X9.667 Y23.668
G1 F480 X28.289 Y42.289 E50.34755
G0 F10500 X27.944 Y42.794
G1 F480 X9.507 Y24.357 E51.05809
G0 F10500 X9.367 Y25.065
G1 F480 X27.681 Y43.379 E51.76390
G0 F10500 X27.525 Y44.071
G1 F480 X9.248 Y25.795 E52.46826
G0 F10500 X9.149 Y26.544
G1 F480 X27.519 Y44.914 E53.17622
G0 F10500 X27.908 Y46.152
G1 F480 X9.075 Y27.318 E53.90205
G0 F10500 X9.030 Y28.122
G1 F480 X31.882 Y50.973 E54.78272
G0 F10500 X32.682 Y50.925
G1 F480 X29.347 Y47.591 E54.91123
G0 F10500 X30.588 Y47.982
G1 F480 X33.457 Y50.852 E55.02182
G0 F10500 X34.209 Y50.755
G1 F480 X31.436 Y47.982 E55.12869
G0 F10500 X32.126 Y47.824
G1 F480 X34.939 Y50.637 E55.23710
G0 F10500 X35.645 Y50.494
G1 F480 X32.716 Y47.565 E55.34998
G0 F10500 X33.221 Y47.222
G1 F480 X36.332 Y50.333 E55.46988
G0 F10500 X37.002 Y50.154
G1 F480 X33.648 Y46.800 E55.59914
G0 F10500 X34.002 Y46.306
G1 F480 X37.655 Y49.959 E55.73992
G0 F10500 X38.291 Y49.746
G1 F480 X34.277 Y45.732 E55.89462
G0 F10500 X34.462 Y45.068
G1 F480 X38.912 Y49.519 E56.06613
G0 F10500 X39.517 Y49.275
G1 F480 X34.500 Y44.258 E56.25949
G0 F10500 X34.234 Y43.144
G1 F480 X40.109 Y49.018 E56.48588
G0 F10500 X40.029 Y48.847
G0 X31.050 Y50.801
G0 X31.050 Y50.990
G1 F480 X9.011 Y28.951 E57.33525
G0 F10500 X9.028 Y29.817
G1 F480 X30.188 Y50.977 E58.15073
G0 F10500 X29.287 Y50.925
G1 F480 X9.079 Y30.716 E58.92955
G0 F10500 X9.175 Y31.661
G1 F480 X28.347 Y50.833 E59.66842
G0 F10500 X27.352 Y50.686
G1 F480 X9.314 Y32.649 E60.36357
G0 F10500 X9.521 Y33.704
G1 F480 X26.299 Y50.482 E61.01018
G0 F10500 X25.173 Y50.204
G1 F480 X9.799 Y34.831 E61.60266
G0 F10500 X10.169 Y36.049
G1 F480 X23.950 Y49.830 E62.13377
G0 F10500 X22.594 Y49.322
G1 F480 X10.685 Y37.414 E62.59271
G0 F10500 X10.860 Y37.342
G0 X11.577 Y38.900
G0 X11.410 Y38.987
G1 F480 X21.016 Y48.593 E62.96292
G0 F10500 X21.100 Y48.425
G0 X19.111 Y47.276
G0 X19.009 Y47.435
G1 F480 X12.569 Y40.995 E63.21111
G0 F10500 X12.726 Y40.890
G0 X21.434 Y30.564
G0 X21.623 Y30.532
G1 F480 X10.986 Y19.895 E63.62105
G0 F10500 X11.259 Y19.320
G1 F480 X21.515 Y29.576 E64.01631
G0 F10500 X21.503 Y28.715
G1 F480 X11.544 Y18.757 E64.40010
G0 F10500 X11.844 Y18.207
G1 F480 X21.559 Y27.923 E64.77453
G0 F10500 X21.676 Y27.191
G1 F480 X12.156 Y17.672 E65.14140
G0 F10500 X12.481 Y17.148
G1 F480 X21.840 Y26.507 E65.50209
G0 F10500 X22.036 Y25.854
G1 F480 X12.818 Y16.636 E65.85734
G0 F10500 X13.168 Y16.138
G1 F480 X22.273 Y25.243 E66.20824
G0 F10500 X22.540 Y24.661
G1 F480 X13.530 Y15.651 E66.55548
G0 F10500 X13.903 Y15.175
G1 F480 X22.847 Y24.120 E66.90019
G0 F10500 X23.182 Y23.606
G1 F480 X14.288 Y14.712 E67.24296
G0 F10500 X14.685 Y14.260
G1 F480 X23.540 Y23.116 E67.58424
G0 F10500 X23.924 Y22.652
G1 F480 X15.093 Y13.820 E67.92460
G0 F10500 X15.514 Y13.393
G1 F480 X24.344 Y22.222 E68.26488
G0 F10500 X24.790 Y21.820
G1 F480 X15.945 Y12.975 E68.60576
G0 F10500 X16.389 Y12.570
G1 F480 X25.257 Y21.438 E68.94752
G0 F10500 X25.750 Y21.083
G1 F480 X16.845 Y12.178 E69.29071
G0 F10500 X17.312 Y11.796
G1 F480 X26.273 Y20.757 E69.63606
G0 F10500 X26.826 Y20.462
G1 F480 X17.790 Y11.426 E69.98430
G0 F10500 X18.280 Y11.068
G1 F480 X27.415 Y20.202 E70.33634
G0 F10500 X28.045 Y19.984
G1 F480 X18.782 Y10.721 E70.69332
G0 F10500 X19.297 Y10.388
G1 F480 X28.692 Y19.783 E71.05540
G0 F10500 X29.394 Y19.636
G1 F480 X19.825 Y10.067 E71.42418
G0 F10500 X20.364 Y9.758
G1 F480 X30.145 Y19.538 E71.80111
G0 F10500 X30.956 Y19.501
G1 F480 X20.919 Y9.463 E72.18795
G0 F10500 X21.486 Y9.182
G1 F480 X31.841 Y19.537 E72.58702
G0 F10500 X31.854 Y19.350
G0 X32.479 Y16.891
G0 X32.410 Y16.713
G1 F480 X51.809 Y36.111 E73.33462
G0 F10500 X52.018 Y35.472
G1 F480 X32.956 Y16.409 E74.06927
G0 F10500 X33.425 Y16.030
G1 F480 X52.207 Y34.812 E74.79311
G0 F10500 X52.380 Y34.136
G1 F480 X33.823 Y15.580 E75.50827
G0 F10500 X34.146 Y15.055
G1 F480 X52.534 Y33.442 E76.21690
G0 F10500 X52.670 Y32.730
G1 F480 X34.377 Y14.436 E76.92192
G0 F10500 X34.501 Y13.712
G1 F480 X52.784 Y31.995 E77.62653
G0 F10500 X52.874 Y31.237
G1 F480 X34.431 Y12.794 E78.33731
G0 F10500 X34.620 Y12.765
G0 X33.773 Y10.905
G0 X32.087 Y9.864
G0 X31.756 Y9.892
G0 X31.713 Y10.076
G1 F480 X28.767 Y7.130 E78.45084
G0 F10500 X28.010 Y7.221
G1 F480 X30.790 Y10.002 E78.55800
G0 F10500 X30.068 Y10.127
G1 F480 X27.275 Y7.335 E78.66562
G0 F10500 X26.561 Y7.469
G1 F480 X29.453 Y10.361 E78.77708
G0 F10500 X28.924 Y10.681
G1 F480 X25.868 Y7.624 E78.89487
G0 F10500 X25.193 Y7.798
G1 F480 X28.470 Y11.075 E79.02116
G0 F10500 X28.089 Y11.542
G1 F480 X24.535 Y7.989 E79.15811
G0 F10500 X23.894 Y8.196
G1 F480 X27.792 Y12.094 E79.30834
G0 F10500 X27.576 Y12.727
G1 F480 X23.270 Y8.421 E79.47429
G0 F10500 X22.661 Y8.660
G1 F480 X27.490 Y13.490 E79.66041
G0 F10500 X27.633 Y14.481
G1 F480 X22.066 Y8.914 E79.87496
G0 F10500 X22.141 Y9.089
G0 X29.558 Y7.254
G0 X29.549 Y7.063
G1 F480 X52.939 Y30.453 E80.77639
G0 F10500 X52.979 Y29.645
G1 F480 X30.362 Y7.027 E81.64805
G0 F10500 X31.200 Y7.017
G1 F480 X52.986 Y28.803 E82.48766
G0 F10500 X52.962 Y27.930
G1 F480 X32.075 Y7.044 E83.29261
G0 F10500 X32.985 Y7.105
G1 F480 X52.897 Y27.017 E84.06000
G0 F10500 X52.789 Y26.061
G1 F480 X33.942 Y7.213 E84.78636
G0 F10500 X34.952 Y7.375
G1 F480 X52.629 Y25.052 E85.46762
G0 F10500 X52.405 Y23.980
G1 F480 X36.021 Y7.595 E86.09906
G0 F10500 X37.175 Y7.901
G1 F480 X52.101 Y22.827 E86.67430
G0 F10500 X51.690 Y21.568
G1 F480 X38.435 Y8.312 E87.18515
G0 F10500 X38.370 Y8.489
G0 X39.771 Y9.047
G0 X39.846 Y8.874
G1 F480 X51.132 Y20.161 E87.62012
G0 F10500 X50.959 Y20.238
G0 X50.149 Y18.587
G0 X50.315 Y18.495
G1 F480 X41.511 Y9.691 E87.95942
G0 F10500 X41.422 Y9.858
G0 X43.669 Y11.266
G0 X43.781 Y11.112
G1 F480 X48.882 Y16.213 E88.15601
G0 F10500 X47.829 Y16.958
G1 F240 E86.15601
G1 Z0.400
G0 F10500 X59.172 Y21.325
;TYPE:WALL-OUTER
G1 Z0.300
G1 F240 E88.15601
G1 F480 X59.386 Y20.766 E88.17232
G1 X59.636 Y20.165 E88.19006
G1 X59.867 Y19.653 E88.20537
G1 X60.130 Y19.106 E88.22191
G1 X60.407 Y18.567 E88.23842
G1 X60.700 Y18.037 E88.25492
G1 X61.011 Y17.506 E88.27169
G1 X61.353 Y16.959 E88.28927
G1 X61.662 Y16.494 E88.30449
G1 X62.012 Y15.997 E88.32105
G1 X62.374 Y15.510 E88.33759
G1 X62.749 Y15.034 E88.35410
G1 X63.166 Y14.533 E88.37187
G1 X63.542 Y14.107 E88.38735
G1 X63.950 Y13.668 E88.40368
G1 X64.375 Y13.236 E88.42020
G1 X64.811 Y12.815 E88.43671
G1 X65.265 Y12.401 E88.45346
G1 X65.719 Y12.010 E88.46979
G1 X66.189 Y11.626 E88.48633
G1 X66.704 Y11.227 E88.50408
G1 X67.157 Y10.898 E88.51934
G1 X67.656 Y10.554 E88.53585
G1 X68.172 Y10.219 E88.55262
G1 X68.683 Y9.906 E88.56895
G1 X69.249 Y9.581 E88.58673
G1 X69.750 Y9.314 E88.60221
G1 X70.284 Y9.045 E88.61850
G1 X70.840 Y8.784 E88.63524
G1 X71.396 Y8.541 E88.65177
G1 X71.951 Y8.317 E88.66808
G1 X72.563 Y8.088 E88.68589
G1 X73.101 Y7.905 E88.70138
G1 X73.671 Y7.727 E88.71765
G1 X74.263 Y7.560 E88.73441
G1 X74.844 Y7.414 E88.75074
G1 X75.480 Y7.270 E88.76851
G1 X76.037 Y7.162 E88.78397
G1 X76.636 Y7.062 E88.80052
G1 X77.237 Y6.978 E88.81706
G1 X77.831 Y6.912 E88.83334
G1 X78.481 Y6.857 E88.85112
G1 X79.048 Y6.827 E88.86659
G1 X79.655 Y6.809 E88.88314
G1 X80.254 Y6.807 E88.89946
G1 X80.858 Y6.822 E88.91593
G1 X81.472 Y6.854 E88.93268
G1 X82.124 Y6.906 E88.95051
G1 X82.672 Y6.965 E88.96553
G1 X83.273 Y7.047 E88.98206
G1 X83.871 Y7.145 E88.99857
G1 X84.520 Y7.270 E89.01658
G1 X85.067 Y7.391 E89.03185
G1 X85.692 Y7.547 E89.04940
G1 X86.232 Y7.698 E89.06468
G1 X86.864 Y7.893 E89.08271
G1 X87.387 Y8.071 E89.09776
G1 X87.964 Y8.283 E89.11452
G1 X88.562 Y8.522 E89.13207
G1 X89.075 Y8.745 E89.14731
G1 X89.674 Y9.024 E89.16532
G1 X90.168 Y9.271 E89.18037
G1 X90.711 Y9.560 E89.19713
G1 X91.278 Y9.883 E89.21491
G1 X91.756 Y10.174 E89.23016
G1 X92.298 Y10.522 E89.24772
G1 X92.760 Y10.839 E89.26298
G1 X93.251 Y11.194 E89.27950
G1 X93.776 Y11.597 E89.29753
G1 X94.205 Y11.945 E89.31259
G1 X94.700 Y12.370 E89.33036
G1 X95.115 Y12.747 E89.34564
G1 X95.587 Y13.198 E89.36343
G1 X95.980 Y13.596 E89.37868
G1 X96.401 Y14.044 E89.39543
G1 X96.829 Y14.527 E89.41302
G1 X97.193 Y14.962 E89.42847
G1 X97.593 Y15.466 E89.44601
G1 X97.929 Y15.917 E89.46133
G1 X98.285 Y16.418 E89.47808
G1 X98.643 Y16.953 E89.49563
G1 X98.941 Y17.427 E89.51088
G1 X99.278 Y17.997 E89.52893
G1 X99.549 Y18.486 E89.54416
G1 X99.824 Y19.018 E89.56048
G1 X100.114 Y19.612 E89.57850
G1 X100.341 Y20.114 E89.59351
G1 X100.594 Y20.716 E89.61131
G1 X100.798 Y21.246 E89.62678
G1 X101.000 Y21.809 E89.64308
G1 X101.203 Y22.430 E89.66089
G1 X101.361 Y22.967 E89.67614
G1 X101.531 Y23.597 E89.69392
G1 X101.659 Y24.143 E89.70921
G1 X101.795 Y24.790 E89.72722
G1 X101.893 Y25.333 E89.74226
G1 X101.986 Y25.932 E89.75878
G1 X102.066 Y26.579 E89.77654
G1 X102.120 Y27.145 E89.79204
G1 X102.166 Y27.788 E89.80961
G1 X102.189 Y28.348 E89.82488
G1 X102.199 Y28.961 E89.84159
G1 X102.200 Y29.046 E89.84390
G1 X102.191 Y29.607 E89.85919
G1 X102.168 Y30.174 E89.87466
G1 X102.126 Y30.818 E89.89224
G1 X102.072 Y31.376 E89.90752
G1 X101.993 Y32.023 E89.92528
G1 X101.901 Y32.631 E89.94204
G1 X101.795 Y33.220 E89.95835
G1 X101.680 Y33.776 E89.97382
G1 X101.533 Y34.404 E89.99140
G1 X101.377 Y34.990 E90.00792
G1 X101.217 Y35.535 E90.02340
G1 X101.019 Y36.148 E90.04096
G1 X100.812 Y36.727 E90.05771
G1 X100.597 Y37.286 E90.07404
G1 X100.381 Y37.803 E90.08930
G1 X100.114 Y38.398 E90.10708
G1 X99.849 Y38.944 E90.12362
G1 X99.567 Y39.490 E90.14036
G1 X99.278 Y40.014 E90.15667
G1 X98.971 Y40.535 E90.17315
G1 X98.668 Y41.016 E90.18864
G1 X98.338 Y41.516 E90.20497
G1 X97.962 Y42.050 E90.22276
G1 X97.626 Y42.499 E90.23805
G1 X97.251 Y42.975 E90.25456
G1 X96.858 Y43.448 E90.27132
G1 X96.433 Y43.931 E90.28885
G1 X96.050 Y44.341 E90.30414
G1 X95.625 Y44.774 E90.32067
G1 X95.155 Y45.227 E90.33846
G1 X94.735 Y45.609 E90.35394
G1 X94.281 Y46.000 E90.37026
G1 X93.805 Y46.389 E90.38702
G1 X93.296 Y46.783 E90.40456
G1 X92.836 Y47.116 E90.42003
G1 X92.305 Y47.482 E90.43761
G1 X91.828 Y47.790 E90.45308
G1 X91.317 Y48.103 E90.46941
G1 X90.791 Y48.405 E90.48594
G1 X90.257 Y48.692 E90.50246
G1 X89.708 Y48.968 E90.51920
G1 X89.120 Y49.246 E90.53693
G1 X88.604 Y49.468 E90.55224
G1 X88.049 Y49.693 E90.56856
G1 X87.481 Y49.905 E90.58508
G1 X86.863 Y50.116 E90.60287
G1 X86.321 Y50.284 E90.61834
G1 X85.744 Y50.447 E90.63468
G1 X85.156 Y50.596 E90.65121
G1 X84.556 Y50.731 E90.66797
G1 X83.925 Y50.855 E90.68549
G1 X83.365 Y50.947 E90.70096
G1 X82.763 Y51.031 E90.71752
G1 X82.169 Y51.097 E90.73381
G1 X81.564 Y51.148 E90.75035
G1 X80.951 Y51.183 E90.76709
G1 X80.345 Y51.201 E90.78361
G1 X79.700 Y51.203 E90.80118
G1 X79.142 Y51.188 E90.81640
G1 X78.528 Y51.155 E90.83315
G1 X77.922 Y51.107 E90.84972
G1 X77.327 Y51.044 E90.86602
G1 X76.682 Y50.955 E90.88377
G1 X76.129 Y50.864 E90.89904
G1 X75.526 Y50.748 E90.91577
G1 X74.932 Y50.618 E90.93234
G1 X74.353 Y50.474 E90.94860
G1 X73.766 Y50.310 E90.96521
G1 X73.181 Y50.130 E90.98189
G1 X72.562 Y49.922 E90.99969
G1 X72.044 Y49.730 E91.01474
G1 X71.481 Y49.505 E91.03126
G1 X70.917 Y49.261 E91.04801
G1 X70.375 Y49.008 E91.06431
G1 X69.785 Y48.714 E91.08227
G1 X69.290 Y48.449 E91.09758
G1 X68.762 Y48.149 E91.11412
G1 X68.203 Y47.811 E91.13193
G1 X67.734 Y47.508 E91.14714
G1 X67.233 Y47.166 E91.16367
G1 X66.704 Y46.782 E91.18149
G1 X66.261 Y46.442 E91.19670
G1 X65.753 Y46.030 E91.21453
G1 X65.328 Y45.665 E91.22980
G1 X64.880 Y45.258 E91.24629
G1 X64.414 Y44.812 E91.26387
G1 X64.015 Y44.407 E91.27936
G1 X63.599 Y43.965 E91.29590
G1 X63.165 Y43.477 E91.31370
G1 X62.812 Y43.053 E91.32873
G1 X62.430 Y42.572 E91.34547
G1 X62.038 Y42.050 E91.36326
G1 X61.719 Y41.599 E91.37832
G1 X61.379 Y41.088 E91.39504
G1 X61.055 Y40.575 E91.41158
G1 X60.746 Y40.053 E91.42811
G1 X60.451 Y39.523 E91.44464
G1 X60.154 Y38.951 E91.46220
G1 X59.907 Y38.440 E91.47767
G1 X59.659 Y37.895 E91.49399
G1 X59.421 Y37.329 E91.51072
G1 X59.202 Y36.764 E91.52723
G1 X58.981 Y36.148 E91.54506
G1 X58.811 Y35.624 E91.56008
G1 X58.637 Y35.035 E91.57681
G1 X58.479 Y34.448 E91.59338
G1 X58.341 Y33.866 E91.60968
G1 X58.205 Y33.219 E91.62770
G1 X58.106 Y32.669 E91.64293
G1 X58.014 Y32.077 E91.65925
G1 X57.939 Y31.467 E91.67600
G1 X57.880 Y30.864 E91.69251
G1 X57.838 Y30.267 E91.70882
G1 X57.809 Y29.606 E91.72685
G1 X57.801 Y29.047 E91.74209
G1 X57.800 Y29.009 E91.74312
G1 X57.808 Y28.449 E91.75838
G1 X57.832 Y27.835 E91.77513
G1 X57.870 Y27.238 E91.79143
G1 X57.933 Y26.587 E91.80925
G1 X58.001 Y26.031 E91.82452
G1 X58.092 Y25.423 E91.84127
G1 X58.195 Y24.835 E91.85754
G1 X58.320 Y24.233 E91.87430
G1 X58.456 Y23.650 E91.89061
G1 X58.623 Y23.019 E91.90840
G1 X58.781 Y22.482 E91.92365
G1 X58.967 Y21.904 E91.94020
G1 X59.172 Y21.325 E91.95694
G0 F10500 X59.545 Y21.468
G0 X71.027 Y25.326
G0 X71.389 Y25.492
G1 F480 X71.120 Y26.242 E91.97865
G1 X70.838 Y27.412 E92.01145
G1 X70.735 Y28.205 E92.03324
G1 X70.700 Y29.005 E92.05506
G1 X70.733 Y29.771 E92.07595
G1 X70.778 Y30.204 E92.08782
G1 X70.915 Y30.990 E92.10956
G1 X71.119 Y31.764 E92.13137
G1 X71.389 Y32.517 E92.15317
G1 X71.710 Y33.217 E92.17416
G1 X72.103 Y33.915 E92.19599
G1 X72.554 Y34.575 E92.21777
G1 X73.080 Y35.217 E92.24039
G1 X73.639 Y35.790 E92.26220
G1 X74.246 Y36.312 E92.28402
G1 X74.896 Y36.779 E92.30583
G1 X75.557 Y37.174 E92.32682
G1 X76.276 Y37.525 E92.34862
G1 X77.050 Y37.825 E92.37124
G1 X77.820 Y38.046 E92.39307
G1 X78.605 Y38.200 E92.41487
G1 X79.401 Y38.286 E92.43669
G1 X80.199 Y38.303 E92.45844
G1 X80.998 Y38.252 E92.48026
G1 X81.757 Y38.137 E92.50118
G1 X82.212 Y38.038 E92.51387
G1 X82.949 Y37.825 E92.53477
G1 X83.696 Y37.539 E92.55657
G1 X84.417 Y37.189 E92.57841
G1 X85.104 Y36.779 E92.60022
G1 X85.729 Y36.330 E92.62119
G1 X86.360 Y35.790 E92.64382
G1 X86.919 Y35.218 E92.66562
G1 X87.429 Y34.600 E92.68745
G1 X87.881 Y33.940 E92.70925
G1 X88.277 Y33.245 E92.73105
G1 X88.611 Y32.517 E92.75288
G1 X88.871 Y31.793 E92.77384
G1 X89.085 Y30.991 E92.79646
G1 X89.222 Y30.205 E92.81820
G1 X89.265 Y29.800 E92.82930
G1 X89.300 Y29.005 E92.85099
G1 X89.265 Y28.205 E92.87281
G1 X89.162 Y27.412 E92.89460
G1 X88.991 Y26.630 E92.91641
G1 X88.754 Y25.866 E92.93821
G1 X88.452 Y25.125 E92.96002
G1 X88.087 Y24.413 E92.98182
G1 X87.662 Y23.734 E93.00365
G1 X87.181 Y23.095 E93.02545
G1 X86.672 Y22.528 E93.04621
G1 X86.063 Y21.952 E93.06905
G1 X85.465 Y21.481 E93.08980
G1 X84.765 Y21.018 E93.11267
G1 X84.087 Y20.652 E93.13367
G1 X83.327 Y20.320 E93.15627
G1 X82.595 Y20.076 E93.17729
G1 X81.790 Y19.878 E93.19989
G1 X80.998 Y19.758 E93.22171
G1 X80.200 Y19.707 E93.24351
G1 X79.401 Y19.723 E93.26528
G1 X78.605 Y19.810 E93.28710
G1 X77.822 Y19.964 E93.30885
G1 X76.674 Y20.320 E93.34161
G1 X75.967 Y20.625 E93.36259
G1 X75.235 Y21.018 E93.38523
G1 X74.564 Y21.459 E93.40711
G1 X73.664 Y22.197 E93.43883
G1 X73.101 Y22.769 E93.46070
G1 X72.590 Y23.386 E93.48253
G1 X72.119 Y24.068 E93.50512
G1 X71.723 Y24.765 E93.52696
G1 X71.389 Y25.492 E93.54877
G0 F10500 X71.027 Y25.326
G0 X72.731 Y22.433
G0 X77.943 Y16.577
G0 X78.142 Y16.232
G1 F480 X78.585 Y16.486 E93.56268
G1 X79.044 Y16.663 E93.57609
G1 X79.503 Y16.767 E93.58891
G1 X80.022 Y16.805 E93.60310
G1 X80.493 Y16.768 E93.61597
G1 X80.988 Y16.653 E93.62982
G1 X81.426 Y16.481 E93.64264
G1 X81.656 Y16.360 E93.64972
G1 X82.058 Y16.085 E93.66300
G1 X82.430 Y15.737 E93.67688
G1 X82.727 Y15.364 E93.68987
G1 X82.973 Y14.936 E93.70333
G1 X83.158 Y14.461 E93.71722
G1 X83.262 Y14.002 E93.73004
G1 X83.300 Y13.482 E93.74425
G1 X83.261 Y13.001 E93.75740
G1 X83.211 Y12.748 E93.76443
G1 X83.073 Y12.304 E93.77710
G1 X82.963 Y12.052 E93.78459
G1 X82.717 Y11.631 E93.79788
G1 X82.407 Y11.247 E93.81133
G1 X82.044 Y10.914 E93.82475
G1 X81.655 Y10.649 E93.83758
G1 X81.441 Y10.537 E93.84416
G1 X80.957 Y10.347 E93.85833
G1 X80.497 Y10.242 E93.87119
G1 X80.246 Y10.214 E93.87807
G1 X79.983 Y10.205 E93.88524
G1 X79.748 Y10.214 E93.89165
G1 X79.266 Y10.287 E93.90494
G1 X78.778 Y10.438 E93.91886
G1 X78.334 Y10.655 E93.93233
G1 X77.929 Y10.936 E93.94576
G1 X77.569 Y11.273 E93.95920
G1 X77.263 Y11.661 E93.97266
G1 X77.020 Y12.089 E93.98608
G1 X76.844 Y12.543 E93.99935
G1 X76.783 Y12.770 E94.00575
G1 X76.710 Y13.259 E94.01922
G1 X76.700 Y13.527 E94.02653
G1 X76.737 Y13.998 E94.03941
G1 X76.853 Y14.499 E94.05342
G1 X77.136 Y15.146 E94.07267
G1 X77.289 Y15.387 E94.08045
G1 X77.739 Y15.909 E94.09923
G1 X78.142 Y16.232 E94.11330
G0 F10500 X77.943 Y16.577
G0 X71.695 Y23.803
G0 X70.345 Y27.326
G0 X70.426 Y31.096
G0 X71.679 Y34.178
G0 X73.938 Y36.705
G0 X76.892 Y38.298
G0 X79.734 Y40.814
G0 X79.748 Y41.214
G1 F480 X79.266 Y41.287 E94.12659
G1 X78.778 Y41.438 E94.14051
G1 X78.334 Y41.655 E94.15397
G1 X77.929 Y41.936 E94.16741
G1 X77.569 Y42.273 E94.18085
G1 X77.263 Y42.661 E94.19431
G1 X77.020 Y43.089 E94.20772
G1 X76.844 Y43.543 E94.22099
G1 X76.783 Y43.770 E94.22740
G1 X76.710 Y44.259 E94.24087
G1 X76.700 Y44.527 E94.24818
G1 X76.737 Y44.998 E94.26106
G1 X76.853 Y45.499 E94.27507
G1 X77.136 Y46.146 E94.29431
G1 X77.289 Y46.387 E94.30209
G1 X77.739 Y46.909 E94.32087
G1 X78.142 Y47.232 E94.33495
G1 X78.585 Y47.486 E94.34886
G1 X79.044 Y47.663 E94.36227
G1 X79.503 Y47.767 E94.37510
G1 X80.022 Y47.805 E94.38928
G1 X80.493 Y47.768 E94.40215
G1 X80.988 Y47.653 E94.41600
G1 X81.426 Y47.481 E94.42882
G1 X81.656 Y47.360 E94.43591
G1 X82.058 Y47.085 E94.44918
G1 X82.430 Y46.737 E94.46306
G1 X82.727 Y46.364 E94.47605
G1 X82.973 Y45.936 E94.48951
G1 X83.158 Y45.461 E94.50340
G1 X83.262 Y45.002 E94.51622
G1 X83.300 Y44.482 E94.53043
G1 X83.261 Y44.001 E94.54358
G1 X83.211 Y43.748 E94.55061
G1 X83.073 Y43.304 E94.56328
G1 X82.963 Y43.052 E94.57078
G1 X82.717 Y42.631 E94.58406
G1 X82.407 Y42.247 E94.59751
G1 X82.044 Y41.914 E94.61094
G1 X81.655 Y41.649 E94.62376
G1 X81.441 Y41.537 E94.63034
G1 X80.957 Y41.347 E94.64451
G1 X80.497 Y41.242 E94.65737
G1 X80.246 Y41.214 E94.66425
G1 X79.983 Y41.205 E94.67143
G1 X79.748 Y41.214 E94.67783
G0 F10500 X79.628 Y41.019
;TYPE:SKIN
G1 F480 X76.409 Y37.801 E94.80187
G0 F10500 X77.681 Y38.224
G1 F480 X80.485 Y41.029 E94.90996
G0 F10500 X81.793 Y41.488
G1 F480 X78.730 Y38.425 E95.02800
G0 F10500 X79.655 Y38.501
G1 F480 X89.826 Y48.672 E95.41998
G0 F10500 X90.385 Y48.383
G1 F480 X80.497 Y38.494 E95.80108
G0 F10500 X81.273 Y38.422
G1 F480 X90.931 Y48.081 E96.17331
G0 F10500 X91.464 Y47.765
G1 F480 X81.998 Y38.299 E96.53812
G0 F10500 X82.672 Y38.124
G1 F480 X91.985 Y47.437 E96.89703
G0 F10500 X92.493 Y47.096
G1 F480 X83.308 Y37.912 E97.25099
G0 F10500 X83.912 Y37.667
G1 F480 X92.989 Y46.744 E97.60081
G0 F10500 X93.472 Y46.379
G1 F480 X84.483 Y37.390 E97.94724
G0 F10500 X85.017 Y37.075
G1 F480 X93.944 Y46.002 E98.29128
G0 F10500 X94.405 Y45.614
G1 F480 X85.525 Y36.734 E98.63351
G0 F10500 X86.006 Y36.367
G1 F480 X94.854 Y45.215 E98.97450
G0 F10500 X95.291 Y44.803
G1 F480 X86.464 Y35.976 E99.31469
G0 F10500 X86.886 Y35.550
G1 F480 X95.716 Y44.380 E99.65499
G0 F10500 X96.131 Y43.946
G1 F480 X87.285 Y35.101 E99.99588
G0 F10500 X87.662 Y34.629
G1 F480 X96.532 Y43.499 E100.33773
G0 F10500 X96.922 Y43.040
G1 F480 X88.007 Y34.126 E100.68128
G0 F10500 X88.320 Y33.590
G1 F480 X97.301 Y42.571 E101.02740
G0 F10500 X97.669 Y42.090
G1 F480 X88.606 Y33.027 E101.37668
G0 F10500 X88.862 Y32.435
G1 F480 X98.024 Y41.596 E101.72976
G0 F10500 X98.367 Y41.091
G1 F480 X89.083 Y31.807 E102.08756
G0 F10500 X89.261 Y31.137
G1 F480 X98.697 Y40.573 E102.45121
G0 F10500 X99.016 Y40.044
G1 F480 X89.395 Y30.422 E102.82201
G0 F10500 X89.480 Y29.658
G1 F480 X99.320 Y39.499 E103.20126
G0 F10500 X99.612 Y38.942
G1 F480 X89.501 Y28.831 E103.59093
G0 F10500 X89.439 Y27.920
G1 F480 X99.892 Y38.373 E103.99378
G0 F10500 X100.156 Y37.789
G1 F480 X89.263 Y26.896 E104.41358
G0 F10500 X88.910 Y25.695
G1 F480 X100.408 Y37.193 E104.85671
G0 F10500 X100.641 Y36.577
G1 F480 X88.093 Y24.029 E105.34029
G0 F10500 X88.255 Y23.928
G0 X86.388 Y21.574
G0 X85.065 Y20.737
G0 X84.960 Y20.896
G1 F480 X80.943 Y16.879 E105.49511
G0 F10500 X81.559 Y16.647
G1 F480 X100.862 Y35.950 E106.23903
G0 F10500 X101.065 Y35.304
G1 F480 X82.083 Y16.322 E106.97058
G0 F10500 X82.535 Y15.926
G1 F480 X101.251 Y34.641 E107.69185
G0 F10500 X101.420 Y33.962
G1 F480 X82.914 Y15.456 E108.40506
G0 F10500 X83.209 Y14.902
G1 F480 X101.570 Y33.264 E109.11270
G0 F10500 X101.703 Y32.548
G1 F480 X83.417 Y14.262 E109.81742
G0 F10500 X83.506 Y13.502
G1 F480 X101.807 Y31.804 E110.52274
G0 F10500 X101.892 Y31.040
G1 F480 X83.353 Y12.500 E111.23724
G0 F10500 X83.536 Y12.445
G0 X82.772 Y10.905
G0 X81.034 Y9.955
G0 X80.992 Y10.139
G1 F480 X77.963 Y7.111 E111.35396
G0 F10500 X77.199 Y7.195
G1 F480 X79.998 Y9.994 E111.46183
G0 F10500 X79.234 Y10.079
G1 F480 X76.459 Y7.304 E111.56877
G0 F10500 X75.740 Y7.433
G1 F480 X78.597 Y10.291 E111.67890
G0 F10500 X78.051 Y10.593
G1 F480 X75.042 Y7.584 E111.79486
G0 F10500 X74.361 Y7.752
G1 F480 X77.581 Y10.972 E111.91896
G0 F10500 X77.183 Y11.422
G1 F480 X73.699 Y7.938 E112.05323
G0 F10500 X73.054 Y8.142
G1 F480 X76.858 Y11.945 E112.19981
G0 F10500 X76.622 Y12.558
G1 F480 X72.426 Y8.362 E112.36152
G0 F10500 X71.813 Y8.598
G1 F480 X76.499 Y13.283 E112.54210
G0 F10500 X76.568 Y14.201
G1 F480 X71.215 Y8.848 E112.74840
G0 F10500 X70.632 Y9.113
G1 F480 X81.074 Y19.556 E113.15084
G0 F10500 X80.166 Y19.497
G1 F480 X70.062 Y9.392 E113.54026
G0 F10500 X69.504 Y9.683
G1 F480 X79.338 Y19.516 E113.91923
G0 F10500 X78.573 Y19.600
G1 F480 X68.961 Y9.988 E114.28967
G0 F10500 X68.431 Y10.307
G1 F480 X77.864 Y19.740 E114.65321
G0 F10500 X77.208 Y19.933
G1 F480 X67.913 Y10.637 E115.01145
G0 F10500 X67.407 Y10.980
G1 F480 X76.564 Y20.137 E115.36435
G0 F10500 X75.972 Y20.393
G1 F480 X66.912 Y11.334 E115.71350
G0 F10500 X66.433 Y11.703
G1 F480 X75.413 Y20.683 E116.05958
G0 F10500 X74.880 Y20.998
G1 F480 X65.963 Y12.081 E116.40323
G0 F10500 X65.504 Y12.471
G1 F480 X74.374 Y21.341 E116.74508
G0 F10500 X73.908 Y21.723
G1 F480 X65.058 Y12.873 E117.08615
G0 F10500 X64.623 Y13.287
G1 F480 X73.450 Y22.114 E117.42633
G0 F10500 X73.029 Y22.541
G1 F480 X64.199 Y13.712 E117.76661
G0 F10500 X63.788 Y14.149
G1 F480 X72.637 Y22.998 E118.10765
G0 F10500 X72.269 Y23.479
G1 F480 X63.387 Y14.597 E118.44995
G0 F10500 X63.000 Y15.058
G1 F480 X71.925 Y23.983 E118.79391
G0 F10500 X71.617 Y24.524
G1 F480 X62.624 Y15.530 E119.14051
G0 F10500 X62.259 Y16.014
G1 F480 X71.340 Y25.095 E119.49049
G0 F10500 X71.092 Y25.696
G1 F480 X61.905 Y16.509 E119.84454
G0 F10500 X61.564 Y17.017
G1 F480 X70.881 Y26.334 E120.20361
G0 F10500 X70.717 Y27.017
G1 F480 X61.236 Y17.537 E120.56898
G0 F10500 X60.922 Y18.071
G1 F480 X70.584 Y27.733 E120.94135
G0 F10500 X70.511 Y28.509
G1 F480 X60.618 Y18.616 E121.32262
G0 F10500 X60.328 Y19.175
G1 F480 X70.504 Y29.351 E121.71479
G0 F10500 X70.576 Y30.271
G1 F480 X60.053 Y19.748 E122.12034
G0 F10500 X60.224 Y19.834
G0 X79.262 Y17.121
G0 X79.304 Y16.937
G1 F480 X82.106 Y19.739 E122.22832
G0 F10500 X83.306 Y20.091
G1 F480 X80.215 Y17.000 E122.34745
G0 F10500 X80.228 Y17.190
G0 X81.914 Y16.788
G0 X83.425 Y15.152
G0 X83.756 Y12.933
G0 X82.772 Y10.905
G0 X81.103 Y9.868
G0 X80.414 Y7.211
G0 X80.419 Y7.022
G1 F480 X101.982 Y28.584 E123.17845
G0 F10500 X101.983 Y29.434
G1 F480 X79.570 Y7.021 E124.04222
G0 F10500 X78.754 Y7.053
G1 F480 X101.952 Y30.251 E124.93625
G0 F10500 X101.764 Y30.238
G0 X101.761 Y27.716
G0 X101.948 Y27.702
G1 F480 X81.302 Y7.056 E125.73193
G0 F10500 X82.222 Y7.127
G1 F480 X101.872 Y26.778 E126.48925
G0 F10500 X101.754 Y25.811
G1 F480 X83.191 Y7.247 E127.20467
G0 F10500 X84.218 Y7.426
G1 F480 X101.582 Y24.790 E127.87386
G0 F10500 X101.337 Y23.697
G1 F480 X85.307 Y7.667 E128.49164
G0 F10500 X86.485 Y7.996
G1 F480 X101.010 Y22.522 E129.05144
G0 F10500 X100.564 Y21.226
G1 F480 X87.775 Y8.437 E129.54432
G0 F10500 X87.710 Y8.614
G0 X89.160 Y9.225
G0 X89.241 Y9.055
G1 F480 X99.953 Y19.767 E129.95715
G0 F10500 X99.780 Y19.844
G0 X98.874 Y18.098
G0 X99.036 Y18.002
G1 F480 X91.001 Y9.967 E130.26681
G0 F10500 X90.906 Y10.130
G0 X93.525 Y11.908
G0 X93.642 Y11.759
G1 F480 X97.227 Y15.344 E130.40497
G0 F10500 X97.079 Y15.461
G0 X87.828 Y34.900
G0 X83.156 Y42.593
G0 X82.992 Y42.687
G1 F480 X89.254 Y48.949 E130.64630
G0 F10500 X88.667 Y49.211
G1 F480 X83.471 Y44.015 E130.84655
G0 F10500 X83.481 Y44.872
G1 F480 X88.066 Y49.458 E131.02327
G0 F10500 X87.450 Y49.691
G1 F480 X83.336 Y45.576 E131.18184
G0 F10500 X83.080 Y46.169
G1 F480 X86.819 Y49.908 E131.32594
G0 F10500 X86.170 Y50.107
G1 F480 X82.742 Y46.680 E131.45803
G0 F10500 X82.331 Y47.117
G1 F480 X85.504 Y50.290 E131.58032
G0 F10500 X84.820 Y50.455
G1 F480 X81.848 Y47.482 E131.69488
G0 F10500 X81.279 Y47.762
G1 F480 X84.119 Y50.602 E131.80433
G0 F10500 X83.396 Y50.728
G1 F480 X80.621 Y47.953 E131.91127
G0 F10500 X79.820 Y48.000
G1 F480 X82.650 Y50.831 E132.02036
G0 F10500 X81.881 Y50.910
G1 F480 X78.744 Y47.773 E132.14126
G0 F10500 X78.677 Y47.948
G0 X77.392 Y47.270
G0 X76.567 Y45.843
G0 X76.740 Y45.769
G1 F480 X58.090 Y27.119 E132.86001
G0 F10500 X58.172 Y26.352
G1 F480 X76.501 Y44.682 E133.56641
G0 F10500 X76.552 Y43.884
G1 F480 X58.276 Y25.607 E134.27077
G0 F10500 X58.399 Y24.882
G1 F480 X76.742 Y43.225 E134.97770
G0 F10500 X77.022 Y42.656
G1 F480 X58.547 Y24.181 E135.68971
G0 F10500 X58.712 Y23.498
G1 F480 X77.383 Y42.169 E136.40927
G0 F10500 X77.818 Y41.756
G1 F480 X58.895 Y22.833 E137.13854
G0 F10500 X59.096 Y22.185
G1 F480 X78.331 Y41.420 E137.87984
G0 F10500 X78.930 Y41.170
G1 F480 X74.546 Y36.786 E138.04880
G0 F10500 X74.435 Y36.939
G0 X72.708 Y35.551
G0 X72.066 Y34.570
G0 X72.223 Y34.464
G1 F480 X59.312 Y21.553 E138.54638
G0 F10500 X59.544 Y20.936
G1 F480 X71.187 Y32.579 E138.99509
G0 F10500 X70.787 Y31.331
G1 F480 X59.790 Y20.334 E139.41890
G0 F10500 X59.968 Y20.408
G0 X58.228 Y27.919
G0 X58.035 Y27.913
G1 F480 X81.086 Y50.964 E140.30727
G0 F10500 X80.265 Y50.990
G1 F480 X58.013 Y28.738 E141.16484
G0 F10500 X58.018 Y29.592
G1 F480 X79.410 Y50.984 E141.98927
G0 F10500 X78.520 Y50.943
G1 F480 X58.062 Y30.485 E142.77770
G0 F10500 X58.144 Y31.416
G1 F480 X77.588 Y50.860 E143.52706
G0 F10500 X76.610 Y50.730
G1 F480 X58.274 Y32.393 E144.23373
G0 F10500 X58.464 Y33.432
G1 F480 X75.574 Y50.542 E144.89313
G0 F10500 X74.470 Y50.287
G1 F480 X58.720 Y34.537 E145.50012
G0 F10500 X59.065 Y35.730
G1 F480 X73.273 Y49.938 E146.04769
G0 F10500 X71.953 Y49.467
G1 F480 X59.538 Y37.052 E146.52615
G0 F10500 X59.716 Y36.984
G0 X60.370 Y38.479
G0 X60.198 Y38.560
G1 F480 X70.446 Y48.808 E146.92110
G0 F10500 X70.531 Y48.640
G0 X68.686 Y47.637
G0 X68.587 Y47.799
G1 F480 X61.202 Y40.413 E147.20573
G0 F10500 X61.367 Y40.317
G0 X63.812 Y43.604
G0 X63.670 Y43.729
G1 F480 X65.263 Y45.323 E147.26714
G0 F10500 X66.133 Y44.369
G1 F240 E145.26714
G1 Z0.400
G0 F10500 X71.397 Y57.537
;TYPE:WALL-OUTER
G1 Z0.300
G1 F240 E147.26714
G1 F480 X71.951 Y57.312 E147.28344
G1 X72.563 Y57.084 E147.30123
G1 X73.101 Y56.901 E147.31672
G1 X73.671 Y56.723 E147.33299
G1 X74.256 Y56.558 E147.34956
G1 X74.844 Y56.409 E147.36609
G1 X75.480 Y56.266 E147.38385
G1 X76.037 Y56.158 E147.39931
G1 X76.636 Y56.058 E147.41586
G1 X77.237 Y55.974 E147.43240
G1 X77.831 Y55.908 E147.44869
G1 X78.481 Y55.853 E147.46646
G1 X79.048 Y55.822 E147.48194
G1 X79.654 Y55.805 E147.49846
G1 X80.254 Y55.803 E147.51481
G1 X80.858 Y55.817 E147.53127
G1 X81.472 Y55.850 E147.54803
G1 X82.124 Y55.902 E147.56585
G1 X82.672 Y55.961 E147.58087
G1 X83.273 Y56.043 E147.59740
G1 X83.871 Y56.141 E147.61392
G1 X84.520 Y56.266 E147.63193
G1 X85.067 Y56.387 E147.64720
G1 X85.692 Y56.543 E147.66475
G1 X86.232 Y56.694 E147.68003
G1 X86.864 Y56.889 E147.69805
G1 X87.387 Y57.067 E147.71311
G1 X87.964 Y57.279 E147.72986
G1 X88.562 Y57.518 E147.74741
G1 X89.075 Y57.741 E147.76265
G1 X89.674 Y58.020 E147.78066
G1 X90.168 Y58.267 E147.79571
G1 X90.711 Y58.556 E147.81248
G1 X91.278 Y58.879 E147.83026
G1 X91.756 Y59.170 E147.84551
G1 X92.298 Y59.518 E147.86306
G1 X92.760 Y59.835 E147.87833
G1 X93.251 Y60.190 E147.89484
G1 X93.776 Y60.593 E147.91288
G1 X94.205 Y60.941 E147.92793
G1 X94.700 Y61.365 E147.94569
G1 X95.115 Y61.742 E147.96097
G1 X95.586 Y62.193 E147.97874
G1 X95.985 Y62.598 E147.99424
G1 X96.401 Y63.040 E148.01078
G1 X96.829 Y63.523 E148.02836
G1 X97.193 Y63.958 E148.04382
G1 X97.594 Y64.463 E148.06139
G1 X97.929 Y64.912 E148.07666
G1 X98.280 Y65.406 E148.09317
G1 X98.647 Y65.956 E148.11119
G1 X98.941 Y66.423 E148.12623
G1 X99.278 Y66.992 E148.14425
G1 X99.549 Y67.482 E148.15951
G1 X99.824 Y68.014 E148.17583
G1 X100.114 Y68.608 E148.19384
G1 X100.341 Y69.110 E148.20886
G1 X100.594 Y69.712 E148.22665
G1 X100.798 Y70.242 E148.24213
G1 X101.000 Y70.805 E148.25843
G1 X101.203 Y71.426 E148.27623
G1 X101.361 Y71.963 E148.29149
G1 X101.531 Y72.593 E148.30927
G1 X101.659 Y73.139 E148.32455
G1 X101.795 Y73.786 E148.34257
G1 X101.893 Y74.329 E148.35761
G1 X101.986 Y74.928 E148.37413
G1 X102.066 Y75.575 E148.39189
G1 X102.120 Y76.141 E148.40739
G1 X102.166 Y76.784 E148.42495
G1 X102.189 Y77.344 E148.44023
G1 X102.199 Y77.956 E148.45691
G1 X102.200 Y78.041 E148.45922
G1 X102.191 Y78.602 E148.47451
G1 X102.168 Y79.169 E148.48998
G1 X102.126 Y79.813 E148.50756
G1 X102.072 Y80.371 E148.52284
G1 X101.993 Y81.018 E148.54060
G1 X101.901 Y81.626 E148.55736
G1 X101.795 Y82.215 E148.57367
G1 X101.680 Y82.771 E148.58914
G1 X101.533 Y83.399 E148.60672
G1 X101.377 Y83.985 E148.62324
G1 X101.217 Y84.529 E148.63870
G1 X101.019 Y85.143 E148.65628
G1 X100.812 Y85.722 E148.67303
G1 X100.597 Y86.281 E148.68936
G1 X100.381 Y86.798 E148.70462
G1 X100.114 Y87.393 E148.72240
G1 X99.849 Y87.939 E148.73894
G1 X99.567 Y88.485 E148.75568
G1 X99.278 Y89.009 E148.77199
G1 X98.971 Y89.530 E148.78847
G1 X98.668 Y90.011 E148.80396
G1 X98.338 Y90.511 E148.82029
G1 X97.962 Y91.045 E148.83808
G1 X97.626 Y91.494 E148.85337
G1 X97.251 Y91.970 E148.86988
G1 X96.858 Y92.442 E148.88662
G1 X96.433 Y92.926 E148.90417
G1 X96.050 Y93.336 E148.91946
G1 X95.625 Y93.769 E148.93599
G1 X95.155 Y94.221 E148.95376
G1 X94.735 Y94.603 E148.96924
G1 X94.281 Y94.994 E148.98556
G1 X93.805 Y95.382 E149.00230
G1 X93.296 Y95.777 E149.01986
G1 X92.843 Y96.106 E149.03511
G1 X92.305 Y96.477 E149.05292
G1 X91.828 Y96.785 E149.06840
G1 X91.317 Y97.098 E149.08473
G1 X90.791 Y97.400 E149.10125
G1 X90.257 Y97.687 E149.11778
G1 X89.715 Y97.959 E149.13430
G1 X89.117 Y98.240 E149.15231
G1 X88.604 Y98.463 E149.16755
G1 X88.049 Y98.688 E149.18387
G1 X87.481 Y98.900 E149.20039
G1 X86.863 Y99.111 E149.21819
G1 X86.321 Y99.279 E149.23365
G1 X85.744 Y99.442 E149.24999
G1 X85.156 Y99.591 E149.26652
G1 X84.556 Y99.726 E149.28328
G1 X83.925 Y99.850 E149.30081
G1 X83.365 Y99.942 E149.31627
G1 X82.763 Y100.026 E149.33283
G1 X82.169 Y100.092 E149.34912
G1 X81.564 Y100.143 E149.36567
G1 X80.951 Y100.178 E149.38240
G1 X80.346 Y100.195 E149.39889
G1 X79.699 Y100.197 E149.41652
G1 X79.142 Y100.183 E149.43171
G1 X78.528 Y100.150 E149.44846
G1 X77.922 Y100.102 E149.46503
G1 X77.327 Y100.039 E149.48134
G1 X76.682 Y99.950 E149.49908
G1 X76.129 Y99.859 E149.51435
G1 X75.526 Y99.743 E149.53109
G1 X74.932 Y99.613 E149.54766
G1 X74.353 Y99.469 E149.56392
G1 X73.766 Y99.305 E149.58052
G1 X73.181 Y99.125 E149.59720
G1 X72.562 Y98.916 E149.61501
G1 X72.044 Y98.725 E149.63005
G1 X71.473 Y98.496 E149.64682
G1 X70.925 Y98.259 E149.66309
G1 X70.375 Y98.004 E149.67961
G1 X69.785 Y97.709 E149.69759
G1 X69.290 Y97.444 E149.71289
G1 X68.762 Y97.144 E149.72944
G1 X68.203 Y96.805 E149.74725
G1 X67.734 Y96.502 E149.76247
G1 X67.233 Y96.160 E149.77900
G1 X66.704 Y95.777 E149.79680
G1 X66.261 Y95.436 E149.81203
G1 X65.753 Y95.024 E149.82985
G1 X65.328 Y94.659 E149.84512
G1 X64.885 Y94.258 E149.86141
G1 X64.414 Y93.807 E149.87918
G1 X64.015 Y93.402 E149.89467
G1 X63.599 Y92.960 E149.91121
G1 X63.171 Y92.477 E149.92880
G1 X62.807 Y92.042 E149.94425
G1 X62.430 Y91.567 E149.96078
G1 X62.038 Y91.045 E149.97857
G1 X61.719 Y90.594 E149.99362
G1 X61.379 Y90.083 E150.01035
G1 X61.055 Y89.570 E150.02688
G1 X60.746 Y89.048 E150.04341
G1 X60.451 Y88.518 E150.05994
G1 X60.154 Y87.946 E150.07751
G1 X59.907 Y87.435 E150.09297
G1 X59.659 Y86.890 E150.10929
G1 X59.421 Y86.323 E150.12605
G1 X59.202 Y85.758 E150.14256
G1 X58.981 Y85.143 E150.16037
G1 X58.811 Y84.617 E150.17544
G1 X58.637 Y84.029 E150.19215
G1 X58.479 Y83.443 E150.20869
G1 X58.341 Y82.861 E150.22499
G1 X58.205 Y82.214 E150.24300
G1 X58.106 Y81.664 E150.25823
G1 X58.014 Y81.072 E150.27456
G1 X57.939 Y80.462 E150.29131
G1 X57.880 Y79.858 E150.30784
G1 X57.838 Y79.261 E150.32415
G1 X57.809 Y78.601 E150.34216
G1 X57.801 Y78.042 E150.35739
G1 X57.800 Y78.004 E150.35843
G1 X57.808 Y77.445 E150.37366
G1 X57.832 Y76.831 E150.39041
G1 X57.870 Y76.234 E150.40671
G1 X57.933 Y75.583 E150.42453
G1 X58.001 Y75.027 E150.43980
G1 X58.092 Y74.419 E150.45655
G1 X58.195 Y73.831 E150.47282
G1 X58.320 Y73.229 E150.48957
G1 X58.456 Y72.646 E150.50589
G1 X58.623 Y72.015 E150.52368
G1 X58.781 Y71.478 E150.53893
G1 X58.967 Y70.900 E150.55548
G1 X59.172 Y70.321 E150.57222
G1 X59.386 Y69.762 E150.58853
G1 X59.636 Y69.160 E150.60629
G1 X59.867 Y68.648 E150.62160
G1 X60.130 Y68.102 E150.63811
G1 X60.407 Y67.563 E150.65463
G1 X60.700 Y67.032 E150.67115
G1 X61.011 Y66.502 E150.68790
G1 X61.353 Y65.955 E150.70548
G1 X61.662 Y65.489 E150.72072
G1 X62.012 Y64.992 E150.73728
G1 X62.374 Y64.506 E150.75380
G1 X62.749 Y64.030 E150.77031
G1 X63.166 Y63.529 E150.78807
G1 X63.542 Y63.103 E150.80356
G1 X63.950 Y62.664 E150.81989
G1 X64.375 Y62.231 E150.83642
G1 X64.811 Y61.811 E150.85292
G1 X65.265 Y61.397 E150.86967
G1 X65.719 Y61.006 E150.88599
G1 X66.195 Y60.618 E150.90273
G1 X66.704 Y60.223 E150.92029
G1 X67.157 Y59.894 E150.93554
G1 X67.656 Y59.550 E150.95206
G1 X68.172 Y59.215 E150.96883
G1 X68.683 Y58.902 E150.98516
G1 X69.249 Y58.577 E151.00294
G1 X69.750 Y58.310 E151.01841
G1 X70.284 Y58.041 E151.03471
G1 X70.840 Y57.780 E151.05145
G1 X71.397 Y57.537 E151.06801
G0 F10500 X71.547 Y57.907
G0 X76.916 Y60.460
G0 X77.263 Y60.657
G1 F480 X77.020 Y61.085 E151.08142
G1 X76.842 Y61.544 E151.09483
G1 X76.738 Y62.003 E151.10766
G1 X76.700 Y62.522 E151.12184
G1 X76.737 Y62.994 E151.13474
G1 X76.852 Y63.490 E151.14862
