;Generated by Cura LulzBot Edition GCodeWriter Version: 3.6.8
;FLAVOR:Marlin
;TIME:8000
;Filament used: 5.78131m
;Layer height: 0.38
;Generated with Cura_SteamEngine 3.6.8
M82 ;absolute extrusion mode
M221 S100
;This G-Code has been generated specifically for the LulzBot TAZ 6 with Aerosturder
M73 P0 ; clear GLCD progress bar
M75 ; start GLCD timer
G26 ; clear potential 'probe fail' condition
M107 ; disable fans
M420 S0 ; disable leveling matrix
G90 ; absolute positioning
M82 ; set extruder to absolute mode
G92 E0 ; set extruder position to 0
M140 S112 ; start bed heating up
G28 XY ; home X and Y
G1 X-19 Y258 F1000 ; move to safe homing position
M109 R170 ; soften filament before homing Z
G28 Z ; home Z
G1 E-15 F100 ; retract filament
M109 R170 ; wait for extruder to reach wiping temp
G1 X-15 Y100 F3000 ; move above wiper pad
G1 Z1 ; push nozzle into wiper
G1 X-17 Y95 F1000 ; slow wipe
G1 X-17 Y90 F1000 ; slow wipe
G1 X-17 Y85 F1000 ; slow wipe
G1 X-15 Y90 F1000 ; slow wipe
G1 X-17 Y80 F1000 ; slow wipe
G1 X-15 Y95 F1000 ; slow wipe
G1 X-17 Y75 F2000 ; fast wipe
G1 X-15 Y65 F2000 ; fast wipe
G1 X-17 Y70 F2000 ; fast wipe
G1 X-15 Y60 F2000 ; fast wipe
G1 X-17 Y55 F2000 ; fast wipe
G1 X-15 Y50 F2000 ; fast wipe
G1 X-17 Y40 F2000 ; fast wipe
G1 X-15 Y45 F2000 ; fast wipe
G1 X-17 Y35 F2000 ; fast wipe
G1 X-15 Y40 F2000 ; fast wipe
G1 X-17 Y70 F2000 ; fast wipe
G1 X-15 Y30 Z2 F2000 ; fast wipe
G1 X-17 Y35 F2000 ; fast wipe
G1 X-15 Y25 F2000 ; fast wipe
G1 X-17 Y30 F2000 ; fast wipe
G1 X-15 Y25 Z1.5 F1000 ; slow wipe
G1 X-17 Y23 F1000 ; slow wipe
G1 Z10 ; raise extruder
M109 R170 ; wait for extruder to reach probe temp
G1 X-9 Y-9 ; move above first probe point
M204 S100 ; set probing acceleration
G29 ; start auto-leveling sequence
M420 S1              ; enable leveling matrix
M425 Z			     ; use measured Z backlash for compensation
M425 Z F0		     ; turn off measured Z backlash compensation. (if activated in the quality settings, this command will automatically be ignored)
M204 S500 ; restore standard acceleration
G1 X0 Y0 Z15 F5000 ; move up off last probe point
G4 S1 ; pause
M400 ; wait for moves to finish
M117 Heating... ; progress indicator message on LCD
M109 R240 ; wait for extruder to reach printing temp
M190 S112 ; wait for bed to reach printing temp
G1 Z2 E0 F75 ; prime tiny bit of filament into the nozzle
M117 TAZ 6 Printing... ; progress indicator message on LCD
G92 E0
G1 F600 E-1
;LAYER_COUNT:27
;LAYER:0
M107
G0 F2625 X39.573 Y89.797 Z0.425
;TYPE:SKIRT
G1 F600 E0
G1 F900 X40.024 Y89.648 E0.01582
G1 X40.523 Y89.508 E0.03309
G1 X41.156 Y89.372 E0.05465
G1 X41.94 Y89.313 E0.08084
G1 X237.903 Y89.288 E6.60844
G1 X238.55 Y89.328 E6.63003
G1 X239.368 Y89.496 E6.65785
G1 X240.177 Y89.731 E6.68591
G1 X240.787 Y89.95 E6.7075
G1 X241.52 Y90.336 E6.7351
G1 X242.266 Y90.808 E6.7645
G1 X242.791 Y91.188 E6.78609
G1 X243.211 Y91.573 E6.80507
G1 X243.535 Y91.904 E6.8205
G1 X243.958 Y92.394 E6.84206
G1 X244.224 Y92.775 E6.85754
G1 X244.656 Y93.46 E6.88451
G1 X244.967 Y94.029 E6.90611
G1 X245.286 Y94.903 E6.93711
G1 X245.546 Y95.874 E6.97059
G1 X245.675 Y96.509 E6.99217
G1 X245.725 Y97.231 E7.01628
G1 X245.746 Y181.938 E9.8379
G1 X245.734 Y182.293 E9.84973
G1 X245.651 Y183.52 E9.8907
G1 X245.568 Y184.163 E9.9123
G1 X245.432 Y184.706 E9.93094
G1 X245.293 Y185.159 E9.94673
G1 X245.065 Y185.765 E9.96829
G1 X244.742 Y186.376 E9.99131
G1 X244.225 Y187.214 E10.02411
G1 X243.852 Y187.743 E10.04567
G1 X243.43 Y188.208 E10.06659
G1 X243.095 Y188.536 E10.08221
G1 X242.605 Y188.96 E10.10379
G1 X242.219 Y189.228 E10.11945
G1 X241.536 Y189.658 E10.14633
G1 X240.968 Y189.968 E10.16789
G1 X240.079 Y190.291 E10.19939
G1 X239.083 Y190.554 E10.23371
G1 X238.448 Y190.68 E10.25527
G1 X237.743 Y190.728 E10.27881
G1 X42.425 Y190.737 E16.78492
G1 X41.56 Y190.665 E16.81384
G1 X40.77 Y190.533 E16.84052
G1 X40.139 Y190.387 E16.86209
G1 X39.69 Y190.232 E16.87791
G1 X39.196 Y190.035 E16.89563
G1 X38.611 Y189.758 E16.91719
G1 X37.877 Y189.27 E16.94655
G1 X36.946 Y188.531 E16.98614
G1 X36.464 Y188.098 E17.00773
G1 X36.057 Y187.631 E17.02836
G1 X35.917 Y187.45 E17.03598
G1 X35.429 Y186.692 E17.06601
G1 X35.042 Y185.96 E17.09359
G1 X34.775 Y185.37 E17.11516
G1 X34.612 Y184.866 E17.13281
G1 X34.494 Y184.426 E17.14798
G1 X34.365 Y183.791 E17.16957
G1 X34.321 Y183.315 E17.18549
G1 X34.26 Y182.03 E17.22834
G1 X34.254 Y181.78 E17.23667
G1 X34.263 Y97.424 E20.0466
G1 X34.334 Y96.562 E20.07541
G1 X34.465 Y95.776 E20.10196
G1 X34.611 Y95.145 E20.12353
G1 X34.765 Y94.701 E20.13918
G1 X34.962 Y94.205 E20.15696
G1 X35.238 Y93.619 E20.17854
G1 X35.588 Y93.064 E20.20039
G1 X36.115 Y92.336 E20.23033
G1 X36.527 Y91.836 E20.25191
G1 X36.935 Y91.443 E20.27078
G1 X37.362 Y91.074 E20.28958
G1 X37.878 Y90.681 E20.31119
G1 X38.336 Y90.408 E20.32895
G1 X38.983 Y90.065 E20.35334
G1 X39.573 Y89.797 E20.37493
G1 F600 E19.37493
;MESH:
G0 F2625 X140.814 Y93.839
G0 X140.814 Y95.268
G0 X229.17 Y109.198
G0 X228.16 Y171.124
G0 X227.358 Y171.62
G0 X226.559 Y172.437
G0 X226.094 Y173.225
G0 X225.764 Y174.332
G0 X225.737 Y175.489
G0 X226.015 Y176.589
G0 X226.598 Y177.614
G0 X227.418 Y178.426
G0 X228.414 Y178.987
G0 X229.543 Y179.265
G0 X230.465 Y179.264
G0 X231.577 Y178.991
G0 X232.587 Y178.422
G0 X233.402 Y177.614
G0 X233.979 Y176.601
G0 X234.231 Y175.608
G0 X239.548 Y96.85
G0 X239.646 Y96.828
;TYPE:WALL-INNER
G1 F600 E20.37493
G1 F900 X239.714 Y97.104 E20.3844
G1 X239.732 Y97.219 E20.38827
G1 X239.75 Y97.5 E20.39765
G1 X239.746 Y182.631 E23.2334
G1 X239.731 Y182.787 E23.23862
G1 X239.69 Y183.01 E23.24617
G1 X239.655 Y183.147 E23.25088
G1 X239.606 Y183.294 E23.25604
G1 X239.544 Y183.438 E23.26126
G1 X239.434 Y183.648 E23.26916
G1 X239.371 Y183.749 E23.27313
G1 X239.269 Y183.889 E23.2789
G1 X239.179 Y183.997 E23.28358
G1 X239.076 Y184.104 E23.28853
G1 X238.903 Y184.258 E23.29624
G1 X238.777 Y184.353 E23.3015
G1 X238.672 Y184.42 E23.30565
G1 X238.41 Y184.557 E23.31549
G1 X238.165 Y184.649 E23.32421
G1 X238.021 Y184.688 E23.32918
G1 X237.772 Y184.733 E23.33761
G1 X237.635 Y184.745 E23.34219
G1 X237.478 Y184.75 E23.34742
G1 X42.366 Y184.746 E29.84667
G1 X42.094 Y184.713 E29.8558
G1 X41.95 Y184.68 E29.86072
G1 X41.71 Y184.606 E29.86909
G1 X41.594 Y184.56 E29.87324
G1 X41.434 Y184.48 E29.8792
G1 X41.309 Y184.407 E29.88403
G1 X41.13 Y184.284 E29.89126
G1 X41.003 Y184.18 E29.89673
G1 X40.806 Y183.979 E29.9061
G1 X40.668 Y183.803 E29.91355
G1 X40.508 Y183.545 E29.92367
G1 X40.391 Y183.284 E29.93319
G1 X40.351 Y183.164 E29.93741
G1 X40.284 Y182.888 E29.94687
G1 X40.254 Y182.635 E29.95535
G1 X40.254 Y97.366 E32.79569
G1 X40.286 Y97.103 E32.80452
G1 X40.323 Y96.94 E32.81009
G1 X40.394 Y96.71 E32.81811
G1 X40.44 Y96.594 E32.82226
G1 X40.52 Y96.434 E32.82822
G1 X40.593 Y96.309 E32.83304
G1 X40.716 Y96.13 E32.84028
G1 X40.821 Y96.003 E32.84577
G1 X41.022 Y95.805 E32.85516
G1 X41.197 Y95.668 E32.86257
G1 X41.336 Y95.576 E32.86812
G1 X41.455 Y95.508 E32.87269
G1 X41.716 Y95.391 E32.88221
G1 X41.833 Y95.352 E32.88632
G1 X42.113 Y95.284 E32.89592
G1 X42.365 Y95.254 E32.90437
G1 X49.2 Y95.254 E33.13205
G1 X49.2 Y100.829 E33.31775
G1 X49.037 Y100.858 E33.32327
G1 X48.608 Y100.984 E33.33816
G1 X48.376 Y101.072 E33.34643
G1 X47.982 Y101.259 E33.36096
G1 X47.777 Y101.378 E33.36885
G1 X47.578 Y101.508 E33.37677
G1 X47.231 Y101.774 E33.39133
G1 X47.055 Y101.936 E33.3993
G1 X46.895 Y102.097 E33.40686
G1 X46.744 Y102.268 E33.41446
G1 X46.602 Y102.447 E33.42207
G1 X46.47 Y102.633 E33.42967
G1 X46.348 Y102.825 E33.43725
G1 X46.232 Y103.034 E33.44521
G1 X46.05 Y103.431 E33.45976
G1 X45.969 Y103.654 E33.46766
G1 X45.903 Y103.871 E33.47522
G1 X45.848 Y104.093 E33.48283
G1 X45.805 Y104.317 E33.49043
G1 X45.775 Y104.542 E33.49799
G1 X45.756 Y104.77 E33.50561
G1 X45.75 Y105 E33.51328
G1 X45.756 Y105.238 E33.52121
G1 X45.802 Y105.671 E33.53571
G1 X45.849 Y105.917 E33.54406
G1 X45.968 Y106.346 E33.55889
G1 X46.131 Y106.759 E33.57368
G1 X46.235 Y106.974 E33.58163
G1 X46.348 Y107.174 E33.58928
G1 X46.469 Y107.366 E33.59684
G1 X46.601 Y107.552 E33.60444
G1 X46.743 Y107.731 E33.61205
G1 X46.894 Y107.902 E33.61965
G1 X47.055 Y108.064 E33.62726
G1 X47.223 Y108.218 E33.63485
G1 X47.402 Y108.363 E33.64252
G1 X47.585 Y108.497 E33.65008
G1 X47.776 Y108.621 E33.65766
G1 X47.974 Y108.736 E33.66529
G1 X48.178 Y108.839 E33.6729
G1 X48.385 Y108.931 E33.68045
G1 X48.599 Y109.012 E33.68807
G1 X48.814 Y109.081 E33.69559
G1 X49.037 Y109.14 E33.70328
G1 X49.2 Y109.173 E33.70882
G1 X49.2 Y170.826 E35.7625
G1 X49.023 Y170.862 E35.76852
G1 X48.593 Y170.989 E35.78345
G1 X48.179 Y171.159 E35.79836
G1 X47.957 Y171.273 E35.80667
G1 X47.585 Y171.502 E35.82122
G1 X47.384 Y171.649 E35.82952
G1 X47.046 Y171.943 E35.84444
G1 X46.74 Y172.271 E35.85938
G1 X46.59 Y172.461 E35.86745
G1 X46.46 Y172.648 E35.87503
G1 X46.334 Y172.849 E35.88293
G1 X46.131 Y173.239 E35.89758
G1 X46.038 Y173.461 E35.9056
G1 X45.961 Y173.677 E35.91324
G1 X45.897 Y173.895 E35.9208
G1 X45.843 Y174.117 E35.92841
G1 X45.802 Y174.344 E35.9361
G1 X45.772 Y174.57 E35.94369
G1 X45.755 Y174.796 E35.95124
G1 X45.75 Y175.025 E35.95887
G1 X45.757 Y175.257 E35.9666
G1 X45.777 Y175.486 E35.97426
G1 X45.811 Y175.722 E35.9822
G1 X45.909 Y176.16 E35.99715
G1 X46.055 Y176.584 E36.01209
G1 X46.152 Y176.809 E36.02025
G1 X46.364 Y177.202 E36.03513
G1 X46.493 Y177.4 E36.043
G1 X46.625 Y177.584 E36.05054
G1 X46.77 Y177.763 E36.05822
G1 X46.925 Y177.934 E36.0659
G1 X47.087 Y178.094 E36.07349
G1 X47.256 Y178.246 E36.08106
G1 X47.437 Y178.392 E36.08881
G1 X47.633 Y178.529 E36.09677
G1 X48.015 Y178.758 E36.11161
G1 X48.429 Y178.95 E36.12681
G1 X48.861 Y179.095 E36.14199
G1 X49.088 Y179.15 E36.14977
G1 X49.313 Y179.195 E36.15741
G1 X49.541 Y179.225 E36.16507
G1 X49.77 Y179.244 E36.17272
G1 X50 Y179.25 E36.18039
G1 X50.229 Y179.244 E36.18802
G1 X50.468 Y179.225 E36.19601
G1 X50.899 Y179.154 E36.21056
G1 X51.141 Y179.095 E36.21885
G1 X51.566 Y178.953 E36.23378
G1 X51.981 Y178.762 E36.249
G1 X52.368 Y178.529 E36.26404
G1 X52.562 Y178.393 E36.27194
G1 X52.748 Y178.243 E36.2799
G1 X53.07 Y177.939 E36.29465
G1 X53.229 Y177.764 E36.30252
G1 X53.374 Y177.585 E36.3102
G1 X53.506 Y177.401 E36.31774
G1 X53.635 Y177.203 E36.32561
G1 X53.847 Y176.809 E36.34051
G1 X53.94 Y176.592 E36.34838
G1 X54.019 Y176.38 E36.35591
G1 X54.088 Y176.163 E36.3635
G1 X54.143 Y175.94 E36.37115
G1 X54.187 Y175.721 E36.37859
G1 X54.221 Y175.494 E36.38624
G1 X54.241 Y175.264 E36.39393
G1 X54.249 Y175.038 E36.40146
G1 X54.247 Y174.808 E36.40912
G1 X54.229 Y174.568 E36.41714
G1 X54.163 Y174.134 E36.43176
G1 X54.104 Y173.892 E36.44006
G1 X53.969 Y173.476 E36.45463
G1 X53.872 Y173.245 E36.46297
G1 X53.671 Y172.856 E36.47756
G1 X53.544 Y172.654 E36.48551
G1 X53.41 Y172.462 E36.49331
G1 X53.125 Y172.118 E36.50819
G1 X52.958 Y171.948 E36.51612
G1 X52.79 Y171.794 E36.52372
G1 X52.615 Y171.65 E36.53126
G1 X52.431 Y171.513 E36.53891
G1 X52.237 Y171.387 E36.54661
G1 X52.041 Y171.273 E36.55416
G1 X51.838 Y171.168 E36.56178
G1 X51.626 Y171.074 E36.5695
G1 X51.413 Y170.992 E36.57711
G1 X51.194 Y170.922 E36.58476
G1 X50.973 Y170.864 E36.59237
G1 X50.8 Y170.828 E36.59826
G1 X50.8 Y109.171 E38.65208
G1 X50.963 Y109.142 E38.65759
G1 X51.392 Y109.016 E38.67249
G1 X51.624 Y108.928 E38.68075
G1 X52.018 Y108.741 E38.69528
G1 X52.232 Y108.617 E38.70352
G1 X52.59 Y108.37 E38.71801
G1 X52.776 Y108.218 E38.72601
G1 X52.944 Y108.065 E38.73358
G1 X53.105 Y107.903 E38.74118
G1 X53.256 Y107.732 E38.74878
G1 X53.398 Y107.553 E38.75639
G1 X53.53 Y107.367 E38.76399
G1 X53.652 Y107.175 E38.77157
G1 X53.768 Y106.966 E38.77953
G1 X53.95 Y106.569 E38.79408
G1 X54.031 Y106.346 E38.80198
G1 X54.097 Y106.129 E38.80954
G1 X54.152 Y105.907 E38.81716
G1 X54.195 Y105.683 E38.82475
G1 X54.225 Y105.458 E38.83231
G1 X54.244 Y105.23 E38.83994
G1 X54.25 Y105 E38.8476
G1 X54.244 Y104.762 E38.85553
G1 X54.198 Y104.329 E38.87003
G1 X54.151 Y104.083 E38.87838
G1 X54.032 Y103.654 E38.89321
G1 X53.869 Y103.241 E38.908
G1 X53.765 Y103.026 E38.91595
G1 X53.652 Y102.826 E38.9236
G1 X53.531 Y102.634 E38.93116
G1 X53.399 Y102.448 E38.93876
G1 X53.257 Y102.269 E38.94637
G1 X53.106 Y102.098 E38.95397
G1 X52.946 Y101.937 E38.96153
G1 X52.772 Y101.777 E38.96941
G1 X52.42 Y101.507 E38.98418
G1 X52.224 Y101.379 E38.99198
G1 X52.026 Y101.264 E38.99961
G1 X51.822 Y101.161 E39.00722
G1 X51.615 Y101.069 E39.01477
G1 X51.401 Y100.988 E39.02239
G1 X51.186 Y100.919 E39.02991
G1 X50.963 Y100.86 E39.03759
G1 X50.8 Y100.827 E39.04313
G1 X50.8 Y95.254 E39.22877
G1 X139.2 Y95.254 E42.17341
G1 X139.2 Y100.829 E42.35911
G1 X139.037 Y100.858 E42.36463
G1 X138.608 Y100.984 E42.37952
G1 X138.376 Y101.072 E42.38779
G1 X137.982 Y101.259 E42.40231
G1 X137.777 Y101.378 E42.41021
G1 X137.578 Y101.508 E42.41813
G1 X137.231 Y101.774 E42.43269
G1 X137.055 Y101.936 E42.44066
G1 X136.895 Y102.097 E42.44822
G1 X136.744 Y102.268 E42.45582
G1 X136.602 Y102.447 E42.46343
G1 X136.47 Y102.633 E42.47103
G1 X136.348 Y102.825 E42.47861
G1 X136.232 Y103.034 E42.48657
G1 X136.05 Y103.431 E42.50112
G1 X135.969 Y103.654 E42.50902
G1 X135.903 Y103.871 E42.51657
G1 X135.848 Y104.093 E42.52419
G1 X135.805 Y104.317 E42.53179
G1 X135.775 Y104.542 E42.53935
G1 X135.756 Y104.77 E42.54697
G1 X135.75 Y105 E42.55464
G1 X135.756 Y105.238 E42.56257
G1 X135.802 Y105.671 E42.57707
G1 X135.849 Y105.917 E42.58541
G1 X135.968 Y106.346 E42.60024
G1 X136.131 Y106.759 E42.61503
G1 X136.235 Y106.974 E42.62299
G1 X136.348 Y107.174 E42.63064
G1 X136.469 Y107.366 E42.6382
G1 X136.601 Y107.552 E42.6458
G1 X136.743 Y107.731 E42.65341
G1 X136.894 Y107.902 E42.66101
G1 X137.054 Y108.063 E42.66857
G1 X137.228 Y108.223 E42.67644
G1 X137.58 Y108.493 E42.69122
G1 X137.776 Y108.621 E42.69902
G1 X137.974 Y108.736 E42.70665
G1 X138.178 Y108.839 E42.71426
G1 X138.385 Y108.931 E42.7218
G1 X138.599 Y109.012 E42.72943
G1 X138.814 Y109.081 E42.73695
G1 X139.037 Y109.14 E42.74463
G1 X139.2 Y109.173 E42.75017
G1 X139.2 Y156.75 E44.33498
G1 X57.442 Y156.751 E47.05837
G1 X57.181 Y156.759 E47.06706
G1 X56.674 Y156.809 E47.08403
G1 X56.175 Y156.905 E47.10096
G1 X55.909 Y156.975 E47.11012
G1 X55.437 Y157.134 E47.12671
G1 X55.184 Y157.238 E47.13583
G1 X54.736 Y157.459 E47.15247
G1 X54.506 Y157.592 E47.16132
G1 X54.287 Y157.732 E47.16997
G1 X54.07 Y157.886 E47.17884
G1 X53.683 Y158.201 E47.19546
G1 X53.483 Y158.387 E47.20456
G1 X53.132 Y158.76 E47.22162
G1 X52.822 Y159.158 E47.23842
G1 X52.673 Y159.378 E47.24727
G1 X52.536 Y159.597 E47.25588
G1 X52.411 Y159.825 E47.26454
G1 X52.297 Y160.055 E47.27309
G1 X52.191 Y160.291 E47.28171
G1 X52.096 Y160.537 E47.29049
G1 X51.944 Y161.017 E47.30726
G1 X51.882 Y161.275 E47.3161
G1 X51.833 Y161.528 E47.32469
G1 X51.796 Y161.783 E47.33327
G1 X51.77 Y162.039 E47.34184
G1 X51.754 Y162.304 E47.35068
G1 X51.758 Y162.811 E47.36757
G1 X51.809 Y163.326 E47.38481
G1 X51.905 Y163.825 E47.40174
G1 X51.975 Y164.091 E47.4109
G1 X52.134 Y164.563 E47.42749
G1 X52.238 Y164.816 E47.4366
G1 X52.459 Y165.265 E47.45327
G1 X52.597 Y165.503 E47.46244
G1 X52.881 Y165.924 E47.47935
G1 X53.201 Y166.317 E47.49624
G1 X53.387 Y166.517 E47.50533
G1 X53.76 Y166.868 E47.52239
G1 X54.158 Y167.178 E47.5392
G1 X54.378 Y167.327 E47.54805
G1 X54.597 Y167.464 E47.55665
G1 X54.825 Y167.589 E47.56532
G1 X55.055 Y167.703 E47.57387
G1 X55.291 Y167.809 E47.58248
G1 X55.537 Y167.904 E47.59127
G1 X56.017 Y168.056 E47.60804
G1 X56.275 Y168.118 E47.61688
G1 X56.528 Y168.167 E47.62546
G1 X56.783 Y168.204 E47.63405
G1 X57.039 Y168.23 E47.64262
G1 X57.301 Y168.246 E47.65136
G1 X139.2 Y168.25 E50.37945
G1 X139.2 Y170.826 E50.46525
G1 X139.023 Y170.862 E50.47127
G1 X138.593 Y170.989 E50.4862
G1 X138.179 Y171.159 E50.50111
G1 X137.957 Y171.273 E50.50943
G1 X137.585 Y171.502 E50.52398
G1 X137.384 Y171.649 E50.53227
G1 X137.046 Y171.943 E50.54719
G1 X136.74 Y172.271 E50.56214
G1 X136.59 Y172.461 E50.5702
G1 X136.46 Y172.648 E50.57779
G1 X136.334 Y172.849 E50.58569
G1 X136.131 Y173.239 E50.60033
G1 X136.038 Y173.461 E50.60835
G1 X135.961 Y173.677 E50.61599
G1 X135.897 Y173.895 E50.62356
G1 X135.843 Y174.117 E50.63117
G1 X135.802 Y174.344 E50.63885
G1 X135.772 Y174.57 E50.64645
