; generated by Slic3r 1.1.4 on 2014-07-17 at 18:18:32

; perimeters extrusion width = 0.39mm
; infill extrusion width = 0.60mm
; solid infill extrusion width = 0.60mm
; top infill extrusion width = 0.40mm

G21 ; set units to millimeters
M107
G28 ; home all axes
G90 ; use absolute coordinates
G92 E0
M82 ; use absolute distances for extrusion
M204 S2000
G1 F2280.000 E-1.70000
G92 E0
G1 Z0.350 F9000.000
G1 X119.682 Y116.227 F9000.000
G1 E1.70000 F2280.000
G1 X121.349 Y114.810 E1.76754 F2520.000
G1 X123.228 Y113.689 E1.83508
G1 X125.267 Y112.896 E1.90262
G1 X126.207 Y112.655 E1.93259
G1 X127.409 Y112.451 E1.97022
G1 X129.000 Y112.343 E2.01944
G1 X169.596 Y112.368 E3.27257
G1 X170.564 Y112.449 E3.30255
G1 X171.766 Y112.648 E3.34017
G1 X173.859 Y113.285 E3.40771
G1 X174.746 Y113.678 E3.43766
G1 X175.818 Y114.260 E3.47530
G1 X176.628 Y114.795 E3.50528
G1 X177.588 Y115.547 E3.54290
G1 X178.298 Y116.209 E3.57287
G1 X179.119 Y117.109 E3.61050
G1 X179.710 Y117.879 E3.64046
G1 X180.371 Y118.904 E3.67810
G1 X181.308 Y120.881 E3.74564
G1 X181.614 Y121.802 E3.77558
G1 X181.903 Y122.987 E3.81324
G1 X182.142 Y125.074 E3.87809
G1 X182.057 Y156.026 E4.83354
G1 X181.908 Y156.985 E4.86348
G1 X181.623 Y158.171 E4.90114
G1 X181.317 Y159.091 E4.93108
G1 X180.839 Y160.214 E4.96873
G1 X179.727 Y162.098 E5.03628
G1 X179.137 Y162.868 E5.06622
G1 X178.318 Y163.772 E5.10387
G1 X177.609 Y164.433 E5.13381
G1 X176.651 Y165.190 E5.17147
G1 X175.842 Y165.724 E5.20141
G1 X174.772 Y166.311 E5.23907
G1 X173.885 Y166.703 E5.26903
G1 X172.733 Y167.104 E5.30667
G1 X170.591 Y167.549 E5.37421
G1 X169.000 Y167.657 E5.42343
G1 X128.404 Y167.632 E6.67656
G1 X127.438 Y167.552 E6.70649
G1 X126.234 Y167.352 E6.74415
G1 X125.294 Y167.112 E6.77410
G1 X124.141 Y166.715 E6.81175
G1 X122.182 Y165.740 E6.87929
G1 X120.412 Y164.453 E6.94683
G1 X118.880 Y162.891 E7.01438
G1 X117.629 Y161.096 E7.08192
G1 X117.174 Y160.239 E7.11186
G1 X116.692 Y159.119 E7.14952
G1 X116.386 Y158.197 E7.17949
G1 X116.097 Y157.013 E7.21711
G1 X115.858 Y154.926 E7.28196
G1 X115.943 Y123.974 E8.23742
G1 X116.092 Y123.015 E8.26736
G1 X116.377 Y121.829 E8.30502
G1 X117.161 Y119.786 E8.37256
G1 X117.616 Y118.929 E8.40250
G1 X118.273 Y117.902 E8.44015
G1 X119.633 Y116.285 E8.50538
G1 X120.076 Y116.651 F9000.000
G1 X121.667 Y115.293 E8.56995 F2520.000
G1 X123.462 Y114.218 E8.63453
G1 X125.410 Y113.456 E8.69910
G1 X126.350 Y113.216 E8.72906
G1 X127.457 Y113.027 E8.76372
G1 X129.000 Y112.921 E8.81146
G1 X169.547 Y112.944 E10.06310
G1 X170.515 Y113.025 E10.09308
G1 X171.623 Y113.209 E10.12772
G1 X173.625 Y113.814 E10.19229
G1 X174.512 Y114.207 E10.22224
G1 X175.499 Y114.743 E10.25692
G1 X176.309 Y115.278 E10.28688
G1 X177.193 Y115.970 E10.32154
G1 X177.904 Y116.632 E10.35151
G1 X178.660 Y117.461 E10.38617
G1 X179.251 Y118.231 E10.41612
G1 X179.860 Y119.175 E10.45079
G1 X180.759 Y121.064 E10.51536
G1 X181.065 Y121.984 E10.54530
G1 X181.332 Y123.076 E10.57999
G1 X181.563 Y125.074 E10.64209
G1 X181.485 Y155.937 E11.59479
G1 X181.336 Y156.896 E11.62474
G1 X181.074 Y157.988 E11.65942
G1 X180.768 Y158.909 E11.68936
G1 X180.328 Y159.943 E11.72404
G1 X179.268 Y161.746 E11.78862
G1 X178.678 Y162.516 E11.81855
G1 X177.924 Y163.349 E11.85324
G1 X177.214 Y164.010 E11.88318
G1 X176.333 Y164.707 E11.91787
G1 X175.523 Y165.241 E11.94780
G1 X174.538 Y165.782 E11.98249
G1 X173.651 Y166.174 E12.01245
G1 X172.590 Y166.544 E12.04711
G1 X170.543 Y166.973 E12.11169
G1 X169.000 Y167.079 E12.15942
G1 X128.453 Y167.056 E13.41106
G1 X127.486 Y166.975 E13.44100
G1 X126.378 Y166.791 E13.47569
G1 X125.438 Y166.551 E13.50563
G1 X124.375 Y166.186 E13.54031
G1 X122.501 Y165.257 E13.60488
G1 X120.807 Y164.030 E13.66945
G1 X119.340 Y162.539 E13.73403
G1 X118.140 Y160.825 E13.79860
G1 X117.686 Y159.968 E13.82854
G1 X117.241 Y158.936 E13.86322
G1 X116.935 Y158.015 E13.89319
G1 X116.668 Y156.924 E13.92785
G1 X116.437 Y154.926 E13.98995
G1 X116.515 Y124.063 E14.94265
G1 X116.664 Y123.104 E14.97260
G1 X116.926 Y122.012 E15.00728
G1 X117.672 Y120.057 E15.07185
G1 X118.127 Y119.200 E15.10180
G1 X118.732 Y118.254 E15.13647
G1 X120.028 Y116.708 E15.19873
G1 F2280.000 E13.49873
G92 E0
G1 X131.208 Y156.353 F9000.000
G1 E1.70000 F2280.000
G1 X130.852 Y156.708 E1.71550 F3990.000
G1 X130.441 Y156.996 E1.73101
G1 X129.986 Y157.208 E1.74652
G1 X129.501 Y157.338 E1.76202
G1 X129.000 Y157.382 E1.77753
G1 X128.500 Y157.338 E1.79304
G1 X128.014 Y157.208 E1.80854
G1 X127.559 Y156.996 E1.82405
G1 X127.148 Y156.708 E1.83955
G1 X126.792 Y156.352 E1.85506
G1 X126.737 Y156.273 E1.85806
G1 X126.504 Y155.941 E1.87057
G1 X126.292 Y155.486 E1.88608
G1 X126.162 Y155.001 E1.90158
G1 X126.118 Y154.500 E1.91709
G1 X126.162 Y154.000 E1.93260
G1 X126.292 Y153.514 E1.94810
G1 X126.504 Y153.059 E1.96361
G1 X126.792 Y152.647 E1.97912
G1 X127.148 Y152.292 E1.99462
G1 X127.559 Y152.004 E2.01013
G1 X128.014 Y151.792 E2.02564
G1 X128.499 Y151.662 E2.04114
G1 X129.000 Y151.618 E2.05665
G1 X129.500 Y151.662 E2.07216
G1 X129.986 Y151.792 E2.08766
G1 X130.441 Y152.004 E2.10317
G1 X130.852 Y152.292 E2.11867
G1 X131.208 Y152.648 E2.13418
G1 X131.263 Y152.727 E2.13719
G1 X131.496 Y153.059 E2.14969
G1 X131.708 Y153.514 E2.16520
G1 X131.838 Y153.999 E2.18070
G1 X131.882 Y154.500 E2.19621
G1 X131.838 Y155.000 E2.21172
G1 X131.708 Y155.486 E2.22722
G1 X131.496 Y155.941 E2.24273
G1 X131.251 Y156.291 E2.25593
G1 X130.763 Y155.979 F9000.000
G1 X130.479 Y156.263 E2.26831 F2940.000
G1 X130.151 Y156.493 E2.28069
G1 X129.787 Y156.662 E2.29307
G1 X129.400 Y156.766 E2.30545
G1 X129.000 Y156.801 E2.31784
G1 X128.600 Y156.766 E2.33022
G1 X128.213 Y156.662 E2.34260
G1 X127.849 Y156.493 E2.35498
G1 X127.521 Y156.263 E2.36736
G1 X127.237 Y155.979 E2.37974
G1 X127.007 Y155.651 E2.39213
G1 X126.838 Y155.287 E2.40451
G1 X126.734 Y154.900 E2.41689
G1 X126.699 Y154.500 E2.42927
G1 X126.734 Y154.100 E2.44165
G1 X126.838 Y153.713 E2.45404
G1 X127.007 Y153.349 E2.46642
G1 X127.237 Y153.021 E2.47880
G1 X127.521 Y152.737 E2.49118
G1 X127.849 Y152.507 E2.50356
G1 X128.213 Y152.338 E2.51595
G1 X128.600 Y152.234 E2.52833
G1 X129.000 Y152.199 E2.54071
G1 X129.400 Y152.234 E2.55309
G1 X129.787 Y152.338 E2.56547
G1 X130.151 Y152.507 E2.57785
G1 X130.479 Y152.737 E2.59023
G1 X130.790 Y153.059 E2.60404
G1 X130.993 Y153.349 E2.61498
G1 X131.162 Y153.713 E2.62736
G1 X131.266 Y154.100 E2.63974
G1 X131.301 Y154.500 E2.65213
G1 X131.266 Y154.900 E2.66451
G1 X131.162 Y155.287 E2.67689
G1 X130.993 Y155.651 E2.68927
G1 X130.806 Y155.918 E2.69934
G1 X130.889 Y156.360 F9000.000
G1 F2280.000 E0.99934
G92 E0
G1 X129.000 Y128.382 F9000.000
G1 E1.70000 F2280.000
G1 X128.500 Y128.338 E1.71550 F3990.000
G1 X128.406 Y128.313 E1.71850
G1 X128.014 Y128.208 E1.73101
G1 X127.559 Y127.996 E1.74652
G1 X127.148 Y127.708 E1.76202
G1 X126.792 Y127.352 E1.77753
G1 X126.504 Y126.941 E1.79304
G1 X126.292 Y126.486 E1.80854
G1 X126.162 Y126.001 E1.82405
G1 X126.118 Y125.500 E1.83956
G1 X126.162 Y125.000 E1.85506
G1 X126.292 Y124.514 E1.87057
G1 X126.504 Y124.059 E1.88608
G1 X126.792 Y123.648 E1.90158
G1 X127.148 Y123.292 E1.91709
G1 X127.559 Y123.004 E1.93260
G1 X128.014 Y122.792 E1.94811
G1 X128.499 Y122.662 E1.96361
G1 X129.000 Y122.618 E1.97912
G1 X129.500 Y122.662 E1.99462
G1 X129.986 Y122.792 E2.01013
G1 X130.441 Y123.004 E2.02564
G1 X130.852 Y123.292 E2.04114
G1 X130.921 Y123.361 E2.04415
G1 X131.208 Y123.648 E2.05665
G1 X131.496 Y124.059 E2.07216
G1 X131.708 Y124.514 E2.08767
G1 X131.838 Y124.999 E2.10317
G1 X131.882 Y125.500 E2.11868
G1 X131.838 Y126.000 E2.13419
G1 X131.708 Y126.486 E2.14969
G1 X131.496 Y126.941 E2.16520
G1 X131.208 Y127.353 E2.18071
G1 X130.852 Y127.708 E2.19621
G1 X130.441 Y127.996 E2.21172
G1 X129.986 Y128.208 E2.22723
G1 X129.501 Y128.338 E2.24273
G1 X129.075 Y128.375 E2.25593
G1 X129.000 Y127.801 F9000.000
G1 X128.555 Y127.754 E2.26973 F2940.000
G1 X128.213 Y127.662 E2.28067
G1 X127.849 Y127.493 E2.29305
G1 X127.521 Y127.263 E2.30543
G1 X127.237 Y126.979 E2.31782
G1 X127.007 Y126.651 E2.33020
G1 X126.838 Y126.287 E2.34258
G1 X126.734 Y125.900 E2.35496
G1 X126.699 Y125.500 E2.36734
G1 X126.734 Y125.100 E2.37972
G1 X126.838 Y124.713 E2.39211
G1 X127.007 Y124.349 E2.40449
G1 X127.237 Y124.021 E2.41687
G1 X127.521 Y123.737 E2.42925
G1 X127.849 Y123.507 E2.44163
G1 X128.213 Y123.338 E2.45402
G1 X128.600 Y123.234 E2.46640
G1 X129.000 Y123.199 E2.47878
G1 X129.400 Y123.234 E2.49116
G1 X129.787 Y123.338 E2.50354
G1 X130.151 Y123.507 E2.51593
G1 X130.512 Y123.770 E2.52973
G1 X130.763 Y124.021 E2.54067
G1 X130.993 Y124.349 E2.55305
G1 X131.162 Y124.713 E2.56543
G1 X131.266 Y125.100 E2.57781
G1 X131.301 Y125.500 E2.59020
G1 X131.266 Y125.900 E2.60258
G1 X131.162 Y126.287 E2.61496
G1 X130.993 Y126.651 E2.62734
G1 X130.763 Y126.979 E2.63973
G1 X130.479 Y127.263 E2.65211
G1 X130.151 Y127.493 E2.66449
G1 X129.787 Y127.662 E2.67687
G1 X129.400 Y127.766 E2.68925
G1 X129.075 Y127.795 E2.69932
G1 X128.761 Y128.179 F9000.000
G1 F2280.000 E0.99932
G92 E0
G1 X166.118 Y125.500 F9000.000
G1 E1.70000 F2280.000
G1 X166.162 Y125.000 E1.71551 F3990.000
G1 X166.292 Y124.514 E1.73102
G1 X166.333 Y124.426 E1.73401
G1 X166.504 Y124.059 E1.74652
G1 X166.792 Y123.648 E1.76203
G1 X167.148 Y123.292 E1.77754
G1 X167.559 Y123.004 E1.79305
G1 X168.014 Y122.792 E1.80855
G1 X168.499 Y122.662 E1.82405
G1 X169.000 Y122.618 E1.83957
G1 X169.500 Y122.662 E1.85507
G1 X169.986 Y122.792 E1.87057
G1 X170.441 Y123.004 E1.88608
G1 X170.853 Y123.292 E1.90159
G1 X171.208 Y123.648 E1.91710
G1 X171.496 Y124.059 E1.93261
G1 X171.708 Y124.514 E1.94811
G1 X171.838 Y124.999 E1.96361
G1 X171.847 Y125.096 E1.96661
G1 X171.882 Y125.500 E1.97913
G1 X171.838 Y126.000 E1.99463
G1 X171.708 Y126.486 E2.01013
G1 X171.496 Y126.941 E2.02564
G1 X171.208 Y127.352 E2.04115
G1 X170.852 Y127.708 E2.05666
G1 X170.441 Y127.996 E2.07217
G1 X169.986 Y128.208 E2.08767
G1 X169.501 Y128.338 E2.10317
G1 X169.000 Y128.382 E2.11869
G1 X168.500 Y128.338 E2.13419
G1 X168.014 Y128.208 E2.14970
G1 X167.559 Y127.996 E2.16520
G1 X167.148 Y127.708 E2.18071
G1 X166.792 Y127.352 E2.19622
G1 X166.504 Y126.941 E2.21173
G1 X166.292 Y126.486 E2.22723
G1 X166.162 Y126.000 E2.24274
G1 X166.125 Y125.575 E2.25593
G1 X166.699 Y125.500 F9000.000
G1 X166.734 Y125.100 E2.26831 F2940.000
G1 X166.838 Y124.713 E2.28069
G1 X167.007 Y124.349 E2.29307
G1 X167.237 Y124.021 E2.30545
G1 X167.521 Y123.737 E2.31784
G1 X167.849 Y123.507 E2.33022
G1 X168.213 Y123.338 E2.34260
G1 X168.600 Y123.234 E2.35498
G1 X169.000 Y123.199 E2.36737
G1 X169.400 Y123.234 E2.37975
G1 X169.787 Y123.338 E2.39213
G1 X170.151 Y123.507 E2.40451
G1 X170.479 Y123.737 E2.41689
G1 X170.763 Y124.021 E2.42927
G1 X170.993 Y124.349 E2.44166
G1 X171.162 Y124.713 E2.45404
G1 X171.270 Y125.147 E2.46784
G1 X171.301 Y125.500 E2.47878
G1 X171.266 Y125.900 E2.49116
G1 X171.162 Y126.287 E2.50354
G1 X170.993 Y126.651 E2.51593
G1 X170.763 Y126.979 E2.52831
G1 X170.479 Y127.263 E2.54069
G1 X170.151 Y127.493 E2.55307
G1 X169.787 Y127.662 E2.56545
G1 X169.400 Y127.766 E2.57783
G1 X169.000 Y127.801 E2.59022
G1 X168.600 Y127.766 E2.60260
G1 X168.213 Y127.662 E2.61498
G1 X167.849 Y127.493 E2.62736
G1 X167.521 Y127.263 E2.63975
G1 X167.237 Y126.979 E2.65213
G1 X167.007 Y126.651 E2.66451
G1 X166.838 Y126.287 E2.67689
G1 X166.734 Y125.900 E2.68927
G1 X166.705 Y125.575 E2.69934
G1 X166.357 Y125.289 F9000.000
G1 F2280.000 E0.99934
G92 E0
G1 X169.000 Y151.618 F9000.000
G1 E1.70000 F2280.000
G1 X169.500 Y151.662 E1.71550 F3990.000
G1 X169.986 Y151.792 E1.73101
G1 X170.441 Y152.004 E1.74652
G1 X170.852 Y152.292 E1.76202
G1 X171.208 Y152.648 E1.77753
G1 X171.496 Y153.059 E1.79304
G1 X171.708 Y153.514 E1.80854
G1 X171.838 Y153.999 E1.82405
G1 X171.882 Y154.500 E1.83956
G1 X171.838 Y155.000 E1.85506
G1 X171.708 Y155.486 E1.87057
G1 X171.496 Y155.941 E1.88608
G1 X171.208 Y156.352 E1.90158
G1 X170.852 Y156.708 E1.91709
G1 X170.441 Y156.996 E1.93260
G1 X169.986 Y157.208 E1.94810
G1 X169.501 Y157.338 E1.96361
G1 X169.404 Y157.347 E1.96661
G1 X169.000 Y157.382 E1.97912
G1 X168.500 Y157.338 E1.99462
G1 X168.014 Y157.208 E2.01013
G1 X167.559 Y156.996 E2.02564
G1 X167.148 Y156.708 E2.04114
G1 X166.792 Y156.352 E2.05665
G1 X166.504 Y155.941 E2.07216
G1 X166.292 Y155.486 E2.08766
G1 X166.162 Y155.000 E2.10317
G1 X166.118 Y154.500 E2.11868
G1 X166.162 Y154.000 E2.13419
G1 X166.292 Y153.514 E2.14969
G1 X166.504 Y153.059 E2.16520
G1 X166.792 Y152.648 E2.18070
G1 X167.148 Y152.292 E2.19621
G1 X167.559 Y152.004 E2.21172
G1 X168.014 Y151.792 E2.22723
G1 X168.499 Y151.662 E2.24273
G1 X168.925 Y151.625 E2.25593
G1 X169.000 Y152.199 F9000.000
G1 X169.400 Y152.234 E2.26831 F2940.000
G1 X169.787 Y152.338 E2.28069
G1 X170.151 Y152.507 E2.29307
G1 X170.479 Y152.737 E2.30545
G1 X170.763 Y153.021 E2.31783
G1 X170.993 Y153.349 E2.33022
G1 X171.162 Y153.713 E2.34260
G1 X171.266 Y154.100 E2.35498
G1 X171.301 Y154.500 E2.36736
G1 X171.266 Y154.900 E2.37974
G1 X171.162 Y155.287 E2.39213
G1 X170.993 Y155.651 E2.40451
G1 X170.763 Y155.979 E2.41689
G1 X170.479 Y156.263 E2.42927
G1 X170.151 Y156.493 E2.44165
G1 X169.787 Y156.662 E2.45404
G1 X169.353 Y156.770 E2.46783
G1 X169.000 Y156.801 E2.47878
G1 X168.600 Y156.766 E2.49116
G1 X168.213 Y156.662 E2.50354
G1 X167.849 Y156.493 E2.51593
G1 X167.521 Y156.263 E2.52831
G1 X167.237 Y155.979 E2.54069
G1 X167.007 Y155.651 E2.55307
G1 X166.838 Y155.287 E2.56545
G1 X166.734 Y154.900 E2.57784
G1 X166.699 Y154.500 E2.59022
G1 X166.734 Y154.100 E2.60260
G1 X166.838 Y153.713 E2.61498
G1 X167.007 Y153.349 E2.62736
G1 X167.237 Y153.021 E2.63974
G1 X167.521 Y152.737 E2.65213
G1 X167.849 Y152.507 E2.66451
G1 X168.213 Y152.338 E2.67689
G1 X168.600 Y152.234 E2.68927
G1 X168.925 Y152.205 E2.69934
G1 X169.211 Y151.857 F9000.000
G1 F2280.000 E0.99934
G92 E0
G1 X171.407 Y149.421 F9000.000
G1 E1.70000 F2280.000
G1 X173.237 Y151.629 E1.78852 F3990.000
G1 X173.655 Y152.372 E1.81482
G1 X173.943 Y153.173 E1.84112
G1 X174.095 Y154.011 E1.86742
G1 X174.105 Y154.863 E1.89371
G1 X173.975 Y155.705 E1.92001
G1 X173.706 Y156.514 E1.94631
G1 X173.307 Y157.266 E1.97261
G1 X172.788 Y157.942 E1.99891
G1 X172.165 Y158.523 E2.02520
G1 X171.454 Y158.992 E2.05150
G1 X170.674 Y159.337 E2.07780
G1 X169.849 Y159.548 E2.10410
G1 X168.963 Y159.621 E2.13153
G1 X129.037 Y159.621 E3.36401
G1 X128.151 Y159.548 E3.39144
G1 X127.326 Y159.337 E3.41774
G1 X126.546 Y158.992 E3.44404
G1 X125.835 Y158.523 E3.47034
G1 X125.212 Y157.942 E3.49664
G1 X124.693 Y157.266 E3.52293
G1 X124.294 Y156.514 E3.54923
G1 X124.026 Y155.705 E3.57553
G1 X123.895 Y154.863 E3.60183
G1 X123.905 Y154.011 E3.62813
G1 X124.057 Y153.173 E3.65442
G1 X124.345 Y152.372 E3.68072
G1 X124.763 Y151.629 E3.70702
G1 X126.593 Y149.421 E3.79554
G1 X127.684 Y147.726 E3.85777
G1 X128.551 Y145.906 E3.91999
G1 X129.180 Y143.991 E3.98222
G1 X129.541 Y142.121 E4.04101
G1 X129.562 Y142.012 E4.04445
G1 X129.690 Y140.000 E4.10667
G1 X129.562 Y137.988 E4.16890
G1 X129.180 Y136.009 E4.23112
G1 X128.551 Y134.094 E4.29335
G1 X127.684 Y132.274 E4.35558
G1 X126.593 Y130.579 E4.41780
G1 X124.763 Y128.371 E4.50632
G1 X124.345 Y127.628 E4.53262
G1 X124.057 Y126.827 E4.55892
G1 X123.905 Y125.989 E4.58522
G1 X123.895 Y125.137 E4.61151
G1 X124.025 Y124.295 E4.63781
G1 X124.294 Y123.486 E4.66411
G1 X124.693 Y122.734 E4.69041
G1 X125.212 Y122.058 E4.71671
G1 X125.835 Y121.477 E4.74301
G1 X126.546 Y121.008 E4.76930
G1 X127.326 Y120.663 E4.79560
G1 X128.151 Y120.453 E4.82190
G1 X129.037 Y120.379 E4.84934
G1 X168.963 Y120.379 E6.08181
G1 X169.849 Y120.452 E6.10924
G1 X170.674 Y120.663 E6.13554
G1 X171.454 Y121.008 E6.16184
G1 X172.165 Y121.477 E6.18814
G1 X172.788 Y122.058 E6.21444
G1 X173.307 Y122.734 E6.24073
G1 X173.706 Y123.486 E6.26703
G1 X173.975 Y124.295 E6.29333
G1 X174.105 Y125.137 E6.31963
G1 X174.095 Y125.989 E6.34593
G1 X173.943 Y126.827 E6.37223
G1 X173.655 Y127.628 E6.39852
G1 X173.237 Y128.371 E6.42482
G1 X171.407 Y130.579 E6.51334
G1 X170.316 Y132.274 E6.57557
G1 X169.449 Y134.094 E6.63780
G1 X168.820 Y136.009 E6.70002
G1 X168.438 Y137.988 E6.76225
G1 X168.310 Y140.000 E6.82447
G1 X168.438 Y142.012 E6.88670
G1 X168.820 Y143.991 E6.94893
