;Generated by Cura LulzBot Edition GCodeWriter Version: 3.6.20
;FLAVOR:Marlin
;TIME:541
;Filament used: 0.218872m
;Layer height: 0.25
;Generated with Cura_SteamEngine 3.6.20
M82 ;absolute extrusion mode
;This G-Code has been generated specifically for the LulzBot TAZ 6 with standard extruder
M73 P0 ; clear GLCD progress bar
M75 ; start GLCD timer
G26 ; clear potential 'probe fail' condition
M107 ; disable fans
M420 S0 ; disable previous leveling matrix
G90 ; absolute positioning
M82 ; set extruder to absolute mode
G92 E0 ; set extruder position to 0
M140 S60.0 ; start bed heating up
M109 R140 ; soften filament before homing Z
G28 ; Home all axis
G1 E-30 F100 ; retract filament
M109 R140 ; wait for extruder to reach wiping temp
G1 X-15 Y100 F3000 ; move above wiper pad
G1 Z1 ; push nozzle into wiper
G1 X-17 Y95 F1000 ; slow wipe
G1 X-17 Y90 F1000 ; slow wipe
G1 X-17 Y85 F1000 ; slow wipe
G1 X-15 Y90 F1000 ; slow wipe
G1 X-17 Y80 F1000 ; slow wipe
G1 X-15 Y95 F1000 ; slow wipe
G1 X-17 Y75 F2000 ; fast wipe
G1 X-15 Y65 F2000 ; fast wipe
G1 X-17 Y70 F2000 ; fast wipe
G1 X-15 Y60 F2000 ; fast wipe
G1 X-17 Y55 F2000 ; fast wipe
G1 X-15 Y50 F2000 ; fast wipe
G1 X-17 Y40 F2000 ; fast wipe
G1 X-15 Y45 F2000 ; fast wipe
G1 X-17 Y35 F2000 ; fast wipe
G1 X-15 Y40 F2000 ; fast wipe
G1 X-17 Y70 F2000 ; fast wipe
G1 X-15 Y30 Z2 F2000 ; fast wipe
G1 X-17 Y35 F2000 ; fast wipe
G1 X-15 Y25 F2000 ; fast wipe
G1 X-17 Y30 F2000 ; fast wipe
G1 X-15 Y25 Z1.5 F1000 ; slow wipe
G1 X-17 Y23 F1000 ; slow wipe
G1 Z10 ; raise extruder
M109 R140 ; wait for extruder to reach probe temp
G1 X-9 Y-9 ; move above first probe point
M204 S100 ; set probing acceleration
G29 ; start auto-leveling sequence
M420 S1 ; activate bed level matrix
M425 Z			     ; use measured Z backlash for compensation
M425 Z F0		     ; turn off measured Z backlash compensation. (if activated in the quality settings, this command will automatically be ignored)
M204 S500 ; restore standard acceleration
G1 X0 Y0 Z15 F5000 ; move up off last probe point
G4 S1 ; pause
M400 ; wait for moves to finish
M117 Heating... ; progress indicator message on LCD
M109 R210 ; wait for extruder to reach printing temp
M190 R60.0 ; wait for bed to reach printing temp
G1 Z2 E0 F75 ; prime tiny bit of filament into the nozzle
M117 TAZ 6 Printing... ; progress indicator message on LCD

M221 S100 T0
G92 E0
G1 F600 E-1
;LAYER_COUNT:2
;LAYER:0
M107
G0 F2625 X15.924 Y17.761 Z0.425
;TYPE:SKIRT
G1 F600 E0
G1 F900 X16.382 Y17.447 E0.0185
G1 X18.482 Y16.256 E0.09892
G1 X18.943 Y16.04 E0.11587
G1 X19.433 Y15.899 E0.13286
G1 X19.801 Y15.845 E0.14525
G1 X22.495 Y15.609 E0.23533
G1 X23.231 Y15.629 E0.25986
G1 X25.654 Y15.969 E0.34136
G1 X25.949 Y16.024 E0.35135
G1 X27.651 Y16.426 E0.40961
G1 X27.866 Y16.485 E0.41703
G1 X30.348 Y17.254 E0.50359
G1 X30.713 Y17.391 E0.51657
G1 X39.102 Y21.142 E0.82268
G1 X39.387 Y21.287 E0.83333
G1 X50.154 Y27.439 E1.2464
G1 X50.322 Y27.542 E1.25296
G1 X61.462 Y34.837 E1.69652
G1 X61.566 Y34.907 E1.7007
G1 X73.171 Y43.16 E2.17505
G1 X73.24 Y43.211 E2.17791
G1 X81.218 Y49.209 E2.51039
G1 X85.771 Y52.272 E2.69317
G1 X90.468 Y55.058 E2.87509
G1 X95.317 Y57.576 E3.05709
G1 X100.322 Y59.824 E3.23985
G1 X105.43 Y61.781 E3.42206
G1 X110.638 Y63.445 E3.60418
G1 X115.991 Y64.828 E3.78834
G1 X118.602 Y65.383 E3.87726
G1 X124.007 Y66.299 E4.05987
G1 X129.452 Y66.906 E4.24237
G1 X134.912 Y67.205 E4.42452
G1 X140.395 Y67.194 E4.60716
G1 X145.851 Y66.875 E4.78921
G1 X151.281 Y66.247 E4.97129
G1 X156.687 Y65.31 E5.15405
G1 X159.356 Y64.729 E5.24504
G1 X161.979 Y64.083 E5.33502
G1 X167.265 Y62.535 E5.5185
G1 X172.406 Y60.708 E5.70024
G1 X177.463 Y58.582 E5.88297
G1 X182.371 Y56.184 E6.06493
G1 X187.164 Y53.497 E6.24796
G1 X191.765 Y50.564 E6.42971
G1 X196.202 Y47.368 E6.61186
G1 X209.085 Y36.86 E7.16564
G1 X209.181 Y36.784 E7.16972
G1 X221.219 Y27.698 E7.67211
G1 X221.376 Y27.587 E7.67852
G1 X231.562 Y20.805 E8.08614
G1 X231.788 Y20.667 E8.09496
G1 X240.509 Y15.836 E8.42706
G1 X240.928 Y15.641 E8.44245
G1 X249.034 Y12.557 E8.73135
G1 X249.674 Y12.386 E8.75341
G1 X253.296 Y11.804 E8.87561
G1 X253.865 Y11.763 E8.89461
G1 X257.15 Y11.817 E9.00405
G1 X257.658 Y11.866 E9.02105
G1 X258.154 Y11.994 E9.03812
G1 X261.091 Y13.004 E9.14157
G1 X261.558 Y13.207 E9.15854
G1 X261.999 Y13.489 E9.17597
G1 X264.184 Y15.148 E9.26736
G1 X264.565 Y15.487 E9.28434
G1 X264.994 Y16.044 E9.30776
G1 X266.505 Y18.521 E9.40441
G1 X266.735 Y18.975 E9.42137
G1 X266.931 Y19.648 E9.44472
G1 X267.446 Y22.566 E9.54342
G1 X267.494 Y23.073 E9.56038
G1 X267.487 Y23.358 E9.56988
G1 X267.26 Y26.598 E9.67807
G1 X267.14 Y27.273 E9.7009
G1 X266.12 Y30.804 E9.82333
G1 X265.914 Y31.337 E9.84237
G1 X262.013 Y39.264 E10.13666
G1 X261.805 Y39.625 E10.15054
G1 X256.295 Y47.932 E10.48259
G1 X256.167 Y48.112 E10.48994
G1 X248.768 Y57.772 E10.89526
G1 X248.694 Y57.866 E10.89925
G1 X239.794 Y68.639 E11.36472
G1 X239.762 Y68.676 E11.36635
G1 X234.809 Y74.492 E11.62082
G1 X231.328 Y78.814 E11.80567
G1 X228.147 Y83.256 E11.98767
G1 X225.224 Y87.87 E12.1696
G1 X222.557 Y92.657 E12.35214
G1 X220.169 Y97.578 E12.53434
G1 X218.061 Y102.633 E12.71678
G1 X216.244 Y107.795 E12.89907
G1 X214.711 Y113.087 E13.08259
G1 X214.074 Y115.698 E13.17212
G1 X213 Y121.075 E13.35477
G1 X212.235 Y126.484 E13.53673
G1 X211.774 Y131.952 E13.71952
G1 X211.625 Y137.414 E13.90153
G1 X211.785 Y142.895 E14.08418
G1 X212.252 Y148.338 E14.26616
G1 X213.028 Y153.751 E14.44831
G1 X214.111 Y159.126 E14.63095
G1 X214.755 Y161.75 E14.72095
G1 X216.295 Y167.028 E14.90409
G1 X218.122 Y172.191 E15.08653
G1 X220.236 Y177.233 E15.26864
G1 X222.635 Y182.159 E15.45115
G1 X225.306 Y186.934 E15.6334
G1 X228.25 Y191.562 E15.81611
G1 X229.797 Y193.778 E15.90613
G1 X244.425 Y212.919 E16.7086
G1 X244.472 Y212.982 E16.71122
G1 X252.066 Y223.435 E17.1416
G1 X252.143 Y223.545 E17.14607
G1 X258.677 Y233.369 E17.53908
G1 X258.795 Y233.56 E17.54656
G1 X264.15 Y242.96 E17.90692
G1 X264.353 Y243.385 E17.92261
G1 X267.325 Y250.982 E18.19435
G1 X267.482 Y251.515 E18.21286
G1 X268.172 Y254.891 E18.32764
G1 X268.238 Y255.54 E18.34937
G1 X268.24 Y258.563 E18.45006
G1 X268.2 Y259.071 E18.46704
G1 X268.104 Y259.495 E18.48152
G1 X267.288 Y262.227 E18.57649
G1 X267.104 Y262.702 E18.59346
G1 X266.756 Y263.271 E18.61568
G1 X265.121 Y265.409 E18.70534
G1 X264.78 Y265.788 E18.72232
G1 X264.385 Y266.11 E18.73929
G1 X264.153 Y266.256 E18.74842
G1 X262.034 Y267.468 E18.82974
G1 X261.573 Y267.686 E18.84673
G1 X261.084 Y267.828 E18.86369
G1 X260.814 Y267.873 E18.87281
G1 X258.098 Y268.205 E18.96395
G1 X257.589 Y268.227 E18.98092
G1 X257.319 Y268.206 E18.98994
G1 X254.536 Y267.874 E19.0833
G1 X254.007 Y267.766 E19.10129
G1 X250.688 Y266.793 E19.2165
G1 X250.254 Y266.631 E19.23193
G1 X242.471 Y263.084 E19.51684
G1 X242.169 Y262.927 E19.52817
G1 X233.689 Y257.929 E19.85606
G1 X233.513 Y257.818 E19.86299
G1 X223.25 Y250.848 E20.27624
G1 X223.112 Y250.748 E20.28191
G1 X210.931 Y241.508 E20.7912
G1 X210.849 Y241.444 E20.79466
G1 X198.726 Y231.619 E21.31445
G1 X194.286 Y228.402 E21.49709
G1 X189.678 Y225.444 E21.67949
G1 X184.916 Y222.756 E21.86164
G1 X180.005 Y220.34 E22.04395
G1 X174.916 Y218.182 E22.22808
G1 X172.431 Y217.253 E22.31645
G1 X167.202 Y215.544 E22.4997
G1 X161.889 Y214.134 E22.6828
G1 X159.228 Y213.546 E22.77358
G1 X156.572 Y213.041 E22.86363
G1 X151.146 Y212.242 E23.04633
G1 X145.684 Y211.751 E23.229
G1 X140.223 Y211.57 E23.41101
G1 X134.76 Y211.699 E23.59303
G1 X129.291 Y212.137 E23.77579
G1 X123.878 Y212.881 E23.9578
G1 X118.462 Y213.941 E24.14163
G1 X115.892 Y214.557 E24.22966
G1 X110.586 Y216.071 E24.41346
G1 X105.408 Y217.871 E24.59606
G1 X100.36 Y219.954 E24.77797
G1 X95.414 Y222.329 E24.96073
G1 X90.622 Y224.974 E25.14306
G1 X85.98 Y227.889 E25.32564
G1 X83.754 Y229.423 E25.41569
G1 X80.654 Y231.718 E25.54417
G1 X68.615 Y240.972 E26.04998
G1 X68.53 Y241.035 E26.0535
G1 X57.502 Y248.954 E26.50575
G1 X57.38 Y249.037 E26.51066
G1 X46.376 Y256.203 E26.94808
G1 X46.226 Y256.295 E26.95394
G1 X36.518 Y261.897 E27.3273
G1 X36.294 Y262.015 E27.33573
G1 X29.019 Y265.487 E27.60425
G1 X28.754 Y265.599 E27.61383
G1 X25.982 Y266.632 E27.71237
G1 X25.705 Y266.722 E27.72207
G1 X24.071 Y267.169 E27.7785
G1 X23.83 Y267.225 E27.78674
G1 X21.839 Y267.61 E27.85429
G1 X21.142 Y267.668 E27.87759
G1 X18.779 Y267.61 E27.95633
G1 X18.272 Y267.558 E27.9733
G1 X17.78 Y267.427 E27.99026
G1 X17.349 Y267.239 E28.00593
G1 X15.387 Y266.21 E28.07973
G1 X14.956 Y265.939 E28.09668
G1 X14.573 Y265.604 E28.11363
G1 X14.129 Y265.036 E28.13765
G1 X12.758 Y262.809 E28.22476
G1 X12.526 Y262.355 E28.24174
G1 X12.332 Y261.704 E28.26437
G1 X11.817 Y258.959 E28.3574
G1 X11.762 Y258.453 E28.37436
G1 X11.769 Y258.128 E28.38519
G1 X11.999 Y254.915 E28.49249
G1 X12.077 Y254.405 E28.50967
G1 X12.764 Y251.475 E28.60992
G1 X12.778 Y251.418 E28.61187
G1 X12.934 Y250.803 E28.63301
G1 X13.067 Y250.393 E28.64737
G1 X16.262 Y242.418 E28.93354
G1 X16.352 Y242.215 E28.94094
G1 X17.004 Y240.863 E28.99094
G1 X17.08 Y240.714 E28.99651
G1 X21.939 Y231.839 E29.33355
G1 X22.051 Y231.65 E29.34086
G1 X29.535 Y219.939 E29.80382
G1 X29.644 Y219.78 E29.81024
G1 X38.13 Y208.089 E30.29144
G1 X38.2 Y207.996 E30.29532
G1 X46.769 Y197.037 E30.75872
G1 X50.529 Y191.897 E30.97085
G1 X53.474 Y187.308 E31.15248
G1 X56.168 Y182.537 E31.33499
G1 X58.587 Y177.622 E31.51747
G1 X60.719 Y172.592 E31.69945
G1 X62.568 Y167.435 E31.88194
G1 X64.123 Y162.179 E32.06452
G1 X64.786 Y159.529 E32.15551
G1 X65.887 Y154.177 E32.33752
G1 X66.684 Y148.769 E32.51961
G1 X67.175 Y143.308 E32.70225
G1 X67.357 Y137.844 E32.88436
G1 X67.228 Y132.38 E33.06642
G1 X66.791 Y126.914 E33.24907
G1 X66.047 Y121.5 E33.43111
G1 X64.992 Y116.108 E33.61413
G1 X64.365 Y113.491 E33.70377
G1 X62.858 Y108.209 E33.88673
G1 X61.061 Y103.038 E34.06909
G1 X58.972 Y97.973 E34.25159
G1 X56.598 Y93.028 E34.43431
G1 X53.967 Y88.26 E34.61571
G1 X51.046 Y83.611 E34.7986
G1 X47.886 Y79.16 E34.98043
G1 X40.107 Y69.482 E35.39403
G1 X40.07 Y69.435 E35.39603
G1 X32.042 Y59.061 E35.83298
G1 X31.978 Y58.976 E35.83652
G1 X24.102 Y48.077 E36.28444
G1 X23.992 Y47.915 E36.29096
G1 X18.539 Y39.324 E36.62991
G1 X18.375 Y39.032 E36.64107
G1 X14.926 Y32.115 E36.89853
G1 X14.747 Y31.68 E36.9142
G1 X13.706 Y28.515 E37.02518
G1 X13.576 Y27.964 E37.04404
G1 X13.168 Y25.136 E37.13922
G1 X13.135 Y24.628 E37.15618
G1 X13.166 Y24.224 E37.16967
G1 X13.504 Y21.795 E37.25136
G1 X13.614 Y21.297 E37.26835
G1 X13.8 Y20.823 E37.28531
G1 X13.987 Y20.489 E37.29806
G1 X15.249 Y18.52 E37.37597
G1 X15.556 Y18.114 E37.39292
G1 X15.924 Y17.761 E37.40991
G1 F600 E36.40991
;MESH:
G0 F2625 X17.654 Y19.726
G0 X17.683 Y19.759
G0 X19.937 Y22.317
G0 X19.965 Y22.35
G0 X19.99 Y22.376
G0 X19.35 Y21.68
G0 X103.486 Y128.158
G0 X105.77 Y130.19
G0 X109.145 Y133.901
G0 X110.042 Y135.483
G0 X110.391 Y136.894
G0 X110.292 Y136.887
;TYPE:WALL-OUTER
G1 F600 E37.40991
G1 F900 X110.005 Y135.497 E37.45719
G1 X109.113 Y133.924 E37.51742
G1 X105.742 Y130.218 E37.6843
G1 X100.674 Y125.607 E37.91253
G1 X94.151 Y120.06 E38.19776
G1 X86.636 Y113.523 E38.52954
G1 X78.497 Y106.075 E38.89704
G1 X78.488 Y106.067 E38.89744
G1 X69.996 Y97.636 E39.29604
G1 X69.985 Y97.623 E39.29661
G1 X61.67 Y88.224 E39.71463
G1 X61.663 Y88.216 E39.71498
G1 X52.435 Y76.986 E40.19915
G1 X43.551 Y65.93 E40.67159
G1 X35.472 Y55.505 E41.11093
G1 X35.465 Y55.497 E41.11128
G1 X28.47 Y45.812 E41.50924
G1 X28.461 Y45.799 E41.50976
G1 X22.95 Y37.249 E41.8486
G1 X22.942 Y37.238 E41.84906
G1 X22.931 Y37.215 E41.8499
G1 X19.367 Y30.088 E42.11534
G1 X19.355 Y30.065 E42.1162
G1 X19.348 Y30.043 E42.11697
G1 X18.361 Y27.142 E42.21904
G1 X18.348 Y27.106 E42.22032
G1 X18.344 Y27.078 E42.22126
G1 X17.992 Y24.672 E42.30226
G1 X17.984 Y24.622 E42.30394
G1 X17.991 Y24.57 E42.30569
G1 X18.233 Y22.818 E42.36461
G1 X18.244 Y22.74 E42.36723
G1 X18.286 Y22.674 E42.36984
G1 X19.038 Y21.483 E42.41676
G1 X19.091 Y21.4 E42.42004
G1 X19.178 Y21.355 E42.4233
G1 X20.484 Y20.67 E42.47242
G1 X20.549 Y20.636 E42.47487
G1 X20.622 Y20.63 E42.47731
G1 X22.651 Y20.451 E42.54515
G1 X22.694 Y20.447 E42.54659
G1 X22.736 Y20.453 E42.54801
G1 X25.477 Y20.861 E42.64032
G1 X25.502 Y20.865 E42.64116
G1 X25.528 Y20.873 E42.64207
G1 X28.94 Y21.913 E42.76088
G1 X28.962 Y21.92 E42.76165
G1 X28.983 Y21.929 E42.76241
G1 X37.143 Y25.605 E43.06053
G1 X37.163 Y25.614 E43.06126
G1 X37.175 Y25.62 E43.06171
G1 X46.989 Y31.243 E43.43848
G1 X47.002 Y31.251 E43.43898
G1 X57.955 Y38.359 E43.87393
G1 X69.663 Y46.677 E44.35233
G1 X81.753 Y55.783 E44.8565
G1 X81.762 Y55.79 E44.85688
G1 X93.741 Y65.356 E45.36753
G1 X93.749 Y65.363 E45.36788
G1 X101.662 Y72.184 E45.71588
G1 X109.35 Y79.239 E46.06345
G1 X116.576 Y86.232 E46.39841
G1 X123.163 Y92.644 E46.70462
G1 X129 Y98.305 E46.97547
G1 X133.843 Y102.805 E47.19569
G1 X137.628 Y105.741 E47.35525
G1 X139.058 Y106.589 E47.41063
G1 X140.307 Y106.876 E47.45332
G1 X141.613 Y106.537 E47.49826
G1 X143.045 Y105.637 E47.5546
G1 X147.005 Y102.357 E47.72588
G1 X152.136 Y97.399 E47.96355
G1 X158.371 Y91.052 E48.25992
G1 X165.53 Y83.612 E48.60385
G1 X173.496 Y75.477 E48.98311
G1 X182.096 Y66.995 E49.38547
G1 X191.279 Y58.506 E49.80204
G1 X202.11 Y48.996 E50.28216
G1 X213.009 Y39.995 E50.75301
G1 X213.018 Y39.988 E50.75339
G1 X223.625 Y31.907 E51.19757
G1 X223.639 Y31.896 E51.19816
G1 X233.68 Y25.186 E51.60044
G1 X233.694 Y25.177 E51.601
G1 X233.707 Y25.17 E51.60149
G1 X242.781 Y20.177 E51.94648
G1 X242.806 Y20.163 E51.94744
G1 X242.825 Y20.156 E51.94811
G1 X250.598 Y17.162 E52.22558
G1 X250.632 Y17.149 E52.22679
G1 X250.67 Y17.143 E52.22807
G1 X253.866 Y16.621 E52.33594
G1 X253.898 Y16.615 E52.33703
G1 X253.926 Y16.615 E52.33796
G1 X256.676 Y16.615 E52.42956
G1 X256.73 Y16.615 E52.43136
G1 X256.783 Y16.631 E52.43321
G1 X259.099 Y17.344 E52.51393
G1 X259.165 Y17.365 E52.51623
G1 X259.217 Y17.406 E52.51844
G1 X260.952 Y18.781 E52.59218
G1 X261.005 Y18.823 E52.59443
G1 X261.039 Y18.88 E52.59664
G1 X262.173 Y20.787 E52.67055
G1 X262.206 Y20.843 E52.67271
G1 X262.218 Y20.902 E52.67472
G1 X262.691 Y23.215 E52.75336
G1 X262.703 Y23.27 E52.75524
G1 X262.697 Y23.327 E52.75715
G1 X262.404 Y26.079 E52.84933
G1 X262.4 Y26.113 E52.85047
G1 X262.392 Y26.142 E52.85148
G1 X261.464 Y29.334 E52.96221
G1 X261.454 Y29.366 E52.96332
G1 X261.44 Y29.394 E52.96437
G1 X257.701 Y36.928 E53.24453
G1 X257.692 Y36.945 E53.24517
G1 X257.678 Y36.966 E53.24601
G1 X251.879 Y45.747 E53.59654
G1 X251.87 Y45.761 E53.59709
G1 X244.351 Y55.456 E54.00578
G1 X235.749 Y65.887 E54.45615
G1 X226.466 Y76.712 E54.93116
G1 X216.956 Y87.881 E55.4198
G1 X208.818 Y97.103 E55.82949
G1 X200.848 Y105.813 E56.22276
G1 X193.28 Y113.722 E56.58739
G1 X186.405 Y120.765 E56.91524
G1 X180.57 Y126.827 E57.19551
G1 X176.006 Y131.788 E57.42006
G1 X173.01 Y135.461 E57.57795
G1 X172.214 Y136.786 E57.62944
G1 X171.886 Y137.912 E57.6685
G1 X172.263 Y139.231 E57.7142
G1 X173.328 Y140.613 E57.77232
G1 X174.91 Y142.478 E57.85378
G1 X177.012 Y144.692 E57.95547
G1 X179.581 Y147.261 E58.07649
G1 X182.556 Y150.177 E58.21526
G1 X189.604 Y156.992 E58.54183
G1 X197.625 Y164.953 E58.91828
G1 X206.284 Y173.837 E59.33152
G1 X215.062 Y183.529 E59.76709
G1 X215.07 Y183.539 E59.76752
G1 X223.555 Y193.796 E60.21094
G1 X232.444 Y205.26 E60.69415
G1 X240.867 Y216.37 E61.15856
G1 X248.549 Y226.914 E61.59312
G1 X248.558 Y226.926 E61.59362
G1 X254.982 Y236.616 E61.98088
G1 X254.988 Y236.625 E61.98125
G1 X254.995 Y236.638 E61.98174
G1 X259.82 Y245.248 E62.3105
G1 X259.831 Y245.268 E62.31126
G1 X259.839 Y245.29 E62.31204
G1 X262.775 Y252.597 E62.57436
G1 X262.79 Y252.634 E62.57569
G1 X262.796 Y252.665 E62.57674
G1 X263.378 Y255.69 E62.67935
G1 X263.384 Y255.721 E62.6804
G1 X263.384 Y255.759 E62.68167
G1 X263.384 Y258.337 E62.76754
G1 X263.384 Y258.389 E62.76927
G1 X263.37 Y258.438 E62.77097
G1 X262.775 Y260.521 E62.84313
G1 X262.755 Y260.59 E62.84552
G1 X262.712 Y260.646 E62.84788
G1 X261.446 Y262.272 E62.91652
G1 X261.399 Y262.332 E62.91906
G1 X261.333 Y262.368 E62.92156
G1 X259.986 Y263.103 E62.97268
G1 X259.925 Y263.137 E62.975
G1 X259.856 Y263.145 E62.97732
G1 X257.942 Y263.384 E63.04157
