;Generated by Cura LulzBot Edition GCodeWriter Version: 3.6.20
;FLAVOR:Marlin
;TIME:2966
;Filament used: 0.998244m
;Layer height: 0.25
;Generated with Cura_SteamEngine 3.6.20
M82 ;absolute extrusion mode
;This G-Code has been generated specifically for the LulzBot TAZ 6 with standard extruder
M73 P0 ; clear GLCD progress bar
M75 ; start GLCD timer
G26 ; clear potential 'probe fail' condition
M107 ; disable fans
M420 S0 ; disable previous leveling matrix
G90 ; absolute positioning
M82 ; set extruder to absolute mode
G92 E0 ; set extruder position to 0
M140 S60.0 ; start bed heating up
M109 R140 ; soften filament before homing Z
G28 ; Home all axis
G1 E-30 F100 ; retract filament
M109 R140 ; wait for extruder to reach wiping temp
G1 X-15 Y100 F3000 ; move above wiper pad
G1 Z1 ; push nozzle into wiper
G1 X-17 Y95 F1000 ; slow wipe
G1 X-17 Y90 F1000 ; slow wipe
G1 X-17 Y85 F1000 ; slow wipe
G1 X-15 Y90 F1000 ; slow wipe
G1 X-17 Y80 F1000 ; slow wipe
G1 X-15 Y95 F1000 ; slow wipe
G1 X-17 Y75 F2000 ; fast wipe
G1 X-15 Y65 F2000 ; fast wipe
G1 X-17 Y70 F2000 ; fast wipe
G1 X-15 Y60 F2000 ; fast wipe
G1 X-17 Y55 F2000 ; fast wipe
G1 X-15 Y50 F2000 ; fast wipe
G1 X-17 Y40 F2000 ; fast wipe
G1 X-15 Y45 F2000 ; fast wipe
G1 X-17 Y35 F2000 ; fast wipe
G1 X-15 Y40 F2000 ; fast wipe
G1 X-17 Y70 F2000 ; fast wipe
G1 X-15 Y30 Z2 F2000 ; fast wipe
G1 X-17 Y35 F2000 ; fast wipe
G1 X-15 Y25 F2000 ; fast wipe
G1 X-17 Y30 F2000 ; fast wipe
G1 X-15 Y25 Z1.5 F1000 ; slow wipe
G1 X-17 Y23 F1000 ; slow wipe
G1 Z10 ; raise extruder
M109 R140 ; wait for extruder to reach probe temp
G1 X-9 Y-9 ; move above first probe point
M204 S100 ; set probing acceleration
G29 ; start auto-leveling sequence
M420 S1 ; activate bed level matrix
M425 Z			     ; use measured Z backlash for compensation
M425 Z F0		     ; turn off measured Z backlash compensation. (if activated in the quality settings, this command will automatically be ignored)
M204 S500 ; restore standard acceleration
G1 X0 Y0 Z15 F5000 ; move up off last probe point
G4 S1 ; pause
M400 ; wait for moves to finish
M117 Heating... ; progress indicator message on LCD
M109 R210 ; wait for extruder to reach printing temp
M190 R60.0 ; wait for bed to reach printing temp
G1 Z2 E0 F75 ; prime tiny bit of filament into the nozzle
M117 TAZ 6 Printing... ; progress indicator message on LCD

M221 S100 T0
G92 E0
G1 F600 E-1
;LAYER_COUNT:94
;LAYER:0
M107
G0 F2625 X102.54 Y102.183 Z0.425
;TYPE:SKIRT
G1 F600 E0
G1 F900 X102.952 Y101.883 E0.01698
G1 X103.408 Y101.65 E0.03403
G1 X107.541 Y99.938 E0.18305
G1 X125.731 Y92.402 E0.83891
G1 X125.789 Y92.379 E0.84098
G1 X132.113 Y89.9 E1.06725
G1 X138.71 Y87.032 E1.30686
G1 X139.192 Y86.867 E1.32383
G1 X139.694 Y86.778 E1.34082
G1 X140.203 Y86.769 E1.35777
G1 X140.708 Y86.84 E1.37476
G1 X141.247 Y87.009 E1.39358
G1 X153.933 Y92.25 E1.85079
G1 X153.937 Y92.252 E1.85094
G1 X176.592 Y101.651 E2.66796
G1 X177.046 Y101.883 E2.68494
G1 X177.458 Y102.182 E2.7019
G1 X177.819 Y102.543 E2.7189
G1 X178.118 Y102.955 E2.73586
G1 X178.35 Y103.409 E2.75284
G1 X192.986 Y138.738 E4.02666
G1 X193.143 Y139.223 E4.04364
G1 X193.223 Y139.726 E4.0606
G1 X193.223 Y140.235 E4.07756
G1 X193.144 Y140.739 E4.09455
G1 X192.986 Y141.225 E4.11157
G1 X178.351 Y176.59 E5.38648
G1 X178.12 Y177.044 E5.40345
G1 X177.821 Y177.456 E5.4204
G1 X177.461 Y177.817 E5.43739
G1 X177.049 Y178.117 E5.45436
G1 X176.592 Y178.35 E5.47145
G1 X141.262 Y192.986 E6.74529
G1 X140.777 Y193.143 E6.76227
G1 X140.274 Y193.223 E6.77924
G1 X139.765 Y193.223 E6.79619
G1 X139.261 Y193.144 E6.81319
G1 X138.775 Y192.986 E6.83021
G1 X103.41 Y178.351 E8.10512
G1 X102.956 Y178.12 E8.12209
G1 X102.544 Y177.821 E8.13904
G1 X102.183 Y177.461 E8.15602
G1 X101.883 Y177.049 E8.173
G1 X101.65 Y176.592 E8.19009
G1 X87.008 Y141.244 E9.46456
G1 X86.851 Y140.759 E9.48154
G1 X86.771 Y140.256 E9.49851
G1 X86.771 Y139.746 E9.5155
G1 X86.85 Y139.243 E9.53246
G1 X87.008 Y138.756 E9.54951
G1 X101.649 Y103.409 E10.82394
G1 X101.881 Y102.955 E10.84092
G1 X102.18 Y102.543 E10.85788
G1 X102.54 Y102.183 E10.87484
G1 F600 E9.87484
;MESH:
G0 F2625 X110.211 Y101.624
G0 X113.787 Y101.772
G0 X115.216 Y101.676
G0 X117.534 Y102.334
G0 X148.409 Y98.818
G0 X145.499 Y102.225
G0 X148.082 Y103.429
G0 X148.043 Y103.52
;TYPE:WALL-INNER
G1 F600 E10.87484
G1 F900 X147.313 Y103.217 E10.90117
G1 X148.124 Y102.25 E10.94321
G1 X148.043 Y103.52 E10.9856
G0 F2625 X148.082 Y103.429
G0 X145.499 Y102.225
G0 X148.409 Y98.818
G0 X150.279 Y99.591
G0 X150.29 Y99.64
G0 X150.25 Y99.538
G1 F900 X150.352 Y99.581 E10.98928
G1 X150.228 Y99.593 E10.98984
G1 X150.228 Y99.576
G1 X150.231 Y99.53
G1 X150.25 Y99.538
G0 F2625 X150.29 Y99.64
G0 X150.279 Y99.591
G0 X148.409 Y98.818
G0 X140 Y100.148
G0 X111.821 Y111.821
G0 X100.148 Y140
G0 X110.844 Y168.216
G0 X111.797 Y170.238
G0 X112.948 Y172.156
G0 X114.288 Y173.963
G0 X115.78 Y175.611
G0 X117.437 Y177.112
G0 X119.233 Y178.446
G0 X121.162 Y179.602
G0 X123.184 Y180.556
G0 X125.279 Y181.307
G0 X127.463 Y181.853
G0 X129.673 Y182.181
G0 X131.9 Y182.29
G0 X134.127 Y182.181
G0 X136.337 Y181.853
G0 X138.521 Y181.307
G0 X140.616 Y180.556
G0 X168.179 Y168.179
G0 X179.852 Y140
G0 X168.179 Y111.821
G0 X153.407 Y101.428
G0 X155.938 Y101.984
G0 X157.577 Y98.123
G0 X174.753 Y105.247
G0 X176.024 Y109.994
G0 X175.581 Y109.74
G0 X174.223 Y109.94
G0 X173.324 Y110.158
G1 F900 X172.892 Y109.747 E11.00971
G1 X172.802 Y109.62 E11.01489
G1 X172.707 Y109.426 E11.02209
G1 X172.666 Y109.277 E11.02723
G1 X172.661 Y109.196 E11.02994
G1 X172.673 Y109.101 E11.03313
G1 X172.735 Y108.98 E11.03766
G1 X172.827 Y108.887 E11.04201
G1 X172.965 Y108.802 E11.04741
G1 X173.115 Y108.749 E11.05271
G1 X173.162 Y108.74 E11.05431
G1 X173.259 Y108.734 E11.05754
G1 X173.364 Y108.75 E11.06108
G1 X173.465 Y108.803 E11.06488
G1 X173.538 Y108.874 E11.06827
G1 X173.624 Y108.998 E11.0733
G1 X173.681 Y109.136 E11.07827
G1 X173.732 Y109.324 E11.08476
G1 X173.747 Y109.445 E11.08882
G1 X173.77 Y109.958 E11.10593
G1 X173.779 Y110.164 E11.1128
G1 X173.473 Y110.3 E11.12395
G1 X173.324 Y110.158 E11.12975
G0 F2625 X175.451 Y110.258
G0 X175.836 Y110.485
G0 X176.129 Y110.879
G0 X176.316 Y111.384
G0 X176.376 Y111.824
G0 X175.426 Y112.171
G0 X174.841 Y112.06
G0 X174.93 Y112.105
G1 F900 X174.107 Y112.471 E11.15975
G1 X174.064 Y112.375 E11.16325
G1 X174.887 Y112.009 E11.16953
G1 X174.908 Y112 E11.17029
G1 X174.93 Y112.105 E11.17216
G0 F2625 X174.841 Y112.06
G0 X175.568 Y112.33
G0 X176.513 Y111.917
G0 X176.997 Y113.01
G0 X174.875 Y115.248
G0 X172.474 Y116.329
G0 X174.959 Y122.628
G0 X174.977 Y122.53
G1 F900 X175.238 Y122.27 E11.18443
G1 X175.277 Y122.231 E11.18627
G1 X175.491 Y122.018 E11.19633
G1 X175.73 Y121.781 E11.20754
G1 X175.53 Y122.056 E11.20824
G1 X175.67 Y122.323 E11.21468
G1 X176.553 Y124 E11.27781
G1 X175.53 Y125.944 E11.35098
G1 X176.078 Y126.699 E11.38206
G1 X178.244 Y126.327 E11.45527
G1 X179.571 Y127.688 E11.51858
G1 X176.818 Y131.477 E11.67459
G1 X176.811 Y131.487 E11.675
G1 X177.044 Y132.011 E11.6941
G1 X178.81 Y135.978 E11.83875
G1 X183.699 Y136.491 E12.0025
G1 X186.007 Y133.313 E12.13333
G1 X186.269 Y132.953 E12.14816
G1 X186.439 Y133.365 E12.15653
G1 X189.188 Y140 E12.39576
G1 X174.781 Y174.781 E13.64979
G1 X140 Y189.188 E14.90381
G1 X106.986 Y175.512 E16.09414
G1 X106.429 Y175.282 E16.11422
G1 X106.986 Y175.052 E16.125
G1 X109.956 Y173.821 E16.2321
G1 X109.957 Y173.82 E16.23214
G1 X110.187 Y173.726 E16.24042
G1 X110.092 Y173.496 E16.24577
G1 X107.317 Y166.797 E16.4873
G1 X102.703 Y168.708 E16.65366
G1 X90.812 Y140 E17.68872
G1 X105.219 Y105.219 E18.94275
G1 X106.246 Y104.794 E18.97977
G1 X106.707 Y105.209 E19.00043
G1 X107.498 Y105.79 E19.03312
G1 X107.647 Y105.889 E19.03908
G1 X108.149 Y106.168 E19.05821
G1 X108.805 Y106.359 E19.08097
G1 X109.508 Y106.11 E19.10581
G1 X109.881 Y105.541 E19.12848
G1 X110.06 Y104.793 E19.1541
G1 X110.179 Y103.835 E19.18625
G1 X110.186 Y103.779 E19.18813
G1 X110.281 Y103.288 E19.20479
G1 X110.466 Y103.443 E19.20671
G1 X110.509 Y103.479 E19.20847
G1 X110.734 Y103.668 E19.21826
G1 X111.704 Y104.679 E19.26493
G1 X112.788 Y105.784 E19.31649
G1 X113.82 Y106.54 E19.35911
G1 X114.713 Y106.594 E19.38891
G1 X115.265 Y105.896 E19.41855
G1 X115.398 Y104.615 E19.46145
G1 X115.309 Y103.181 E19.50931
G1 X115.197 Y101.672 E19.55971
G1 X115.208 Y101.359 E19.57015
G1 X115.216 Y101.112 E19.57838
G1 X115.218 Y101.077 E19.57955
G1 X115.29 Y101.047 E19.58214
G1 X115.439 Y101.12 E19.58554
G1 X115.644 Y101.256 E19.59175
G1 X116.624 Y101.906 E19.63092
G1 X117.541 Y102.295 E19.6641
G1 X118.227 Y102.226 E19.68707
G1 X118.752 Y101.778 E19.71006
G1 X119.046 Y100.904 E19.74078
G1 X119.179 Y99.815 E19.77732
G1 X119.255 Y99.405 E19.79121
G1 X120.53 Y98.877 E19.83718
G1 X120.625 Y98.879 E19.84034
G1 X123.217 Y99.277 E19.9277
G1 X124.388 Y99.306 E19.96671
G1 X124.556 Y99.281 E19.97237
G1 X125.09 Y99.146 E19.99072
G1 X125.647 Y98.751 E20.01347
G1 X126.122 Y97.819 E20.04831
G1 X126.28 Y96.885 E20.07986
G1 X126.33 Y96.474 E20.09366
G1 X126.918 Y96.231 E20.11485
G1 X127.855 Y96.809 E20.15152
G1 X128.347 Y97.028 E20.16946
G1 X129.125 Y97.167 E20.19579
G1 X129.882 Y97.101 E20.2211
G1 X131.132 Y96.747 E20.26437
G1 X132.188 Y96.305 E20.30251
G1 X133.179 Y95.778 E20.33989
G1 X134.165 Y95.124 E20.37931
G1 X135.068 Y94.379 E20.4183
G1 X136.737 Y92.674 E20.49778
G1 X137.323 Y91.922 E20.52953
G1 X140 Y90.812 E20.62607
G1 X148.036 Y94.141 E20.91581
G1 X148.037 Y94.142 E20.91586
G1 X148.268 Y94.237 E20.92418
G1 X148.17 Y94.468 E20.92956
G1 X146.665 Y98.015 E21.05791
G1 X148.065 Y98.611 E21.10859
G1 X148.192 Y98.665 E21.11319
G1 X148.477 Y98.787 E21.12351
G1 X148.418 Y98.856
G1 X148.328 Y98.961 E21.12736
G1 X145.369 Y102.412 E21.27879
G1 X140 Y100.188 E21.47237
G1 X111.849 Y111.849 E22.48735
G1 X100.188 Y140 E23.50234
G1 X109.289 Y161.973 E24.29457
G1 X109.396 Y162.839 E24.32363
G1 X109.587 Y163.938 E24.36079
G1 X109.831 Y165.028 E24.398
G1 X110.129 Y166.104 E24.43519
G1 X110.48 Y167.165 E24.47241
G1 X110.882 Y168.206 E24.50959
G1 X111.334 Y169.227 E24.54678
G1 X111.836 Y170.225 E24.58399
G1 X112.387 Y171.196 E24.62118
G1 X112.984 Y172.139 E24.65836
G1 X113.626 Y173.052 E24.69554
G1 X114.314 Y173.933 E24.73277
G1 X115.043 Y174.778 E24.76995
G1 X115.813 Y175.587 E24.80715
G1 X116.622 Y176.357 E24.84435
G1 X117.467 Y177.086 E24.88153
G1 X118.348 Y177.774 E24.91876
G1 X119.26 Y178.416 E24.95591
G1 X120.204 Y179.014 E24.99314
G1 X121.175 Y179.564 E25.03031
G1 X122.173 Y180.066 E25.06752
G1 X123.194 Y180.518 E25.10471
G1 X124.235 Y180.92 E25.14189
G1 X125.296 Y181.271 E25.17911
G1 X126.372 Y181.569 E25.2163
G1 X127.462 Y181.813 E25.25351
G1 X128.562 Y182.004 E25.2907
G1 X129.671 Y182.141 E25.32792
G1 X130.784 Y182.223 E25.3651
G1 X131.9 Y182.25 E25.40228
G1 X133.016 Y182.223 E25.43947
G1 X134.129 Y182.141 E25.47664
G1 X135.238 Y182.004 E25.51386
G1 X136.338 Y181.813 E25.55105
G1 X137.428 Y181.569 E25.58826
G1 X138.504 Y181.271 E25.62545
G1 X139.565 Y180.92 E25.66268
G1 X140.606 Y180.518 E25.69985
G1 X141.627 Y180.066 E25.73704
G1 X142.625 Y179.564 E25.77426
G1 X143.596 Y179.014 E25.81143
G1 X144.54 Y178.416 E25.84865
G1 X145.452 Y177.774 E25.8858
G1 X146.053 Y177.305 E25.9112
G1 X168.151 Y168.151 E26.70795
G1 X179.812 Y140 E27.72293
G1 X176.582 Y132.203 E28.00406
G1 X176.363 Y131.673 E28.02287
G1 X176.359 Y131.661 E28.0233
G1 X168.151 Y111.849 E28.73764
G1 X151.657 Y105.016 E29.33234
G1 X151.464 Y104.937 E29.33928
G1 X151.23 Y104.84 E29.34772
G1 X151.053 Y104.766 E29.35411
G1 X151.266 Y104.749 E29.35528
G1 X151.579 Y104.657 E29.36067
G1 X151.763 Y104.559 E29.36637
G1 X151.863 Y104.506 E29.37014
G1 X152.1 Y104.304 E29.38051
G1 X152.288 Y104.071 E29.39049
G1 X152.424 Y103.812 E29.40023
G1 X152.503 Y103.573 E29.40862
G1 X152.543 Y103.327 E29.41692
G1 X152.543 Y103.077 E29.42525
G1 X152.533 Y103.018 E29.42724
G1 X152.622 Y102.97 E29.43061
G1 X152.851 Y102.786 E29.44039
G1 X153.049 Y102.556 E29.4505
G1 X153.194 Y102.305 E29.46016
G1 X153.265 Y102.137 E29.46623
G1 X153.317 Y101.967 E29.47215
G1 X153.352 Y101.792 E29.4781
G1 X153.369 Y101.614 E29.48406
G1 X153.368 Y101.434 E29.49005
G1 X153.359 Y101.362 E29.49247
G1 X153.346 Y101.239 E29.49659
G1 X153.262 Y100.926 E29.50738
G1 X153.202 Y100.792 E29.51227
G1 X153.3 Y100.833 E29.51228
G1 X153.484 Y100.911 E29.51665
G1 X153.598 Y100.959 E29.52025
G1 X155.695 Y101.85 E29.59615
G1 X155.925 Y101.947 E29.60446
G1 X156.022 Y101.717 E29.60983
G1 X157.562 Y98.086 E29.74121
G1 X174.781 Y105.219 E30.36204
G1 X176.86 Y110.243 E30.54316
G1 X176.897 Y110.334 E30.54643
G1 X176.965 Y110.498 E30.55234
G1 X177.091 Y110.801 E30.56328
G1 X177.213 Y111.096 E30.57391
G1 X177.24 Y111.159 E30.57619
G1 X178.034 Y113.077 E30.64534
G1 X178.13 Y113.308 E30.65367
G1 X178.952 Y115.291 E30.72518
G1 X179.292 Y116.111 E30.75475
G1 X179.965 Y117.736 E30.81333
G1 X180.952 Y120.116 E30.89916
G1 X181.005 Y120.246 E30.90384
G1 X181.205 Y120.729 E30.92125
G1 X181.964 Y122.56 E30.98727
G1 X182.218 Y123.173 E31.00938
G1 X181.623 Y122.88 E31.02113
G1 X180.979 Y122.562 E31.04506
G1 X180.738 Y120.904 E31.10086
G1 X180.664 Y120.387 E31.116
G1 X180.53 Y120.344 E31.12013
G1 X179.777 Y120.1 E31.1465
G1 X178.244 Y121.673 E31.21966
G1 X176.669 Y121.402 E31.2729
G1 X176.192 Y121.321 E31.28901
G1 X176.535 Y120.98 E31.29795
G1 X179.672 Y117.857 E31.4454
G1 X178.959 Y116.25 E31.48505
G1 X176.269 Y116.476 E31.57497
G1 X178.597 Y115.439 E31.65986
G1 X177.724 Y113.476 E31.71876
G1 X175.375 Y114.521 E31.8044
G1 X175.251 Y114.576 E31.80892
G1 X175.19 Y114.603 E31.81114
G1 X175.131 Y114.63 E31.8133
G1 X175.081 Y114.53 E31.81703
G1 X175.075 Y114.49 E31.81733
G1 X175.11 Y114.425 E31.81804
G1 X175.161 Y114.374 E31.81862
G1 X175.277 Y114.301 E31.82074
G1 X177.62 Y113.248 E31.86264
G1 X176.778 Y111.35 E31.92808
G1 X176.767 Y111.28 E31.9304
G1 X176.673 Y110.974 E31.94036
G1 X176.543 Y110.674 E31.95026
G1 X176.454 Y110.516 E31.95591
G1 X176.398 Y110.435 E31.95912
G1 X176.317 Y110.321 E31.96378
G1 X176.152 Y110.148 E31.97174
G1 X176.006 Y110.029 E31.97801
G1 X175.801 Y109.904 E31.98601
G1 X175.722 Y109.872 E31.98885
G1 X175.71 Y109.245 E32.00974
G1 X175.682 Y109.014 E32.01749
G1 X175.631 Y108.771 E32.02576
G1 X175.558 Y108.509 E32.03482
G1 X175.475 Y108.276 E32.04306
G1 X175.358 Y108.01 E32.05274
G1 X175.235 Y107.782 E32.06137
G1 X175.032 Y107.487 E32.0733
G1 X174.84 Y107.272 E32.0829
G1 X174.661 Y107.108 E32.09099
G1 X174.421 Y106.931 E32.10092
G1 X174.201 Y106.808 E32.10932
G1 X173.989 Y106.715 E32.11703
G1 X173.763 Y106.645 E32.12491
G1 X173.523 Y106.597 E32.13306
G1 X173.256 Y106.576 E32.14198
G1 X173.019 Y106.581 E32.14988
G1 X172.817 Y106.605 E32.15665
G1 X172.576 Y106.654 E32.16485
G1 X172.25 Y106.76 E32.17627
G1 X172.014 Y106.865 E32.18487
G1 X171.794 Y106.989 E32.19328
G1 X171.643 Y107.094 E32.19941
G1 X171.608 Y107.118 E32.20082
G1 X171.59 Y107.13 E32.20154
G1 X171.478 Y107.226 E32.20646
G1 X171.4 Y107.292 E32.20986
G1 X171.284 Y107.415 E32.21549
G1 X171.303 Y107.279 E32.21566
G1 X171.331 Y107.091 E32.21877
G1 X171.336 Y107.061
G1 X171.34 Y106.968 E32.22008
G1 X171.351 Y106.745 E32.22607
G1 X171.349 Y106.702 E32.22744
G1 X171.334 Y106.425 E32.23668
G1 X171.284 Y106.108 E32.24737
G1 X171.205 Y105.801 E32.25793
G1 X171.096 Y105.501 E32.26856
G1 X170.958 Y105.213 E32.2792
G1 X170.793 Y104.941 E32.2898
G1 X170.602 Y104.686 E32.30041
G1 X170.386 Y104.45 E32.31107
G1 X170.149 Y104.238 E32.32166
G1 X169.892 Y104.048 E32.33231
G1 X169.618 Y103.886 E32.34291
G1 X169.327 Y103.75 E32.35361
G1 X169.026 Y103.645 E32.36423
G1 X168.716 Y103.569 E32.37486
G1 X168.4 Y103.525 E32.38549
G1 X168.081 Y103.51 E32.39613
G1 X167.763 Y103.528 E32.40674
G1 X167.449 Y103.577 E32.41732
G1 X167.139 Y103.656 E32.42798
G1 X166.84 Y103.765 E32.43858
G1 X166.552 Y103.903 E32.44922
G1 X166.3 Y104.056 E32.45904
G1 X166.28 Y104.068 E32.45981
G1 X166.081 Y104.216 E32.46807
G1 X166.023 Y104.26 E32.4705
G1 X165.996 Y104.285 E32.47173
G1 X165.899 Y104.374 E32.47611
G1 X165.894 Y104.267 E32.47645
G1 X165.888 Y104.169 E32.47718
G1 X165.883 Y104.132
G1 X165.846 Y103.902 E32.48273
G1 X165.84 Y103.879 E32.48352
G1 X165.779 Y103.642 E32.49168
