;Generated by Cura LulzBot Edition GCodeWriter Version: 3.6.20
;FLAVOR:Marlin
;TIME:1988
;Filament used: 1.23326m
;Layer height: 0.25
;Generated with Cura_SteamEngine 3.6.20
M82 ;absolute extrusion mode
;This G-Code has been generated specifically for the LulzBot TAZ 6 with standard extruder
M73 P0 ; clear GLCD progress bar
M75 ; start GLCD timer
G26 ; clear potential 'probe fail' condition
M107 ; disable fans
M420 S0 ; disable previous leveling matrix
G90 ; absolute positioning
M82 ; set extruder to absolute mode
G92 E0 ; set extruder position to 0
M140 S60.0 ; start bed heating up
M109 R140 ; soften filament before homing Z
G28 ; Home all axis
G1 E-30 F100 ; retract filament
M109 R140 ; wait for extruder to reach wiping temp
G1 X-15 Y100 F3000 ; move above wiper pad
G1 Z1 ; push nozzle into wiper
G1 X-17 Y95 F1000 ; slow wipe
G1 X-17 Y90 F1000 ; slow wipe
G1 X-17 Y85 F1000 ; slow wipe
G1 X-15 Y90 F1000 ; slow wipe
G1 X-17 Y80 F1000 ; slow wipe
G1 X-15 Y95 F1000 ; slow wipe
G1 X-17 Y75 F2000 ; fast wipe
G1 X-15 Y65 F2000 ; fast wipe
G1 X-17 Y70 F2000 ; fast wipe
G1 X-15 Y60 F2000 ; fast wipe
G1 X-17 Y55 F2000 ; fast wipe
G1 X-15 Y50 F2000 ; fast wipe
G1 X-17 Y40 F2000 ; fast wipe
G1 X-15 Y45 F2000 ; fast wipe
G1 X-17 Y35 F2000 ; fast wipe
G1 X-15 Y40 F2000 ; fast wipe
G1 X-17 Y70 F2000 ; fast wipe
G1 X-15 Y30 Z2 F2000 ; fast wipe
G1 X-17 Y35 F2000 ; fast wipe
G1 X-15 Y25 F2000 ; fast wipe
G1 X-17 Y30 F2000 ; fast wipe
G1 X-15 Y25 Z1.5 F1000 ; slow wipe
G1 X-17 Y23 F1000 ; slow wipe
G1 Z10 ; raise extruder
M109 R140 ; wait for extruder to reach probe temp
G1 X-9 Y-9 ; move above first probe point
M204 S100 ; set probing acceleration
G29 ; start auto-leveling sequence
M420 S1 ; activate bed level matrix
M425 Z			     ; use measured Z backlash for compensation
M425 Z F0		     ; turn off measured Z backlash compensation. (if activated in the quality settings, this command will automatically be ignored)
M204 S500 ; restore standard acceleration
G1 X0 Y0 Z15 F5000 ; move up off last probe point
G4 S1 ; pause
M400 ; wait for moves to finish
M117 Heating... ; progress indicator message on LCD
M109 R210 ; wait for extruder to reach printing temp
M190 R60.0 ; wait for bed to reach printing temp
G1 Z2 E0 F75 ; prime tiny bit of filament into the nozzle
M117 TAZ 6 Printing... ; progress indicator message on LCD

M221 S100 T0
G92 E0
G1 F600 E-1
;LAYER_COUNT:800
;LAYER:0
M107
G0 F2625 X126.85 Y135.958 Z0.425
;TYPE:SKIRT
G1 F600 E0
G1 F900 X128.168 Y134.78 E0.05888
G1 X132.101 Y131.005 E0.24048
G1 X136.029 Y126.776 E0.43274
G1 X136.476 Y126.353 E0.45324
G1 X136.975 Y125.991 E0.47377
G1 X137.516 Y125.697 E0.49428
G1 X138.091 Y125.476 E0.5148
G1 X138.69 Y125.33 E0.53534
G1 X139.538 Y125.259 E0.56368
G1 X140.53 Y125.265 E0.59673
G1 X141.144 Y125.309 E0.61723
G1 X141.748 Y125.432 E0.63777
G1 X142.331 Y125.632 E0.6583
G1 X142.883 Y125.905 E0.67881
G1 X143.395 Y126.248 E0.69934
G1 X144.042 Y126.85 E0.72878
G1 X145.22 Y128.168 E0.78766
G1 X148.994 Y132.1 E0.9692
G1 X153.222 Y136.025 E1.16137
G1 X153.645 Y136.472 E1.18187
G1 X154.007 Y136.971 E1.20241
G1 X154.301 Y137.512 E1.22292
G1 X154.523 Y138.087 E1.24345
G1 X154.669 Y138.686 E1.26399
G1 X154.74 Y139.525 E1.29203
G1 X154.736 Y140.519 E1.32514
G1 X154.694 Y141.134 E1.34568
G1 X154.572 Y141.738 E1.3662
G1 X154.373 Y142.321 E1.38672
G1 X154.101 Y142.873 E1.40722
G1 X153.759 Y143.386 E1.42776
G1 X153.152 Y144.041 E1.45751
G1 X151.819 Y145.233 E1.51707
G1 X147.899 Y148.995 E1.69805
G1 X143.971 Y153.224 E1.89031
G1 X143.524 Y153.647 E1.91081
G1 X143.025 Y154.009 E1.93135
G1 X142.484 Y154.303 E1.95186
G1 X141.909 Y154.524 E1.97238
G1 X141.31 Y154.67 E1.99291
G1 X140.462 Y154.741 E2.02126
G1 X139.47 Y154.735 E2.0543
G1 X138.856 Y154.691 E2.07481
G1 X138.252 Y154.568 E2.09534
G1 X137.669 Y154.368 E2.11587
G1 X137.117 Y154.095 E2.13639
G1 X136.605 Y153.752 E2.15691
G1 X135.958 Y153.15 E2.18635
G1 X134.78 Y151.832 E2.24524
G1 X130.998 Y147.891 E2.42718
G1 X126.77 Y143.949 E2.61974
G1 X126.347 Y143.5 E2.64028
G1 X125.986 Y143.001 E2.6608
G1 X125.693 Y142.459 E2.68132
G1 X125.473 Y141.884 E2.70183
G1 X125.329 Y141.285 E2.72235
G1 X125.259 Y140.446 E2.7504
G1 X125.265 Y139.47 E2.78291
G1 X125.309 Y138.855 E2.80345
G1 X125.432 Y138.252 E2.82395
G1 X125.632 Y137.669 E2.84448
G1 X125.906 Y137.117 E2.865
G1 X126.248 Y136.605 E2.88551
G1 X126.85 Y135.958 E2.91495
G0 F2625 X127.183 Y136.33
G1 F900 X128.523 Y135.132 E2.97483
G1 X132.461 Y131.353 E3.15663
G1 X136.395 Y127.117 E3.3492
G1 X136.82 Y126.718 E3.36862
G1 X137.295 Y126.381 E3.38802
G1 X137.813 Y126.112 E3.40746
G1 X138.362 Y125.917 E3.42686
G1 X138.932 Y125.798 E3.44626
G1 X139.535 Y125.759 E3.46639
G1 X140.527 Y125.765 E3.49943
G1 X141.108 Y125.809 E3.51884
G1 X141.678 Y125.931 E3.53826
G1 X142.225 Y126.13 E3.55765
G1 X142.74 Y126.403 E3.57706
G1 X143.213 Y126.743 E3.59647
G1 X143.67 Y127.183 E3.6176
G1 X144.868 Y128.523 E3.67747
G1 X148.638 Y132.451 E3.85883
G1 X152.882 Y136.391 E4.05173
G1 X153.28 Y136.816 E4.07112
G1 X153.617 Y137.292 E4.09055
G1 X153.886 Y137.809 E4.10997
G1 X154.082 Y138.357 E4.12935
G1 X154.201 Y138.928 E4.14878
G1 X154.24 Y139.523 E4.16864
G1 X154.236 Y140.517 E4.20175
G1 X154.194 Y141.098 E4.22116
G1 X154.072 Y141.668 E4.24057
G1 X153.874 Y142.216 E4.25998
G1 X153.603 Y142.732 E4.2794
G1 X153.263 Y143.206 E4.29883
G1 X152.818 Y143.669 E4.32022
G1 X151.477 Y144.868 E4.38014
G1 X147.539 Y148.647 E4.56195
G1 X143.605 Y152.883 E4.75451
G1 X143.18 Y153.282 E4.77393
G1 X142.705 Y153.619 E4.79333
G1 X142.187 Y153.888 E4.81277
G1 X141.638 Y154.083 E4.83218
G1 X141.068 Y154.202 E4.85158
G1 X140.465 Y154.241 E4.8717
G1 X139.473 Y154.235 E4.90475
G1 X138.892 Y154.191 E4.92416
G1 X138.322 Y154.069 E4.94357
G1 X137.775 Y153.87 E4.96296
G1 X137.26 Y153.597 E4.98238
G1 X136.787 Y153.257 E5.00178
G1 X136.33 Y152.817 E5.02292
G1 X135.132 Y151.477 E5.08279
G1 X131.346 Y147.532 E5.26492
G1 X127.111 Y143.583 E5.45781
G1 X126.713 Y143.158 E5.4772
G1 X126.377 Y142.681 E5.49664
G1 X126.109 Y142.164 E5.51604
G1 X125.915 Y141.614 E5.53546
G1 X125.797 Y141.044 E5.55485
G1 X125.759 Y140.449 E5.57471
G1 X125.765 Y139.473 E5.60722
G1 X125.809 Y138.892 E5.62663
G1 X125.931 Y138.322 E5.64605
G1 X126.131 Y137.774 E5.66548
G1 X126.403 Y137.259 E5.68488
G1 X126.743 Y136.786 E5.70429
G1 X127.183 Y136.33 E5.72539
G0 F2625 X127.516 Y136.703
G1 F900 X128.864 Y135.498 E5.78562
G1 X132.811 Y131.71 E5.96785
G1 X136.761 Y127.457 E6.16119
G1 X137.162 Y127.084 E6.17944
G1 X137.613 Y126.774 E6.19767
G1 X138.104 Y126.532 E6.2159
G1 X138.625 Y126.365 E6.23412
G1 X139.165 Y126.275 E6.25236
G1 X139.532 Y126.259 E6.2646
G1 X140.524 Y126.265 E6.29764
G1 X141.069 Y126.308 E6.31585
G1 X141.603 Y126.431 E6.33411
G1 X142.113 Y126.629 E6.35233
G1 X142.589 Y126.9 E6.37057
G1 X143.02 Y127.237 E6.3888
G1 X143.297 Y127.516 E6.4019
G1 X144.502 Y128.864 E6.46212
G1 X148.298 Y132.819 E6.64473
G1 X152.541 Y136.758 E6.83758
G1 X152.914 Y137.158 E6.8558
G1 X153.225 Y137.609 E6.87405
G1 X153.467 Y138.1 E6.89228
G1 X153.634 Y138.621 E6.91051
G1 X153.724 Y139.161 E6.92874
G1 X153.74 Y139.521 E6.94074
G1 X153.736 Y140.515 E6.97386
G1 X153.694 Y141.061 E6.9921
G1 X153.573 Y141.595 E7.01034
G1 X153.375 Y142.105 E7.02856
G1 X153.105 Y142.581 E7.04679
G1 X152.769 Y143.013 E7.06502
G1 X152.485 Y143.296 E7.07837
G1 X151.136 Y144.501 E7.13863
G1 X147.189 Y148.29 E7.32088
G1 X143.239 Y152.543 E7.51422
G1 X142.838 Y152.916 E7.53246
G1 X142.387 Y153.226 E7.55069
G1 X141.896 Y153.468 E7.56893
G1 X141.375 Y153.635 E7.58715
G1 X140.835 Y153.725 E7.60539
G1 X140.468 Y153.741 E7.61763
G1 X139.476 Y153.735 E7.65067
G1 X138.931 Y153.692 E7.66888
G1 X138.397 Y153.569 E7.68713
G1 X137.887 Y153.371 E7.70536
G1 X137.411 Y153.1 E7.7236
G1 X136.98 Y152.763 E7.74183
G1 X136.703 Y152.484 E7.75492
G1 X135.498 Y151.136 E7.81515
G1 X131.704 Y147.183 E7.99766
G1 X127.452 Y143.218 E8.19132
G1 X127.08 Y142.816 E8.20957
G1 X126.77 Y142.365 E8.2278
G1 X126.529 Y141.873 E8.24605
G1 X126.363 Y141.352 E8.26426
G1 X126.274 Y140.811 E8.28252
G1 X126.259 Y140.452 E8.29449
G1 X126.265 Y139.476 E8.327
G1 X126.308 Y138.93 E8.34525
G1 X126.431 Y138.397 E8.36347
G1 X126.629 Y137.887 E8.38169
G1 X126.9 Y137.411 E8.39994
G1 X127.237 Y136.98 E8.41816
G1 X127.516 Y136.703 E8.43126
G0 F2625 X127.849 Y137.076
G1 F900 X129.189 Y135.879 E8.49111
G1 X133.179 Y132.048 E8.67536
G1 X137.128 Y127.797 E8.86864
G1 X137.503 Y127.452 E8.88561
G1 X137.927 Y127.17 E8.90257
G1 X138.39 Y126.958 E8.91954
G1 X138.881 Y126.82 E8.93652
G1 X139.529 Y126.759 E8.95821
G1 X140.521 Y126.765 E8.99125
G1 X141.028 Y126.808 E9.0082
G1 X141.523 Y126.93 E9.02518
G1 X141.993 Y127.128 E9.04217
G1 X142.426 Y127.396 E9.05913
G1 X142.924 Y127.849 E9.08156
G1 X144.121 Y129.189 E9.14141
G1 X147.951 Y133.178 E9.32561
G1 X152.201 Y137.124 E9.5188
G1 X152.546 Y137.499 E9.53577
G1 X152.829 Y137.923 E9.55275
G1 X153.041 Y138.386 E9.56971
G1 X153.179 Y138.877 E9.5867
G1 X153.24 Y139.519 E9.60818
G1 X153.236 Y140.513 E9.64129
G1 X153.194 Y141.021 E9.65827
G1 X153.073 Y141.516 E9.67525
G1 X152.876 Y141.986 E9.69222
G1 X152.609 Y142.419 E9.70917
G1 X152.152 Y142.923 E9.73183
G1 X150.811 Y144.121 E9.79173
G1 X146.821 Y147.952 E9.97598
G1 X142.872 Y152.203 E10.16926
G1 X142.497 Y152.548 E10.18623
G1 X142.073 Y152.83 E10.20319
G1 X141.61 Y153.042 E10.22015
G1 X141.119 Y153.18 E10.23714
G1 X140.471 Y153.241 E10.25882
G1 X139.479 Y153.235 E10.29187
G1 X138.972 Y153.192 E10.30882
G1 X138.477 Y153.07 E10.3258
G1 X138.007 Y152.872 E10.34279
G1 X137.574 Y152.604 E10.35975
G1 X137.076 Y152.151 E10.38218
G1 X135.879 Y150.811 E10.44203
G1 X132.043 Y146.815 E10.62654
G1 X127.793 Y142.852 E10.82011
G1 X127.448 Y142.476 E10.8371
G1 X127.167 Y142.051 E10.85408
G1 X126.955 Y141.588 E10.87104
G1 X126.819 Y141.097 E10.88801
G1 X126.759 Y140.455 E10.90949
G1 X126.765 Y139.479 E10.942
G1 X126.808 Y138.971 E10.95898
G1 X126.93 Y138.477 E10.97593
G1 X127.128 Y138.007 E10.99292
G1 X127.396 Y137.574 E11.00988
G1 X127.849 Y137.076 E11.03231
G1 F600 E10.03231
;MESH:
G0 F2625 X130.264 Y138.835
G0 X130.264 Y139.764
G0 X140.18 Y139.82
G0 X140.25 Y139.75
M104 S205
;TYPE:WALL-OUTER
G1 F600 E11.03231
G1 F900 X149.75 Y139.75 E11.34876
G1 X149.75 Y140.25 E11.36541
G1 X140.25 Y140.25 E11.68186
G1 X140.25 Y149.75 E11.99831
G1 X139.75 Y149.75 E12.01496
G1 X139.75 Y140.25 E12.33141
G1 X130.25 Y140.25 E12.64786
G1 X130.25 Y139.75 E12.66452
G1 X139.75 Y139.75 E12.98096
G1 X139.75 Y130.25 E13.29741
G1 X140.25 Y130.25 E13.31407
G1 X140.25 Y139.75 E13.63052
G0 F2625 X140.5 Y139.75
;MESH:NONMESH
G0 X140.25 Y139.75
;TIME_ELAPSED:41.443294
;LAYER:1
M140 S60
M221 S100 T0
M106 S85
;MESH:
G0 F6562.5 X140.25 Y139.75 Z0.675
;TYPE:WALL-OUTER
G1 F1650 X149.75 Y139.75 E13.81666
G1 X149.75 Y140.25 E13.82646
G1 X140.25 Y140.25 E14.01261
G1 X140.25 Y149.75 E14.19875
G1 X139.75 Y149.75 E14.20855
G1 X139.75 Y140.25 E14.39469
G1 X130.25 Y140.25 E14.58084
G1 X130.25 Y139.75 E14.59064
G1 X139.75 Y139.75 E14.77678
G1 X139.75 Y130.25 E14.96293
G1 X140.25 Y130.25 E14.97273
G1 X140.25 Y139.75 E15.15887
G0 F6562.5 X140.5 Y139.75
;MESH:NONMESH
G0 X140.25 Y139.75
;TIME_ELAPSED:44.582175
;LAYER:2
M106 S170
;MESH:
G0 F10500 X140.25 Y139.75 Z0.925
;TYPE:WALL-OUTER
G1 F2400 X149.75 Y139.75 E15.34502
G1 X149.75 Y140.25 E15.35482
G1 X140.25 Y140.25 E15.54096
G1 X140.25 Y149.75 E15.72711
G1 X139.75 Y149.75 E15.73691
G1 X139.75 Y140.25 E15.92305
G1 X130.25 Y140.25 E16.1092
G1 X130.25 Y139.75 E16.119
G1 X139.75 Y139.75 E16.30514
G1 X139.75 Y130.25 E16.49129
G1 X140.25 Y130.25 E16.50109
G1 X140.25 Y139.75 E16.68723
G0 F10500 X140.5 Y139.75
;MESH:NONMESH
G0 X140.25 Y139.75
;TIME_ELAPSED:47.021523
;LAYER:3
M106 S255
;MESH:
G0 X140.25 Y139.75 Z1.175
;TYPE:WALL-OUTER
G1 F2400 X149.75 Y139.75 E16.87338
G1 X149.75 Y140.25 E16.88317
G1 X140.25 Y140.25 E17.06932
G1 X140.25 Y149.75 E17.25547
G1 X139.75 Y149.75 E17.26526
G1 X139.75 Y140.25 E17.45141
G1 X130.25 Y140.25 E17.63756
G1 X130.25 Y139.75 E17.64735
G1 X139.75 Y139.75 E17.8335
G1 X139.75 Y130.25 E18.01965
G1 X140.25 Y130.25 E18.02944
G1 X140.25 Y139.75 E18.21559
G0 F10500 X140.5 Y139.75
;MESH:NONMESH
G0 X140.25 Y139.75
;TIME_ELAPSED:49.460870
;LAYER:4
;MESH:
G0 X140.25 Y139.75 Z1.425
;TYPE:WALL-OUTER
G1 F2400 X149.75 Y139.75 E18.40174
G1 X149.75 Y140.25 E18.41153
G1 X140.25 Y140.25 E18.59768
G1 X140.25 Y149.75 E18.78382
G1 X139.75 Y149.75 E18.79362
G1 X139.75 Y140.25 E18.97977
G1 X130.25 Y140.25 E19.16591
G1 X130.25 Y139.75 E19.17571
G1 X139.75 Y139.75 E19.36186
G1 X139.75 Y130.25 E19.548
G1 X140.25 Y130.25 E19.5578
G1 X140.25 Y139.75 E19.74395
G0 F10500 X140.5 Y139.75
;MESH:NONMESH
G0 X140.25 Y139.75
;TIME_ELAPSED:51.900218
;LAYER:5
;MESH:
G0 X140.25 Y139.75 Z1.675
;TYPE:WALL-OUTER
G1 F2400 X149.75 Y139.75 E19.93009
G1 X149.75 Y140.25 E19.93989
G1 X140.25 Y140.25 E20.12604
G1 X140.25 Y149.75 E20.31218
G1 X139.75 Y149.75 E20.32198
G1 X139.75 Y140.25 E20.50813
G1 X130.25 Y140.25 E20.69427
G1 X130.25 Y139.75 E20.70407
G1 X139.75 Y139.75 E20.89022
G1 X139.75 Y130.25 E21.07636
G1 X140.25 Y130.25 E21.08616
G1 X140.25 Y139.75 E21.2723
G0 F10500 X140.5 Y139.75
;MESH:NONMESH
G0 X140.25 Y139.75
;TIME_ELAPSED:54.339565
;LAYER:6
;MESH:
G0 X140.25 Y139.75 Z1.925
;TYPE:WALL-OUTER
G1 F2400 X149.75 Y139.75 E21.45845
G1 X149.75 Y140.25 E21.46825
G1 X140.25 Y140.25 E21.65439
G1 X140.25 Y149.75 E21.84054
G1 X139.75 Y149.75 E21.85034
G1 X139.75 Y140.25 E22.03648
G1 X130.25 Y140.25 E22.22263
G1 X130.25 Y139.75 E22.23243
G1 X139.75 Y139.75 E22.41857
G1 X139.75 Y130.25 E22.60472
G1 X140.25 Y130.25 E22.61452
G1 X140.25 Y139.75 E22.80066
G0 F10500 X140.5 Y139.75
;MESH:NONMESH
G0 X140.25 Y139.75
;TIME_ELAPSED:56.778913
;LAYER:7
;MESH:
G0 X140.25 Y139.75 Z2.175
;TYPE:WALL-OUTER
G1 F2400 X149.75 Y139.75 E22.98681
G1 X149.75 Y140.25 E22.99661
G1 X140.25 Y140.25 E23.18275
G1 X140.25 Y149.75 E23.3689
G1 X139.75 Y149.75 E23.3787
G1 X139.75 Y140.25 E23.56484
G1 X130.25 Y140.25 E23.75099
G1 X130.25 Y139.75 E23.76078
G1 X139.75 Y139.75 E23.94693
G1 X139.75 Y130.25 E24.13308
G1 X140.25 Y130.25 E24.14287
G1 X140.25 Y139.75 E24.32902
G0 F10500 X140.5 Y139.75
;MESH:NONMESH
G0 X140.25 Y139.75
;TIME_ELAPSED:59.218260
;LAYER:8
;MESH:
G0 X140.25 Y139.75 Z2.425
;TYPE:WALL-OUTER
G1 F2400 X149.75 Y139.75 E24.51517
G1 X149.75 Y140.25 E24.52496
G1 X140.25 Y140.25 E24.71111
G1 X140.25 Y149.75 E24.89726
G1 X139.75 Y149.75 E24.90705
G1 X139.75 Y140.25 E25.0932
G1 X130.25 Y140.25 E25.27935
G1 X130.25 Y139.75 E25.28914
G1 X139.75 Y139.75 E25.47529
G1 X139.75 Y130.25 E25.66143
G1 X140.25 Y130.25 E25.67123
G1 X140.25 Y139.75 E25.85738
G0 F10500 X140.5 Y139.75
;MESH:NONMESH
G0 X140.25 Y139.75
;TIME_ELAPSED:61.657608
;LAYER:9
;MESH:
G0 X140.25 Y139.75 Z2.675
;TYPE:WALL-OUTER
G1 F2400 X149.75 Y139.75 E26.04352
G1 X149.75 Y140.25 E26.05332
G1 X140.25 Y140.25 E26.23947
G1 X140.25 Y149.75 E26.42561
G1 X139.75 Y149.75 E26.43541
G1 X139.75 Y140.25 E26.62156
G1 X130.25 Y140.25 E26.8077
G1 X130.25 Y139.75 E26.8175
G1 X139.75 Y139.75 E27.00365
G1 X139.75 Y130.25 E27.18979
G1 X140.25 Y130.25 E27.19959
G1 X140.25 Y139.75 E27.38574
G0 F10500 X140.5 Y139.75
;MESH:NONMESH
G0 X140.25 Y139.75
;TIME_ELAPSED:64.096955
;LAYER:10
;MESH:
G0 X140.25 Y139.75 Z2.925
;TYPE:WALL-OUTER
G1 F2400 X149.75 Y139.75 E27.57188
G1 X149.75 Y140.25 E27.58168
G1 X140.25 Y140.25 E27.76782
G1 X140.25 Y149.75 E27.95397
G1 X139.75 Y149.75 E27.96377
G1 X139.75 Y140.25 E28.14991
G1 X130.25 Y140.25 E28.33606
G1 X130.25 Y139.75 E28.34586
G1 X139.75 Y139.75 E28.532
G1 X139.75 Y130.25 E28.71815
G1 X140.25 Y130.25 E28.72795
G1 X140.25 Y139.75 E28.91409
G0 F10500 X140.5 Y139.75
;MESH:NONMESH
G0 X140.25 Y139.75
;TIME_ELAPSED:66.536303
;LAYER:11
;MESH:
G0 X140.25 Y139.75 Z3.175
;TYPE:WALL-OUTER
G1 F2400 X149.75 Y139.75 E29.10024
G1 X149.75 Y140.25 E29.11004
G1 X140.25 Y140.25 E29.29618
G1 X140.25 Y149.75 E29.48233
G1 X139.75 Y149.75 E29.49213
G1 X139.75 Y140.25 E29.67827
G1 X130.25 Y140.25 E29.86442
G1 X130.25 Y139.75 E29.87422
G1 X139.75 Y139.75 E30.06036
G1 X139.75 Y130.25 E30.24651
G1 X140.25 Y130.25 E30.2563
G1 X140.25 Y139.75 E30.44245
G0 F10500 X140.5 Y139.75
;MESH:NONMESH
