; generated by Slic3r 1.1.7 on 2015-09-03 at 13:34:34

; perimeters extrusion width = 0.43mm
; infill extrusion width = 0.49mm
; solid infill extrusion width = 0.43mm
; top infill extrusion width = 0.42mm

G21 ; set units to millimeters

M301 P34 I4 D113     ; set PID nozzle
M304 P162 I17 D378 ; set PID Bed

M104 S230                 ; set extruder temp for budaschnozzle
;M104 S250                 ; set extruder temp for hex_hot_end
M140 S110                 ; set bed temp for PEI (reminder ~G1 Z2 ~ M140 S(@-10 degree change) ;if -m is present in file name)

G28                            ; home
G1 Z5 F300                ; move bed down 5mm
M84                            ; disable steppers
G4 S300                     ; wait 5 mins to preheat

G28                            ; home

G90 ; use absolute coordinates
G92 E0
M82 ; use absolute distances for extrusion
G1 F1200.000 E-1.20000
G92 E0
G1 Z0.350 F9600.000
G1 X152.934 Y75.359 F9600.000
G1 E1.20000 F1200.000
G1 X183.932 Y46.894 E2.58728 F1080.000
G1 X185.812 Y45.705 E2.66060
G1 X188.149 Y45.251 E2.73909
G1 X194.164 Y45.251 E2.93734
G1 X205.865 Y45.278 E3.32306 F1080.000
G1 X208.053 Y45.680 E3.39638
G1 X210.074 Y46.926 E3.47465
G1 X241.071 Y75.460 E4.86346
G1 X242.413 Y77.234 E4.93678
G1 X243.084 Y80.048 E5.03212
G1 X243.084 Y130.048 E6.68031
G1 X242.687 Y132.237 E6.75364
G1 X241.066 Y134.641 E6.84922
G1 X210.068 Y163.106 E8.23650
G1 X208.188 Y164.295 E8.30983
G1 X205.851 Y164.749 E8.38831
G1 X188.135 Y164.722 E8.97228
G1 X185.947 Y164.320 E9.04560
G1 X183.926 Y163.074 E9.12387
G1 X152.929 Y134.540 E10.51268
G1 X151.587 Y132.766 E10.58601
G1 X150.916 Y129.952 E10.68134
G1 X150.916 Y79.952 E12.32953
G1 X151.313 Y77.763 E12.40286
G1 X152.892 Y75.422 E12.49597
G1 X153.352 Y75.814 F9600.000
G1 X184.350 Y47.349 E13.88325 F1080.000
G1 X186.145 Y46.239 E13.95282
G1 X188.149 Y45.869 E14.02002
G1 X194.162 Y45.869 E14.21823
G1 X205.863 Y45.896 E14.60394 F1080.000
G1 X207.935 Y46.297 E14.67351
G1 X209.655 Y47.380 E14.74051
G1 X240.653 Y75.915 E16.12932
G1 X241.909 Y77.610 E16.19889
G1 X242.466 Y80.048 E16.28131
G1 X242.466 Y130.048 E17.92950
G1 X242.069 Y132.121 E17.99907
G1 X240.648 Y134.186 E18.08171
G1 X209.650 Y162.651 E19.46898
G1 X207.855 Y163.761 E19.53855
G1 X205.851 Y164.131 E19.60576
G1 X188.137 Y164.104 E20.18968
G1 X186.065 Y163.703 E20.25925
G1 X184.345 Y162.620 E20.32625
G1 X153.347 Y134.085 E21.71506
G1 X152.091 Y132.390 E21.78463
G1 X151.534 Y129.952 E21.86705
G1 X151.534 Y79.952 E23.51524
G1 X151.931 Y77.879 E23.58481
G1 X153.310 Y75.876 E23.66497
G1 F1200.000 E22.46497
G92 E0
G1 X219.631 Y139.622 F9600.000
G1 E1.20000 F1200.000
M204 S2000
G1 X218.938 Y140.414 E1.23471 F1710.000
G1 X218.164 Y141.129 E1.26942
G1 X217.319 Y141.757 E1.30413
G1 X216.412 Y142.291 E1.33884
G1 X215.453 Y142.726 E1.37355
G1 X214.453 Y143.057 E1.40826
G1 X213.424 Y143.280 E1.44297
G1 X212.377 Y143.392 E1.47768
G1 X211.324 Y143.392 E1.51239
G1 X210.277 Y143.280 E1.54710
G1 X209.248 Y143.057 E1.58180
G1 X208.436 Y142.788 E1.61001
G1 X208.248 Y142.726 E1.61651
G1 X207.289 Y142.291 E1.65122
G1 X206.382 Y141.757 E1.68593
G1 X205.537 Y141.129 E1.72064
G1 X204.763 Y140.414 E1.75535
G1 X204.070 Y139.622 E1.79006
G1 X203.465 Y138.760 E1.82477
G1 X202.954 Y137.839 E1.85948
G1 X202.545 Y136.869 E1.89419
G1 X202.241 Y135.861 E1.92890
G1 X202.083 Y135.020 E1.95710
G1 X202.046 Y134.826 E1.96361
G1 X201.962 Y133.777 E1.99832
G1 X201.990 Y132.724 E2.03303
G1 X202.130 Y131.681 E2.06774
G1 X202.380 Y130.658 E2.10245
G1 X202.737 Y129.667 E2.13716
G1 X203.111 Y128.898 E2.16536
G1 X203.197 Y128.720 E2.17187
G1 X203.756 Y127.828 E2.20658
G1 X204.406 Y126.999 E2.24129
G1 X205.141 Y126.245 E2.27600
G1 X205.951 Y125.573 E2.31070
G1 X206.829 Y124.991 E2.34541
G1 X207.763 Y124.505 E2.38012
G1 X208.744 Y124.122 E2.41483
G1 X209.760 Y123.845 E2.44954
G1 X210.799 Y123.677 E2.48425
G1 X211.851 Y123.621 E2.51896
G1 X212.705 Y123.667 E2.54716
M204 S1500
M204 S2000
G1 X212.902 Y123.677 E2.55367 F1710.000
G1 X213.942 Y123.845 E2.58838
G1 X214.957 Y124.122 E2.62309
G1 X215.938 Y124.505 E2.65780
G1 X216.872 Y124.991 E2.69251
G1 X217.750 Y125.573 E2.72722
G1 X218.560 Y126.245 E2.76193
G1 X219.157 Y126.858 E2.79013
G1 X219.295 Y126.999 E2.79664
G1 X219.945 Y127.828 E2.83135
G1 X220.504 Y128.720 E2.86606
G1 X220.964 Y129.667 E2.90077
G1 X221.321 Y130.658 E2.93548
G1 X221.571 Y131.681 E2.97019
G1 X221.685 Y132.529 E2.99839
G1 X221.711 Y132.724 E3.00490
G1 X221.739 Y133.777 E3.03961
G1 X221.655 Y134.826 E3.07432
G1 X221.460 Y135.861 E3.10902
G1 X221.156 Y136.869 E3.14373
G1 X220.747 Y137.839 E3.17844
G1 X220.236 Y138.760 E3.21315
G1 X219.674 Y139.561 E3.24539
M204 S1500
G1 X219.145 Y139.240 F9600.000
M204 S2000
G1 X218.495 Y139.983 E3.27793 F1080.000
G1 X217.769 Y140.652 E3.31047
G1 X216.977 Y141.241 E3.34301
G1 X216.126 Y141.742 E3.37555
G1 X215.228 Y142.150 E3.40808
G1 X214.290 Y142.460 E3.44062
G1 X213.326 Y142.669 E3.47316
G1 X212.344 Y142.774 E3.50570
G1 X211.357 Y142.774 E3.53824
G1 X210.375 Y142.669 E3.57078
G1 X209.411 Y142.460 E3.60332
G1 X208.630 Y142.202 E3.63043
G1 X208.474 Y142.150 E3.63585
G1 X207.575 Y141.742 E3.66839
G1 X206.724 Y141.241 E3.70093
G1 X205.932 Y140.652 E3.73347
G1 X205.207 Y139.983 E3.76601
G1 X204.557 Y139.240 E3.79855
G1 X203.989 Y138.432 E3.83109
G1 X203.511 Y137.569 E3.86363
G1 X203.127 Y136.659 E3.89616
G1 X202.842 Y135.714 E3.92870
G1 X202.659 Y134.744 E3.96124
G1 X202.580 Y133.760 E3.99378
G1 X202.607 Y132.774 E4.02632
G1 X202.738 Y131.795 E4.05886
G1 X202.972 Y130.836 E4.09140
G1 X203.307 Y129.908 E4.12393
G1 X203.738 Y129.020 E4.15647
G1 X204.262 Y128.183 E4.18901
G1 X204.872 Y127.407 E4.22155
G1 X205.446 Y126.817 E4.24867
G1 X205.560 Y126.700 E4.25409
G1 X206.320 Y126.070 E4.28663
G1 X207.143 Y125.524 E4.31917
G1 X208.019 Y125.069 E4.35171
G1 X208.938 Y124.709 E4.38424
G1 X209.890 Y124.450 E4.41678
G1 X210.865 Y124.293 E4.44932
G1 X211.686 Y124.249 E4.47644
M204 S1500
M204 S2000
G1 X211.851 Y124.240 E4.48186 F1080.000
G1 X212.836 Y124.293 E4.51440
G1 X213.811 Y124.450 E4.54694
G1 X214.763 Y124.709 E4.57948
G1 X215.682 Y125.069 E4.61202
G1 X216.558 Y125.524 E4.64455
G1 X217.381 Y126.070 E4.67709
G1 X218.141 Y126.700 E4.70963
G1 X218.715 Y127.289 E4.73675
G1 X218.829 Y127.407 E4.74217
G1 X219.439 Y128.183 E4.77471
G1 X219.963 Y129.020 E4.80725
G1 X220.394 Y129.908 E4.83979
G1 X220.729 Y130.836 E4.87232
G1 X220.963 Y131.795 E4.90486
G1 X221.073 Y132.611 E4.93198
G1 X221.094 Y132.774 E4.93740
G1 X221.121 Y133.760 E4.96994
G1 X221.042 Y134.744 E5.00248
G1 X220.859 Y135.714 E5.03502
G1 X220.574 Y136.659 E5.06756
G1 X220.190 Y137.569 E5.10010
G1 X219.712 Y138.432 E5.13263
G1 X219.188 Y139.179 E5.16270
M204 S1500
G1 F1200.000 E3.96270
G92 E0
G1 X211.652 Y124.088 F9600.000
G1 X202.669 Y148.571 F9600.000
G1 E1.20000 F1200.000
M204 S2000
G1 X202.669 Y156.456 E1.45994 F1710.000
G1 X204.908 Y156.456 E1.53373
G1 X204.908 Y157.571 E1.57047
G1 X200.793 Y157.571 E1.70609
G1 X200.793 Y109.456 E3.29213
G1 X204.908 Y109.456 E3.42775
G1 X204.908 Y110.571 E3.46449
G1 X202.669 Y110.571 E3.53828
G1 X202.669 Y118.456 E3.79822
G1 X204.908 Y118.456 E3.87202
G1 X204.908 Y119.365 E3.90198
G1 X204.956 Y119.963 E3.92174
G1 X205.109 Y120.581 E3.94275
G1 X205.360 Y121.167 E3.96376
G1 X205.702 Y121.706 E3.98479
G1 X206.126 Y122.182 E4.00580
G1 X206.621 Y122.583 E4.02681
G1 X207.175 Y122.900 E4.04783
G1 X207.772 Y123.123 E4.06886
G1 X208.398 Y123.247 E4.08987
G1 X209.035 Y123.269 E4.11088
G1 X211.043 Y122.989 E4.17771
G1 X212.433 Y122.974 E4.22353
G1 X213.813 Y123.142 E4.26935
G1 X215.158 Y123.490 E4.31518
G1 X216.447 Y124.012 E4.36100
G1 X217.656 Y124.698 E4.40682
G1 X218.764 Y125.537 E4.45264
G1 X219.752 Y126.515 E4.49847
G1 X220.603 Y127.614 E4.54429
G1 X221.303 Y128.815 E4.59011
G1 X221.838 Y130.098 E4.63593
G1 X222.200 Y131.440 E4.68176
G1 X222.383 Y132.818 E4.72758
G1 X222.383 Y134.208 E4.77340
G1 X222.200 Y135.586 E4.81922
G1 X221.838 Y136.929 E4.86505
G1 X221.303 Y138.211 E4.91087
G1 X220.603 Y139.413 E4.95669
G1 X219.752 Y140.512 E5.00251
G1 X218.764 Y141.489 E5.04833
G1 X217.656 Y142.329 E5.09416
G1 X216.447 Y143.015 E5.13998
G1 X215.158 Y143.537 E5.18580
G1 X213.813 Y143.885 E5.23162
G1 X212.433 Y144.053 E5.27745
G1 X211.043 Y144.038 E5.32327
G1 X209.035 Y143.758 E5.39010
G1 X208.397 Y143.780 E5.41112
G1 X207.772 Y143.904 E5.43213
G1 X207.175 Y144.127 E5.45315
G1 X206.621 Y144.444 E5.47416
G1 X206.126 Y144.845 E5.49518
G1 X205.702 Y145.321 E5.51619
G1 X205.360 Y145.859 E5.53721
G1 X205.109 Y146.446 E5.55823
G1 X204.956 Y147.064 E5.57924
G1 X204.908 Y147.662 E5.59900
G1 X204.908 Y148.571 E5.62896
G1 X202.744 Y148.571 E5.70029
M204 S1500
G1 X203.287 Y149.188 F9600.000
M204 S2000
G1 X203.287 Y155.838 E5.91949 F1080.000
G1 X205.526 Y155.838 E5.99329
G1 X205.526 Y158.188 E6.07075
G1 X200.176 Y158.188 E6.24711
G1 X200.176 Y108.838 E7.87387
G1 X205.526 Y108.838 E8.05023
G1 X205.526 Y111.188 E8.12769
G1 X203.287 Y111.188 E8.20149
G1 X203.287 Y117.838 E8.42070
G1 X205.526 Y117.838 E8.49449
G1 X205.526 Y119.340 E8.54400
G1 X205.568 Y119.863 E8.56128
G1 X205.697 Y120.384 E8.57899
G1 X205.908 Y120.878 E8.59671
G1 X206.197 Y121.332 E8.61442
G1 X206.554 Y121.733 E8.63214
G1 X206.972 Y122.072 E8.64985
G1 X207.438 Y122.338 E8.66757
G1 X207.942 Y122.527 E8.68528
G1 X208.469 Y122.631 E8.70300
G1 X209.006 Y122.650 E8.72071
G1 X210.995 Y122.372 E8.78693
G1 X212.467 Y122.356 E8.83544
G1 X213.928 Y122.534 E8.88395
G1 X215.353 Y122.902 E8.93246
G1 X216.717 Y123.454 E8.98097
G1 X217.996 Y124.181 E9.02948
G1 X219.169 Y125.070 E9.07799
G1 X220.216 Y126.105 E9.12650
G1 X221.117 Y127.268 E9.17501
G1 X221.857 Y128.540 E9.22352
G1 X222.424 Y129.898 E9.27203
G1 X222.807 Y131.319 E9.32054
G1 X223.001 Y132.778 E9.36906
G1 X223.001 Y134.249 E9.41757
G1 X222.807 Y135.708 E9.46607
G1 X222.424 Y137.129 E9.51459
G1 X221.857 Y138.487 E9.56310
G1 X221.117 Y139.759 E9.61161
G1 X220.216 Y140.922 E9.66012
G1 X219.169 Y141.957 E9.70863
G1 X217.996 Y142.846 E9.75714
G1 X216.717 Y143.573 E9.80565
G1 X215.353 Y144.125 E9.85416
G1 X213.928 Y144.493 E9.90267
G1 X212.467 Y144.671 E9.95118
G1 X210.995 Y144.655 E9.99969
G1 X209.006 Y144.377 E10.06591
G1 X208.469 Y144.396 E10.08363
G1 X207.977 Y144.493 E10.10016
G1 X207.438 Y144.688 E10.11904
G1 X206.972 Y144.955 E10.13675
G1 X206.582 Y145.271 E10.15329
G1 X206.197 Y145.695 E10.17217
G1 X205.908 Y146.148 E10.18988
G1 X205.697 Y146.642 E10.20760
G1 X205.568 Y147.164 E10.22531
G1 X205.526 Y147.687 E10.24259
G1 X205.526 Y149.188 E10.29210
G1 X203.362 Y149.188 E10.36342
M204 S1500
G1 X202.787 Y149.188 F9600.000
G1 F1200.000 E9.16342
G92 E0
G1 X206.258 Y144.188 F9600.000
G1 E1.20000 F1200.000
M204 S2000
G1 X201.221 Y139.152 E1.43478 F1800.000
G1 X201.221 Y138.254 E1.46437
G1 X206.810 Y143.843 E1.72491
G1 X207.437 Y143.572 E1.74743
G1 X205.497 Y141.632 E1.83789
M204 S1500
G1 F1200.000 E0.63789
G92 E0
G1 X203.689 Y139.824 F9600.000
G1 E1.20000 F1200.000
M204 S2000
G1 X201.221 Y137.356 E1.31503 F1800.000
G1 X202.408 Y137.646 E1.35531
G1 X201.221 Y136.459 E1.41066
G1 X201.912 Y136.252 E1.43443
G1 X201.221 Y135.561 E1.46663
G1 X201.663 Y135.106 E1.48755
G1 X201.619 Y135.061 E1.48962
M204 S1500
G1 F1200.000 E0.28962
G92 E0
G1 X201.221 Y140.049 F9600.000
G1 E1.20000 F1200.000
M204 S2000
G1 X205.772 Y144.600 E1.41214 F1800.000
G1 X205.351 Y145.076 E1.43310
G1 X201.221 Y140.947 E1.62561
G1 X201.221 Y141.844 E1.65520
G1 X205.002 Y145.625 E1.83145
G1 X204.728 Y146.249 E1.85390
G1 X201.221 Y142.742 E2.01739
G1 X201.221 Y143.639 E2.04697
G1 X204.541 Y146.959 E2.20175
G1 X204.480 Y147.795 E2.22938
G1 X201.221 Y144.537 E2.38129
G1 X201.221 Y145.434 E2.41088
G1 X203.930 Y148.143 E2.53713
G1 X203.032 Y148.143 E2.56672
G1 X201.221 Y146.332 E2.65113
G1 X201.221 Y147.230 E2.68072
G1 X202.241 Y148.250 E2.72827
G1 X202.241 Y149.147 E2.75785
G1 X201.221 Y148.127 E2.80540
G1 X201.221 Y149.025 E2.83499
G1 X202.241 Y150.045 E2.88254
G1 X202.241 Y150.942 E2.91212
G1 X201.221 Y149.922 E2.95967
G1 X201.221 Y150.820 E2.98926
G1 X202.241 Y151.840 E3.03681
G1 X202.241 Y152.737 E3.06639
G1 X201.221 Y151.717 E3.11394
G1 X201.221 Y152.615 E3.14353
G1 X202.241 Y153.635 E3.19108
G1 X202.241 Y154.532 E3.22066
G1 X201.221 Y153.512 E3.26821
G1 X201.221 Y154.410 E3.29780
G1 X202.241 Y155.430 E3.34534
G1 X202.241 Y156.328 E3.37493
G1 X201.221 Y155.308 E3.42248
G1 X201.221 Y156.205 E3.45207
G1 X201.932 Y156.916 E3.48521
G1 X201.261 Y157.143 E3.50856
G1 X201.221 Y157.103 E3.51043
M204 S1500
G1 F1200.000 E2.31043
G92 E0
G1 X208.154 Y143.392 F9600.000
G1 E1.20000 F1200.000
M204 S2000
G1 X207.718 Y142.956 E1.22034 F1800.000
M204 S1500
G1 F1200.000 E0.02034
G92 E0
G1 X201.411 Y134.641 F9600.000
G1 E1.20000 F1200.000
G1 X201.378 Y133.778 E1.22587 F720.000
G1 X201.395 Y132.474 E1.26490
G1 X201.221 Y132.004 F9600.000
M204 S2000
G1 X201.262 Y132.044 E1.26678 F1800.000
G1 X201.707 Y131.613 E1.28722
G1 X201.221 Y131.127 E1.30986
G1 X201.878 Y130.908 E1.33269
G1 X201.221 Y130.251 E1.36331
G1 X201.221 Y129.374 E1.39221
G1 X202.078 Y130.231 E1.43217
G1 X202.311 Y129.587 E1.45475
G1 X201.221 Y128.498 E1.50554
G1 X201.221 Y127.621 E1.53443
G1 X202.590 Y128.990 E1.59825
G1 X202.887 Y128.410 E1.61973
G1 X201.221 Y126.744 E1.69737
G1 X201.221 Y125.868 E1.72627
G1 X203.224 Y127.871 E1.81963
G1 X203.584 Y127.354 E1.84039
G1 X201.221 Y124.991 E1.95053
G1 X201.221 Y124.115 E1.97942
G1 X203.969 Y126.863 E2.10753
G1 X204.388 Y126.405 E2.12798
G1 X201.221 Y123.238 E2.27560
G1 X201.221 Y122.362 E2.30449
G1 X204.820 Y125.961 E2.47227
G1 X205.296 Y125.560 E2.49278
G1 X201.221 Y121.485 E2.68275
G1 X201.221 Y120.608 E2.71164
G1 X205.783 Y125.171 E2.92432
G1 X206.310 Y124.821 E2.94517
G1 X201.221 Y119.732 E3.18242
G1 X201.221 Y118.855 E3.21131
G1 X206.859 Y124.493 E3.47413
G1 X207.436 Y124.193 E3.49556
G1 X201.221 Y117.979 E3.78526
G1 X202.241 Y118.122 E3.81921
G1 X201.221 Y117.102 E3.86676
G1 X201.221 Y116.226 E3.89565
G1 X202.241 Y117.246 E3.94320
G1 X202.241 Y116.369 E3.97210
G1 X201.221 Y115.349 E4.01965
G1 X201.221 Y114.472 E4.04854
G1 X202.241 Y115.492 E4.09609
G1 X202.241 Y114.616 E4.12498
G1 X201.221 Y113.596 E4.17253
G1 X201.221 Y112.719 E4.20143
G1 X202.241 Y113.739 E4.24897
G1 X202.241 Y112.863 E4.27787
G1 X201.221 Y111.843 E4.32542
G1 X201.221 Y110.966 E4.35431
G1 X202.241 Y111.986 E4.40186
G1 X202.241 Y111.110 E4.43076
G1 X201.221 Y110.090 E4.47830
G1 X201.932 Y109.924 E4.50237
G1 X201.892 Y109.884 E4.50423
M204 S1500
G1 F1200.000 E3.30423
G92 E0
G1 X204.489 Y119.493 F9600.000
G1 E1.20000 F1200.000
M204 S2000
G1 X203.880 Y118.884 E1.22839 F1800.000
G1 X203.003 Y118.884 E1.25729
G1 X204.658 Y120.539 E1.33443
M204 S1500
G1 F1200.000 E0.13443
G92 E0
G1 X207.655 Y123.536 F9600.000
G1 E1.20000 F1200.000
M204 S2000
G1 X208.052 Y123.933 E1.21851 F1800.000
M204 S1500
G1 F1200.000 E0.01851
G92 E0
G1 X204.599 Y110.013 F9600.000
G1 E1.20000 F1200.000
G1 X202.360 Y110.013 E1.26701 F720.000
G1 F1200.000 E0.06701
G92 E0
G1 X202.360 Y157.013 F9600.000
G1 E1.20000 F1200.000
G1 X204.599 Y157.013 E1.26701 F720.000
G1 F1200.000 E0.06701
G92 E0
G1 X185.256 Y85.878 F9600.000
G1 E1.20000 F1200.000
M204 S2000
G1 X184.240 Y86.155 E1.23471 F1710.000
G1 X183.201 Y86.323 E1.26942
G1 X182.149 Y86.379 E1.30413
G1 X181.098 Y86.323 E1.33884
G1 X180.058 Y86.155 E1.37355
G1 X179.043 Y85.878 E1.40826
G1 X178.062 Y85.495 E1.44297
G1 X177.128 Y85.009 E1.47768
G1 X176.415 Y84.536 E1.50588
G1 X176.250 Y84.427 E1.51239
G1 X175.440 Y83.755 E1.54710
G1 X174.705 Y83.001 E1.58180
G1 X174.055 Y82.172 E1.61651
G1 X173.496 Y81.280 E1.65122
G1 X173.036 Y80.333 E1.68593
G1 X172.679 Y79.342 E1.72064
G1 X172.429 Y78.319 E1.75535
G1 X172.289 Y77.276 E1.79006
G1 X172.261 Y76.223 E1.82477
G1 X172.345 Y75.174 E1.85948
G1 X172.540 Y74.139 E1.89419
G1 X172.844 Y73.131 E1.92890
G1 X173.253 Y72.161 E1.96361
G1 X173.764 Y71.240 E1.99832
G1 X174.369 Y70.378 E2.03303
G1 X175.062 Y69.586 E2.06774
G1 X175.836 Y68.871 E2.10245
G1 X176.681 Y68.243 E2.13716
G1 X177.588 Y67.709 E2.17187
G1 X178.547 Y67.274 E2.20658
G1 X179.547 Y66.943 E2.24129
G1 X180.576 Y66.720 E2.27600
G1 X181.623 Y66.608 E2.31071
