; generated by Slic3r 1.1.7 on 2015-05-05 at 14:43:01

; perimeters extrusion width = 0.42mm
; infill extrusion width = 0.58mm
; solid infill extrusion width = 0.55mm
; top infill extrusion width = 0.48mm

G21 ; set units to millimeters
M107

M301 P34 I4 D113     ; set PID nozzle
M304 P162 I17 D378 ; set PID Bed

;M104 S230                 ; set extruder temp for budaschnozzle
M104 S250                 ; set extruder temp for hex_hot_end
;M140 S100                 ; set bed temp for PET
M140 S110                 ; set bed temp for PEI (reminder ~G1 Z2 ~ M140 S(@-10 degree change) ;if -m is present in file name)

G28                            ; home
G1 Z5 F300                ; move bed down 5mm
M84                            ; disable steppers
G4 S300                     ; wait 5 mins to preheat

G28                            ; home

G90 ; use absolute coordinates
G92 E0
M82 ; use absolute distances for extrusion
G1 F1500.000 E-1.20000
G92 E0
G1 Z0.350 F9000.000
G1 X164.918 Y149.867 F9000.000
G1 E1.20000 F1500.000
G1 X166.156 Y148.853 E1.25273 F1080.000
G1 X167.416 Y148.059 E1.30185
G1 X219.591 Y121.173 E3.23664
G1 X222.431 Y120.481 E3.33300
G1 X228.692 Y120.478 E3.53938
G1 X230.879 Y120.882 E3.61271 F1080.000
G1 X232.785 Y122.029 E3.68604
G1 X234.168 Y123.772 E3.75936
G1 X234.905 Y126.713 E3.85931
G1 X234.905 Y199.826 E6.26940
G1 X234.508 Y202.015 E6.34273
G1 X233.967 Y203.115 E6.38314
G1 X233.585 Y203.703 E6.40625
G1 X232.907 Y204.497 E6.44066
G1 X231.589 Y205.703 E6.49956
G1 X231.073 Y206.043 E6.51992
G1 X229.376 Y206.939 E6.58320
G1 X176.135 Y227.101 E8.45984
G1 X174.624 Y227.566 E8.51194
G1 X173.068 Y227.845 E8.56405
G1 X172.258 Y227.914 E8.59087
G1 X171.491 Y227.934 E8.61615
G1 X169.913 Y227.832 E8.66828
G1 X168.359 Y227.542 E8.72038
G1 X167.577 Y227.319 E8.74720
G1 X166.852 Y227.065 E8.77251
G1 X165.413 Y226.411 E8.82461
G1 X164.706 Y226.007 E8.85146
G1 X164.064 Y225.588 E8.87674
G1 X162.823 Y224.609 E8.92884
G1 X161.710 Y223.487 E8.98095
G1 X160.740 Y222.239 E9.03305
G1 X159.921 Y220.869 E9.08566
G1 X159.233 Y219.283 E9.14264
G1 X158.916 Y218.258 E9.17800
G1 X158.681 Y217.184 E9.21425
G1 X158.545 Y216.120 E9.24962
G1 X158.498 Y215.030 E9.28557
G1 X161.052 Y158.356 E11.15567
G1 X161.208 Y156.798 E11.20727
G1 X161.572 Y155.240 E11.26000
G1 X162.137 Y153.744 E11.31273
G1 X162.911 Y152.305 E11.36659
G1 X163.824 Y151.034 E11.41818
G1 X164.867 Y149.922 E11.46845
G1 X165.326 Y150.331 F9000.000
G1 X166.499 Y149.367 E11.51851 F1080.000
G1 X167.699 Y148.608 E11.56532
G1 X219.874 Y121.722 E13.50012
G1 X222.433 Y121.098 E13.58693
G1 X228.690 Y121.095 E13.79318
G1 X230.761 Y121.499 E13.86275 F1080.000
G1 X232.537 Y122.639 E13.93232
G1 X233.768 Y124.354 E14.00189
G1 X234.287 Y126.713 E14.08153
G1 X234.287 Y199.826 E16.49161
G1 X233.442 Y202.789 E16.59318
G1 X233.084 Y203.342 E16.61489
G1 X232.472 Y204.058 E16.64591
G1 X231.225 Y205.205 E16.70178
G1 X230.759 Y205.511 E16.72015
G1 X229.157 Y206.361 E16.77995
G1 X175.937 Y226.516 E18.65588
G1 X174.498 Y226.961 E18.70553
G1 X173.016 Y227.229 E18.75517
G1 X172.205 Y227.298 E18.78199
G1 X171.513 Y227.317 E18.80482
G1 X170.009 Y227.222 E18.85448
G1 X168.528 Y226.947 E18.90413
G1 X167.746 Y226.725 E18.93095
G1 X167.091 Y226.496 E18.95380
G1 X165.719 Y225.875 E19.00344
G1 X165.012 Y225.471 E19.03028
G1 X164.432 Y225.093 E19.05311
G1 X163.249 Y224.161 E19.10276
G1 X162.186 Y223.094 E19.15240
G1 X161.260 Y221.906 E19.20205
G1 X160.477 Y220.602 E19.25220
G1 X159.823 Y219.100 E19.30619
G1 X159.506 Y218.076 E19.34154
G1 X159.294 Y217.106 E19.37426
G1 X159.157 Y216.041 E19.40964
G1 X159.115 Y215.058 E19.44209
G1 X161.669 Y158.396 E21.31177
G1 X161.814 Y156.919 E21.36071
G1 X162.157 Y155.439 E21.41078
G1 X162.691 Y154.017 E21.46084
G1 X163.424 Y152.648 E21.51204
G1 X164.289 Y151.441 E21.56097
G1 X165.275 Y150.386 E21.60857
G1 F1500.000 E20.40857
G92 E0
G1 X223.215 Y194.574 F9000.000
G1 E1.20000 F1500.000
M204 S1800
G1 X201.830 Y187.994 E1.93757 F1710.000
G1 X201.830 Y175.855 E2.33772
G1 X216.303 Y175.855 E2.81483
G1 X217.179 Y175.912 E2.84375
G1 X218.070 Y176.090 E2.87370
G1 X218.930 Y176.382 E2.90364
G1 X219.745 Y176.783 E2.93359
G1 X220.500 Y177.288 E2.96353
G1 X221.183 Y177.887 E2.99348
G1 X221.782 Y178.570 E3.02343
G1 X222.287 Y179.325 E3.05337
G1 X222.689 Y180.140 E3.08331
G1 X222.981 Y181.000 E3.11325
G1 X223.158 Y181.891 E3.14321
G1 X223.215 Y182.767 E3.17213
G1 X223.215 Y194.499 E3.55887
M204 S1200
G1 X222.597 Y193.738 F9000.000
M204 S1800
G1 X202.447 Y187.538 E4.25383 F1260.000
G1 X202.447 Y176.473 E4.61857
G1 X216.283 Y176.473 E5.07465
G1 X217.098 Y176.526 E5.10157
G1 X217.910 Y176.688 E5.12885
G1 X218.693 Y176.954 E5.15612
G1 X219.435 Y177.320 E5.18340
G1 X220.123 Y177.779 E5.21067
G1 X220.745 Y178.325 E5.23795
G1 X221.291 Y178.947 E5.26523
G1 X221.751 Y179.635 E5.29250
G1 X222.117 Y180.377 E5.31977
G1 X222.383 Y181.160 E5.34705
G1 X222.544 Y181.972 E5.37433
G1 X222.597 Y182.787 E5.40125
G1 X222.597 Y193.663 E5.75975
M204 S1200
G1 X222.499 Y194.228 F9000.000
G1 F1500.000 E4.55975
G92 E0
G1 X215.316 Y196.281 F9000.000
G1 E1.20000 F1500.000
M204 S1800
G1 X215.447 Y197.276 E1.23309 F1260.000
G1 X215.447 Y200.319 E1.33339
G1 X215.316 Y201.314 E1.36648
G1 X214.924 Y202.262 E1.40028
G1 X214.300 Y203.075 E1.43408
G1 X213.486 Y203.699 E1.46788
G1 X213.346 Y203.758 E1.47290
G1 X212.539 Y204.092 E1.50168
G1 X211.522 Y204.226 E1.53548
G1 X210.506 Y204.092 E1.56928
G1 X209.699 Y203.758 E1.59805
G1 X209.559 Y203.699 E1.60308
G1 X208.745 Y203.075 E1.63688
G1 X208.121 Y202.262 E1.67068
G1 X207.728 Y201.314 E1.70448
G1 X207.597 Y200.319 E1.73757
G1 X207.597 Y197.276 E1.83786
G1 X207.728 Y196.281 E1.87096
G1 X208.121 Y195.334 E1.90476
G1 X208.745 Y194.520 E1.93856
G1 X209.559 Y193.896 E1.97236
G1 X210.506 Y193.504 E2.00616
G1 X211.522 Y193.370 E2.03996
G1 X212.388 Y193.484 E2.06873
M204 S1200
M204 S1800
G1 X212.539 Y193.504 E2.07376 F1260.000
G1 X213.486 Y193.896 E2.10756
G1 X214.300 Y194.520 E2.14135
G1 X214.924 Y195.334 E2.17516
G1 X215.288 Y196.212 E2.20648
M204 S1200
G1 F1500.000 E1.00648
G92 E0
G1 X212.354 Y193.335 F9000.000
G1 X187.687 Y188.444 F9000.000
G1 E1.20000 F1500.000
M204 S1800
G1 X187.295 Y189.391 E1.23380 F1260.000
G1 X186.671 Y190.204 E1.26760
G1 X185.857 Y190.829 E1.30140
G1 X184.910 Y191.221 E1.33520
G1 X183.893 Y191.355 E1.36900
G1 X182.877 Y191.221 E1.40280
G1 X181.929 Y190.829 E1.43660
G1 X181.116 Y190.204 E1.47040
G1 X180.492 Y189.391 E1.50420
G1 X180.099 Y188.444 E1.53800
G1 X179.968 Y187.448 E1.57109
G1 X179.968 Y184.406 E1.67139
G1 X180.099 Y183.410 E1.70448
G1 X180.492 Y182.463 E1.73828
G1 X181.116 Y181.650 E1.77208
G1 X181.929 Y181.025 E1.80588
G1 X182.877 Y180.633 E1.83968
G1 X183.893 Y180.499 E1.87348
G1 X184.759 Y180.613 E1.90225
M204 S1200
M204 S1800
G1 X184.910 Y180.633 E1.90728 F1260.000
G1 X185.857 Y181.025 E1.94108
G1 X186.671 Y181.650 E1.97488
G1 X187.295 Y182.463 E2.00868
G1 X187.687 Y183.410 E2.04248
G1 X187.818 Y184.406 E2.07557
G1 X187.818 Y187.448 E2.17586
G1 X187.697 Y188.369 E2.20648
M204 S1200
G1 F1500.000 E1.00648
G92 E0
G1 X184.751 Y180.461 F9000.000
G1 X172.986 Y208.655 F9000.000
G1 E1.20000 F1500.000
M204 S1800
G1 X173.800 Y209.279 E1.23380 F1260.000
G1 X174.424 Y210.092 E1.26760
G1 X174.816 Y211.040 E1.30140
G1 X174.947 Y212.035 E1.33449
G1 X174.947 Y215.077 E1.43479
G1 X174.816 Y216.073 E1.46788
G1 X174.424 Y217.020 E1.50168
G1 X173.800 Y217.834 E1.53548
G1 X172.986 Y218.458 E1.56928
G1 X172.039 Y218.850 E1.60308
G1 X171.888 Y218.870 E1.60810
G1 X171.022 Y218.984 E1.63688
G1 X170.006 Y218.850 E1.67068
G1 X169.059 Y218.458 E1.70448
G1 X168.245 Y217.834 E1.73828
G1 X167.621 Y217.020 E1.77208
G1 X167.228 Y216.073 E1.80588
G1 X167.097 Y215.077 E1.83897
G1 X167.097 Y212.035 E1.93926
G1 X167.228 Y211.040 E1.97236
G1 X167.621 Y210.092 E2.00616
G1 X168.245 Y209.279 E2.03996
G1 X169.059 Y208.655 E2.07376
G1 X170.006 Y208.262 E2.10756
G1 X171.022 Y208.128 E2.14135
G1 X171.888 Y208.242 E2.17013
M204 S1200
M204 S1800
G1 X172.039 Y208.262 E2.17515 F1260.000
G1 X172.917 Y208.626 E2.20648
M204 S1200
G1 X171.830 Y208.101 F9000.000
G1 F1500.000 E1.00648
G92 E0
G1 X166.544 Y211.077 F9000.000
G1 E1.20000 F1500.000
M204 S1800
G1 X166.127 Y210.967 E1.21422 F1710.000
G1 X166.477 Y208.116 E1.30893
G1 X167.102 Y201.870 E1.51583
G1 X167.589 Y195.613 E1.72272
G1 X167.937 Y189.346 E1.92961
G1 X168.146 Y183.074 E2.13650
G1 X168.215 Y176.803 E2.34322
G1 X168.215 Y158.829 E2.93572
G1 X168.261 Y158.138 E2.95853
G1 X168.390 Y157.489 E2.98033
G1 X168.602 Y156.863 E3.00213
G1 X168.895 Y156.270 E3.02393
G1 X169.262 Y155.720 E3.04573
G1 X169.698 Y155.223 E3.06752
G1 X170.195 Y154.787 E3.08932
G1 X170.745 Y154.420 E3.11112
G1 X171.338 Y154.127 E3.13291
G1 X171.964 Y153.915 E3.15471
G1 X172.613 Y153.786 E3.17651
G1 X173.303 Y153.741 E3.19933
G1 X183.064 Y153.741 E3.52109
G1 X182.500 Y154.211 E3.54529
G1 X181.610 Y155.098 E3.58673
G1 X180.809 Y156.067 E3.62817
G1 X180.105 Y157.109 E3.66961
G1 X179.505 Y158.213 E3.71105
G1 X179.013 Y159.370 E3.75249
G1 X178.635 Y160.569 E3.79393
G1 X178.373 Y161.799 E3.83537
G1 X178.231 Y163.048 E3.87680
G1 X178.210 Y164.305 E3.91824
G1 X178.310 Y165.558 E3.95968
G1 X178.529 Y166.796 E4.00112
G1 X178.866 Y168.007 E4.04256
G1 X179.319 Y169.180 E4.08400
G1 X179.881 Y170.304 E4.12544
G1 X180.549 Y171.368 E4.16688
G1 X181.317 Y172.364 E4.20832
G1 X182.176 Y173.282 E4.24976
G1 X183.120 Y174.112 E4.29120
G1 X184.139 Y174.848 E4.33264
G1 X185.224 Y175.483 E4.37407
G1 X186.365 Y176.010 E4.41551
G1 X187.552 Y176.426 E4.45695
G1 X188.544 Y176.669 E4.49064
G1 X188.773 Y176.725 E4.49839
G1 X190.017 Y176.906 E4.53983
G1 X191.272 Y176.967 E4.58127
G1 X192.528 Y176.906 E4.62271
G1 X193.772 Y176.725 E4.66415
G1 X194.993 Y176.426 E4.70558
G1 X196.179 Y176.010 E4.74702
G1 X197.321 Y175.483 E4.78846
G1 X198.406 Y174.848 E4.82990
G1 X199.425 Y174.112 E4.87134
G1 X199.602 Y173.957 E4.87909
G1 X200.368 Y173.282 E4.91278
G1 X201.228 Y172.364 E4.95422
G1 X201.995 Y171.368 E4.99566
G1 X202.664 Y170.304 E5.03710
G1 X203.226 Y169.180 E5.07854
G1 X203.312 Y168.960 E5.08629
G1 X203.678 Y168.007 E5.11998
G1 X204.016 Y166.796 E5.16142
G1 X204.235 Y165.558 E5.20286
G1 X204.335 Y164.305 E5.24430
G1 X204.313 Y163.048 E5.28573
G1 X204.288 Y162.814 E5.29348
G1 X204.171 Y161.799 E5.32717
G1 X203.910 Y160.569 E5.36861
G1 X203.532 Y159.370 E5.41005
G1 X203.040 Y158.213 E5.45149
G1 X202.929 Y158.006 E5.45924
G1 X202.439 Y157.109 E5.49293
G1 X201.735 Y156.067 E5.53437
G1 X200.935 Y155.098 E5.57581
G1 X200.045 Y154.211 E5.61725
G1 X199.480 Y153.741 E5.64145
G1 X216.303 Y153.741 E6.19600
G1 X217.179 Y153.683 E6.22492
G1 X218.070 Y153.506 E6.25487
G1 X218.930 Y153.214 E6.28481
G1 X219.745 Y152.812 E6.31475
G1 X220.500 Y152.307 E6.34470
G1 X221.183 Y151.708 E6.37465
G1 X221.782 Y151.025 E6.40459
G1 X222.287 Y150.270 E6.43454
G1 X222.689 Y149.455 E6.46448
G1 X222.981 Y148.595 E6.49442
G1 X223.158 Y147.704 E6.52437
G1 X223.215 Y146.829 E6.55330
G1 X223.215 Y127.657 E7.18527
G1 X227.726 Y127.653 E7.33397
G1 X227.726 Y199.524 E9.70314
G1 X227.329 Y199.917 E9.72156
G1 X226.788 Y200.237 E9.74228
G1 X226.128 Y200.431 E9.76496
G1 X225.827 Y200.480 E9.77499
G1 X214.248 Y204.416 E10.17815
G1 X214.050 Y204.046 E10.19198
G1 X214.740 Y203.516 E10.22067
G1 X215.464 Y202.573 E10.25983
G1 X215.918 Y201.476 E10.29900
G1 X216.065 Y200.360 E10.33610
G1 X216.065 Y197.236 E10.43907
G1 X215.918 Y196.120 E10.47618
G1 X215.464 Y195.022 E10.51534
G1 X214.740 Y194.080 E10.55450
G1 X213.798 Y193.357 E10.59366
G1 X212.700 Y192.902 E10.63282
G1 X211.522 Y192.747 E10.67199
G1 X210.345 Y192.902 E10.71115
G1 X209.247 Y193.357 E10.75031
G1 X208.304 Y194.080 E10.78947
G1 X207.581 Y195.022 E10.82864
G1 X207.127 Y196.120 E10.86780
G1 X206.980 Y197.236 E10.90491
G1 X206.980 Y200.360 E11.00787
G1 X207.005 Y200.554 E11.01433
G1 X206.598 Y200.672 E11.02832
G1 X205.938 Y199.254 E11.07989
G1 X205.266 Y198.082 E11.12442
G1 X204.498 Y196.971 E11.16895
G1 X203.638 Y195.929 E11.21348
G1 X202.694 Y194.963 E11.25801
G1 X201.671 Y194.081 E11.30254
G1 X200.576 Y193.289 E11.34707
G1 X199.419 Y192.592 E11.39160
G1 X198.207 Y191.995 E11.43613
G1 X196.949 Y191.504 E11.48066
G1 X195.654 Y191.120 E11.52518
G1 X194.330 Y190.848 E11.56972
G1 X192.989 Y190.689 E11.61425
G1 X191.639 Y190.643 E11.65878
G1 X190.290 Y190.713 E11.70331
G1 X188.951 Y190.896 E11.74784
G1 X187.633 Y191.192 E11.79237
G1 X186.676 Y191.493 E11.82544
G1 X186.485 Y191.125 E11.83911
G1 X187.111 Y190.645 E11.86513
G1 X187.834 Y189.702 E11.90429
G1 X188.289 Y188.605 E11.94345
G1 X188.436 Y187.489 E11.98056
G1 X188.436 Y184.365 E12.08353
G1 X188.289 Y183.249 E12.12063
G1 X187.834 Y182.151 E12.15980
G1 X187.111 Y181.209 E12.19896
G1 X186.169 Y180.486 E12.23812
G1 X185.071 Y180.031 E12.27728
G1 X184.839 Y180.001 E12.28499
G1 X183.893 Y179.876 E12.31644
G1 X182.715 Y180.031 E12.35561
G1 X181.618 Y180.486 E12.39477
G1 X180.675 Y181.209 E12.43393
G1 X179.952 Y182.151 E12.47309
G1 X179.497 Y183.249 E12.51225
G1 X179.350 Y184.365 E12.54936
G1 X179.350 Y187.489 E12.65233
G1 X179.497 Y188.605 E12.68943
G1 X179.952 Y189.702 E12.72860
G1 X180.675 Y190.645 E12.76776
G1 X181.618 Y191.368 E12.80692
G1 X182.715 Y191.823 E12.84608
G1 X183.893 Y191.978 E12.88524
G1 X184.656 Y191.877 E12.91060
G1 X184.780 Y192.274 E12.92430
G1 X183.894 Y192.730 E12.95712
G1 X182.750 Y193.447 E13.00165
G1 X181.670 Y194.259 E13.04618
G1 X180.662 Y195.159 E13.09071
G1 X179.735 Y196.141 E13.13524
G1 X178.894 Y197.198 E13.17977
G1 X178.146 Y198.323 E13.22430
G1 X177.495 Y199.506 E13.26882
G1 X176.947 Y200.741 E13.31336
G1 X176.505 Y202.018 E13.35788
G1 X176.173 Y203.327 E13.40242
G1 X175.954 Y204.660 E13.44695
G1 X175.847 Y206.007 E13.49148
G1 X175.855 Y207.358 E13.53601
G1 X175.978 Y208.703 E13.58054
G1 X176.214 Y210.033 E13.62507
G1 X176.561 Y211.338 E13.66959
G1 X177.247 Y213.286 E13.73767
G1 X177.393 Y213.986 E13.76121
G1 X177.454 Y214.697 E13.78476
G1 X177.429 Y215.411 E13.80831
G1 X177.317 Y216.117 E13.83185
G1 X177.122 Y216.804 E13.85540
G1 X176.845 Y217.462 E13.87894
G1 X176.491 Y218.083 E13.90249
G1 X176.065 Y218.656 E13.92604
G1 X175.572 Y219.173 E13.94958
G1 X175.021 Y219.628 E13.97313
G1 X174.419 Y220.012 E13.99667
G1 X173.775 Y220.322 E14.02022
G1 X173.099 Y220.551 E14.04377
G1 X172.400 Y220.697 E14.06731
G1 X171.688 Y220.758 E14.09086
G1 X170.974 Y220.733 E14.11440
G1 X170.269 Y220.621 E14.13795
G1 X169.582 Y220.426 E14.16150
G1 X168.923 Y220.149 E14.18504
G1 X168.303 Y219.795 E14.20859
G1 X167.730 Y219.369 E14.23213
G1 X167.212 Y218.876 E14.25568
G1 X166.758 Y218.325 E14.27923
G1 X166.373 Y217.723 E14.30278
G1 X166.069 Y217.091 E14.32591
G1 X165.791 Y216.193 E14.35690
G1 X165.673 Y215.272 E14.38748
G1 X165.718 Y214.299 E14.41959
G1 X166.015 Y211.876 E14.50008
G1 X166.480 Y211.904 E14.51541
G1 X166.480 Y215.118 E14.62135
G1 X166.627 Y216.234 E14.65846
G1 X167.081 Y217.332 E14.69762
G1 X167.804 Y218.274 E14.73678
G1 X168.747 Y218.997 E14.77594
G1 X169.845 Y219.452 E14.81510
G1 X171.022 Y219.607 E14.85427
G1 X172.200 Y219.452 E14.89343
G1 X173.298 Y218.997 E14.93259
G1 X174.240 Y218.274 E14.97175
G1 X174.964 Y217.332 E15.01091
G1 X175.418 Y216.234 E15.05008
G1 X175.565 Y215.118 E15.08719
G1 X175.565 Y211.994 E15.19015
G1 X175.418 Y210.878 E15.22726
G1 X174.964 Y209.781 E15.26642
G1 X174.240 Y208.838 E15.30558
G1 X173.298 Y208.115 E15.34474
G1 X173.082 Y208.025 E15.35245
G1 X172.200 Y207.660 E15.38391
G1 X171.022 Y207.505 E15.42307
G1 X169.845 Y207.660 E15.46223
G1 X168.963 Y208.025 E15.49369
G1 X168.747 Y208.115 E15.50139
G1 X167.804 Y208.838 E15.54055
G1 X167.081 Y209.781 E15.57972
G1 X166.573 Y211.008 E15.62350
M204 S1200
G1 F1500.000 E14.42350
G92 E0
G1 X184.488 Y153.473 F9000.000
G1 E1.20000 F1500.000
M204 S1800
G1 X183.842 Y153.908 E1.22565 F1260.000
G1 X182.917 Y154.668 E1.26513
G1 X182.068 Y155.513 E1.30462
G1 X181.305 Y156.437 E1.34409
G1 X180.635 Y157.429 E1.38358
G1 X180.062 Y158.481 E1.42306
G1 X179.594 Y159.583 E1.46254
G1 X179.233 Y160.725 E1.50202
G1 X178.984 Y161.897 E1.54150
G1 X178.849 Y163.087 E1.58098
G1 X178.828 Y164.284 E1.62046
G1 X178.923 Y165.478 E1.65994
