; generated by Slic3r 1.1.7 on 2015-05-05 at 14:43:01

; perimeters extrusion width = 0.42mm
; infill extrusion width = 0.58mm
; solid infill extrusion width = 0.55mm
; top infill extrusion width = 0.48mm

G21 ; set units to millimeters
M107

M301 P34 I4 D113     ; set PID nozzle
M304 P162 I17 D378 ; set PID Bed

;M104 S230                 ; set extruder temp for budaschnozzle
M104 S250                 ; set extruder temp for hex_hot_end
;M140 S100                 ; set bed temp for PET
M140 S110                 ; set bed temp for PEI (reminder ~G1 Z2 ~ M140 S(@-10 degree change) ;if -m is present in file name)

G28                            ; home
G1 Z5 F300                ; move bed down 5mm
M84                            ; disable steppers
G4 S300                     ; wait 5 mins to preheat

G28                            ; home

G90 ; use absolute coordinates
G92 E0
M82 ; use absolute distances for extrusion
G1 F1500.000 E-1.20000
G92 E0
G1 Z0.350 F9000.000
G1 X68.918 Y81.867 F9000.000
G1 E1.20000 F1500.000
G1 X70.156 Y80.853 E1.25273 F1080.000
G1 X71.416 Y80.059 E1.30185
G1 X123.591 Y53.173 E3.23664
G1 X126.431 Y52.481 E3.33300
G1 X132.692 Y52.478 E3.53938
G1 X134.879 Y52.882 E3.61271 F1080.000
G1 X136.785 Y54.029 E3.68604
G1 X138.168 Y55.772 E3.75936
G1 X138.905 Y58.713 E3.85931
G1 X138.905 Y131.826 E6.26940
G1 X138.508 Y134.015 E6.34273
G1 X137.967 Y135.115 E6.38314
G1 X137.585 Y135.703 E6.40625
G1 X136.907 Y136.497 E6.44066
G1 X135.589 Y137.703 E6.49956
G1 X135.073 Y138.043 E6.51992
G1 X133.376 Y138.939 E6.58320
G1 X80.135 Y159.101 E8.45984
G1 X78.624 Y159.566 E8.51194
G1 X77.068 Y159.845 E8.56405
G1 X76.258 Y159.914 E8.59087
G1 X75.491 Y159.934 E8.61615
G1 X73.913 Y159.832 E8.66828
G1 X72.359 Y159.542 E8.72038
G1 X71.577 Y159.319 E8.74720
G1 X70.852 Y159.065 E8.77251
G1 X69.413 Y158.411 E8.82461
G1 X68.706 Y158.007 E8.85146
G1 X68.064 Y157.588 E8.87674
G1 X66.823 Y156.609 E8.92884
G1 X65.710 Y155.487 E8.98095
G1 X64.740 Y154.239 E9.03305
G1 X63.921 Y152.869 E9.08566
G1 X63.233 Y151.283 E9.14264
G1 X62.916 Y150.258 E9.17800
G1 X62.681 Y149.184 E9.21425
G1 X62.545 Y148.120 E9.24962
G1 X62.498 Y147.030 E9.28557
G1 X65.052 Y90.356 E11.15567
G1 X65.208 Y88.798 E11.20727
G1 X65.572 Y87.240 E11.26000
G1 X66.137 Y85.744 E11.31273
G1 X66.911 Y84.305 E11.36659
G1 X67.824 Y83.034 E11.41818
G1 X68.867 Y81.922 E11.46845
G1 X69.326 Y82.331 F9000.000
G1 X70.499 Y81.367 E11.51851 F1080.000
G1 X71.699 Y80.608 E11.56532
G1 X123.874 Y53.722 E13.50012
G1 X126.433 Y53.098 E13.58693
G1 X132.690 Y53.095 E13.79318
G1 X134.761 Y53.499 E13.86275 F1080.000
G1 X136.537 Y54.639 E13.93232
G1 X137.768 Y56.354 E14.00189
G1 X138.287 Y58.713 E14.08153
G1 X138.287 Y131.826 E16.49161
G1 X137.442 Y134.789 E16.59318
G1 X137.084 Y135.342 E16.61489
G1 X136.472 Y136.058 E16.64591
G1 X135.225 Y137.205 E16.70178
G1 X134.759 Y137.511 E16.72015
G1 X133.157 Y138.361 E16.77995
G1 X79.937 Y158.516 E18.65588
G1 X78.498 Y158.961 E18.70553
G1 X77.016 Y159.229 E18.75517
G1 X76.205 Y159.298 E18.78199
G1 X75.513 Y159.317 E18.80482
G1 X74.009 Y159.222 E18.85448
G1 X72.528 Y158.947 E18.90413
G1 X71.746 Y158.725 E18.93095
G1 X71.091 Y158.496 E18.95380
G1 X69.719 Y157.875 E19.00344
G1 X69.012 Y157.471 E19.03028
G1 X68.432 Y157.093 E19.05311
G1 X67.249 Y156.161 E19.10276
G1 X66.186 Y155.094 E19.15240
G1 X65.260 Y153.906 E19.20205
G1 X64.477 Y152.602 E19.25220
G1 X63.823 Y151.100 E19.30619
G1 X63.506 Y150.076 E19.34154
G1 X63.294 Y149.106 E19.37426
G1 X63.157 Y148.041 E19.40964
G1 X63.115 Y147.058 E19.44209
G1 X65.669 Y90.396 E21.31177
G1 X65.814 Y88.919 E21.36071
G1 X66.157 Y87.439 E21.41078
G1 X66.691 Y86.017 E21.46084
G1 X67.424 Y84.648 E21.51204
G1 X68.289 Y83.441 E21.56097
G1 X69.275 Y82.386 E21.60857
G1 F1500.000 E20.40857
G92 E0
G1 X127.215 Y126.574 F9000.000
G1 E1.20000 F1500.000
M204 S1800
G1 X105.830 Y119.994 E1.93757 F1710.000
G1 X105.830 Y107.855 E2.33772
G1 X120.303 Y107.855 E2.81483
G1 X121.179 Y107.912 E2.84375
G1 X122.070 Y108.090 E2.87370
G1 X122.930 Y108.382 E2.90364
G1 X123.745 Y108.783 E2.93359
G1 X124.500 Y109.288 E2.96353
G1 X125.183 Y109.887 E2.99348
G1 X125.782 Y110.570 E3.02343
G1 X126.287 Y111.325 E3.05337
G1 X126.689 Y112.140 E3.08331
G1 X126.981 Y113.000 E3.11325
G1 X127.158 Y113.891 E3.14321
G1 X127.215 Y114.767 E3.17213
G1 X127.215 Y126.499 E3.55887
M204 S1200
G1 X126.597 Y125.738 F9000.000
M204 S1800
G1 X106.447 Y119.538 E4.25383 F1260.000
G1 X106.447 Y108.473 E4.61857
G1 X120.283 Y108.473 E5.07465
G1 X121.098 Y108.526 E5.10157
G1 X121.910 Y108.688 E5.12885
G1 X122.693 Y108.954 E5.15612
G1 X123.435 Y109.320 E5.18340
G1 X124.123 Y109.779 E5.21067
G1 X124.745 Y110.325 E5.23795
G1 X125.291 Y110.947 E5.26523
G1 X125.751 Y111.635 E5.29250
G1 X126.117 Y112.377 E5.31977
G1 X126.383 Y113.160 E5.34705
G1 X126.544 Y113.972 E5.37433
G1 X126.597 Y114.787 E5.40125
G1 X126.597 Y125.663 E5.75975
M204 S1200
G1 X126.499 Y126.228 F9000.000
G1 F1500.000 E4.55975
G92 E0
G1 X119.316 Y128.281 F9000.000
G1 E1.20000 F1500.000
M204 S1800
G1 X119.447 Y129.276 E1.23309 F1260.000
G1 X119.447 Y132.319 E1.33339
G1 X119.316 Y133.314 E1.36648
G1 X118.924 Y134.262 E1.40028
G1 X118.300 Y135.075 E1.43408
G1 X117.486 Y135.699 E1.46788
G1 X117.346 Y135.758 E1.47290
G1 X116.539 Y136.092 E1.50168
G1 X115.522 Y136.226 E1.53548
G1 X114.506 Y136.092 E1.56928
G1 X113.699 Y135.758 E1.59805
G1 X113.559 Y135.699 E1.60308
G1 X112.745 Y135.075 E1.63688
G1 X112.121 Y134.262 E1.67068
G1 X111.728 Y133.314 E1.70448
G1 X111.597 Y132.319 E1.73757
G1 X111.597 Y129.276 E1.83786
G1 X111.728 Y128.281 E1.87096
G1 X112.121 Y127.334 E1.90476
G1 X112.745 Y126.520 E1.93856
G1 X113.559 Y125.896 E1.97236
G1 X114.506 Y125.504 E2.00616
G1 X115.522 Y125.370 E2.03996
G1 X116.388 Y125.484 E2.06873
M204 S1200
M204 S1800
G1 X116.539 Y125.504 E2.07376 F1260.000
G1 X117.486 Y125.896 E2.10756
G1 X118.300 Y126.520 E2.14135
G1 X118.924 Y127.334 E2.17516
G1 X119.288 Y128.212 E2.20648
M204 S1200
G1 F1500.000 E1.00648
G92 E0
G1 X116.354 Y125.335 F9000.000
G1 X91.687 Y120.444 F9000.000
G1 E1.20000 F1500.000
M204 S1800
G1 X91.295 Y121.391 E1.23380 F1260.000
G1 X90.671 Y122.204 E1.26760
G1 X89.857 Y122.829 E1.30140
G1 X88.910 Y123.221 E1.33520
G1 X87.893 Y123.355 E1.36900
G1 X86.877 Y123.221 E1.40280
G1 X85.929 Y122.829 E1.43660
G1 X85.116 Y122.204 E1.47040
G1 X84.492 Y121.391 E1.50420
G1 X84.099 Y120.444 E1.53800
G1 X83.968 Y119.448 E1.57109
G1 X83.968 Y116.406 E1.67139
G1 X84.099 Y115.410 E1.70448
G1 X84.492 Y114.463 E1.73828
G1 X85.116 Y113.650 E1.77208
G1 X85.929 Y113.025 E1.80588
G1 X86.877 Y112.633 E1.83968
G1 X87.893 Y112.499 E1.87348
G1 X88.759 Y112.613 E1.90225
M204 S1200
M204 S1800
G1 X88.910 Y112.633 E1.90728 F1260.000
G1 X89.857 Y113.025 E1.94108
G1 X90.671 Y113.650 E1.97488
G1 X91.295 Y114.463 E2.00868
G1 X91.687 Y115.410 E2.04248
G1 X91.818 Y116.406 E2.07557
G1 X91.818 Y119.448 E2.17586
G1 X91.697 Y120.369 E2.20648
M204 S1200
G1 F1500.000 E1.00648
G92 E0
G1 X88.751 Y112.461 F9000.000
G1 X76.986 Y140.655 F9000.000
G1 E1.20000 F1500.000
M204 S1800
G1 X77.800 Y141.279 E1.23380 F1260.000
G1 X78.424 Y142.092 E1.26760
G1 X78.816 Y143.040 E1.30140
G1 X78.947 Y144.035 E1.33449
G1 X78.947 Y147.077 E1.43479
G1 X78.816 Y148.073 E1.46788
G1 X78.424 Y149.020 E1.50168
G1 X77.800 Y149.834 E1.53548
G1 X76.986 Y150.458 E1.56928
G1 X76.039 Y150.850 E1.60308
G1 X75.888 Y150.870 E1.60810
G1 X75.022 Y150.984 E1.63688
G1 X74.006 Y150.850 E1.67068
G1 X73.059 Y150.458 E1.70448
G1 X72.245 Y149.834 E1.73828
G1 X71.621 Y149.020 E1.77208
G1 X71.228 Y148.073 E1.80588
G1 X71.097 Y147.077 E1.83897
G1 X71.097 Y144.035 E1.93926
G1 X71.228 Y143.040 E1.97236
G1 X71.621 Y142.092 E2.00616
G1 X72.245 Y141.279 E2.03996
G1 X73.059 Y140.655 E2.07376
G1 X74.006 Y140.262 E2.10756
G1 X75.022 Y140.128 E2.14135
G1 X75.888 Y140.242 E2.17013
M204 S1200
M204 S1800
G1 X76.039 Y140.262 E2.17515 F1260.000
G1 X76.917 Y140.626 E2.20648
M204 S1200
G1 X75.830 Y140.101 F9000.000
G1 F1500.000 E1.00648
G92 E0
G1 X70.544 Y143.077 F9000.000
G1 E1.20000 F1500.000
M204 S1800
G1 X70.127 Y142.967 E1.21422 F1710.000
G1 X70.477 Y140.116 E1.30893
G1 X71.102 Y133.870 E1.51583
G1 X71.589 Y127.613 E1.72272
G1 X71.937 Y121.346 E1.92961
G1 X72.146 Y115.074 E2.13650
G1 X72.215 Y108.803 E2.34322
G1 X72.215 Y90.829 E2.93572
G1 X72.261 Y90.138 E2.95853
G1 X72.390 Y89.489 E2.98033
G1 X72.602 Y88.863 E3.00213
G1 X72.895 Y88.270 E3.02393
G1 X73.262 Y87.720 E3.04573
G1 X73.698 Y87.223 E3.06752
G1 X74.195 Y86.787 E3.08932
G1 X74.745 Y86.420 E3.11112
G1 X75.338 Y86.127 E3.13291
G1 X75.964 Y85.915 E3.15471
G1 X76.613 Y85.786 E3.17651
G1 X77.303 Y85.741 E3.19933
G1 X87.064 Y85.741 E3.52109
G1 X86.500 Y86.211 E3.54529
G1 X85.610 Y87.098 E3.58673
G1 X84.809 Y88.067 E3.62817
G1 X84.105 Y89.109 E3.66961
G1 X83.505 Y90.213 E3.71105
G1 X83.013 Y91.370 E3.75249
G1 X82.635 Y92.569 E3.79393
G1 X82.373 Y93.799 E3.83537
G1 X82.231 Y95.048 E3.87680
G1 X82.210 Y96.305 E3.91824
G1 X82.310 Y97.558 E3.95968
G1 X82.529 Y98.796 E4.00112
G1 X82.866 Y100.007 E4.04256
G1 X83.319 Y101.180 E4.08400
G1 X83.881 Y102.304 E4.12544
G1 X84.549 Y103.368 E4.16688
G1 X85.317 Y104.364 E4.20832
G1 X86.176 Y105.282 E4.24976
G1 X87.120 Y106.112 E4.29120
G1 X88.139 Y106.848 E4.33264
G1 X89.224 Y107.483 E4.37407
G1 X90.365 Y108.010 E4.41551
G1 X91.552 Y108.426 E4.45695
G1 X92.544 Y108.669 E4.49064
G1 X92.773 Y108.725 E4.49839
G1 X94.017 Y108.906 E4.53983
G1 X95.272 Y108.967 E4.58127
G1 X96.528 Y108.906 E4.62271
G1 X97.772 Y108.725 E4.66415
G1 X98.993 Y108.426 E4.70558
G1 X100.179 Y108.010 E4.74702
G1 X101.321 Y107.483 E4.78846
G1 X102.406 Y106.848 E4.82990
G1 X103.425 Y106.112 E4.87134
G1 X103.602 Y105.957 E4.87909
G1 X104.368 Y105.282 E4.91278
G1 X105.228 Y104.364 E4.95422
G1 X105.995 Y103.368 E4.99566
G1 X106.664 Y102.304 E5.03710
G1 X107.226 Y101.180 E5.07854
G1 X107.312 Y100.960 E5.08629
G1 X107.678 Y100.007 E5.11998
G1 X108.016 Y98.796 E5.16142
G1 X108.235 Y97.558 E5.20286
G1 X108.335 Y96.305 E5.24430
G1 X108.313 Y95.048 E5.28573
G1 X108.288 Y94.814 E5.29348
G1 X108.171 Y93.799 E5.32717
G1 X107.910 Y92.569 E5.36861
G1 X107.532 Y91.370 E5.41005
G1 X107.040 Y90.213 E5.45149
G1 X106.929 Y90.006 E5.45924
G1 X106.439 Y89.109 E5.49293
G1 X105.735 Y88.067 E5.53437
G1 X104.935 Y87.098 E5.57581
G1 X104.045 Y86.211 E5.61725
G1 X103.480 Y85.741 E5.64145
G1 X120.303 Y85.741 E6.19600
G1 X121.179 Y85.683 E6.22492
G1 X122.070 Y85.506 E6.25487
G1 X122.930 Y85.214 E6.28481
G1 X123.745 Y84.812 E6.31475
G1 X124.500 Y84.307 E6.34470
G1 X125.183 Y83.708 E6.37465
G1 X125.782 Y83.025 E6.40459
G1 X126.287 Y82.270 E6.43454
G1 X126.689 Y81.455 E6.46448
G1 X126.981 Y80.595 E6.49442
G1 X127.158 Y79.704 E6.52437
G1 X127.215 Y78.829 E6.55330
G1 X127.215 Y59.657 E7.18527
G1 X131.726 Y59.653 E7.33397
G1 X131.726 Y131.524 E9.70314
G1 X131.329 Y131.917 E9.72156
G1 X130.788 Y132.237 E9.74228
G1 X130.128 Y132.431 E9.76496
G1 X129.827 Y132.480 E9.77499
G1 X118.248 Y136.416 E10.17815
G1 X118.050 Y136.046 E10.19198
G1 X118.740 Y135.516 E10.22067
G1 X119.464 Y134.573 E10.25983
G1 X119.918 Y133.476 E10.29900
G1 X120.065 Y132.360 E10.33610
G1 X120.065 Y129.236 E10.43907
G1 X119.918 Y128.120 E10.47618
G1 X119.464 Y127.022 E10.51534
G1 X118.740 Y126.080 E10.55450
G1 X117.798 Y125.357 E10.59366
G1 X116.700 Y124.902 E10.63282
G1 X115.522 Y124.747 E10.67199
G1 X114.345 Y124.902 E10.71115
G1 X113.247 Y125.357 E10.75031
G1 X112.304 Y126.080 E10.78947
G1 X111.581 Y127.022 E10.82864
G1 X111.127 Y128.120 E10.86780
G1 X110.980 Y129.236 E10.90491
G1 X110.980 Y132.360 E11.00787
G1 X111.005 Y132.554 E11.01433
G1 X110.598 Y132.672 E11.02832
G1 X109.938 Y131.254 E11.07989
G1 X109.266 Y130.082 E11.12442
G1 X108.498 Y128.971 E11.16895
G1 X107.638 Y127.929 E11.21348
G1 X106.694 Y126.963 E11.25801
G1 X105.671 Y126.081 E11.30254
G1 X104.576 Y125.289 E11.34707
G1 X103.419 Y124.592 E11.39160
G1 X102.207 Y123.995 E11.43613
G1 X100.949 Y123.504 E11.48066
G1 X99.654 Y123.120 E11.52518
G1 X98.330 Y122.848 E11.56972
G1 X96.989 Y122.689 E11.61425
G1 X95.639 Y122.643 E11.65878
G1 X94.290 Y122.713 E11.70331
G1 X92.951 Y122.896 E11.74784
G1 X91.633 Y123.192 E11.79237
G1 X90.676 Y123.493 E11.82544
G1 X90.485 Y123.125 E11.83911
G1 X91.111 Y122.645 E11.86513
G1 X91.834 Y121.702 E11.90429
G1 X92.289 Y120.605 E11.94345
G1 X92.436 Y119.489 E11.98056
G1 X92.436 Y116.365 E12.08353
G1 X92.289 Y115.249 E12.12063
G1 X91.834 Y114.151 E12.15980
G1 X91.111 Y113.209 E12.19896
G1 X90.169 Y112.486 E12.23812
G1 X89.071 Y112.031 E12.27728
G1 X88.839 Y112.001 E12.28499
G1 X87.893 Y111.876 E12.31644
G1 X86.715 Y112.031 E12.35561
G1 X85.618 Y112.486 E12.39477
G1 X84.675 Y113.209 E12.43393
G1 X83.952 Y114.151 E12.47309
G1 X83.497 Y115.249 E12.51225
G1 X83.350 Y116.365 E12.54936
G1 X83.350 Y119.489 E12.65233
G1 X83.497 Y120.605 E12.68943
G1 X83.952 Y121.702 E12.72860
G1 X84.675 Y122.645 E12.76776
G1 X85.618 Y123.368 E12.80692
G1 X86.715 Y123.823 E12.84608
G1 X87.893 Y123.978 E12.88524
G1 X88.656 Y123.877 E12.91060
G1 X88.780 Y124.274 E12.92430
G1 X87.894 Y124.730 E12.95712
G1 X86.750 Y125.447 E13.00165
G1 X85.670 Y126.259 E13.04618
G1 X84.662 Y127.159 E13.09071
G1 X83.735 Y128.141 E13.13524
G1 X82.894 Y129.198 E13.17977
G1 X82.146 Y130.323 E13.22430
G1 X81.495 Y131.506 E13.26882
G1 X80.947 Y132.741 E13.31336
G1 X80.505 Y134.018 E13.35788
G1 X80.173 Y135.327 E13.40242
G1 X79.954 Y136.660 E13.44695
G1 X79.847 Y138.007 E13.49148
G1 X79.855 Y139.358 E13.53601
G1 X79.978 Y140.703 E13.58054
G1 X80.214 Y142.033 E13.62507
G1 X80.561 Y143.338 E13.66959
G1 X81.247 Y145.286 E13.73767
G1 X81.393 Y145.986 E13.76121
G1 X81.454 Y146.697 E13.78476
G1 X81.429 Y147.411 E13.80831
G1 X81.317 Y148.117 E13.83185
G1 X81.122 Y148.804 E13.85540
G1 X80.845 Y149.462 E13.87894
G1 X80.491 Y150.083 E13.90249
G1 X80.065 Y150.656 E13.92604
G1 X79.572 Y151.173 E13.94958
G1 X79.021 Y151.628 E13.97313
G1 X78.419 Y152.012 E13.99667
G1 X77.775 Y152.322 E14.02022
G1 X77.099 Y152.551 E14.04377
G1 X76.400 Y152.697 E14.06731
G1 X75.688 Y152.758 E14.09086
G1 X74.974 Y152.733 E14.11440
G1 X74.269 Y152.621 E14.13795
G1 X73.582 Y152.426 E14.16150
G1 X72.923 Y152.149 E14.18504
G1 X72.303 Y151.795 E14.20859
G1 X71.730 Y151.369 E14.23213
G1 X71.212 Y150.876 E14.25568
G1 X70.758 Y150.325 E14.27923
G1 X70.373 Y149.723 E14.30278
G1 X70.069 Y149.091 E14.32591
G1 X69.791 Y148.193 E14.35690
G1 X69.673 Y147.272 E14.38748
G1 X69.718 Y146.299 E14.41959
G1 X70.015 Y143.876 E14.50008
G1 X70.480 Y143.904 E14.51541
G1 X70.480 Y147.118 E14.62135
G1 X70.627 Y148.234 E14.65846
G1 X71.081 Y149.332 E14.69762
G1 X71.804 Y150.274 E14.73678
G1 X72.747 Y150.997 E14.77594
G1 X73.845 Y151.452 E14.81510
G1 X75.022 Y151.607 E14.85427
G1 X76.200 Y151.452 E14.89343
G1 X77.298 Y150.997 E14.93259
G1 X78.240 Y150.274 E14.97175
G1 X78.964 Y149.332 E15.01091
G1 X79.418 Y148.234 E15.05008
G1 X79.565 Y147.118 E15.08719
G1 X79.565 Y143.994 E15.19015
G1 X79.418 Y142.878 E15.22726
G1 X78.964 Y141.781 E15.26642
G1 X78.240 Y140.838 E15.30558
G1 X77.298 Y140.115 E15.34474
G1 X77.082 Y140.025 E15.35245
G1 X76.200 Y139.660 E15.38391
G1 X75.022 Y139.505 E15.42307
G1 X73.845 Y139.660 E15.46223
G1 X72.963 Y140.025 E15.49369
G1 X72.747 Y140.115 E15.50139
G1 X71.804 Y140.838 E15.54055
G1 X71.081 Y141.781 E15.57972
G1 X70.573 Y143.008 E15.62350
M204 S1200
G1 F1500.000 E14.42350
G92 E0
G1 X88.488 Y85.473 F9000.000
G1 E1.20000 F1500.000
M204 S1800
G1 X87.842 Y85.908 E1.22565 F1260.000
G1 X86.917 Y86.668 E1.26513
G1 X86.068 Y87.513 E1.30462
G1 X85.305 Y88.437 E1.34409
G1 X84.635 Y89.429 E1.38358
G1 X84.062 Y90.481 E1.42306
G1 X83.594 Y91.583 E1.46254
G1 X83.233 Y92.725 E1.50202
G1 X82.984 Y93.897 E1.54150
G1 X82.849 Y95.087 E1.58098
G1 X82.828 Y96.284 E1.62046
G1 X82.923 Y97.478 E1.65994
G1 X83.132 Y98.657 E1.69942
G1 X83.453 Y99.811 E1.73890
G1 X83.884 Y100.929 E1.77838
G1 X84.420 Y102.000 E1.81786
G1 X85.057 Y103.014 E1.85734
G1 X85.788 Y103.963 E1.89682
G1 X86.606 Y104.837 E1.93630
G1 X87.505 Y105.628 E1.97578
G1 X88.476 Y106.330 E2.01526
G1 X89.510 Y106.934 E2.05474
G1 X90.597 Y107.437 E2.09422
G1 X91.728 Y107.833 E2.13370
G1 X92.891 Y108.118 E2.17318
G1 X94.076 Y108.290 E2.21266
