; generated by Slic3r 1.1.7 on 2015-02-16 at 10:27:09

; perimeters extrusion width = 0.56mm
; infill extrusion width = 0.60mm
; solid infill extrusion width = 0.55mm
; top infill extrusion width = 0.43mm

G21 ; set units to millimeters
M107

M301 P34 I4 D113     ; set PID nozzle
M304 P162 I17 D378 ; set PID Bed

M104 S230                  ; set extruder temp for budaschnozzle
;M104 S250                 ; set extruder temp for hex_hot_end
;M140 S100                    ; set bed temp for PET
M140 S110                 ; set bed temp for PEI (reminder ~G1 Z2 ~ M140 S(@-10 degree change) ;if -m is present in file name)

G28                            ; home
G1 Z5 F300                ; move bed down 5mm
M84                            ; disable steppers
G4 S300                     ; wait 5 mins to preheat

G28                            ; home

G90 ; use absolute coordinates
G92 E0
M82 ; use absolute distances for extrusion
G1 F1500.000 E-1.20000
G92 E0
G1 Z0.350 F9600.000
G1 X126.768 Y100.066 F9600.000
G1 E1.20000 F1500.000
G1 X128.496 Y97.963 E1.28946 F1260.000
G1 X130.248 Y96.469 E1.36513
G1 X132.486 Y95.129 E1.45083
G1 X134.115 Y94.434 E1.50902
G1 X136.184 Y93.946 E1.57888
G1 X136.625 Y93.931 E1.59336
G1 X142.303 Y93.931 E1.77996
G1 X144.748 Y94.430 E1.86195
G1 X146.073 Y94.995 E1.90926 F1260.000
G1 X147.018 Y95.497 E1.94442
G1 X149.163 Y96.994 E2.03038
G1 X150.084 Y97.844 E2.07157
G1 X150.766 Y98.582 E2.10458
G1 X152.621 Y100.947 E2.20334
G1 X152.898 Y101.326 E2.21878
G1 X172.880 Y131.112 E3.39733
G1 X173.769 Y133.150 E3.47040
G1 X173.937 Y134.583 E3.51783
G1 X173.937 Y164.154 E4.48951
G1 X173.181 Y167.129 E4.59034
G1 X165.841 Y180.642 E5.09566
G1 X164.448 Y182.376 E5.16873
G1 X162.535 Y183.510 E5.24180
G1 X160.365 Y183.900 E5.31425
G1 X141.030 Y183.900 E5.94959
G1 X138.842 Y183.503 E6.02266
G1 X136.932 Y182.363 E6.09574
G1 X135.545 Y180.625 E6.16881
G1 X134.874 Y178.637 E6.23775
G1 X124.115 Y109.991 E8.52094
G1 X124.073 Y108.588 E8.56706
G1 X124.127 Y107.375 E8.60696
G1 X124.584 Y104.799 E8.69291
G1 X125.015 Y103.464 E8.73903
G1 X125.473 Y102.339 E8.77892
G1 X126.191 Y100.969 E8.82976
G1 X126.727 Y100.129 E8.86249
G1 X127.256 Y100.441 F9600.000
G1 X128.913 Y98.415 E8.94849 F1260.000
G1 X130.583 Y96.986 E9.02071
G1 X132.728 Y95.695 E9.10296
G1 X134.357 Y95.001 E9.16115
G1 X136.221 Y94.561 E9.22410
G1 X136.625 Y94.547 E9.23736
G1 X142.303 Y94.547 E9.42396
G1 X144.507 Y94.997 E9.49785
G1 X145.831 Y95.562 E9.54515 F1260.000
G1 X146.683 Y96.014 E9.57687
G1 X148.745 Y97.446 E9.65937
G1 X149.666 Y98.297 E9.70056
G1 X150.282 Y98.962 E9.73033
G1 X152.137 Y101.326 E9.82909
G1 X152.386 Y101.670 E9.84302
G1 X172.368 Y131.455 E11.02158
G1 X173.194 Y133.397 E11.09092
G1 X173.321 Y134.583 E11.13013
G1 X173.321 Y164.154 E12.10181
G1 X172.640 Y166.835 E12.19268
G1 X165.300 Y180.348 E12.69799
G1 X163.963 Y181.980 E12.76733
G1 X162.117 Y183.004 E12.83667
G1 X160.365 Y183.284 E12.89497
G1 X141.030 Y183.284 E13.53030
G1 X138.957 Y182.887 E13.59964
G1 X137.177 Y181.754 E13.66898
G1 X135.941 Y180.044 E13.73831
G1 X135.482 Y178.542 E13.78993
G1 X124.731 Y109.972 E16.07059
G1 X124.688 Y108.569 E16.11670
G1 X124.737 Y107.461 E16.15314
G1 X125.170 Y104.988 E16.23564
G1 X125.601 Y103.653 E16.28176
G1 X126.018 Y102.625 E16.31819
G1 X126.736 Y101.256 E16.36901
G1 X127.216 Y100.504 E16.39830
G1 F1500.000 E15.19830
G92 E0
G1 X144.112 Y112.731 F9600.000
G1 E1.20000 F1500.000
M204 S800
G1 X143.348 Y113.494 E1.23548 F1890.000
G1 X142.464 Y114.113 E1.27095
G1 X141.485 Y114.570 E1.30642
G1 X140.443 Y114.849 E1.34190
G1 X139.368 Y114.943 E1.37736
G1 X138.292 Y114.849 E1.41283
G1 X137.249 Y114.570 E1.44831
G1 X137.165 Y114.530 E1.45136
G1 X136.271 Y114.114 E1.48377
G1 X135.386 Y113.494 E1.51925
G1 X134.623 Y112.731 E1.55472
G1 X134.570 Y112.655 E1.55777
G1 X134.004 Y111.847 E1.59020
G1 X133.548 Y110.868 E1.62567
G1 X133.268 Y109.825 E1.66115
G1 X133.174 Y108.750 E1.69662
G1 X133.268 Y107.674 E1.73210
G1 X133.548 Y106.632 E1.76756
G1 X134.004 Y105.653 E1.80304
G1 X134.623 Y104.769 E1.83851
G1 X135.387 Y104.006 E1.87398
G1 X136.214 Y103.412 E1.90744
G1 X137.202 Y102.952 E1.94327
G1 X138.254 Y102.661 E1.97911
G1 X139.411 Y102.561 E2.01729
M204 S800
M204 S800
G1 X140.412 Y102.649 E2.05031 F1890.000
G1 X141.406 Y102.908 E2.08407
G1 X141.539 Y102.955 E2.08870
G1 X142.486 Y103.402 E2.12308
G1 X143.348 Y104.006 E2.15769
G1 X144.112 Y104.769 E2.19316
G1 X144.731 Y105.653 E2.22864
G1 X145.187 Y106.632 E2.26410
G1 X145.211 Y106.721 E2.26715
G1 X145.467 Y107.675 E2.29959
G1 X145.561 Y108.750 E2.33505
G1 X145.466 Y109.826 E2.37053
G1 X145.187 Y110.868 E2.40600
G1 X144.731 Y111.847 E2.44148
G1 X144.155 Y112.669 E2.47448
M204 S800
G1 X143.638 Y112.334 F9600.000
M204 S800
G1 X142.951 Y113.021 E2.50642 F1470.000
G1 X142.155 Y113.578 E2.53834
G1 X141.274 Y113.989 E2.57028
G1 X140.335 Y114.240 E2.60221
G1 X139.329 Y114.322 E2.63540
G1 X138.399 Y114.240 E2.66605
G1 X137.461 Y113.989 E2.69798
G1 X136.580 Y113.578 E2.72991
G1 X135.784 Y113.021 E2.76185
G1 X135.097 Y112.334 E2.79378
G1 X134.539 Y111.537 E2.82571
G1 X134.129 Y110.657 E2.85764
G1 X133.877 Y109.718 E2.88958
G1 X133.792 Y108.750 E2.92151
G1 X133.877 Y107.782 E2.95344
G1 X134.129 Y106.843 E2.98537
G1 X134.539 Y105.962 E3.01731
G1 X135.097 Y105.166 E3.04924
G1 X135.784 Y104.479 E3.08117
G1 X136.573 Y103.925 E3.11286
G1 X137.500 Y103.500 E3.14637
G1 X138.384 Y103.264 E3.17642
G1 X139.337 Y103.177 E3.20789
M204 S800
M204 S800
G1 X140.349 Y103.263 E3.24126 F1470.000
G1 X141.271 Y103.511 E3.27263
G1 X142.162 Y103.927 E3.30494
G1 X142.951 Y104.479 E3.33658
G1 X143.638 Y105.166 E3.36851
G1 X144.196 Y105.963 E3.40044
G1 X144.616 Y106.881 E3.43364
G1 X144.858 Y107.782 E3.46429
G1 X144.942 Y108.750 E3.49622
G1 X144.858 Y109.718 E3.52815
G1 X144.606 Y110.657 E3.56008
G1 X144.195 Y111.538 E3.59202
G1 X143.681 Y112.272 E3.62148
M204 S800
G1 F1500.000 E2.42148
G92 E0
G1 X139.278 Y102.681 F9600.000
G1 X148.383 Y124.799 F9600.000
G1 E1.20000 F1500.000
M204 S800
G1 X149.360 Y124.537 E1.23321 F1890.000
G1 X150.367 Y124.449 E1.26645
G1 X150.459 Y124.457 E1.26947
M204 S800
M204 S800
G1 X151.375 Y124.537 E1.29967 F1890.000
G1 X152.352 Y124.799 E1.33290
G1 X153.268 Y125.226 E1.36612
G1 X154.096 Y125.806 E1.39936
G1 X154.811 Y126.521 E1.43259
G1 X155.391 Y127.349 E1.46581
G1 X155.819 Y128.266 E1.49905
G1 X156.080 Y129.243 E1.53226
G1 X156.168 Y130.250 E1.56549
G1 X156.080 Y131.257 E1.59871
G1 X155.819 Y132.234 E1.63195
G1 X155.391 Y133.150 E1.66517
G1 X154.811 Y133.979 E1.69840
G1 X154.096 Y134.694 E1.73163
G1 X153.268 Y135.274 E1.76485
G1 X152.351 Y135.701 E1.79809
G1 X151.375 Y135.963 E1.83131
G1 X150.367 Y136.051 E1.86453
G1 X149.360 Y135.963 E1.89776
G1 X148.383 Y135.701 E1.93099
G1 X147.467 Y135.274 E1.96422
G1 X146.639 Y134.694 E1.99744
G1 X145.924 Y133.979 E2.03066
G1 X145.344 Y133.151 E2.06389
G1 X144.916 Y132.234 E2.09711
G1 X144.654 Y131.257 E2.13035
G1 X144.566 Y130.250 E2.16358
G1 X144.654 Y129.243 E2.19680
G1 X144.916 Y128.266 E2.23004
G1 X145.343 Y127.350 E2.26325
G1 X145.924 Y126.521 E2.29649
G1 X146.639 Y125.806 E2.32972
G1 X147.467 Y125.226 E2.36294
G1 X148.315 Y124.830 E2.39371
M204 S800
G1 X148.595 Y125.380 F9600.000
M204 S800
G1 X149.467 Y125.146 E2.42339 F1470.000
G1 X150.290 Y125.074 E2.45052
M204 S800
M204 S800
G1 X151.267 Y125.146 E2.48273 F1470.000
G1 X152.140 Y125.380 E2.51241
G1 X152.959 Y125.761 E2.54210
G1 X153.699 Y126.280 E2.57179
G1 X154.338 Y126.919 E2.60147
G1 X154.856 Y127.659 E2.63116
G1 X155.238 Y128.477 E2.66085
G1 X155.472 Y129.350 E2.69053
G1 X155.550 Y130.250 E2.72022
G1 X155.462 Y131.187 E2.75114
G1 X155.238 Y132.023 E2.77957
G1 X154.856 Y132.841 E2.80925
G1 X154.338 Y133.582 E2.83894
G1 X153.699 Y134.220 E2.86863
G1 X152.959 Y134.739 E2.89831
G1 X152.140 Y135.120 E2.92800
G1 X151.267 Y135.354 E2.95769
G1 X150.367 Y135.433 E2.98737
G1 X149.467 Y135.354 E3.01706
G1 X148.595 Y135.120 E3.04675
G1 X147.776 Y134.739 E3.07643
G1 X147.036 Y134.220 E3.10612
G1 X146.397 Y133.582 E3.13580
G1 X145.879 Y132.841 E3.16549
G1 X145.497 Y132.023 E3.19517
G1 X145.263 Y131.150 E3.22486
G1 X145.184 Y130.250 E3.25455
G1 X145.263 Y129.350 E3.28423
G1 X145.497 Y128.477 E3.31392
G1 X145.879 Y127.659 E3.34360
G1 X146.397 Y126.918 E3.37329
G1 X147.036 Y126.280 E3.40298
G1 X147.776 Y125.761 E3.43267
G1 X148.527 Y125.411 E3.45989
M204 S800
G1 F1500.000 E2.25989
G92 E0
G1 X150.522 Y124.631 F9600.000
G1 X143.178 Y137.460 F9600.000
G1 E1.20000 F1500.000
M204 S800
G1 X165.557 Y137.460 E1.93536 F1890.000
G1 X165.557 Y160.040 E2.67729
G1 X143.178 Y160.040 E3.41265
G1 X143.178 Y137.535 E4.15211
M204 S800
G1 X143.794 Y138.076 F9600.000
M204 S800
G1 X164.941 Y138.076 E4.84700 F1470.000
G1 X164.941 Y159.424 E5.54846
G1 X143.794 Y159.424 E6.24334
G1 X143.794 Y138.151 E6.94234
M204 S800
G1 X143.794 Y137.576 F9600.000
G1 F1500.000 E5.74234
G92 E0
G1 X141.969 Y176.728 F9600.000
G1 E1.20000 F1500.000
M204 S800
G1 X141.969 Y141.660 E2.35232 F1890.000
G1 X141.922 Y141.095 E2.37093
G1 X141.782 Y140.547 E2.38954
G1 X131.677 Y111.443 E3.40186
G1 X131.571 Y111.112 E3.41327
G1 X131.281 Y109.692 E3.46090
G1 X131.239 Y108.301 E3.50663
G1 X131.434 Y106.923 E3.55236
G1 X131.861 Y105.599 E3.59809
G1 X132.507 Y104.366 E3.64382
G1 X133.419 Y103.177 E3.69305
G1 X134.212 Y102.445 E3.72850
G1 X135.374 Y101.694 E3.77397
G1 X136.761 Y101.102 E3.82353
G1 X142.111 Y101.102 E3.99934
G1 X143.190 Y101.562 E4.03785
G1 X144.358 Y102.318 E4.08358
G1 X145.171 Y103.068 E4.11993
G1 X146.962 Y105.351 E4.21527
G1 X166.765 Y134.869 E5.38328
G1 X166.765 Y163.916 E6.33771
G1 X159.806 Y176.728 E6.81682
G1 X142.044 Y176.728 E7.40045
M204 S800
G1 X141.354 Y177.344 F9600.000
M204 S800
G1 X141.354 Y141.686 E8.57216 F1470.000
G1 X141.313 Y141.198 E8.58823
G1 X141.192 Y140.725 E8.60430
G1 X131.093 Y111.638 E9.61602
G1 X130.975 Y111.269 E9.62877
G1 X130.667 Y109.764 E9.67924
G1 X130.622 Y108.267 E9.72844
G1 X130.832 Y106.785 E9.77764
G1 X131.291 Y105.359 E9.82684
G1 X131.986 Y104.033 E9.87604
G1 X132.963 Y102.761 E9.92875
G1 X133.833 Y101.957 E9.96767
G1 X135.083 Y101.148 E10.01661
G1 X136.635 Y100.486 E10.07204
G1 X142.237 Y100.486 E10.25612
G1 X143.480 Y101.016 E10.30051
G1 X144.737 Y101.830 E10.34971
G1 X145.625 Y102.649 E10.38942
G1 X147.461 Y104.989 E10.48713
G1 X167.381 Y134.682 E11.66205
G1 X167.381 Y164.072 E12.62778
G1 X160.173 Y177.344 E13.12407
G1 X141.429 Y177.344 E13.73998
M204 S800
G1 X141.604 Y176.911 F9600.000
G1 X142.396 Y176.270 F9600.000
M204 S750
G1 X142.451 Y176.302 E13.74205 F1890.000
G1 X143.688 Y176.302 E13.78271
G1 X142.396 Y175.556 E13.83172
G1 X142.396 Y174.842 E13.85520
G1 X144.925 Y176.302 E13.95116
G1 X146.162 Y176.302 E13.99182
G1 X142.396 Y174.127 E14.13473
G1 X142.396 Y173.413 E14.15820
G1 X147.400 Y176.302 E14.34806
G1 X148.637 Y176.302 E14.38871
G1 X142.396 Y172.699 E14.62552
G1 X142.396 Y171.984 E14.64899
G1 X149.874 Y176.302 E14.93274
G1 X151.112 Y176.302 E14.97339
G1 X142.396 Y171.270 E15.30408
G1 X142.396 Y170.556 E15.32756
G1 X152.349 Y176.302 E15.70520
G1 X153.586 Y176.302 E15.74585
G1 X142.396 Y169.841 E16.17044
G1 X142.396 Y169.127 E16.19391
G1 X154.824 Y176.302 E16.66544
G1 X156.061 Y176.302 E16.70610
G1 X142.396 Y168.413 E17.22457
G1 X142.396 Y167.698 E17.24804
G1 X157.298 Y176.302 E17.81347
G1 X158.535 Y176.302 E17.85412
G1 X142.396 Y166.984 E18.46649
G1 X142.396 Y166.270 E18.48996
G1 X159.590 Y176.197 E19.14234
G1 X159.899 Y175.661 E19.16267
G1 X142.396 Y165.555 E19.82679
G1 X142.396 Y164.841 E19.85026
G1 X160.196 Y175.118 E20.52563
G1 X160.491 Y174.574 E20.54597
G1 X142.396 Y164.126 E21.23255
G1 X142.396 Y163.412 E21.25602
G1 X160.787 Y174.030 E21.95380
G1 X161.082 Y173.486 E21.97414
G1 X142.396 Y162.698 E22.68313
G1 X142.396 Y161.983 E22.70660
G1 X161.377 Y172.942 E23.42680
G1 X161.673 Y172.399 E23.44713
G1 X142.396 Y161.269 E24.17853
G1 X142.776 Y160.774 E24.19904
G1 X161.968 Y171.855 E24.92724
G1 X162.263 Y171.311 E24.94758
G1 X143.480 Y160.466 E25.66028
G1 X144.717 Y160.466 E25.70093
G1 X162.559 Y170.767 E26.37789
G1 X162.854 Y170.223 E26.39823
G1 X145.954 Y160.466 E27.03945
G1 X147.192 Y160.466 E27.08011
G1 X163.149 Y169.679 E27.68559
G1 X163.445 Y169.136 E27.70592
G1 X148.429 Y160.466 E28.27567
G1 X149.666 Y160.466 E28.31633
G1 X163.740 Y168.592 E28.85033
G1 X164.036 Y168.048 E28.87067
G1 X150.903 Y160.466 E29.36893
G1 X152.141 Y160.466 E29.40959
G1 X164.331 Y167.504 E29.87212
G1 X164.626 Y166.960 E29.89245
G1 X153.378 Y160.466 E30.31924
G1 X154.615 Y160.466 E30.35990
G1 X164.922 Y166.416 E30.75095
G1 X165.217 Y165.873 E30.77128
G1 X155.853 Y160.466 E31.12660
G1 X157.090 Y160.466 E31.16725
G1 X165.512 Y165.329 E31.48682
G1 X165.808 Y164.785 E31.50716
G1 X158.327 Y160.466 E31.79099
G1 X159.564 Y160.466 E31.83165
G1 X166.103 Y164.241 E32.07974
G1 X166.339 Y163.663 E32.10026
G1 X160.802 Y160.466 E32.31036
G1 X162.039 Y160.466 E32.35101
G1 X166.339 Y162.949 E32.51416
G1 X166.339 Y162.234 E32.53763
G1 X163.276 Y160.466 E32.65383
G1 X164.514 Y160.466 E32.69449
G1 X166.339 Y161.520 E32.76374
G1 X166.339 Y160.806 E32.78721
G1 X166.284 Y160.774 E32.78929
M204 S800
G1 X166.161 Y160.347 F9600.000
G1 X166.161 Y137.152 E33.23677 F945.000
G1 F1500.000 E32.03677
G92 E0
G1 X151.789 Y136.695 F9600.000
G1 E1.20000 F1500.000
G1 X150.333 Y136.756 E1.26968 F945.000
G1 X148.946 Y136.695 E1.33606
G1 F1500.000 E0.13606
G92 E0
G1 X143.117 Y137.400 F9600.000
G1 X142.560 Y141.310 F9600.000
G1 E1.20000 F1500.000
G1 X142.574 Y141.647 E1.20651 F945.000
G1 X142.574 Y160.347 E1.56728
G1 F1500.000 E0.36728
G92 E0
G1 X142.358 Y140.892 F9600.000
G1 E1.20000 F1500.000
M204 S750
G1 X142.302 Y140.859 E1.20215 F1890.000
G1 X142.041 Y139.994 E1.23182
G1 X142.751 Y140.404 E1.25876
G1 X142.751 Y139.690 E1.28223
G1 X141.731 Y139.101 E1.32094
G1 X141.421 Y138.208 E1.35201
G1 X142.751 Y138.976 E1.40249
G1 X142.751 Y138.261 E1.42595
G1 X141.111 Y137.314 E1.48820
G1 X140.801 Y136.421 E1.51927
G1 X142.751 Y137.547 E1.59328
G1 X143.099 Y137.034 E1.61366
G1 X140.491 Y135.528 E1.71264
G1 X140.180 Y134.634 E1.74371
G1 X144.337 Y137.034 E1.90141
G1 X145.574 Y137.034 E1.94206
G1 X139.870 Y133.741 E2.15845
G1 X139.560 Y132.848 E2.18952
G1 X146.811 Y137.034 E2.46463
G1 X148.048 Y137.034 E2.50528
G1 X139.250 Y131.955 E2.83909
M204 S800
G1 F1500.000 E1.63909
G92 E0
G1 X148.523 Y136.594 F9600.000
G1 E1.20000 F1500.000
M204 S750
G1 X138.940 Y131.061 E1.56362 F1890.000
G1 X138.630 Y130.168 E1.59469
G1 X145.520 Y134.146 E1.85612
G1 X144.814 Y133.024 E1.89967
G1 X138.320 Y129.275 E2.14608
G1 X138.010 Y128.381 E2.17715
G1 X144.437 Y132.092 E2.42101
G1 X144.226 Y131.256 E2.44933
G1 X137.699 Y127.488 E2.69697
G1 X137.389 Y126.595 E2.72805
G1 X144.160 Y130.504 E2.98496
G1 X144.178 Y129.800 E3.00811
G1 X137.079 Y125.701 E3.27744
G1 X136.769 Y124.808 E3.30851
G1 X144.245 Y129.124 E3.59216
G1 X144.410 Y128.506 E3.61320
G1 X136.459 Y123.915 E3.91490
G1 X136.149 Y123.022 E3.94597
G1 X144.612 Y127.908 E4.26711
G1 X144.875 Y127.345 E4.28751
G1 X135.839 Y122.128 E4.63037
G1 X135.528 Y121.235 E4.66144
G1 X145.196 Y126.817 E5.02825
G1 X145.552 Y126.308 E5.04865
G1 X135.218 Y120.342 E5.44074
G1 X134.908 Y119.448 E5.47181
G1 X145.993 Y125.848 E5.89240
G1 X146.465 Y125.407 E5.91365
G1 X134.598 Y118.555 E6.36392
G1 X134.288 Y117.662 E6.39499
G1 X147.024 Y125.015 E6.87824
G1 X147.658 Y124.667 E6.90200
G1 X133.978 Y116.769 E7.42104
G1 X133.668 Y115.875 E7.45211
G1 X148.367 Y124.362 E8.00983
G1 X149.212 Y124.135 E8.03857
G1 X133.357 Y114.982 E8.64011
G1 X133.047 Y114.089 E8.67118
G1 X150.266 Y124.030 E9.32449
M204 S800
G1 X151.827 Y124.217 F9600.000
M204 S750
G1 X132.737 Y113.195 E10.04879 F1890.000
M204 S800
G1 F1500.000 E8.84879
G92 E0
G1 X135.353 Y113.991 F9600.000
G1 E1.20000 F1500.000
M204 S750
G1 X132.427 Y112.302 E1.31100 F1890.000
G1 X132.117 Y111.409 E1.34207
G1 X133.896 Y112.436 E1.40957
G1 X133.320 Y111.389 E1.44883
G1 X131.895 Y110.566 E1.50290
G1 X131.729 Y109.757 E1.53006
G1 X133.006 Y110.493 E1.57849
G1 X132.827 Y109.676 E1.60598
G1 X131.687 Y109.018 E1.64923
G1 X131.670 Y108.294 E1.67303
G1 X132.761 Y108.924 E1.71442
G1 X132.792 Y108.227 E1.73733
