; generated by Slic3r 1.1.4 on 2015-01-12 at 11:05:26

; perimeters extrusion width = 0.50mm
; infill extrusion width = 0.60mm
; solid infill extrusion width = 0.60mm
; top infill extrusion width = 0.43mm

G21 ; set units to millimeters
M107

M301 P34 I4 D113     ; set PID nozzle
M304 P162 I17 D378 ; set PID Bed

;M104 S230                 ; set extruder temp for budaschnozzle
M104 S250                 ; set extruder temp for hex_hot_end
;M140 S100                 ; set bed temp for PET
M140 S110                 ; set bed temp for PEI (reminder: heatmod=M140 @10 degree change at @G1 Z2)

;G28                            ; home
;G1 Z5 F300                ; move bed down 5mm
;M84                            ; disable steppers
;G4 S300                     ; wait 5 mins to preheat

G28                            ; home

G90 ; use absolute coordinates
G92 E0
M82 ; use absolute distances for extrusion
M204 S2000
G1 F1800.000 E-2.00000
G92 E0
G1 Z0.350 F9600.000
G1 X122.941 Y101.245 F9600.000
G1 E2.00000 F1800.000
G1 X124.609 Y99.772 E2.07333 F1260.000
G1 X126.687 Y98.979 E2.14666
G1 X127.836 Y98.873 E2.18469
G1 X169.969 Y98.873 E3.57358
G1 X172.158 Y99.269 E3.64691
G1 X174.069 Y100.409 E3.72024
G1 X175.890 Y103.150 E3.82870
G1 X176.226 Y104.167 E3.86401
G1 X176.359 Y104.652 E3.88061
G1 X176.644 Y106.102 E3.92932
G1 X176.731 Y107.416 E3.97272
G1 X176.916 Y146.586 E5.26392
G1 X176.912 Y153.776 E5.50093
G1 X176.853 Y155.425 E5.55533
G1 X176.624 Y157.568 E5.62637
G1 X176.286 Y159.442 E5.68913
G1 X175.829 Y161.260 E5.75092
G1 X175.201 Y163.190 E5.81783
G1 X174.659 Y164.545 E5.86595
G1 X173.644 Y166.648 E5.94291
G1 X172.876 Y168.008 E5.99439
G1 X171.698 Y169.786 E6.06470
G1 X170.535 Y171.295 E6.12752
G1 X169.312 Y172.680 E6.18842
G1 X167.924 Y174.048 E6.25267
G1 X166.629 Y175.171 E6.30916
G1 X164.962 Y176.420 E6.37781
G1 X163.722 Y177.232 E6.42669
G1 X161.541 Y178.452 E6.50907
G1 X160.058 Y179.141 E6.56297
G1 X158.199 Y179.858 E6.62865
G1 X156.396 Y180.414 E6.69085
G1 X154.539 Y180.852 E6.75372
G1 X152.877 Y181.134 E6.80930
G1 X150.851 Y181.336 E6.87643
G1 X148.880 Y181.389 E6.94142
G1 X147.263 Y181.332 E6.99475
G1 X145.097 Y181.102 E7.06655
G1 X143.611 Y180.845 E7.11624
G1 X142.975 Y180.704 E7.13773
G1 X141.367 Y180.296 E7.19241
G1 X139.573 Y179.711 E7.25462
G1 X137.971 Y179.073 E7.31144
G1 X136.105 Y178.172 E7.37977
G1 X134.683 Y177.370 E7.43358
G1 X132.877 Y176.176 E7.50494
G1 X131.638 Y175.236 E7.55621
G1 X129.839 Y173.660 E7.63506
G1 X129.099 Y172.920 E7.66956
G1 X128.645 Y172.421 E7.69178
G1 X127.295 Y170.851 E7.76004
G1 X126.241 Y169.437 E7.81820
G1 X125.250 Y167.908 E7.87824
G1 X124.293 Y166.178 E7.94340
G1 X123.534 Y164.562 E8.00226
G1 X122.808 Y162.684 E8.06863
G1 X122.280 Y160.998 E8.12687
G1 X121.812 Y159.021 E8.19385
G1 X121.537 Y157.415 E8.24756
G1 X121.327 Y155.347 E8.31607
G1 X121.269 Y153.593 E8.37394
G1 X121.084 Y114.423 E9.66514
G1 X121.102 Y106.973 E9.91073
G1 X121.196 Y105.849 E9.94791
G1 X121.307 Y105.228 E9.96868
G1 X121.534 Y104.342 E9.99882
G1 X121.896 Y103.209 E10.03806
G1 X122.906 Y101.311 E10.10892
G1 X123.494 Y101.543 F9600.000
G1 X125.116 Y100.193 E10.17849 F1260.000
G1 X127.836 Y99.490 E10.27109
G1 X169.969 Y99.490 E11.65998
G1 X172.042 Y99.887 E11.72955
G1 X173.823 Y101.020 E11.79912
G1 X175.303 Y103.344 E11.88994
G1 X175.637 Y104.354 E11.92501
G1 X175.757 Y104.792 E11.93998
G1 X176.030 Y106.165 E11.98613
G1 X176.113 Y107.419 E12.02755
G1 X176.298 Y146.586 E13.31865
G1 X176.295 Y153.755 E13.55498
G1 X176.237 Y155.387 E13.60881
G1 X176.015 Y157.463 E13.67763
G1 X175.686 Y159.295 E13.73900
G1 X175.240 Y161.075 E13.79947
G1 X174.627 Y162.963 E13.86492
G1 X174.096 Y164.291 E13.91204
G1 X173.106 Y166.345 E13.98722
G1 X172.347 Y167.688 E14.03805
G1 X171.206 Y169.412 E14.10623
G1 X170.069 Y170.889 E14.16766
G1 X168.872 Y172.246 E14.22731
G1 X167.518 Y173.582 E14.29003
G1 X166.242 Y174.689 E14.34571
G1 X164.623 Y175.903 E14.41239
G1 X163.392 Y176.710 E14.46094
G1 X161.275 Y177.894 E14.54086
G1 X159.831 Y178.566 E14.59338
G1 X158.012 Y179.269 E14.65767
G1 X156.250 Y179.814 E14.71847
G1 X154.434 Y180.243 E14.77995
G1 X152.794 Y180.522 E14.83480
G1 X150.823 Y180.719 E14.90011
G1 X148.901 Y180.772 E14.96349
G1 X147.299 Y180.715 E15.01631
G1 X145.202 Y180.493 E15.08583
G1 X143.721 Y180.237 E15.13537
G1 X143.122 Y180.103 E15.15562
G1 X141.554 Y179.707 E15.20892
G1 X139.800 Y179.136 E15.26974
G1 X138.222 Y178.509 E15.32570
G1 X136.408 Y177.634 E15.39210
G1 X135.000 Y176.840 E15.44536
G1 X133.251 Y175.684 E15.51450
G1 X132.019 Y174.749 E15.56547
G1 X130.276 Y173.223 E15.64183
G1 X129.537 Y172.485 E15.67626
G1 X129.111 Y172.015 E15.69717
G1 X127.787 Y170.478 E15.76403
G1 X126.757 Y169.098 E15.82080
G1 X125.785 Y167.599 E15.87968
G1 X124.851 Y165.913 E15.94323
G1 X124.105 Y164.326 E16.00105
G1 X123.397 Y162.497 E16.06568
G1 X122.877 Y160.840 E16.12294
G1 X122.421 Y158.916 E16.18811
G1 X122.148 Y157.326 E16.24129
G1 X121.945 Y155.317 E16.30784
G1 X121.887 Y153.590 E16.36482
G1 X121.702 Y114.423 E17.65593
G1 X121.718 Y107.019 E17.89997
G1 X121.809 Y105.927 E17.93610
G1 X121.909 Y105.368 E17.95483
G1 X122.122 Y104.531 E17.98331
G1 X122.485 Y103.397 E18.02254
G1 X123.458 Y101.609 E18.08964
G1 F1800.000 E16.08964
G92 E0
G1 X155.602 Y158.761 F9600.000
G1 E2.00000 F1800.000
G1 X154.980 Y159.457 E2.03078 F1575.000
G1 X154.283 Y160.079 E2.06155
G1 X153.522 Y160.620 E2.09233
G1 X152.705 Y161.071 E2.12311
G1 X151.842 Y161.428 E2.15388
G1 X150.945 Y161.687 E2.18466
G1 X150.025 Y161.843 E2.21543
G1 X149.093 Y161.896 E2.24621
G1 X148.192 Y161.845 E2.27595
G1 X147.240 Y161.687 E2.30776
G1 X146.343 Y161.428 E2.33853
G1 X145.480 Y161.071 E2.36931
G1 X144.663 Y160.620 E2.40008
G1 X143.902 Y160.079 E2.43086
G1 X143.205 Y159.457 E2.46164
G1 X142.583 Y158.761 E2.49241
G1 X142.043 Y158.000 E2.52319
G1 X141.592 Y157.182 E2.55396
G1 X141.234 Y156.320 E2.58474
G1 X140.976 Y155.423 E2.61552
G1 X140.819 Y154.502 E2.64629
G1 X140.767 Y153.570 E2.67707
G1 X140.818 Y152.669 E2.70681
G1 X140.976 Y151.717 E2.73862
G1 X141.234 Y150.820 E2.76939
G1 X141.580 Y149.987 E2.79914
G1 X142.043 Y149.140 E2.83095
G1 X142.581 Y148.383 E2.86157
G1 X143.201 Y147.689 E2.89225
G1 X143.897 Y147.064 E2.92308
G1 X144.661 Y146.522 E2.95397
G1 X145.470 Y146.075 E2.98444
G1 X146.342 Y145.712 E3.01557
G1 X147.247 Y145.452 E3.04658
G1 X148.154 Y145.298 E3.07692
G1 X149.092 Y145.245 E3.10791
G1 X150.031 Y145.298 E3.13889
G1 X150.937 Y145.452 E3.16918
G1 X151.842 Y145.712 E3.20022
G1 X152.685 Y146.061 E3.23031
G1 X153.533 Y146.528 E3.26224
G1 X154.288 Y147.064 E3.29273
G1 X154.976 Y147.680 E3.32318
G1 X155.603 Y148.382 E3.35421
G1 X156.142 Y149.140 E3.38487
G1 X156.605 Y149.987 E3.41668
G1 X156.951 Y150.820 E3.44642
G1 X157.209 Y151.717 E3.47720
G1 X157.366 Y152.638 E3.50798
G1 X157.418 Y153.570 E3.53876
G1 X157.366 Y154.502 E3.56953
G1 X157.209 Y155.423 E3.60031
G1 X156.951 Y156.320 E3.63109
G1 X156.594 Y157.182 E3.66186
G1 X156.142 Y158.000 E3.69264
G1 X155.645 Y158.700 E3.72094
G1 X155.776 Y159.230 F9600.000
G1 F1800.000 E1.72094
G92 E0
G1 X167.454 Y162.984 F9600.000
G1 E2.00000 F1800.000
G1 X167.469 Y162.984 E2.00049 F1995.000
G1 X166.731 Y164.297 E2.05012
G1 X165.959 Y165.474 E2.09653
G1 X165.105 Y166.600 E2.14311
G1 X164.181 Y167.659 E2.18943
G1 X163.182 Y168.659 E2.23604
G1 X162.121 Y169.584 E2.28243
G1 X160.998 Y170.435 E2.32887
G1 X159.886 Y171.164 E2.37271
G1 X158.444 Y171.976 E2.42727
G1 X157.394 Y172.475 E2.46557
G1 X156.006 Y173.022 E2.51478
G1 X154.665 Y173.448 E2.56114
G1 X153.231 Y173.797 E2.60979
G1 X154.504 Y172.045 E2.68118
G1 X155.074 Y170.606 E2.73221
G1 X155.268 Y169.070 E2.78323
G1 X155.074 Y167.534 E2.83426
G1 X154.504 Y166.095 E2.88528
G1 X153.594 Y164.843 E2.93631
G1 X152.401 Y163.856 E2.98734
G1 X151.001 Y163.197 E3.03836
G1 X149.562 Y162.923 E3.08663
G1 X149.591 Y162.486 E3.10104
G1 X150.094 Y162.458 E3.11764
G1 X151.083 Y162.290 E3.15071
G1 X152.047 Y162.013 E3.18377
G1 X152.973 Y161.629 E3.21683
G1 X153.905 Y161.105 E3.25205
G1 X154.669 Y160.563 E3.28295
G1 X155.417 Y159.895 E3.31600
G1 X156.086 Y159.147 E3.34907
G1 X156.666 Y158.329 E3.38213
G1 X157.151 Y157.451 E3.41520
G1 X157.535 Y156.524 E3.44826
G1 X157.813 Y155.561 E3.48132
G1 X157.981 Y154.572 E3.51439
G1 X158.001 Y154.215 E3.52616
G1 X158.422 Y154.174 E3.54012
G1 X158.851 Y155.843 E3.59695
G1 X159.597 Y157.200 E3.64798
G1 X160.656 Y158.328 E3.69900
G1 X161.963 Y159.158 E3.75003
G1 X163.435 Y159.636 E3.80105
G1 X164.980 Y159.733 E3.85208
G1 X166.501 Y159.443 E3.90311
G1 X167.901 Y158.784 E3.95413
G1 X168.913 Y157.947 E3.99741
G1 X169.215 Y158.137 E4.00917
G1 X168.971 Y159.138 E4.04314
G1 X168.512 Y160.587 E4.09325
G1 X168.111 Y161.602 E4.12924
G1 X167.486 Y162.917 E4.17722
G1 F1800.000 E2.17722
G92 E0
G1 X169.396 Y149.758 F9600.000
G1 E2.00000 F1800.000
G1 X169.094 Y149.343 E2.01691 F1995.000
G1 X167.901 Y148.356 E2.06794
G1 X166.501 Y147.697 E2.11896
G1 X164.980 Y147.407 E2.16999
G1 X163.435 Y147.504 E2.22102
G1 X161.963 Y147.983 E2.27204
G1 X160.656 Y148.812 E2.32307
G1 X159.597 Y149.940 E2.37409
G1 X158.851 Y151.297 E2.42512
G1 X158.422 Y152.967 E2.48195
G1 X158.001 Y152.925 E2.49591
G1 X157.981 Y152.568 E2.50769
G1 X157.813 Y151.580 E2.54075
G1 X157.535 Y150.615 E2.57383
G1 X157.151 Y149.689 E2.60689
G1 X156.665 Y148.811 E2.63997
G1 X156.091 Y148.002 E2.67266
G1 X155.380 Y147.212 E2.70772
G1 X154.673 Y146.581 E2.73894
G1 X153.882 Y146.017 E2.77098
G1 X153.065 Y145.562 E2.80180
G1 X153.160 Y145.191 E2.81442
G1 X169.451 Y145.191 E3.35142
G1 X169.567 Y145.482 E3.36173
G1 X169.691 Y146.019 E3.37992
G1 X169.737 Y146.622 E3.39983
G1 X169.737 Y149.647 E3.49956
G1 X169.467 Y149.735 E3.50893
G1 F1800.000 E1.50893
G92 E0
G1 X148.683 Y162.491 F9600.000
G1 E2.00000 F1800.000
G1 X148.684 Y162.957 E2.01535 F1995.000
G1 X147.935 Y163.004 E2.04008
G1 X146.463 Y163.483 E2.09111
G1 X145.156 Y164.312 E2.14213
G1 X144.097 Y165.440 E2.19316
G1 X143.351 Y166.797 E2.24419
G1 X142.966 Y168.296 E2.29521
G1 X142.966 Y169.844 E2.34624
G1 X143.351 Y171.343 E2.39726
G1 X144.097 Y172.700 E2.44829
G1 X144.736 Y173.380 E2.47906
G1 X144.550 Y173.699 E2.49122
G1 X143.526 Y173.449 E2.52595
G1 X142.176 Y173.021 E2.57263
G1 X140.869 Y172.506 E2.61895
G1 X139.595 Y171.899 E2.66547
G1 X138.366 Y171.208 E2.71195
G1 X137.189 Y170.437 E2.75833
G1 X136.063 Y169.582 E2.80493
G1 X134.892 Y168.561 E2.85615
G1 X134.202 Y167.872 E2.88829
G1 X132.995 Y166.488 E2.94882
G1 X132.225 Y165.472 E2.99086
G1 X131.455 Y164.298 E3.03711
G1 X130.762 Y163.066 E3.08372
G1 X130.158 Y161.796 E3.13007
G1 X129.640 Y160.482 E3.17664
G1 X129.215 Y159.141 E3.22301
G1 X128.969 Y158.135 E3.25715
G1 X129.304 Y157.954 E3.26970
G1 X129.656 Y158.328 E3.28665
G1 X130.963 Y159.158 E3.33768
G1 X132.435 Y159.636 E3.38870
G1 X133.980 Y159.733 E3.43973
G1 X135.501 Y159.443 E3.49075
G1 X136.901 Y158.784 E3.54178
G1 X138.094 Y157.797 E3.59281
G1 X139.004 Y156.545 E3.64383
G1 X139.574 Y155.106 E3.69486
G1 X139.720 Y153.952 E3.73320
G1 X140.171 Y153.968 E3.74807
G1 X140.204 Y154.572 E3.76801
G1 X140.372 Y155.560 E3.80107
G1 X140.650 Y156.524 E3.83414
G1 X141.034 Y157.451 E3.86720
G1 X141.519 Y158.329 E3.90026
G1 X142.100 Y159.147 E3.93333
G1 X142.768 Y159.895 E3.96638
G1 X143.516 Y160.563 E3.99946
G1 X144.334 Y161.143 E4.03251
G1 X145.212 Y161.629 E4.06558
G1 X146.138 Y162.012 E4.09864
G1 X147.102 Y162.290 E4.13170
G1 X148.091 Y162.458 E4.16476
G1 X148.608 Y162.487 E4.18182
G1 F1800.000 E2.18182
G92 E0
G1 X140.171 Y153.173 F9600.000
G1 E2.00000 F1800.000
G1 X139.720 Y153.188 E2.01487 F1995.000
G1 X139.574 Y152.034 E2.05321
G1 X139.004 Y150.595 E2.10424
G1 X138.094 Y149.343 E2.15526
G1 X136.901 Y148.356 E2.20629
G1 X135.501 Y147.697 E2.25732
G1 X133.980 Y147.407 E2.30834
G1 X132.668 Y147.490 E2.35168
G1 X132.435 Y147.504 E2.35937
G1 X130.963 Y147.983 E2.41039
G1 X129.656 Y148.812 E2.46142
G1 X128.448 Y150.099 E2.51961
G1 X128.448 Y146.622 E2.63423
G1 X128.501 Y145.920 E2.65742
G1 X128.560 Y145.665 E2.66606
G1 X128.749 Y145.191 E2.68287
G1 X145.025 Y145.191 E3.21937
G1 X145.120 Y145.562 E3.23199
G1 X144.327 Y146.000 E3.26187
G1 X143.512 Y146.581 E3.29486
G1 X142.810 Y147.208 E3.32590
G1 X142.092 Y148.004 E3.36121
G1 X141.520 Y148.811 E3.39382
G1 X141.034 Y149.689 E3.42690
G1 X140.650 Y150.616 E3.45998
G1 X140.373 Y151.579 E3.49303
G1 X140.204 Y152.569 E3.52611
G1 X140.175 Y153.098 E3.54358
G1 F1800.000 E1.54358
G92 E0
G1 X128.262 Y152.179 F9600.000
G1 E2.00000 F1800.000
G1 X127.830 Y152.124 E2.01436 F1575.000
G1 X127.830 Y146.598 E2.19652
G1 X127.889 Y145.827 E2.22202
G1 X127.969 Y145.480 E2.23376
G1 X128.331 Y144.573 E2.26592
G1 X169.870 Y144.573 E3.63521
G1 X170.158 Y145.296 E3.66087
G1 X170.304 Y145.926 E3.68216
G1 X170.355 Y146.598 E3.70439
G1 X170.355 Y152.069 E3.88474
G1 X169.953 Y152.146 E3.89821
G1 X169.458 Y150.895 E3.94255
G1 X168.640 Y149.769 E3.98843
G1 X167.568 Y148.882 E4.03431
G1 X166.308 Y148.289 E4.08019
G1 X164.941 Y148.029 E4.12607
G1 X163.552 Y148.116 E4.17195
G1 X162.228 Y148.546 E4.21783
G1 X161.053 Y149.292 E4.26371
G1 X160.100 Y150.306 E4.30959
G1 X159.430 Y151.526 E4.35547
G1 X159.084 Y152.874 E4.40135
G1 X159.084 Y154.266 E4.44724
G1 X159.391 Y155.464 E4.48800
G1 X159.430 Y155.614 E4.49312
G1 X160.100 Y156.834 E4.53900
G1 X161.053 Y157.848 E4.58488
G1 X161.184 Y157.932 E4.58999
G1 X162.228 Y158.594 E4.63076
G1 X163.552 Y159.024 E4.67664
G1 X164.941 Y159.112 E4.72252
G1 X166.308 Y158.851 E4.76840
G1 X167.568 Y158.258 E4.81428
G1 X168.640 Y157.371 E4.86016
G1 X169.458 Y156.245 E4.90604
G1 X169.853 Y155.249 E4.94137
G1 X170.271 Y155.351 E4.95556
G1 X170.157 Y156.464 E4.99245
G1 X169.910 Y157.897 E5.04040
G1 X169.567 Y159.305 E5.08814
G1 X169.094 Y160.794 E5.13964
G1 X168.678 Y161.849 E5.17702
G1 X167.920 Y163.442 E5.23518
G1 X167.259 Y164.618 E5.27965
G1 X166.464 Y165.830 E5.32745
G1 X165.585 Y166.990 E5.37542
G1 X164.633 Y168.081 E5.42313
G1 X163.603 Y169.111 E5.47114
G1 X162.511 Y170.063 E5.51891
G1 X161.355 Y170.940 E5.56675
G1 X160.207 Y171.693 E5.61198
G1 X158.728 Y172.524 E5.66793
G1 X157.640 Y173.042 E5.70762
G1 X156.208 Y173.606 E5.75837
G1 X154.832 Y174.043 E5.80598
G1 X153.414 Y174.388 E5.85406
G1 X151.988 Y174.634 E5.90178
G1 X150.944 Y174.742 E5.93636
G1 X150.833 Y174.340 E5.95012
G1 X152.068 Y173.758 E5.99512
G1 X153.140 Y172.871 E6.04100
G1 X153.958 Y171.745 E6.08688
G1 X154.471 Y170.451 E6.13276
G1 X154.645 Y169.070 E6.17864
G1 X154.490 Y167.843 E6.21941
G1 X154.471 Y167.689 E6.22452
G1 X153.958 Y166.395 E6.27040
G1 X153.140 Y165.269 E6.31628
G1 X152.187 Y164.481 E6.35705
G1 X152.068 Y164.382 E6.36216
G1 X150.808 Y163.789 E6.40804
G1 X149.441 Y163.529 E6.45392
G1 X148.207 Y163.606 E6.49469
G1 X148.052 Y163.616 E6.49980
G1 X146.728 Y164.046 E6.54568
G1 X145.553 Y164.792 E6.59156
G1 X144.600 Y165.806 E6.63745
G1 X143.930 Y167.026 E6.68333
G1 X143.622 Y168.224 E6.72409
G1 X143.584 Y168.374 E6.72921
G1 X143.584 Y169.766 E6.77509
G1 X143.930 Y171.114 E6.82097
G1 X144.600 Y172.334 E6.86685
G1 X145.553 Y173.348 E6.91273
G1 X146.728 Y174.094 E6.95861
G1 X147.405 Y174.314 E6.98205
G1 X147.313 Y174.749 E6.99670
G1 X146.201 Y174.635 E7.03355
G1 X144.774 Y174.389 E7.08128
G1 X143.361 Y174.045 E7.12921
G1 X141.969 Y173.604 E7.17734
G1 X140.626 Y173.074 E7.22493
G1 X139.310 Y172.448 E7.27296
G1 X138.042 Y171.735 E7.32095
G1 X136.833 Y170.942 E7.36861
G1 X135.673 Y170.062 E7.41660
G1 X134.470 Y169.013 E7.46921
G1 X133.750 Y168.294 E7.50274
G1 X132.516 Y166.878 E7.56466
G1 X131.720 Y165.828 E7.60809
G1 X130.927 Y164.620 E7.65574
G1 X130.213 Y163.350 E7.70374
G1 X129.591 Y162.042 E7.75148
G1 X129.058 Y160.689 E7.79944
G1 X128.619 Y159.308 E7.84720
G1 X128.275 Y157.895 E7.89514
G1 X128.028 Y156.465 E7.94297
G1 X127.932 Y155.531 E7.97391
G1 X128.318 Y155.411 E7.98723
G1 X129.100 Y156.834 E8.04075
G1 X130.053 Y157.848 E8.08663
G1 X131.228 Y158.594 E8.13251
G1 X132.552 Y159.024 E8.17839
G1 X133.941 Y159.112 E8.22428
G1 X135.308 Y158.851 E8.27016
G1 X136.568 Y158.258 E8.31604
G1 X137.640 Y157.371 E8.36192
G1 X138.458 Y156.245 E8.40780
G1 X138.971 Y154.951 E8.45368
G1 X139.145 Y153.570 E8.49956
G1 X138.971 Y152.189 E8.54544
