;Generated by Cura LulzBot Edition GCodeWriter Version: 3.2.24
;FLAVOR:Marlin
;TIME:11908
;Filament used: 10.2403m
;Layer height: 0.378
;Generated with Cura_SteamEngine 3.2.24
M82 ;absolute extrusion mode
;This G-Code has been generated specifically for the LulzBot Mini 2
M75 					; Start GLCD Print Timer
G26 					; clear potential 'probe fail' condition
G21 					; set units to Millimetres
M107 					; disable fans
G90 					; absolute positioning
M82 					; set extruder to absolute mode
G92 E0 					; set extruder position to 0
M140 S115 	; start bed heating up
G28                       ; Home Axis
G0 X0 Y187 Z156 F200 			; move away from endstops
M117 Mini 2 Wiping...			; progress indicator message on LCD
M109 R170 	; soften filament before retraction
G1 E-15 F75 				; retract filament
M109 R170 	; wait for extruder to reach wiping temp
G1 X45 Y176 F11520 			; move above wiper pad
G1 Z0 F1200 				; push nozzle into wiper
G1 X45 Y178 Z-.5 F4000		; wiping
G1 X55 Y176 Z-.5 F4000		; wiping
G1 X45 Y177 Z0 F4000		; wiping
G1 X55 Y176 F4000		; wiping
G1 X45 Y178 F4000		; wiping
G1 X55 Y176 F4000		; wiping
G1 X45 Y178 F4000		; wiping
G1 X55 Y176 F4000		; wiping
G1 X60 Y178 F4000		; wiping
G1 X80 Y176 F4000		; wiping
G1 X60 Y178 F4000		; wiping
G1 X80 Y176 F4000		; wiping
G1 X60 Y178 F4000		; wiping
G1 X90 Y176 F4000		; wiping
G1 X80 Y178 F4000		; wiping
G1 X100 Y176 F4000		; wiping
G1 X80 Y178 F4000		; wiping
G1 X100 Y176 F4000		; wiping
G1 X80 Y178 F4000		; wiping
G1 X100 Y176 F4000		; wiping
G1 X110 Y178 F4000		; wiping
G1 X100 Y176 F4000		; wiping
G1 X110 Y178 F4000		; wiping
G1 X100 Y176 F4000		; wiping
G1 X110 Y178 F4000		; wiping
G1 X115 Y176 Z-0.5 F1000	; wiping
G1 Z10					; raise extruder
G28 X0 Y0				; home X and Y
M109 R170	; wait for extruder to reach probe temp
M204 S300				; set probing acceleration
G29					; start auto-leveling sequence
M425 Z			     		; use measured Z backlash for compensation
M425 Z F0		     		; turn off measured Z backlash compensation. (if activated in the quality settings, this command will automatically be ignored)
M204 S2000				; restore standard acceleration
G1 X5 Y15 Z10 F5000			; move up off last probe point
G4 S1					; pause
M400					; wait for moves to finish
M117 Heating...				; progress indicator message on LCD
M109 R245	; wait for extruder to reach initial printing temp
M190 S116 ; wait for bed to reach printing temp
G1 Z2 E0 F75				; prime tiny bit of filment into the nozzle
M117 Mini 2 Printing...		; progress indicator message on LCD
M221 S100
M83 ;relative extrusion mode
;LAYER_COUNT:147
;LAYER:0
M425 F1.0
M107
M204 S800
M205 X5 Y5
G0 F2625 X34.717 Y25.489 Z0.42
;TYPE:SKIRT
G1 F900 X35.042 Y25.084 E0.02564
G1 X35.426 Y24.734 E0.02566
G1 X35.858 Y24.447 E0.02561
G1 X36.33 Y24.229 E0.02567
G1 X36.829 Y24.086 E0.02563
G1 X37.101 Y24.042 E0.01361
G1 X80.545 Y18.819 E2.16061
G1 X81.064 Y18.797 E0.02565
G1 X81.349 Y18.819 E0.01411
G1 X124.895 Y24.034 E2.16557
G1 X125.405 Y24.135 E0.02567
G1 X125.892 Y24.313 E0.0256
G1 X126.347 Y24.564 E0.02566
G1 X126.758 Y24.882 E0.02566
G1 X127.115 Y25.259 E0.02564
G1 X127.41 Y25.686 E0.02563
G1 X127.557 Y25.967 E0.01566
G1 X128.59 Y28.199 E0.12144
G1 X131.102 Y33.084 E0.27123
G1 X133.895 Y37.836 E0.27217
G1 X134.122 Y38.302 E0.02559
G1 X134.276 Y38.798 E0.02564
G1 X134.36 Y39.548 E0.03726
G1 X134.332 Y89.134 E2.44844
G1 X134.324 Y89.369 E0.01161
G1 X134.197 Y91.176 E0.08945
G1 X134.175 Y91.387 E0.01048
G1 X133.864 Y93.71 E0.11573
G1 X133.826 Y93.935 E0.01127
G1 X133.306 Y96.49 E0.12875
G1 X133.246 Y96.739 E0.01265
G1 X132.518 Y99.302 E0.13156
G1 X132.416 Y99.605 E0.01579
G1 X130.979 Y103.294 E0.19549
G1 X130.85 Y103.583 E0.01563
G1 X129.675 Y105.924 E0.12934
G1 X129.554 Y106.145 E0.01244
G1 X128.205 Y108.395 E0.12954
G1 X128.064 Y108.61 E0.0127
G1 X126.524 Y110.785 E0.13159
G1 X126.37 Y110.986 E0.0125
G1 X124.703 Y113.001 E0.12913
G1 X124.534 Y113.191 E0.01256
G1 X122.696 Y115.099 E0.13082
G1 X122.513 Y115.276 E0.01257
G1 X120.547 Y117.031 E0.13013
G1 X120.35 Y117.194 E0.01263
G1 X118.257 Y118.795 E0.13012
G1 X118.05 Y118.941 E0.01251
G1 X115.816 Y120.398 E0.1317
G1 X115.693 Y120.474 E0.00714
G1 X113.147 Y121.983 E0.14614
G1 X108.54 Y124.993 E0.27173
G1 X104.135 Y128.24 E0.27021
G1 X99.926 Y131.726 E0.26986
G1 X97.92 Y133.535 E0.13338
G1 X93 Y138.396 E0.34151
G1 X92.798 Y138.58 E0.01349
G1 X91.497 Y139.672 E0.08387
G1 X91.179 Y139.908 E0.01955
G1 X89.846 Y140.783 E0.07873
G1 X89.545 Y140.959 E0.01722
G1 X88.436 Y141.533 E0.06166
G1 X88.168 Y141.658 E0.0146
G1 X87.005 Y142.136 E0.06209
G1 X86.634 Y142.263 E0.01936
G1 X84.728 Y142.798 E0.09775
G1 X84.353 Y142.881 E0.01896
G1 X83.186 Y143.069 E0.05837
G1 X82.845 Y143.106 E0.01694
G1 X81.139 Y143.205 E0.08438
G1 X80.741 Y143.205 E0.01965
G1 X79.175 Y143.111 E0.07746
G1 X78.737 Y143.056 E0.0218
G1 X76.697 Y142.662 E0.10259
G1 X76.168 Y142.514 E0.02712
G1 X73.848 Y141.657 E0.12212
G1 X73.407 Y141.457 E0.02391
G1 X72.047 Y140.719 E0.0764
G1 X71.727 Y140.522 E0.01856
G1 X70.436 Y139.622 E0.07771
G1 X70.171 Y139.416 E0.01657
G1 X69.245 Y138.623 E0.0602
G1 X68.994 Y138.385 E0.01708
G1 X67.878 Y137.211 E0.07998
G1 X67.699 Y137.008 E0.01336
G1 X62.914 Y131.089 E0.37582
G1 X59.22 Y127.059 E0.26994
G1 X55.326 Y123.268 E0.26835
G1 X51.162 Y119.65 E0.27238
G1 X48.975 Y117.922 E0.13763
G1 X48.947 Y117.9 E0.00176
G1 X45.842 Y115.393 E0.19705
G1 X45.672 Y115.247 E0.01107
G1 X43.373 Y113.124 E0.15452
G1 X43.186 Y112.936 E0.01309
G1 X40.068 Y109.566 E0.2267
G1 X39.894 Y109.362 E0.01324
G1 X37.929 Y106.867 E0.15682
G1 X37.802 Y106.695 E0.01056
G1 X36.041 Y104.142 E0.15314
G1 X35.925 Y103.962 E0.01057
G1 X34.311 Y101.271 E0.15494
G1 X34.183 Y101.038 E0.01313
G1 X32.119 Y96.889 E0.22882
G1 X32.009 Y96.643 E0.01331
G1 X30.828 Y93.701 E0.15654
G1 X30.754 Y93.498 E0.01067
G1 X29.773 Y90.515 E0.15505
G1 X29.713 Y90.311 E0.0105
G1 X28.93 Y87.301 E0.15357
G1 X28.9 Y87.175 E0.0064
G1 X27.714 Y81.777 E0.2729
G1 X27.635 Y81.051 E0.03606
G1 X27.655 Y39.519 E2.05076
G1 X27.695 Y39.002 E0.0256
G1 X27.814 Y38.496 E0.02567
G1 X28.01 Y38.015 E0.02565
G1 X28.136 Y37.785 E0.01295
G1 X29.93 Y34.794 E0.17222
G1 X32.54 Y29.957 E0.27139
G1 X34.458 Y25.939 E0.21984
G1 X34.717 Y25.489 E0.02564
G1 F600 E-1
G0 F2625 X39.375 Y29.04
;TYPE:WALL-INNER
G1 F600 E1
G1 F900 X81 Y24.043 E2.0701
G1 X122.625 Y29.04 E2.0701
G1 X122.625 Y33.578 E0.22408
G1 X122.652 Y34.235 E0.03247
G1 X122.744 Y34.935 E0.03486
G1 X122.899 Y35.622 E0.03478
G1 X123.115 Y36.298 E0.03504
G1 X123.411 Y36.988 E0.03707
G1 X123.733 Y37.588 E0.03362
G1 X124.12 Y38.176 E0.03476
G1 X124.559 Y38.729 E0.03486
G1 X125.044 Y39.239 E0.03475
G1 X125.574 Y39.703 E0.03478
G1 X126.146 Y40.119 E0.03492
G1 X126.747 Y40.48 E0.03462
G1 X127.381 Y40.789 E0.03483
G1 X128.042 Y41.038 E0.03488
G1 X128.72 Y41.227 E0.03475
G1 X129.125 Y41.301 E0.02033
G1 X129.125 Y75.401 E1.68378
G1 X129.125 Y75.917 E0.02548
G1 X129.125 Y76.508 E0.02918
G1 X128.737 Y75.917 E0.00209
G1 X128.415 Y75.514 E0.01966
G1 X128.294 Y75.363 E0.00955
G1 X127.805 Y74.852 E0.03492
G1 X127.271 Y74.386 E0.035
G1 X126.696 Y73.972 E0.03499
G1 X126.09 Y73.609 E0.03488
G1 X125.452 Y73.304 E0.03492
G1 X124.791 Y73.057 E0.03484
G1 X124.108 Y72.869 E0.03498
G1 X123.409 Y72.744 E0.03506
G1 X122.705 Y72.682 E0.0349
G1 X122 Y72.683 E0.03481
G1 X121.294 Y72.747 E0.035
G1 X120.598 Y72.874 E0.03493
G1 X119.916 Y73.066 E0.03498
G1 X119.255 Y73.315 E0.03488
G1 X118.618 Y73.624 E0.03496
G1 X118.011 Y73.99 E0.035
G1 X117.442 Y74.405 E0.03477
G1 X116.909 Y74.872 E0.03499
G1 X116.421 Y75.385 E0.03496
G1 X115.981 Y75.938 E0.03489
G1 X115.592 Y76.534 E0.03514
G1 X115.261 Y77.155 E0.03475
G1 X114.983 Y77.808 E0.03504
G1 X114.769 Y78.481 E0.03487
G1 X114.612 Y79.17 E0.03489
G1 X114.52 Y79.871 E0.03491
G1 X114.49 Y80.551 E0.03361
G1 X114.521 Y81.258 E0.03494
G1 X114.616 Y81.958 E0.03488
G1 X114.773 Y82.649 E0.03499
G1 X114.993 Y83.322 E0.03496
G1 X115.272 Y83.972 E0.03493
G1 X115.607 Y84.594 E0.03488
G1 X115.995 Y85.184 E0.03487
G1 X116.438 Y85.738 E0.03503
G1 X116.929 Y86.251 E0.03506
G1 X117.463 Y86.716 E0.03496
G1 X118.036 Y87.13 E0.03491
G1 X118.643 Y87.491 E0.03487
G1 X119.281 Y87.799 E0.03498
G1 X119.943 Y88.044 E0.03485
G1 X120.624 Y88.233 E0.0349
G1 X121.322 Y88.358 E0.03501
G1 X122.028 Y88.42 E0.03499
G1 X122.734 Y88.419 E0.03486
G1 X123.438 Y88.355 E0.03491
G1 X124.134 Y88.228 E0.03493
G1 X124.818 Y88.036 E0.03508
G1 X125.478 Y87.787 E0.03483
G1 X126.115 Y87.479 E0.03494
G1 X126.722 Y87.113 E0.035
G1 X127.293 Y86.697 E0.03488
G1 X127.826 Y86.23 E0.03499
G1 X128.312 Y85.716 E0.03493
G1 X128.416 Y85.585 E0.00826
G1 X128.751 Y85.164 E0.02657
G1 X129.125 Y84.591 E0.03379
G1 X129.125 Y85.164
G1 X129.125 Y85.702 E0.02028
G1 X129.125 Y87.524 E0.08997
G1 X129.11 Y88.552 E0.05077
G1 X129.067 Y89.504 E0.04706
G1 X128.992 Y90.514 E0.05001
G1 X128.938 Y91.061 E0.02714
G1 X128.783 Y92.298 E0.06156
G1 X128.579 Y93.542 E0.06225
G1 X128.333 Y94.751 E0.06092
G1 X128.031 Y95.991 E0.06302
G1 X127.69 Y97.193 E0.06169
G1 X127.299 Y98.393 E0.06232
G1 X126.884 Y99.525 E0.05953
G1 X126.405 Y100.694 E0.06238
G1 X125.879 Y101.85 E0.06271
G1 X125.324 Y102.958 E0.06119
G1 X124.738 Y104.026 E0.06015
G1 X124.075 Y105.131 E0.06363
G1 X123.39 Y106.18 E0.06186
G1 X122.678 Y107.187 E0.0609
G1 X121.929 Y108.164 E0.06079
G1 X121.123 Y109.139 E0.06246
G1 X120.27 Y110.096 E0.0633
G1 X119.429 Y110.97 E0.05989
G1 X118.552 Y111.814 E0.0601
G1 X117.589 Y112.673 E0.06372
G1 X116.62 Y113.474 E0.06208
G1 X115.651 Y114.217 E0.06029
G1 X114.625 Y114.944 E0.06209
G1 X113.583 Y115.623 E0.06141
G1 X112.508 Y116.267 E0.06188
G1 X111.392 Y116.882 E0.06292
G1 X110.319 Y117.42 E0.05927
G1 X109.158 Y117.949 E0.063
G1 X107.992 Y118.427 E0.06222
G1 X106.834 Y118.852 E0.06091
G1 X105.639 Y119.241 E0.06205
G1 X104.468 Y119.574 E0.06011
G1 X103.219 Y119.878 E0.06347
G1 X102.013 Y120.125 E0.06079
G1 X100.778 Y120.328 E0.0618
G1 X99.543 Y120.485 E0.06147
G1 X98.011 Y120.614 E0.07591
G1 X96.398 Y120.679 E0.07971
G1 X95.858 Y120.714 E0.02672
G1 X95.235 Y120.839 E0.03138
G1 X94.63 Y121.045 E0.03156
G1 X94.058 Y121.327 E0.03149
G1 X93.529 Y121.681 E0.03143
G1 X93.053 Y122.099 E0.03128
G1 X92.63 Y122.58 E0.03163
G1 X92.274 Y123.113 E0.03165
G1 X91.993 Y123.683 E0.03138
G1 X91.787 Y124.291 E0.0317
G1 X91.661 Y124.921 E0.03172
G1 X91.625 Y125.53 E0.03012
G1 X91.625 Y131.678 E0.30357
G1 X91.504 Y131.903 E0.01261
G1 X91.112 Y132.536 E0.03676
G1 X90.737 Y133.07 E0.03222
G1 X90.277 Y133.651 E0.03659
G1 X89.809 Y134.176 E0.03473
G1 X89.309 Y134.675 E0.03488
G1 X88.778 Y135.146 E0.03505
G1 X88.248 Y135.564 E0.03333
G1 X87.644 Y135.989 E0.03647
G1 X87.067 Y136.343 E0.03343
G1 X86.451 Y136.676 E0.03458
G1 X85.806 Y136.977 E0.03515
G1 X85.147 Y137.236 E0.03496
G1 X84.458 Y137.466 E0.03587
G1 X83.809 Y137.64 E0.03318
G1 X83.095 Y137.786 E0.03599
G1 X82.417 Y137.886 E0.03384
G1 X81.717 Y137.947 E0.0347
G1 X81 Y137.968 E0.03542
G1 X80.288 Y137.949 E0.03517
G1 X79.588 Y137.889 E0.03469
G1 X78.919 Y137.791 E0.03339
G1 X78.217 Y137.647 E0.03538
G1 X77.525 Y137.462 E0.03537
G1 X76.865 Y137.243 E0.03434
G1 X76.209 Y136.985 E0.03481
G1 X75.568 Y136.686 E0.03493
G1 X74.936 Y136.345 E0.03546
G1 X74.351 Y135.986 E0.03389
G1 X73.777 Y135.583 E0.03463
G1 X73.215 Y135.142 E0.03527
G1 X72.698 Y134.682 E0.03417
G1 X72.186 Y134.171 E0.03572
G1 X71.723 Y133.652 E0.03434
G1 X71.295 Y133.113 E0.03398
G1 X70.879 Y132.521 E0.03573
G1 X70.513 Y131.93 E0.03433
G1 X70.375 Y131.673 E0.0144
G1 X70.375 Y125.531 E0.30328
G1 X70.339 Y124.919 E0.03027
G1 X70.212 Y124.285 E0.03193
G1 X70.006 Y123.681 E0.03151
G1 X69.724 Y123.109 E0.03149
G1 X69.367 Y122.576 E0.03168
G1 X68.945 Y122.099 E0.03145
G1 X68.469 Y121.68 E0.03131
G1 X67.938 Y121.325 E0.03154
G1 X67.363 Y121.041 E0.03167
G1 X66.757 Y120.838 E0.03156
G1 X66.142 Y120.715 E0.03097
G1 X65.847 Y120.693 E0.01461
G1 X65.444 Y120.564 E0.02089
G1 X64.005 Y120.066 E0.07519
G1 X62.6 Y119.529 E0.07427
G1 X61.199 Y118.943 E0.07499
G1 X59.851 Y118.328 E0.07316
G1 X58.481 Y117.649 E0.0755
G1 X57.188 Y116.955 E0.07246
G1 X55.855 Y116.186 E0.07599
G1 X54.597 Y115.405 E0.07311
G1 X53.316 Y114.553 E0.07597
G1 X52.111 Y113.694 E0.07307
G1 X50.923 Y112.79 E0.07371
G1 X49.748 Y111.834 E0.0748
G1 X48.616 Y110.854 E0.07393
G1 X47.515 Y109.835 E0.07408
G1 X46.445 Y108.782 E0.07413
G1 X45.424 Y107.712 E0.07303
G1 X44.447 Y106.623 E0.07224
G1 X43.461 Y105.45 E0.07566
G1 X42.554 Y104.297 E0.07244
G1 X41.641 Y103.058 E0.076
G1 X40.807 Y101.85 E0.07248
G1 X39.973 Y100.555 E0.07606
G1 X39.194 Y99.255 E0.07483
G1 X38.462 Y97.941 E0.07427
G1 X37.792 Y96.642 E0.07217
G1 X37.148 Y95.289 E0.07399
G1 X36.523 Y93.868 E0.07665
G1 X35.983 Y92.518 E0.07179
G1 X35.451 Y91.061 E0.07659
G1 X34.999 Y89.682 E0.07166
G1 X34.56 Y88.188 E0.07689
G1 X34.185 Y86.745 E0.07362
G1 X33.849 Y85.266 E0.07489
G1 X33.575 Y83.839 E0.07175
G1 X33.332 Y82.319 E0.07601
G1 X32.929 Y79.176 E0.15646
G1 X32.875 Y79.176 E0.00267
G1 X32.875 Y41.3 E1.87023
G1 X33.279 Y41.227 E0.02027
G1 X33.958 Y41.038 E0.0348
G1 X34.619 Y40.789 E0.03488
G1 X35.253 Y40.48 E0.03483
G1 X35.854 Y40.119 E0.03462
G1 X36.426 Y39.703 E0.03492
G1 X36.956 Y39.239 E0.03478
G1 X37.441 Y38.729 E0.03475
G1 X37.88 Y38.176 E0.03486
G1 X38.267 Y37.588 E0.03476
G1 X38.599 Y36.97 E0.03464
G1 X38.878 Y36.32 E0.03493
G1 X39.095 Y35.647 E0.03492
G1 X39.251 Y34.963 E0.03464
G1 X39.346 Y34.266 E0.03473
G1 X39.375 Y33.603 E0.03277
G1 X39.375 Y29.04 E0.22531
G1 F600 E-1
G0 F2625 X78.992 Y126.702
G1 F600 E1
G1 F900 X78.178 Y127.33 E0.05076
G1 X77.55 Y128.146 E0.05084
G1 X77.145 Y129.123 E0.05222
G1 X77.026 Y130.015 E0.04444
G1 X77.028 Y133.297 E0.16206
G1 X77.145 Y134.182 E0.04408
G1 X77.543 Y135.146 E0.0515
G1 X78.178 Y135.973 E0.05148
G1 X79.005 Y136.608 E0.05148
G1 X79.967 Y137.006 E0.05141
G1 X81 Y137.143 E0.05145
G1 X82.033 Y137.006 E0.05145
G1 X82.995 Y136.608 E0.05141
G1 X83.822 Y135.973 E0.05148
G1 X84.457 Y135.146 E0.05148
G1 X84.855 Y134.183 E0.05145
G1 X84.975 Y133.276 E0.04518
G1 X84.975 Y130.031 E0.16023
G1 X84.859 Y129.126 E0.04505
G1 X84.449 Y128.147 E0.05241
G1 X83.822 Y127.329 E0.05089
G1 X83.008 Y126.703 E0.0507
G1 X82.05 Y126.301 E0.0513
G1 X80.978 Y126.161 E0.05338
G1 X79.946 Y126.302 E0.05143
G1 X78.992 Y126.702 E0.05108
G0 F2625 X79.373 Y127.356
G1 F900 X78.713 Y127.865 E0.04116
G1 X78.205 Y128.525 E0.04112
G1 X77.875 Y129.32 E0.0425
G1 X77.776 Y130.064 E0.03706
G1 X77.778 Y133.247 E0.15717
G1 X77.876 Y133.987 E0.03686
G1 X78.198 Y134.768 E0.04171
G1 X78.713 Y135.438 E0.04173
G1 X79.383 Y135.953 E0.04173
G1 X80.163 Y136.275 E0.04167
G1 X81 Y136.386 E0.04169
G1 X81.837 Y136.275 E0.04169
G1 X82.617 Y135.953 E0.04167
G1 X83.287 Y135.438 E0.04173
G1 X83.802 Y134.768 E0.04173
G1 X84.124 Y133.987 E0.04171
G1 X84.225 Y133.226 E0.03791
G1 X84.225 Y130.079 E0.15539
G1 X84.128 Y129.322 E0.03768
G1 X83.795 Y128.526 E0.04261
G1 X83.287 Y127.864 E0.0412
G1 X82.628 Y127.357 E0.04106
G1 X81.853 Y127.032 E0.0415
G1 X80.98 Y126.918 E0.04347
G1 X80.145 Y127.032 E0.04161
G1 X79.373 Y127.356 E0.04134
G1 F600 E-1
G0 F2625 X69.593 Y125.015
G1 F600 E1
G1 F900 X69.486 Y124.48 E0.02694
G1 X69.312 Y123.969 E0.02665
G1 X69.073 Y123.485 E0.02665
G1 X68.772 Y123.035 E0.02673
G1 X68.414 Y122.631 E0.02665
G1 X68.011 Y122.276 E0.02652
G1 X67.562 Y121.976 E0.02666
G1 X67.076 Y121.736 E0.02676
G1 X66.564 Y121.564 E0.02667
G1 X66.041 Y121.46 E0.02633
G1 X65.706 Y121.435 E0.01659
G1 X65.199 Y121.273 E0.02628
G1 X63.749 Y120.771 E0.07577
G1 X62.316 Y120.224 E0.07574
G1 X60.909 Y119.635 E0.07532
G1 X59.518 Y119 E0.0755
G1 X58.148 Y118.321 E0.0755
G1 X56.813 Y117.605 E0.0748
G1 X55.48 Y116.836 E0.07599
G1 X54.187 Y116.033 E0.07516
G1 X52.901 Y115.178 E0.07625
G1 X51.666 Y114.298 E0.07488
G1 X50.46 Y113.38 E0.07484
G1 X49.269 Y112.411 E0.07581
G1 X48.114 Y111.411 E0.07544
G1 X46.994 Y110.375 E0.07533
G1 X45.906 Y109.305 E0.07535
G1 X44.881 Y108.23 E0.07334
G1 X43.875 Y107.108 E0.07441
G1 X42.887 Y105.933 E0.0758
G1 X41.95 Y104.742 E0.07483
G1 X41.037 Y103.503 E0.076
G1 X40.176 Y102.256 E0.07483
G1 X39.342 Y100.961 E0.07606
G1 X38.551 Y99.641 E0.07599
G1 X37.807 Y98.306 E0.07546
