;Generated by Cura LulzBot Edition GCodeWriter Version: 3.6.3
;FLAVOR:Marlin
;TIME:8412
;Filament used: 3.8577m
;Layer height: 0.36
;Generated with Cura_SteamEngine 3.6.3
M82 ;absolute extrusion mode
M221 S100
;This G-Code has been generated specifically for the LulzBot Mini 2 with SE 0.5mm Tool Head
M73 P0                  ; clear GLCD progress bar
M75 					; Start GLCD Print Timer
G26 					; clear potential 'probe fail' condition
M107 					; disable fans
M420 S0                 ; disable leveling matrix
G90 					; absolute positioning
M82 					; set extruder to absolute mode
G92 E0 					; set extruder position to 0
M140 S115 	; start bed heating up
G28                       ; Home Axis
G0 X160 F9999             ; Move toolhead to the right
G0 Z5 F6000               ; Move to bottom of printer
G91                       ; Set relative motion mode
M211 S0		  	  ; Turn off soft endstops
M400                      ; Finish moves
G0 Z-15 F500              ; Skip steppers against lower Z mounts
G90                       ; Return to absolute mode
M400                      ; Finish moves
M211 S1			  ; Turn soft endstops back on
M400                      ; Finish moves
G28                       ; Rehome
M117 X-Axis LeveledG0 X0 Y187 Z156 F200 			; move away from endstops
M117 Mini 2 Wiping...			; progress indicator message on LCD
M109 R170 	; soften filament before retraction
G1 E-15 F75 				; retract filament
M109 R170 	; wait for extruder to reach wiping temp
G1 X45 Y176 F11520 			; move above wiper pad
G1 Z0 F1200 				; push nozzle into wiper
G1 X45 Y178 Z-.5 F4000		; wiping
G1 X55 Y176 Z-.5 F4000		; wiping
G1 X45 Y177 Z0 F4000		; wiping
G1 X55 Y176 F4000		; wiping
G1 X45 Y178 F4000		; wiping
G1 X55 Y176 F4000		; wiping
G1 X45 Y178 F4000		; wiping
G1 X55 Y176 F4000		; wiping
G1 X60 Y178 F4000		; wiping
G1 X80 Y176 F4000		; wiping
G1 X60 Y178 F4000		; wiping
G1 X80 Y176 F4000		; wiping
G1 X60 Y178 F4000		; wiping
G1 X90 Y176 F4000		; wiping
G1 X80 Y178 F4000		; wiping
G1 X100 Y176 F4000		; wiping
G1 X80 Y178 F4000		; wiping
G1 X100 Y176 F4000		; wiping
G1 X80 Y178 F4000		; wiping
G1 X100 Y176 F4000		; wiping
G1 X110 Y178 F4000		; wiping
G1 X100 Y176 F4000		; wiping
G1 X110 Y178 F4000		; wiping
G1 X100 Y176 F4000		; wiping
G1 X110 Y178 F4000		; wiping
G1 X115 Y176 Z-0.5 F1000	; wiping
G1 Z10					; raise extruder
G28 X0 Y0				; home X and Y
M109 R170	; wait for extruder to reach probe temp
M204 S300				; set probing acceleration
G29					; start auto-leveling sequence
M420 S1                     ; enable leveling matrix
M425 Z			     		; use measured Z backlash for compensation
M425 Z F0		     		; turn off measured Z backlash compensation. (if activated in the quality settings, this command will automatically be ignored)
M204 S2000				; restore standard acceleration
G1 X5 Y15 Z10 F5000			; move up off last probe point
G4 S1					; pause
M400					; wait for moves to finish
M117 Heating...				; progress indicator message on LCD
M109 R250	; wait for extruder to reach initial printing temp
M190 S116 ; wait for bed to reach printing temp
G1 Z2 E0 F75				; prime tiny bit of filment into the nozzle
M117 Mini 2 Printing...		; progress indicator message on LCD
M83 ;relative extrusion mode
G1 F600 E-1
;LAYER_COUNT:34
;LAYER:0
M425 F1.0
M107
M204 S2000
M205 X20 Y20
G0 F2250 X39.117 Y46.944 Z0.4
M204 S800
M205 X10 Y10
;TYPE:SKIRT
G1 F600 E1
G1 F900 X39.553 Y46.67 E0.02018
G1 X40.026 Y46.468 E0.02016
G1 X40.524 Y46.341 E0.02014
G1 X41.006 Y46.293 E0.01898
G1 X47.593 Y46.126 E0.25822
G1 X52.169 Y45.792 E0.1798
G1 X52.389 Y45.783 E0.00863
G1 X58.605 Y45.744 E0.2436
G1 X64.119 Y45.431 E0.21643
G1 X67.674 Y45.093 E0.13994
G1 X67.95 Y45.078 E0.01083
G1 X71.392 Y45.039 E0.1349
G1 X78.461 Y44.594 E0.27757
G1 X78.661 Y44.587 E0.00784
G1 X82.259 Y44.578 E0.141
G1 X87.794 Y44.421 E0.217
G1 X93.894 Y43.886 E0.23997
G1 X94.1 Y43.874 E0.00809
G1 X100.686 Y43.707 E0.25818
G1 X105.262 Y43.373 E0.1798
G1 X105.517 Y43.364 E0.01
G1 X113.428 Y43.397 E0.31002
G1 X113.744 Y43.414 E0.0124
G1 X118.494 Y43.89 E0.18708
G1 X119.001 Y43.98 E0.02018
G1 X119.487 Y44.149 E0.02016
G1 X119.941 Y44.39 E0.02014
G1 X120.353 Y44.699 E0.02018
G1 X120.711 Y45.068 E0.02015
G1 X121.008 Y45.487 E0.02013
G1 X121.237 Y45.948 E0.02017
G1 X121.392 Y46.439 E0.02018
G1 X121.474 Y47.045 E0.02396
G1 X121.823 Y55.218 E0.32058
G1 X122.737 Y75.325 E0.78878
G1 X124.14 Y105.835 E1.19691
G1 X124.143 Y105.946 E0.00435
G1 X124.174 Y108.479 E0.09927
G1 X124.14 Y108.993 E0.02019
G1 X124.027 Y109.495 E0.02016
G1 X123.838 Y109.973 E0.02014
G1 X123.577 Y110.417 E0.02018
G1 X123.251 Y110.814 E0.02013
G1 X122.867 Y111.157 E0.02018
G1 X122.435 Y111.435 E0.02013
G1 X122.191 Y111.554 E0.01064
G1 X118.206 Y113.301 E0.17051
G1 X117.72 Y113.471 E0.02018
G1 X117.214 Y113.563 E0.02015
G1 X116.833 Y113.58 E0.01495
G1 X108.483 Y113.471 E0.32725
G1 X102.572 Y113.643 E0.23174
G1 X97.103 Y113.99 E0.21475
G1 X90.416 Y114.783 E0.26389
G1 X89.949 Y114.805 E0.01832
G1 X84.754 Y114.684 E0.20364
G1 X77.243 Y114.83 E0.2944
G1 X73.172 Y114.993 E0.15966
G1 X67.691 Y115.498 E0.2157
G1 X63.866 Y115.985 E0.15111
G1 X63.371 Y116.01 E0.01942
G1 X58.172 Y115.889 E0.2038
G1 X51.508 Y116.01 E0.2612
G1 X51.444 Y116.011 E0.00251
G1 X43.783 Y116.002 E0.30022
G1 X43.27 Y115.961 E0.02017
G1 X42.77 Y115.842 E0.02014
G1 X42.294 Y115.647 E0.02016
G1 X41.854 Y115.38 E0.02017
G1 X41.461 Y115.048 E0.02016
G1 X41.124 Y114.66 E0.02014
G1 X40.851 Y114.224 E0.02016
G1 X40.649 Y113.751 E0.02016
G1 X40.522 Y113.252 E0.02018
G1 X40.475 Y112.785 E0.01839
G1 X40.436 Y111.429 E0.05316
G1 X38.651 Y72.18 E1.53971
G1 X38.652 Y72.18 E0.00004
G1 X37.78 Y53.49 E0.73323
G1 X37.776 Y53.335 E0.00608
G1 X37.777 Y49.604 E0.14621
G1 X37.817 Y49.091 E0.02016
G1 X37.936 Y48.591 E0.02014
G1 X38.131 Y48.115 E0.02016
G1 X38.397 Y47.675 E0.02015
G1 X38.729 Y47.281 E0.02019
G1 X39.117 Y46.944 E0.02014
M204 S2000
M205 X20 Y20
G1 F600 E-1
;MESH:
G0 F2250 X42.03 Y50.546
G0 X42.641 Y51.157
M204 S800
M205 X10 Y10
;TYPE:WALL-INNER
G1 F600 E1
G1 F900 X47.519 Y51.157 E0.19116
G1 X47.519 Y51.785 E0.02461
G1 X42.641 Y51.785 E0.19116
G1 X42.641 Y51.157 E0.02461
M204 S2000
M205 X20 Y20
G0 F2250 X42.016 Y50.532
M204 S800
M205 X10 Y10
G1 F900 X48.144 Y50.532 E0.24015
G1 X48.144 Y52.41 E0.0736
G1 X42.016 Y52.41 E0.24015
G1 X42.016 Y50.532 E0.0736
M204 S2000
M205 X20 Y20
G0 F2250 X42.086 Y50.602
G0 X53.086 Y50.102
G0 X53.016 Y50.032
M204 S800
M205 X10 Y10
G1 F900 X59.144 Y50.032 E0.24015
G1 X59.144 Y50.41 E0.01481
G1 X53.016 Y50.41 E0.14524
G1 X53.016 Y50.032 E0.01481
M204 S2000
M205 X20 Y20
G0 F2250 X53.086 Y50.102
G0 X59.42 Y51.006
G0 X60.066 Y51.804
G0 X60.144 Y51.865
M204 S800
M205 X10 Y10
G1 F900 X60.144 Y52.41 E0.02136
G1 X60.016 Y52.41 E0.00021
G1 X60.016 Y51.865 E0.00437
G1 X60.016 Y51.547 E0.01246
G1 X60.016 Y50.532 E0.03978
G1 X62.959 Y50.532 E0.11533
G1 X64.144 Y50.532 E0.04644
G1 X64.144 Y50.865 E0.01305
G1 X62.995 Y51.152 E0.03565
G1 X60.452 Y51.788 E0.10273
G1 X60.144 Y51.865 E0.00762
M204 S2000
M205 X20 Y20
G0 F2250 X60.066 Y51.804
G0 X59.42 Y51.006
G0 X42.086 Y50.602
G0 X41.392 Y49.908
M204 S800
M205 X10 Y10
;TYPE:WALL-OUTER
G1 F900 X52.392 Y49.908 E0.43108
G1 X52.392 Y49.408 E0.01959
G1 X59.768 Y49.408 E0.28906
G1 X59.768 Y49.908 E0.01959
G1 X64.768 Y49.908 E0.19594
G1 X64.768 Y51.352 E0.05659
G1 X60.768 Y52.352 E0.16158
G1 X60.768 Y53.034 E0.02673
G1 X59.392 Y53.034 E0.05392
G1 X59.392 Y51.034 E0.07838
G1 X48.768 Y51.034 E0.41634
G1 X48.768 Y53.034 E0.07838
G1 X41.392 Y53.034 E0.28906
G1 X41.392 Y49.908 E0.1225
M204 S2000
M205 X20 Y20
G0 F2250 X42.086 Y50.602
G0 X48.074 Y50.602
G0 X48.431 Y50.25
M204 S800
M205 X10 Y10
;TYPE:SKIN
G1 F900 X52.729 Y50.25 E0.06737
M204 S2000
M205 X20 Y20
G0 F2250 X52.729 Y50.5
M204 S800
M205 X10 Y10
G1 F900 X48.431 Y50.5 E0.06737
M204 S2000
M205 X20 Y20
G0 F2250 X47.519 Y50.973
G1 F600 E-1
G0 F2250 X42.948 Y52.39
G0 X42.948 Y57.323
G0 X42.948 Y57.928
M204 S800
M205 X10 Y10
;TYPE:WALL-INNER
G1 F600 E1
G1 F900 X47.826 Y57.928 E0.19116
G1 X47.826 Y58.556 E0.02461
G1 X42.948 Y58.556 E0.19116
G1 X42.948 Y57.928 E0.02461
M204 S2000
M205 X20 Y20
G0 F2250 X42.323 Y57.303
M204 S800
M205 X10 Y10
G1 F900 X48.451 Y57.303 E0.24015
G1 X48.451 Y59.181 E0.0736
G1 X42.323 Y59.181 E0.24015
G1 X42.323 Y57.303 E0.0736
M204 S2000
M205 X20 Y20
G0 F2250 X42.393 Y57.373
G0 X53.393 Y56.873
G0 X53.323 Y56.803
M204 S800
M205 X10 Y10
G1 F900 X59.451 Y56.803 E0.24015
G1 X59.451 Y57.181 E0.01481
G1 X53.323 Y57.181 E0.14524
G1 X53.323 Y56.803 E0.01481
M204 S2000
M205 X20 Y20
G0 F2250 X53.393 Y56.873
G0 X59.727 Y57.777
G0 X60.373 Y58.575
G0 X60.451 Y58.636
M204 S800
M205 X10 Y10
G1 F900 X60.451 Y59.181 E0.02136
G1 X60.323 Y59.181 E0.00021
G1 X60.323 Y58.636 E0.00437
G1 X60.323 Y58.318 E0.01246
G1 X60.323 Y57.303 E0.03978
G1 X63.266 Y57.303 E0.11533
G1 X64.451 Y57.303 E0.04644
G1 X64.451 Y57.636 E0.01305
G1 X63.302 Y57.923 E0.03565
G1 X60.759 Y58.559 E0.10273
G1 X60.451 Y58.636 E0.00762
M204 S2000
M205 X20 Y20
G0 F2250 X60.373 Y58.575
G0 X59.727 Y57.777
G0 X42.393 Y57.373
G0 X41.699 Y56.679
M204 S800
M205 X10 Y10
;TYPE:WALL-OUTER
G1 F900 X52.699 Y56.679 E0.43108
G1 X52.699 Y56.179 E0.01959
G1 X60.075 Y56.179 E0.28906
G1 X60.075 Y56.679 E0.01959
G1 X65.075 Y56.679 E0.19594
G1 X65.075 Y58.123 E0.05659
G1 X61.075 Y59.123 E0.16158
G1 X61.075 Y59.805 E0.02673
G1 X59.699 Y59.805 E0.05392
G1 X59.699 Y57.805 E0.07838
G1 X49.075 Y57.805 E0.41634
G1 X49.075 Y59.805 E0.07838
G1 X41.699 Y59.805 E0.28906
G1 X41.699 Y56.679 E0.1225
M204 S2000
M205 X20 Y20
G0 F2250 X42.393 Y57.373
G0 X48.381 Y57.373
G0 X48.738 Y57
M204 S800
M205 X10 Y10
;TYPE:SKIN
G1 F900 X53.036 Y57 E0.06737
M204 S2000
M205 X20 Y20
G0 F2250 X53.036 Y57.25
M204 S800
M205 X10 Y10
G1 F900 X48.738 Y57.25 E0.06737
M204 S2000
M205 X20 Y20
G0 F2250 X48.738 Y57.5
M204 S800
M205 X10 Y10
G1 F900 X53.036 Y57.5 E0.06737
M204 S2000
M205 X20 Y20
G1 F600 E-1
G0 F2250 X53.393 Y57.111
G0 X53.337 Y57.167
G0 X48.74 Y63.983
G0 X43.251 Y64.594
M204 S800
M205 X10 Y10
;TYPE:WALL-INNER
G1 F600 E1
G1 F900 X48.129 Y64.594 E0.19116
G1 X48.129 Y65.222 E0.02461
G1 X43.251 Y65.222 E0.19116
G1 X43.251 Y64.594 E0.02461
M204 S2000
M205 X20 Y20
G0 F2250 X42.626 Y63.969
M204 S800
M205 X10 Y10
G1 F900 X48.754 Y63.969 E0.24015
G1 X48.754 Y65.847 E0.0736
G1 X42.626 Y65.847 E0.24015
G1 X42.626 Y63.969 E0.0736
M204 S2000
M205 X20 Y20
G0 F2250 X42.696 Y64.039
G0 X53.696 Y63.539
G0 X53.626 Y63.469
M204 S800
M205 X10 Y10
G1 F900 X59.754 Y63.469 E0.24015
G1 X59.754 Y63.847 E0.01481
G1 X53.626 Y63.847 E0.14524
G1 X53.626 Y63.469 E0.01481
M204 S2000
M205 X20 Y20
G0 F2250 X53.696 Y63.539
G0 X60.03 Y64.443
G0 X60.676 Y65.241
G0 X60.754 Y65.302
M204 S800
M205 X10 Y10
G1 F900 X60.754 Y65.847 E0.02136
G1 X60.626 Y65.847 E0.00021
G1 X60.626 Y65.302 E0.00437
G1 X60.626 Y64.984 E0.01246
G1 X60.626 Y63.969 E0.03978
G1 X63.569 Y63.969 E0.11533
G1 X64.754 Y63.969 E0.04644
G1 X64.754 Y64.302 E0.01305
G1 X63.605 Y64.589 E0.03565
G1 X61.062 Y65.225 E0.10273
G1 X60.754 Y65.302 E0.00762
M204 S2000
M205 X20 Y20
G0 F2250 X60.676 Y65.241
G0 X60.03 Y64.443
G0 X42.696 Y64.039
G0 X42.002 Y63.345
M204 S800
M205 X10 Y10
;TYPE:WALL-OUTER
G1 F900 X53.002 Y63.345 E0.43108
G1 X53.002 Y62.845 E0.01959
G1 X60.378 Y62.845 E0.28906
G1 X60.378 Y63.345 E0.01959
G1 X65.378 Y63.345 E0.19594
G1 X65.378 Y64.789 E0.05659
G1 X61.378 Y65.789 E0.16158
G1 X61.378 Y66.471 E0.02673
G1 X60.002 Y66.471 E0.05392
G1 X60.002 Y64.471 E0.07838
G1 X49.378 Y64.471 E0.41634
G1 X49.378 Y66.471 E0.07838
G1 X42.002 Y66.471 E0.28906
G1 X42.002 Y63.345 E0.1225
M204 S2000
M205 X20 Y20
G0 F2250 X42.696 Y64.039
G0 X48.684 Y64.039
G0 X49.04 Y63.75
M204 S800
M205 X10 Y10
;TYPE:SKIN
G1 F900 X53.338 Y63.75 E0.06737
M204 S2000
M205 X20 Y20
G0 F2250 X53.338 Y64
M204 S800
M205 X10 Y10
G1 F900 X49.04 Y64 E0.06737
M204 S2000
M205 X20 Y20
G0 F2250 X48.129 Y64.594
G1 F600 E-1
G0 F2250 X43.554 Y65.827
G0 X43.554 Y70.655
G0 X43.554 Y71.26
M204 S800
M205 X10 Y10
;TYPE:WALL-INNER
G1 F600 E1
G1 F900 X48.432 Y71.26 E0.19116
G1 X48.432 Y71.888 E0.02461
G1 X43.554 Y71.888 E0.19116
G1 X43.554 Y71.26 E0.02461
M204 S2000
M205 X20 Y20
G0 F2250 X42.929 Y70.635
M204 S800
M205 X10 Y10
G1 F900 X49.057 Y70.635 E0.24015
G1 X49.057 Y72.513 E0.0736
G1 X42.929 Y72.513 E0.24015
G1 X42.929 Y70.635 E0.0736
M204 S2000
M205 X20 Y20
G0 F2250 X42.999 Y70.705
G0 X53.999 Y70.205
G0 X53.929 Y70.135
M204 S800
M205 X10 Y10
G1 F900 X60.057 Y70.135 E0.24015
G1 X60.057 Y70.513 E0.01481
G1 X53.929 Y70.513 E0.14524
G1 X53.929 Y70.135 E0.01481
M204 S2000
M205 X20 Y20
G0 F2250 X53.999 Y70.205
G0 X60.333 Y71.109
G0 X60.979 Y71.907
G0 X61.057 Y71.968
M204 S800
M205 X10 Y10
G1 F900 X61.057 Y72.513 E0.02136
G1 X60.929 Y72.513 E0.00021
G1 X60.929 Y71.968 E0.00437
G1 X60.929 Y71.65 E0.01246
G1 X60.929 Y70.635 E0.03978
G1 X63.872 Y70.635 E0.11533
G1 X65.057 Y70.635 E0.04644
G1 X65.057 Y70.968 E0.01305
G1 X63.908 Y71.255 E0.03565
G1 X61.365 Y71.891 E0.10273
G1 X61.057 Y71.968 E0.00762
M204 S2000
M205 X20 Y20
G0 F2250 X60.979 Y71.907
G0 X60.333 Y71.109
G0 X42.999 Y70.705
G0 X42.305 Y70.011
M204 S800
M205 X10 Y10
;TYPE:WALL-OUTER
G1 F900 X53.305 Y70.011 E0.43108
G1 X53.305 Y69.511 E0.01959
G1 X60.681 Y69.511 E0.28906
G1 X60.681 Y70.011 E0.01959
G1 X65.681 Y70.011 E0.19594
G1 X65.681 Y71.455 E0.05659
G1 X61.681 Y72.455 E0.16158
G1 X61.681 Y73.137 E0.02673
G1 X60.305 Y73.137 E0.05392
G1 X60.305 Y71.137 E0.07838
G1 X49.681 Y71.137 E0.41634
G1 X49.681 Y73.137 E0.07838
G1 X42.305 Y73.137 E0.28906
G1 X42.305 Y70.011 E0.1225
M204 S2000
M205 X20 Y20
G0 F2250 X42.999 Y70.705
G0 X48.987 Y70.705
G0 X49.343 Y70.5
M204 S800
M205 X10 Y10
;TYPE:SKIN
G1 F900 X53.641 Y70.5 E0.06737
M204 S2000
M205 X20 Y20
G0 F2250 X53.641 Y70.75
M204 S800
M205 X10 Y10
G1 F900 X49.343 Y70.75 E0.06737
M204 S2000
M205 X20 Y20
G0 F2250 X48.432 Y71.26
G1 F600 E-1
G0 F2250 X43.862 Y72.493
G0 X43.862 Y77.431
G0 X43.862 Y78.036
M204 S800
M205 X10 Y10
;TYPE:WALL-INNER
G1 F600 E1
G1 F900 X48.74 Y78.036 E0.19116
G1 X48.74 Y78.664 E0.02461
G1 X43.862 Y78.664 E0.19116
G1 X43.862 Y78.036 E0.02461
M204 S2000
M205 X20 Y20
G0 F2250 X43.237 Y77.411
M204 S800
M205 X10 Y10
G1 F900 X49.365 Y77.411 E0.24015
G1 X49.365 Y79.289 E0.0736
G1 X43.237 Y79.289 E0.24015
G1 X43.237 Y77.411 E0.0736
M204 S2000
M205 X20 Y20
G0 F2250 X43.307 Y77.481
G0 X54.307 Y76.981
G0 X54.237 Y76.911
M204 S800
M205 X10 Y10
G1 F900 X60.365 Y76.911 E0.24015
G1 X60.365 Y77.289 E0.01481
G1 X54.237 Y77.289 E0.14524
G1 X54.237 Y76.911 E0.01481
M204 S2000
M205 X20 Y20
G0 F2250 X54.307 Y76.981
G0 X60.641 Y77.885
G0 X61.287 Y78.683
G0 X61.365 Y78.744
M204 S800
M205 X10 Y10
G1 F900 X61.365 Y79.289 E0.02136
G1 X61.237 Y79.289 E0.00021
G1 X61.237 Y78.744 E0.00437
G1 X61.237 Y78.426 E0.01246
G1 X61.237 Y77.411 E0.03978
G1 X64.18 Y77.411 E0.11533
G1 X65.365 Y77.411 E0.04644
G1 X65.365 Y77.744 E0.01305
G1 X64.216 Y78.031 E0.03565
G1 X61.673 Y78.667 E0.10273
G1 X61.365 Y78.744 E0.00762
M204 S2000
M205 X20 Y20
G0 F2250 X61.287 Y78.683
G0 X60.641 Y77.885
G0 X43.307 Y77.481
G0 X42.613 Y76.787
M204 S800
M205 X10 Y10
;TYPE:WALL-OUTER
G1 F900 X53.613 Y76.787 E0.43108
G1 X53.613 Y76.287 E0.01959
G1 X60.989 Y76.287 E0.28906
G1 X60.989 Y76.787 E0.01959
G1 X65.989 Y76.787 E0.19594
G1 X65.989 Y78.231 E0.05659
G1 X61.989 Y79.231 E0.16158
G1 X61.989 Y79.913 E0.02673
G1 X60.613 Y79.913 E0.05392
G1 X60.613 Y77.913 E0.07838
G1 X49.989 Y77.913 E0.41634
G1 X49.989 Y79.913 E0.07838
G1 X42.613 Y79.913 E0.28906
G1 X42.613 Y76.787 E0.1225
M204 S2000
M205 X20 Y20
G0 F2250 X43.307 Y77.481
G0 X49.295 Y77.481
G0 X49.651 Y77.25
M204 S800
M205 X10 Y10
;TYPE:SKIN
G1 F900 X53.949 Y77.25 E0.06737
M204 S2000
M205 X20 Y20
G0 F2250 X53.949 Y77.5
M204 S800
M205 X10 Y10
G1 F900 X49.651 Y77.5 E0.06737
M204 S2000
M205 X20 Y20
G0 F2250 X48.74 Y78.036
G1 F600 E-1
G0 F2250 X44.166 Y79.269
G0 X44.166 Y84.097
G0 X44.166 Y84.702
M204 S800
M205 X10 Y10
;TYPE:WALL-INNER
G1 F600 E1
G1 F900 X49.044 Y84.702 E0.19116
G1 X49.044 Y85.33 E0.02461
G1 X44.166 Y85.33 E0.19116
G1 X44.166 Y84.702 E0.02461
M204 S2000
M205 X20 Y20
G0 F2250 X43.541 Y84.077
M204 S800
M205 X10 Y10
G1 F900 X49.669 Y84.077 E0.24015
