; generated by Slic3r 1.1.7 on 2015-05-19 at 12:48:52

; perimeters extrusion width = 0.50mm
; infill extrusion width = 0.60mm
; solid infill extrusion width = 0.60mm
; top infill extrusion width = 0.43mm

G21 ; set units to millimeters

M301 P34 I4 D113     ; set PID nozzle
M304 P162 I17 D378 ; set PID Bed

M104 S230                 ; set extruder temp for budaschnozzle
;M104 S250                 ; set extruder temp for hex_hot_end
M140 S110                 ; set bed temp for PEI (reminder ~G1 Z2 ~ M140 S(@-10 degree change) ;if -m is present in file name)

G28                            ; home
G1 Z5 F300                ; move bed down 5mm
M84                            ; disable steppers
G4 S300                     ; wait 5 mins to preheat

G28                            ; home

G90 ; use absolute coordinates
G92 E0
M82 ; use absolute distances for extrusion
M204 S2000
G1 F1200.000 E-1.00000
G92 E0
G1 Z0.350 F9600.000
G1 X142.513 Y65.931 F9600.000
G1 E1.00000 F1200.000
G1 X143.871 Y64.779 E1.05498 F1080.000
G1 X175.871 Y44.779 E2.21983
G1 X177.925 Y43.963 E2.28806
G1 X179.134 Y43.843 E2.32557
G1 X214.866 Y43.843 E3.42854
G1 X217.040 Y44.240 E3.49677
G1 X218.934 Y45.379 E3.56500 F1080.000
G1 X220.601 Y47.762 E3.65477
G1 X252.601 Y129.762 E6.37190
G1 X253.023 Y132.000 E6.44221
G1 X253.023 Y140.000 E6.68916
G1 X252.626 Y142.174 E6.75739
G1 X251.487 Y144.069 E6.82562
G1 X250.129 Y145.221 E6.88060
G1 X218.129 Y165.221 E8.04545
G1 X216.075 Y166.037 E8.11368
G1 X214.866 Y166.157 E8.15118
G1 X179.134 Y166.157 E9.25416
G1 X176.960 Y165.760 E9.32239
G1 X175.066 Y164.621 E9.39062
G1 X173.399 Y162.238 E9.48039
G1 X141.399 Y80.238 E12.19752
G1 X140.977 Y78.000 E12.26783
G1 X140.977 Y70.000 E12.51478
G1 X141.374 Y67.826 E12.58301
G1 X142.474 Y65.996 E12.64892
G1 X143.024 Y66.258 F9600.000
G1 X143.085 Y66.163 E12.65241 F1080.000
G1 X144.178 Y65.269 E12.69598
G1 X176.178 Y45.269 E13.86083
G1 X179.134 Y44.421 E13.95578
G1 X214.866 Y44.421 E15.05875
G1 X216.931 Y44.818 E15.12367
G1 X218.703 Y45.951 E15.18859 F1080.000
G1 X220.063 Y47.972 E15.26378
G1 X252.063 Y129.972 E17.98091
G1 X252.444 Y132.000 E18.04461
G1 X252.444 Y140.000 E18.29156
G1 X252.048 Y142.065 E18.35648
G1 X250.915 Y143.837 E18.42140
G1 X249.822 Y144.731 E18.46496
G1 X217.822 Y164.731 E19.62982
G1 X214.866 Y165.579 E19.72476
G1 X179.134 Y165.579 E20.82774
G1 X177.069 Y165.182 E20.89265
G1 X175.297 Y164.049 E20.95757
G1 X173.937 Y162.028 E21.03277
G1 X141.937 Y80.028 E23.74990
G1 X141.556 Y78.000 E23.81360
G1 X141.556 Y70.000 E24.06055
G1 X141.952 Y67.935 E24.12546
G1 X142.984 Y66.321 E24.18458
G1 F1200.000 E23.18458
G92 E0
G1 X189.015 Y59.068 F9600.000
G1 E1.00000 F1200.000
G1 X188.162 Y59.688 E1.03256 F1800.000
G1 X187.181 Y60.077 E1.06513
G1 X186.134 Y60.209 E1.09770
G1 X185.088 Y60.077 E1.13026
G1 X184.107 Y59.688 E1.16283
G1 X183.253 Y59.068 E1.19539
G1 X182.581 Y58.255 E1.22796
G1 X182.132 Y57.301 E1.26053
G1 X181.934 Y56.264 E1.29309
G1 X182.000 Y55.211 E1.32566
G1 X182.326 Y54.208 E1.35823
G1 X182.891 Y53.317 E1.39079
G1 X183.660 Y52.595 E1.42336
G1 X184.585 Y52.087 E1.45593
G1 X185.607 Y51.824 E1.48849
G1 X186.662 Y51.824 E1.52106
G1 X187.077 Y51.931 E1.53427
G1 X187.684 Y52.087 E1.55362 F1800.000
G1 X188.608 Y52.595 E1.58619
G1 X189.377 Y53.317 E1.61875
G1 X189.943 Y54.208 E1.65132
G1 X190.269 Y55.211 E1.68389
G1 X190.335 Y56.264 E1.71645
G1 X190.137 Y57.301 E1.74902
G1 X189.688 Y58.255 E1.78159
G1 X189.063 Y59.010 E1.81184
G1 X188.616 Y58.643 F9600.000
G1 X187.881 Y59.177 E1.83989 F1350.000
G1 X187.036 Y59.512 E1.86795
G1 X186.134 Y59.626 E1.89600
G1 X185.233 Y59.512 E1.92406
G1 X184.388 Y59.177 E1.95211
G1 X183.652 Y58.643 E1.98016
G1 X183.073 Y57.943 E2.00822
G1 X182.993 Y57.773 E2.01401
G1 X182.686 Y57.120 E2.03627
G1 X182.516 Y56.228 E2.06432
G1 X182.573 Y55.321 E2.09238
G1 X182.854 Y54.456 E2.12043
G1 X183.341 Y53.689 E2.14849
G1 X184.003 Y53.067 E2.17654
G1 X184.800 Y52.629 E2.20460
G1 X185.680 Y52.403 E2.23265
G1 X186.589 Y52.403 E2.26070 F1350.000
G1 X187.469 Y52.629 E2.28876
G1 X187.564 Y52.681 E2.29209
G1 X188.265 Y53.067 E2.31681
G1 X188.928 Y53.689 E2.34486
G1 X189.415 Y54.456 E2.37292
G1 X189.696 Y55.321 E2.40097
G1 X189.753 Y56.228 E2.42903
G1 X189.583 Y57.120 E2.45708
G1 X189.196 Y57.943 E2.48514
G1 X188.664 Y58.585 E2.51088
G1 F1200.000 E1.51088
G92 E0
G1 X185.586 Y51.912 F9600.000
G1 X186.662 Y100.824 F9600.000
G1 E1.00000 F1200.000
G1 X187.123 Y100.943 E1.01469 F1800.000
G1 X187.684 Y101.087 E1.03257 F1800.000
G1 X188.608 Y101.595 E1.06513
G1 X189.377 Y102.317 E1.09770
G1 X189.943 Y103.208 E1.13026
G1 X190.269 Y104.211 E1.16283
G1 X190.335 Y105.264 E1.19540
G1 X190.137 Y106.301 E1.22796
G1 X189.688 Y107.255 E1.26053
G1 X189.015 Y108.068 E1.29310
G1 X188.162 Y108.688 E1.32566
G1 X187.181 Y109.077 E1.35823
G1 X186.134 Y109.209 E1.39080
G1 X185.088 Y109.077 E1.42336
G1 X184.107 Y108.688 E1.45593
G1 X183.762 Y108.438 E1.46909
G1 X183.253 Y108.068 E1.48849
G1 X182.581 Y107.255 E1.52106
G1 X182.132 Y106.301 E1.55363
G1 X181.934 Y105.264 E1.58619
G1 X182.000 Y104.211 E1.61876
G1 X182.326 Y103.208 E1.65133
G1 X182.891 Y102.317 E1.68389
G1 X183.660 Y101.595 E1.71646
G1 X184.585 Y101.087 E1.74902
G1 X185.607 Y100.824 E1.78159
G1 X186.587 Y100.824 E1.81184
G1 X186.589 Y101.403 F9600.000
G1 X187.469 Y101.629 E1.83989 F1350.000
G1 X188.265 Y102.067 E1.86795
G1 X188.928 Y102.689 E1.89600
G1 X189.415 Y103.456 E1.92406
G1 X189.566 Y103.920 E1.93912
G1 X189.696 Y104.321 E1.95211
G1 X189.753 Y105.228 E1.98017
G1 X189.583 Y106.120 E2.00822
G1 X189.196 Y106.943 E2.03627
G1 X188.616 Y107.643 E2.06433
G1 X187.881 Y108.177 E2.09238
G1 X187.036 Y108.512 E2.12044
G1 X186.134 Y108.626 E2.14849
G1 X185.233 Y108.512 E2.17654
G1 X184.832 Y108.353 E2.18986
G1 X184.388 Y108.177 E2.20460
G1 X183.652 Y107.643 E2.23265
G1 X183.073 Y106.943 E2.26071
G1 X182.884 Y106.540 E2.27444
G1 X182.686 Y106.120 E2.28876
G1 X182.516 Y105.228 E2.31681
G1 X182.573 Y104.321 E2.34487
G1 X182.854 Y103.456 E2.37292
G1 X183.341 Y102.689 E2.40098
G1 X184.003 Y102.067 E2.42903
G1 X184.800 Y101.629 E2.45708
G1 X185.680 Y101.403 E2.48514
G1 X186.514 Y101.403 E2.51088 F1350.000
G1 X185.680 Y100.903 F9600.000
G1 F1200.000 E1.51088
G92 E0
G1 X186.589 Y149.824 F9600.000
G1 E1.00000 F1200.000
G1 X186.662 Y149.824 E1.00226 F1800.000
G1 X187.684 Y150.087 E1.03482
G1 X188.608 Y150.595 E1.06739
G1 X189.377 Y151.317 E1.09995
G1 X189.943 Y152.208 E1.13252
G1 X190.269 Y153.211 E1.16509
G1 X190.335 Y154.264 E1.19765
G1 X190.137 Y155.301 E1.23022
G1 X189.688 Y156.255 E1.26279
G1 X189.015 Y157.068 E1.29535
G1 X188.162 Y157.688 E1.32792
G1 X187.640 Y157.895 E1.34524
G1 X187.181 Y158.077 E1.36049
G1 X186.134 Y158.209 E1.39305
G1 X185.088 Y158.077 E1.42562
G1 X184.889 Y157.998 E1.43222
G1 X184.107 Y157.688 E1.45819
G1 X183.253 Y157.068 E1.49075
G1 X182.581 Y156.255 E1.52332
G1 X182.132 Y155.301 E1.55588
G1 X181.934 Y154.264 E1.58844
G1 X182.000 Y153.211 E1.62102
G1 X182.326 Y152.208 E1.65358
G1 X182.891 Y151.317 E1.68614
G1 X183.660 Y150.595 E1.71871
G1 X184.585 Y150.087 E1.75128
G1 X185.607 Y149.824 E1.78384
G1 X186.111 Y149.824 E1.79942
G1 X186.514 Y149.824 E1.81184 F1800.000
G1 X186.589 Y150.403 F9600.000
G1 X187.469 Y150.629 E1.83989 F1350.000
G1 X188.265 Y151.067 E1.86795
G1 X188.928 Y151.689 E1.89600
G1 X189.415 Y152.456 E1.92406
G1 X189.696 Y153.321 E1.95211
G1 X189.753 Y154.228 E1.98016
G1 X189.583 Y155.120 E2.00822
G1 X189.409 Y155.490 E2.02082
G1 X189.196 Y155.943 E2.03627
G1 X188.616 Y156.643 E2.06433
G1 X187.881 Y157.177 E2.09238
G1 X187.427 Y157.357 E2.10744
G1 X187.036 Y157.512 E2.12044
G1 X186.134 Y157.626 E2.14849
G1 X185.233 Y157.512 E2.17654
G1 X185.102 Y157.460 E2.18089
G1 X184.388 Y157.177 E2.20460
G1 X183.652 Y156.643 E2.23265
G1 X183.073 Y155.943 E2.26070
G1 X182.861 Y155.493 E2.27605
G1 X182.686 Y155.120 E2.28876
G1 X182.516 Y154.228 E2.31681
G1 X182.573 Y153.321 E2.34487
G1 X182.854 Y152.456 E2.37292
G1 X183.341 Y151.689 E2.40097
G1 X184.003 Y151.067 E2.42903
G1 X184.800 Y150.629 E2.45708
G1 X185.585 Y150.427 E2.48211
G1 X185.680 Y150.403 E2.48514 F1350.000
G1 X186.514 Y150.403 E2.51088
G1 X185.516 Y150.357 F9600.000
G1 F1200.000 E1.51088
G92 E0
G1 X180.013 Y77.121 F9600.000
G1 E1.00000 F1200.000
G1 X155.971 Y77.121 E1.74213 F1800.000
G1 X156.688 Y76.255 E1.77684
G1 X157.137 Y75.301 E1.80940
G1 X157.335 Y74.264 E1.84196
G1 X157.269 Y73.211 E1.87453
G1 X156.943 Y72.208 E1.90710
G1 X156.377 Y71.317 E1.93967
G1 X155.910 Y70.879 E1.95945
G1 X180.013 Y70.879 E2.70347
G1 X180.013 Y50.879 E3.32084
G1 X192.256 Y50.879 E3.69876
G1 X192.256 Y159.121 E7.04006
G1 X180.013 Y159.121 E7.41798
G1 X180.013 Y77.196 E9.94688
G1 X179.434 Y77.700 F9600.000
G1 X154.582 Y77.700 E10.71403 F1350.000
G1 X154.510 Y77.324 E10.72585
G1 X154.881 Y77.177 E10.73815
G1 X155.616 Y76.643 E10.76621
G1 X156.196 Y75.943 E10.79426
G1 X156.583 Y75.120 E10.82232
G1 X156.753 Y74.228 E10.85037
G1 X156.696 Y73.321 E10.87842
G1 X156.415 Y72.456 E10.90648
G1 X155.928 Y71.689 E10.93453
G1 X155.265 Y71.067 E10.96259
G1 X154.503 Y70.648 E10.98944
G1 X154.592 Y70.300 E11.00052
G1 X179.434 Y70.300 E11.76735
G1 X179.434 Y50.300 E12.38472
G1 X192.834 Y50.300 E12.79836
G1 X192.834 Y159.700 E16.17538
G1 X179.434 Y159.700 E16.58902
G1 X179.434 Y77.775 E19.11792
G1 X179.434 Y77.200 F9600.000
G1 F1200.000 E18.11792
G92 E0
G1 X150.297 Y77.121 F9600.000
G1 E1.00000 F1200.000
G1 X148.013 Y77.121 E1.07052 F1800.000
G1 X148.013 Y70.879 E1.26323
G1 X150.359 Y70.879 E1.33564
G1 X149.891 Y71.317 E1.35542
G1 X149.326 Y72.208 E1.38799
G1 X149.000 Y73.211 E1.42056
G1 X148.934 Y74.264 E1.45312
G1 X149.132 Y75.301 E1.48569
G1 X149.581 Y76.255 E1.51826
G1 X150.250 Y77.064 E1.55064
G1 X151.758 Y77.324 F9600.000
G1 X151.687 Y77.700 E1.56246 F1350.000
G1 X147.434 Y77.700 E1.69372
G1 X147.434 Y70.300 E1.92215
G1 X151.676 Y70.300 E2.05309
G1 X151.766 Y70.648 E2.06417
G1 X151.003 Y71.067 E2.09102
G1 X150.341 Y71.689 E2.11908
G1 X149.854 Y72.456 E2.14713
G1 X149.573 Y73.321 E2.17519
G1 X149.516 Y74.228 E2.20324
G1 X149.686 Y75.120 E2.23130
G1 X150.073 Y75.943 E2.25935
G1 X150.652 Y76.643 E2.28740
G1 X151.388 Y77.177 E2.31546
G1 X151.689 Y77.296 E2.32545
G1 X151.490 Y77.597 F9600.000
G1 F1200.000 E1.32545
G92 E0
G1 X154.180 Y77.191 F9600.000
G1 E1.00000 F1200.000
G1 X153.871 Y77.617 E1.01623 F1350.000
G1 X153.092 Y77.660 E1.04031
G1 X152.398 Y77.617 E1.06177
G1 X152.240 Y77.391 E1.07027
G1 X152.099 Y77.136 E1.07925
G1 F1200.000 E0.07925
G92 E0
G1 X152.020 Y70.434 F9600.000
G1 E1.00000 F1200.000
G1 X152.718 Y70.351 E1.02168 F1350.000
G1 X153.551 Y70.351 E1.04739
G1 X154.248 Y70.434 E1.06907
G1 F1200.000 E0.06907
G92 E0
G1 X156.919 Y71.278 F9600.000
G1 E1.00000 F1200.000
G1 X162.363 Y76.722 E1.23766 F1980.000
G1 X163.182 Y76.722 E1.26295
G1 X157.738 Y71.278 E1.50061
G1 X158.558 Y71.278 E1.52590
G1 X164.002 Y76.722 E1.76356
G1 X164.821 Y76.722 E1.78886
G1 X159.377 Y71.278 E2.02652
G1 X160.196 Y71.278 E2.05181
G1 X165.640 Y76.722 E2.28947
G1 X166.460 Y76.722 E2.31476
G1 X161.016 Y71.278 E2.55242
G1 X161.835 Y71.278 E2.57771
G1 X167.279 Y76.722 E2.81537
G1 X168.098 Y76.722 E2.84066
G1 X162.654 Y71.278 E3.07832
G1 X163.474 Y71.278 E3.10362
G1 X168.918 Y76.722 E3.34128
G1 X169.737 Y76.722 E3.36657
G1 X164.293 Y71.278 E3.60423
G1 X165.112 Y71.278 E3.62952
G1 X170.557 Y76.722 E3.86718
G1 X171.376 Y76.722 E3.89247
G1 X165.932 Y71.278 E4.13013
G1 X166.751 Y71.278 E4.15543
G1 X172.195 Y76.722 E4.39308
G1 X173.015 Y76.722 E4.41838
G1 X167.571 Y71.278 E4.65604
G1 X168.390 Y71.278 E4.68133
G1 X173.834 Y76.722 E4.91899
G1 X174.653 Y76.722 E4.94428
G1 X169.209 Y71.278 E5.18194
G1 X170.029 Y71.278 E5.20723
G1 X175.473 Y76.722 E5.44489
G1 X176.292 Y76.722 E5.47019
G1 X170.848 Y71.278 E5.70785
G1 X171.667 Y71.278 E5.73314
G1 X177.111 Y76.722 E5.97080
G1 X177.931 Y76.722 E5.99609
G1 X172.487 Y71.278 E6.23375
G1 X173.306 Y71.278 E6.25904
G1 X178.750 Y76.722 E6.49670
G1 X179.570 Y76.722 E6.52199
G1 X174.126 Y71.278 E6.75965
G1 X174.945 Y71.278 E6.78495
G1 X191.856 Y88.189 E7.52321
G1 X191.856 Y87.370 E7.54851
G1 X175.764 Y71.278 E8.25100
G1 X176.584 Y71.278 E8.27629
G1 X191.856 Y86.551 E8.94302
G1 X191.856 Y85.731 E8.96831
G1 X177.403 Y71.278 E9.59927
G1 X178.222 Y71.278 E9.62457
G1 X191.856 Y84.912 E10.21975
G1 X191.856 Y84.093 E10.24505
G1 X179.042 Y71.278 E10.80447
G1 X179.861 Y71.278 E10.82976
G1 X191.856 Y83.273 E11.35341
G1 X191.856 Y82.454 E11.37870
G1 X180.412 Y71.010 E11.87829
G1 X180.412 Y70.190 E11.90358
G1 X191.856 Y81.635 E12.40317
G1 X191.856 Y80.815 E12.42846
G1 X180.412 Y69.371 E12.92805
G1 X180.412 Y68.552 E12.95334
G1 X191.856 Y79.996 E13.45293
G1 X191.856 Y79.176 E13.47822
G1 X180.412 Y67.732 E13.97781
G1 X180.412 Y66.913 E14.00310
G1 X191.856 Y78.357 E14.50269
G1 X191.856 Y77.538 E14.52798
G1 X180.412 Y66.094 E15.02757
G1 X180.412 Y65.274 E15.05286
G1 X191.856 Y76.718 E15.55245
G1 X191.856 Y75.899 E15.57774
G1 X180.412 Y64.455 E16.07733
G1 X180.412 Y63.636 E16.10262
G1 X191.856 Y75.080 E16.60221
G1 X191.856 Y74.260 E16.62751
G1 X180.412 Y62.816 E17.12709
G1 X180.412 Y61.997 E17.15239
G1 X191.856 Y73.441 E17.65197
G1 X191.856 Y72.621 E17.67727
G1 X180.412 Y61.177 E18.17685
G1 X180.412 Y60.358 E18.20215
G1 X191.856 Y71.802 E18.70173
G1 X191.856 Y70.983 E18.72703
G1 X180.412 Y59.539 E19.22661
G1 X180.412 Y58.719 E19.25191
G1 X191.856 Y70.163 E19.75149
G1 X191.856 Y69.344 E19.77679
G1 X180.412 Y57.900 E20.27637
G1 F1200.000 E19.27637
G92 E0
G1 X181.652 Y51.000 F9600.000
G1 X184.442 Y51.278 F9600.000
G1 E1.00000 F1200.000
G1 X184.511 Y51.347 E1.00300 F1980.000
G1 X184.192 Y51.847 E1.02131
G1 X183.623 Y51.278 E1.04616
G1 X182.803 Y51.278 E1.07145
G1 X183.663 Y52.138 E1.10899
G1 X183.193 Y52.487 E1.12707
G1 X181.984 Y51.278 E1.17983
G1 X181.165 Y51.278 E1.20512
G1 X182.770 Y52.883 E1.27521
G1 X182.405 Y53.338 E1.29320
G1 X180.412 Y51.345 E1.38020
G1 X180.412 Y52.164 E1.40549
G1 X182.087 Y53.839 E1.47860
G1 X181.840 Y54.411 E1.49785
G1 X180.412 Y52.984 E1.56017
G1 X180.412 Y53.803 E1.58547
G1 X181.639 Y55.030 E1.63902
G1 X181.564 Y55.775 E1.66213
G1 X180.412 Y54.622 E1.71242
G1 X180.412 Y55.442 E1.73772
G1 X181.596 Y56.626 E1.78940
G1 X181.902 Y57.751 E1.82539
G1 X180.412 Y56.261 E1.89043
G1 X180.412 Y57.081 E1.91572
G1 X191.856 Y68.525 E2.41531
G1 X191.856 Y67.705 E2.44060
G1 X184.375 Y60.224 E2.76719
G1 X185.502 Y60.531 E2.80325
G1 X191.856 Y66.886 E3.08065
G1 X191.856 Y66.067 E3.10594
G1 X186.371 Y60.581 E3.34540
G1 X187.099 Y60.490 E3.36803
G1 X191.856 Y65.247 E3.57572
G1 X191.856 Y64.428 E3.60102
G1 X187.721 Y60.292 E3.78155
G1 X188.308 Y60.060 E3.80104
G1 X191.856 Y63.608 E3.95594
G1 X191.856 Y62.789 E3.98124
G1 X188.792 Y59.724 E4.11503
G1 X189.266 Y59.380 E4.13313
G1 X191.856 Y61.970 E4.24621
G1 X191.856 Y61.150 E4.27150
G1 X189.643 Y58.937 E4.36814
G1 X190.014 Y58.488 E4.38611
G1 X191.856 Y60.331 E4.46655
G1 X191.856 Y59.512 E4.49185
G1 X190.280 Y57.935 E4.56067
G1 X190.531 Y57.367 E4.57984
G1 X191.856 Y58.692 E4.63770
G1 X191.856 Y57.873 E4.66299
G1 X190.662 Y56.679 E4.71512
G1 X190.713 Y55.910 E4.73890
G1 X191.856 Y57.054 E4.78883
G1 X191.856 Y56.234 E4.81412
G1 X190.619 Y54.997 E4.86815
G1 X190.009 Y53.568 F9600.000
G1 X191.856 Y55.415 E4.94879 F1980.000
G1 X191.856 Y54.595 E4.97408
G1 X188.539 Y51.278 E5.11890
G1 X189.358 Y51.278 E5.14420
G1 X191.856 Y53.776 E5.25325
G1 X191.856 Y52.957 E5.27854
G1 X190.178 Y51.278 E5.35183
G1 X190.997 Y51.278 E5.37712
G1 X191.856 Y52.137 E5.41463
G1 X191.856 Y51.318 E5.43993
G1 X191.816 Y51.278 E5.44167
G1 F1200.000 E4.44167
G92 E0
G1 X188.547 Y52.106 F9600.000
G1 E1.00000 F1200.000
G1 X187.761 Y51.320 E1.03431 F1980.000
G1 F1200.000 E0.03431
G92 E0
G1 X181.652 Y51.000 F9600.000
G1 X180.412 Y77.565 F9600.000
G1 E1.00000 F1200.000
G1 X191.856 Y89.009 E1.49959 F1980.000
G1 X191.856 Y89.828 E1.52488
G1 X180.412 Y78.384 E2.02447
G1 X180.412 Y79.203 E2.04976
G1 X191.856 Y90.648 E2.54935
G1 X191.856 Y91.467 E2.57464
G1 X180.412 Y80.023 E3.07423
G1 X180.412 Y80.842 E3.09952
G1 X191.856 Y92.286 E3.59911
G1 X191.856 Y93.106 E3.62440
G1 X180.412 Y81.662 E4.12399
G1 X180.412 Y82.481 E4.14928
