;Generated by Cura 2 GCodeWriter Version: 2.6.31
;FLAVOR:RepRap
;TIME:2563
;Filament used: 1.54916m
;Layer height: 0.38
;Generated with Cura_SteamEngine 2.6.31
;This G-Code has been generated specifically for the LulzBot Mini with standard extruder
G26                                ; clear potential 'probe fail' condition
G21                                ; set units to Millimetres
M107                               ; disable fans
G90                                ; absolute positioning
M82                                ; set extruder to absolute mode
G92 E0                             ; set extruder position to 0
M140 S112   ; start bed heating up
G28                                ; home all axes
M109 R170  ; wait for extruder to reach wiping temp
G1 Z150 E-30 F75                   ; retract filament
G1 X45 Y174 F11520                 ; move above wiper pad
G1 Z0  F1200                       ; push nozzle into wiper
G1 X45 Y174 Z-.5 F4000             ; wiping
G1 X55 Y172 Z-.5 F4000             ; wiping
G1 X45 Y174 Z0 F4000               ; wiping
G1 X55 Y172 F4000                  ; wiping
G1 X45 Y174 F4000                  ; wiping
G1 X55 Y172 F4000                  ; wiping
G1 X45 Y174 F4000                  ; wiping
G1 X55 Y172 F4000                  ; wiping
G1 X60 Y174 F4000                  ; wiping
G1 X80 Y172 F4000                  ; wiping
G1 X60 Y174 F4000                  ; wiping
G1 X80 Y172 F4000                  ; wiping
G1 X60 Y174 F4000                  ; wiping
G1 X90 Y172 F4000                  ; wiping
G1 X80 Y174 F4000                  ; wiping
G1 X100 Y172 F4000                 ; wiping
G1 X80 Y174 F4000                  ; wiping
G1 X100 Y172 F4000                 ; wiping
G1 X80 Y174 F4000                  ; wiping
G1 X100 Y172 F4000                 ; wiping
G1 X110 Y174 F4000                 ; wiping
G1 X100 Y172 F4000                 ; wiping
G1 X110 Y174 F4000                 ; wiping
G1 X100 Y172 F4000                 ; wiping
G1 X110 Y174 F4000                 ; wiping
G1 X115 Y172 Z-0.5 F1000           ; wiping
G1 Z10                             ; raise extruder
G28 X0 Y0                          ; home X and Y
M109 R170 ; wait for extruder to reach probe temp
M204 S300                          ; set probing acceleration
G29                                ; start auto-leveling sequence
M204 S2000                         ; restore standard acceleration
G1 X5 Y15 Z10 F5000                ; move up off last probe point
G4 S1                              ; pause
M400                               ; wait for moves to finish
M117 Heating...                    ; progress indicator message on LCD
M109 R240 ; wait for extruder to reach printing temp
M190 S112   ; wait for bed to reach printing temp
G1 Z2 E0 F75                       ; prime tiny bit of filment into the nozzle
M117 Mini Printing...              ; progress indicator message on LCD

;LAYER_COUNT:41
;LAYER:0
M107
G0 F1200 X56.812 Y58.77 Z0.425
;TYPE:SKIRT
G1 F900 X60.467 Y55.038 E0.174
G1 X60.526 Y54.979 E0.17678
G1 X77.481 Y38.038 E0.97517
G1 X78.066 Y37.51 E1.00142
G1 X78.7 Y37.045 E1.02761
G1 X79.379 Y36.646 E1.05384
G1 X80.095 Y36.319 E1.08006
G1 X80.84 Y36.065 E1.10628
G1 X81.607 Y35.889 E1.13249
G1 X82.388 Y35.791 E1.15871
G1 X83.175 Y35.773 E1.18493
G1 X83.96 Y35.835 E1.21117
G1 X84.734 Y35.976 E1.23737
G1 X85.49 Y36.195 E1.26359
G1 X86.22 Y36.49 E1.28982
G1 X86.917 Y36.857 E1.31606
G1 X87.572 Y37.293 E1.34227
G1 X88.439 Y38.04 E1.38039
G1 X116.961 Y66.56 E2.72395
G1 X117.489 Y67.144 E2.75018
G1 X117.954 Y67.778 E2.77637
G1 X118.353 Y68.457 E2.8026
G1 X118.681 Y69.173 E2.82884
G1 X118.935 Y69.918 E2.85505
G1 X119.112 Y70.685 E2.88128
G1 X119.21 Y71.466 E2.90749
G1 X119.228 Y72.253 E2.93372
G1 X119.167 Y73.037 E2.95991
G1 X119.026 Y73.812 E2.98615
G1 X118.807 Y74.568 E3.01237
G1 X118.513 Y75.298 E3.03858
G1 X118.146 Y75.995 E3.06482
G1 X117.711 Y76.65 E3.09101
G1 X116.958 Y77.523 E3.12942
G1 X99.09 Y95.374 E3.97074
G1 X99.046 Y95.417 E3.97279
G1 X96.311 Y98.106 E4.10055
G1 X77.384 Y117.095 E4.99363
G1 X76.801 Y117.624 E5.01985
G1 X76.167 Y118.09 E5.04606
G1 X75.489 Y118.49 E5.07228
G1 X74.774 Y118.819 E5.0985
G1 X74.029 Y119.074 E5.12473
G1 X73.262 Y119.252 E5.15096
G1 X72.482 Y119.352 E5.17715
G1 X71.695 Y119.371 E5.20337
G1 X70.91 Y119.311 E5.2296
G1 X70.135 Y119.172 E5.25583
G1 X69.379 Y118.954 E5.28203
G1 X68.648 Y118.661 E5.30827
G1 X67.951 Y118.295 E5.33449
G1 X67.295 Y117.861 E5.36069
G1 X66.415 Y117.104 E5.39936
G1 X37.896 Y88.581 E6.74292
G1 X37.368 Y87.997 E6.76915
G1 X36.902 Y87.362 E6.79539
G1 X36.504 Y86.683 E6.8216
G1 X36.176 Y85.968 E6.84781
G1 X35.922 Y85.222 E6.87406
G1 X35.745 Y84.455 E6.90028
G1 X35.647 Y83.674 E6.9265
G1 X35.629 Y82.887 E6.95272
G1 X35.691 Y82.103 E6.97892
G1 X35.831 Y81.328 E7.00515
G1 X36.05 Y80.572 E7.03137
G1 X36.345 Y79.842 E7.05759
G1 X36.711 Y79.146 E7.08379
G1 X37.147 Y78.49 E7.11003
G1 X37.905 Y77.612 E7.14866
G1 X56.812 Y58.77 E8.0378
G0 F1200 X57.169 Y59.12
G1 F900 X60.824 Y55.388 E8.21181
G1 X60.88 Y55.332 E8.21445
G1 X77.835 Y38.391 E9.01283
G1 X78.401 Y37.882 E9.03819
G1 X79.017 Y37.435 E9.06354
G1 X79.677 Y37.056 E9.08889
G1 X80.373 Y36.747 E9.11426
G1 X81.097 Y36.513 E9.1396
G1 X81.842 Y36.357 E9.16496
G1 X82.6 Y36.279 E9.19034
G1 X83.361 Y36.281 E9.21569
G1 X84.118 Y36.363 E9.24105
G1 X84.862 Y36.524 E9.26641
G1 X85.585 Y36.762 E9.29176
G1 X86.279 Y37.075 E9.31712
G1 X86.937 Y37.459 E9.3425
G1 X87.55 Y37.909 E9.36783
G1 X88.085 Y38.393 E9.39186
G1 X116.607 Y66.913 E10.73543
G1 X117.117 Y67.479 E10.76081
G1 X117.564 Y68.095 E10.78616
G1 X117.944 Y68.755 E10.81153
G1 X118.253 Y69.451 E10.83689
G1 X118.487 Y70.175 E10.86224
G1 X118.644 Y70.92 E10.8876
G1 X118.722 Y71.677 E10.91295
G1 X118.72 Y72.439 E10.93833
G1 X118.638 Y73.196 E10.9637
G1 X118.478 Y73.94 E10.98905
G1 X118.24 Y74.663 E11.0144
G1 X117.928 Y75.357 E11.03975
G1 X117.544 Y76.015 E11.06512
G1 X117.094 Y76.629 E11.09048
G1 X116.605 Y77.169 E11.11475
G1 X98.737 Y95.02 E11.95607
G1 X98.696 Y95.061 E11.958
G1 X95.905 Y97.805 E12.08838
G1 X77.03 Y116.742 E12.97901
G1 X76.465 Y117.252 E13.00436
G1 X75.849 Y117.701 E13.02975
G1 X75.19 Y118.082 E13.05511
G1 X74.495 Y118.392 E13.08046
G1 X73.771 Y118.627 E13.10581
G1 X73.026 Y118.785 E13.13118
G1 X72.269 Y118.864 E13.15653
G1 X71.508 Y118.864 E13.18188
G1 X70.751 Y118.783 E13.20724
G1 X70.006 Y118.624 E13.23262
G1 X69.283 Y118.387 E13.25796
G1 X68.588 Y118.076 E13.28332
G1 X67.93 Y117.693 E13.30868
G1 X67.315 Y117.244 E13.33405
G1 X66.768 Y116.75 E13.3586
G1 X38.249 Y88.227 E14.70217
G1 X37.74 Y87.661 E14.72752
G1 X37.293 Y87.045 E14.75287
G1 X36.913 Y86.385 E14.77824
G1 X36.604 Y85.69 E14.80358
G1 X36.37 Y84.965 E14.82896
G1 X36.213 Y84.22 E14.85432
G1 X36.135 Y83.463 E14.87967
G1 X36.137 Y82.702 E14.90502
G1 X36.219 Y81.945 E14.93038
G1 X36.38 Y81.2 E14.95577
G1 X36.617 Y80.477 E14.98111
G1 X36.93 Y79.783 E15.00647
G1 X37.313 Y79.125 E15.03183
G1 X37.764 Y78.511 E15.05721
G1 X38.258 Y77.966 E15.08171
G1 X57.169 Y59.12 E15.97104
G1 F420 E13.97104
G0 F1200 X60.902 Y66.644
G0 X60.902 Y66.724
G0 X60.902 Y66.624
;TYPE:WALL-INNER
G1 F420 E15.97104
G1 F900 X88.376 Y94.098 E17.26529
G1 X86.609 Y95.865 E17.34853
G1 X59.135 Y68.391 E18.64277
G1 X60.902 Y66.624 E18.72601
G0 F1200 X60.902 Y65.916
;TYPE:WALL-OUTER
G1 F900 X89.084 Y94.098 E20.05361
G1 X86.609 Y96.573 E20.1702
G1 X58.427 Y68.391 E21.49779
G1 X60.902 Y65.916 E21.61439
G0 F1200 X61.078 Y66.092
G0 X60.902 Y66.724
G0 X60.902 Y67.332
;TYPE:SKIN
G1 F900 X87.668 Y94.098 E22.87528
G1 X86.609 Y95.157 E22.92517
G1 X59.843 Y68.391 E24.18606
G1 X60.902 Y67.332 E24.23595
G0 F1200 X60.902 Y68.04
G1 F900 X86.96 Y94.098 E25.46348
G1 X86.609 Y94.449 E25.48002
G1 X60.551 Y68.391 E26.70756
G1 X60.902 Y68.04 E26.72409
G1 F420 E24.72409
G0 F1200 X60.936 Y66.686
G0 X81.256 Y46.37
G0 X81.292 Y46.334
G0 X81.192 Y46.334
;TYPE:WALL-INNER
G1 F420 E26.72409
G1 F900 X82.782 Y44.743 E26.79902
G1 X82.958 Y44.567 E26.80731
G1 X83.134 Y44.743 E26.81266
G1 X110.257 Y71.866 E28.09037
G1 X110.433 Y72.042 E28.09866
G1 X110.257 Y72.218 E28.10401
G1 X108.666 Y73.808 E28.17893
G1 X81.192 Y46.334 E29.47318
G0 F1200 X80.66 Y46.51
;TYPE:WALL-OUTER
G1 F900 X80.484 Y46.334 E29.48147
G1 X80.66 Y46.158 E29.48682
G1 X82.959 Y43.86 E29.5951
G1 X111.14 Y72.041 E30.92264
G1 X108.842 Y74.34 E31.03092
G1 X108.666 Y74.516 E31.03921
G1 X108.49 Y74.34 E31.04456
G1 X80.66 Y46.51 E32.35558
G0 F1200 X80.484 Y46.334
G0 X80.485 Y46.333
G0 X81.292 Y46.334
G0 X81.9 Y46.334
;TYPE:SKIN
G1 F900 X82.958 Y45.275 E32.40544
G1 X109.725 Y72.042 E33.66638
G1 X108.666 Y73.1 E33.71624
G1 X81.9 Y46.334 E34.97714
G0 F1200 X82.607 Y46.333
G1 F900 X82.958 Y45.983 E34.99365
G1 X109.017 Y72.042 E36.22123
G1 X108.667 Y72.393 E36.23774
G1 X82.607 Y46.333 E37.46538
G1 F420 E35.46538
G0 F1200 X81.382 Y46.496
G0 X76.048 Y51.827
G0 X75.992 Y51.883
G0 X76.063 Y51.814
;TYPE:WALL-INNER
G1 F420 E37.46538
G1 F900 X103.186 Y78.937 E38.74309
G1 X103.362 Y79.113 E38.75138
G1 X103.186 Y79.289 E38.75673
G1 X101.595 Y80.879 E38.83165
G1 X74.121 Y53.405 E40.1259
G1 X75.711 Y51.814 E40.20082
G1 X75.887 Y51.638 E40.20911
G1 X76.063 Y51.814 E40.21446
G0 F1200 X75.992 Y51.883
G0 X74.221 Y53.405
G0 X73.589 Y53.229
;TYPE:WALL-OUTER
G1 F900 X75.888 Y50.931 E40.32274
G1 X104.069 Y79.112 E41.65029
G1 X101.771 Y81.411 E41.75857
G1 X101.595 Y81.587 E41.76686
G1 X101.419 Y81.411 E41.77221
G1 X73.589 Y53.581 E43.08322
G1 X73.413 Y53.405 E43.09151
G1 X73.589 Y53.229 E43.09686
G0 F1200 X73.765 Y53.053
G0 X74.221 Y53.405
G0 X74.829 Y53.405
;TYPE:SKIN
G1 F900 X75.887 Y52.346 E43.14673
G1 X102.654 Y79.113 E44.40766
G1 X101.595 Y80.171 E44.45753
G1 X74.829 Y53.405 E45.71842
G0 F1200 X75.536 Y53.404
G1 F900 X75.887 Y53.054 E45.73493
G1 X101.946 Y79.113 E46.96252
G1 X101.596 Y79.464 E46.97903
G1 X75.536 Y53.404 E48.20666
G1 F420 E46.20666
G0 F1200 X74.186 Y53.442
G0 X68.536 Y59.088
G0 X68.501 Y59.125
G0 X68.501 Y59.025
;TYPE:WALL-INNER
G1 F420 E48.20666
G1 F900 X95.975 Y86.499 E49.50091
G1 X94.385 Y88.09 E49.57583
G1 X94.209 Y88.266 E49.58412
G1 X94.033 Y88.09 E49.58947
G1 X66.91 Y60.967 E50.86718
G1 X66.734 Y60.791 E50.87547
G1 X66.91 Y60.615 E50.88082
G1 X68.501 Y59.025 E50.95575
G0 F1200 X68.677 Y58.493
;TYPE:WALL-OUTER
G1 F900 X96.507 Y86.323 E52.26676
G1 X96.683 Y86.499 E52.27505
G1 X96.507 Y86.675 E52.2804
G1 X94.208 Y88.973 E52.38868
G1 X66.027 Y60.792 E53.71623
G1 X68.325 Y58.493 E53.82451
G1 X68.501 Y58.317 E53.8328
G1 X68.677 Y58.493 E53.83815
G0 F1200 X68.853 Y58.669
G0 X68.501 Y59.125
G0 X68.501 Y59.733
;TYPE:SKIN
G1 F900 X95.267 Y86.499 E55.09904
G1 X94.209 Y87.558 E55.1489
G1 X67.442 Y60.791 E56.40984
G1 X68.501 Y59.733 E56.4597
G0 F1200 X68.5 Y60.44
G1 F900 X94.56 Y86.5 E57.68734
G1 X94.209 Y86.85 E57.70385
G1 X68.15 Y60.791 E58.93144
G1 X68.5 Y60.44 E58.94795
G1 F420 E56.94795
G0 F1200 X66.799 Y60.828
G0 X46.224 Y81.4
G0 X46.189 Y81.437
G0 X46.189 Y81.337
;TYPE:WALL-INNER
G1 F420 E58.94795
G1 F900 X73.663 Y108.811 E60.24219
G1 X71.897 Y110.577 E60.32538
G1 X44.423 Y83.103 E61.61963
G1 X46.189 Y81.337 E61.70282
G0 F1200 X46.189 Y80.629
;TYPE:WALL-OUTER
G1 F900 X74.371 Y108.811 E63.03042
G1 X71.897 Y111.285 E63.14696
G1 X43.715 Y83.103 E64.47456
G1 X46.189 Y80.629 E64.5911
G0 F1200 X46.365 Y80.805
G0 X46.189 Y81.437
G0 X46.189 Y82.045
;TYPE:SKIN
G1 F900 X72.955 Y108.811 E65.852
G1 X71.897 Y109.869 E65.90184
G1 X45.131 Y83.103 E67.16273
G1 X46.189 Y82.045 E67.21257
G0 F1200 X46.189 Y82.753
G1 F900 X72.247 Y108.811 E68.44011
G1 X71.897 Y109.161 E68.4566
G1 X45.839 Y83.103 E69.68413
G1 X46.189 Y82.753 E69.70062
G1 F420 E67.70062
G0 F1200 X46.223 Y81.399
G0 X51.737 Y75.889
G0 X51.773 Y75.853
G0 X51.673 Y75.853
;TYPE:WALL-INNER
G1 F420 E69.70062
G1 F900 X53.44 Y74.086 E69.78386
G1 X80.914 Y101.56 E71.07811
G1 X79.147 Y103.327 E71.16135
G1 X51.673 Y75.853 E72.45559
G0 F1200 X50.965 Y75.853
;TYPE:WALL-OUTER
G1 F900 X53.44 Y73.378 E72.57218
G1 X81.622 Y101.56 E73.89978
G1 X79.147 Y104.035 E74.01637
G1 X50.965 Y75.853 E75.34397
G0 F1200 X51.141 Y75.677
G0 X51.773 Y75.853
G0 X52.381 Y75.853
;TYPE:SKIN
G1 F900 X53.44 Y74.794 E75.39386
G1 X80.206 Y101.56 E76.65475
G1 X79.147 Y102.619 E76.70463
G1 X52.381 Y75.853 E77.96553
G0 F1200 X53.089 Y75.853
M104 S240
G1 F900 X53.44 Y75.502 E77.98206
G1 X79.498 Y101.56 E79.2096
G1 X79.147 Y101.911 E79.22614
G1 X53.089 Y75.853 E80.45367
G1 F420 E78.45367
G0 F1200 X53.474 Y74.148
G0 X59.199 Y68.427
G0 X60.902 Y66.724
G0 X60.902 Y66.624
;TIME_ELAPSED:173.934241
;LAYER:1
M140 S112
M106 S102
G0 F5100 X60.902 Y66.624 Z0.805
;TYPE:WALL-INNER
G1 F420 E80.45367
G1 F1650 X88.376 Y94.098 E81.61088
G1 X86.609 Y95.865 E81.68531
G1 X59.135 Y68.391 E82.84251
G1 X60.902 Y66.624 E82.91694
G0 F5100 X60.902 Y65.916
;TYPE:WALL-OUTER
G1 F1350 X89.084 Y94.098 E84.10397
G1 X86.609 Y96.573 E84.20821
G1 X58.427 Y68.391 E85.39524
G1 X60.902 Y65.916 E85.49949
G0 F5100 X61.078 Y66.092
G0 X60.99 Y66.995
;TYPE:SKIN
G1 F1350 X59.507 Y68.479 E85.56197
G1 X59.419 Y68.567
G0 F5100 X59.86 Y68.832
G1 F1350 X61.344 Y67.349 E85.62446
G1 X61.432 Y67.261
G0 F5100 X61.697 Y67.702
G1 F1350 X60.214 Y69.186 E85.68694
G1 X60.126 Y69.274
G0 F5100 X60.567 Y69.539
G1 F1350 X62.051 Y68.056 E85.74943
G1 X62.139 Y67.968
G0 F5100 X62.405 Y68.409
G1 F1350 X60.921 Y69.893 E85.81194
G1 X60.833 Y69.981
G0 F5100 X61.275 Y70.246
G1 F1350 X62.758 Y68.763 E85.8744
G1 X62.846 Y68.675
G0 F5100 X63.112 Y69.116
G1 F1350 X61.628 Y70.6 E85.93691
G1 X61.54 Y70.688
G0 F5100 X61.982 Y70.953
G1 F1350 X63.465 Y69.47 E85.99937
G1 X63.553 Y69.382
G0 F5100 X63.819 Y69.823
G1 F1350 X62.335 Y71.307 E86.06188
G1 X62.247 Y71.395
G0 F5100 X62.689 Y71.661
G1 F1350 X64.172 Y70.177 E86.12436
G1 X64.26 Y70.089
G0 F5100 X64.526 Y70.531
G1 F1350 X63.042 Y72.014 E86.18685
G1 X62.954 Y72.102
G0 F5100 X63.396 Y72.368
G1 F1350 X64.879 Y70.884 E86.24933
G1 X64.967 Y70.796
G0 F5100 X65.233 Y71.238
G1 F1350 X63.749 Y72.721 E86.31182
G1 X63.661 Y72.809
G0 F5100 X64.103 Y73.075
G1 F1350 X65.586 Y71.591 E86.3743
G1 X65.674 Y71.503
G0 F5100 X65.94 Y71.945
G1 F1350 X64.457 Y73.428 E86.43677
G1 X64.369 Y73.516
G0 F5100 X64.81 Y73.782
G1 F1350 X66.294 Y72.298 E86.49927
G1 X66.382 Y72.21
G0 F5100 X66.647 Y72.652
G1 F1350 X65.164 Y74.135 E86.56174
G1 X65.076 Y74.223
G0 F5100 X65.517 Y74.489
G1 F1350 X67.001 Y73.005 E86.62424
G1 X67.089 Y72.917
G0 F5100 X67.354 Y73.359
G1 F1350 X65.871 Y74.843 E86.68673
G1 X65.783 Y74.931
G0 F5100 X66.224 Y75.196
G1 F1350 X67.708 Y73.713 E86.74921
G1 X67.796 Y73.625
G0 F5100 X68.061 Y74.066
G1 F1350 X66.578 Y75.55 E86.8117
G1 X66.49 Y75.638
G0 F5100 X66.931 Y75.903
G1 F1350 X68.415 Y74.42 E86.87418
G1 X68.503 Y74.332
G0 F5100 X68.768 Y74.773
G1 F1350 X67.285 Y76.257 E86.93667
G1 X67.197 Y76.345
G0 F5100 X67.639 Y76.61
G1 F1350 X69.122 Y75.127 E86.99913
G1 X69.21 Y75.039
G0 F5100 X69.476 Y75.48
G1 F1350 X67.992 Y76.964 E87.06164
G1 X67.904 Y77.052
G0 F5100 X68.346 Y77.317
G1 F1350 X69.829 Y75.834 E87.1241
G1 X69.917 Y75.746
G0 F5100 X70.183 Y76.187
G1 F1350 X68.699 Y77.671 E87.18661
G1 X68.611 Y77.759
G0 F5100 X69.053 Y78.024
G1 F1350 X70.536 Y76.541 E87.24907
G1 X70.624 Y76.453
G0 F5100 X70.89 Y76.895
G1 F1350 X69.406 Y78.378 E87.31156
G1 X69.318 Y78.466
G0 F5100 X69.76 Y78.732
G1 F1350 X71.243 Y77.248 E87.37404
G1 X71.331 Y77.16
G0 F5100 X71.597 Y77.602
G1 F1350 X70.113 Y79.085 E87.43653
G1 X70.025 Y79.173
G0 F5100 X70.467 Y79.439
G1 F1350 X71.95 Y77.955 E87.49901
G1 X72.038 Y77.867
G0 F5100 X72.304 Y78.309
G1 F1350 X70.82 Y79.792 E87.5615
G1 X70.732 Y79.88
G0 F5100 X71.174 Y80.146
G1 F1350 X72.658 Y78.662 E87.624
G1 X72.746 Y78.574
G0 F5100 X73.011 Y79.016
G1 F1350 X71.528 Y80.499 E87.68647
G1 X71.44 Y80.587
G0 F5100 X71.881 Y80.853
G1 F1350 X73.365 Y79.369 E87.74897
G1 X73.453 Y79.281
G0 F5100 X73.718 Y79.723
G1 F1350 X72.235 Y81.206 E87.81144
G1 X72.147 Y81.294
G0 F5100 X72.588 Y81.56
G1 F1350 X74.072 Y80.077 E87.87392
G1 X74.16 Y79.989
G0 F5100 X74.425 Y80.43
G1 F1350 X72.942 Y81.914 E87.93641
G1 X72.854 Y82.002
G0 F5100 X73.295 Y82.267
G1 F1350 X74.779 Y80.784 E87.99889
G1 X74.867 Y80.696
G0 F5100 X75.132 Y81.137
