;Generated by Cura 2 GCodeWriter Version: 2.6.21
;FLAVOR:RepRap
;TIME:5112
;Filament used: 4.91494m
;Layer height: 0.38
;Generated with Cura_SteamEngine 2.6.23
;This G-Code has been generated specifically for the LulzBot Mini with standard extruder
G26                                ; clear potential 'probe fail' condition
G21                                ; set units to Millimetres
M107                               ; disable fans
G90                                ; absolute positioning
M82                                ; set extruder to absolute mode
G92 E0                             ; set extruder position to 0
M140 S110   ; start bed heating up
G28                                ; home all axes
M109 R170  ; wait for extruder to reach wiping temp
G1 Z150 E-30 F75                   ; retract filament
G1 X45 Y174 F11520                 ; move above wiper pad
G1 Z0  F1200                       ; push nozzle into wiper
G1 X45 Y174 Z-.5 F4000             ; wiping
G1 X55 Y172 Z-.5 F4000             ; wiping
G1 X45 Y174 Z0 F4000               ; wiping
G1 X55 Y172 F4000                  ; wiping
G1 X45 Y174 F4000                  ; wiping
G1 X55 Y172 F4000                  ; wiping
G1 X45 Y174 F4000                  ; wiping
G1 X55 Y172 F4000                  ; wiping
G1 X60 Y174 F4000                  ; wiping
G1 X80 Y172 F4000                  ; wiping
G1 X60 Y174 F4000                  ; wiping
G1 X80 Y172 F4000                  ; wiping
G1 X60 Y174 F4000                  ; wiping
G1 X90 Y172 F4000                  ; wiping
G1 X80 Y174 F4000                  ; wiping
G1 X100 Y172 F4000                 ; wiping
G1 X80 Y174 F4000                  ; wiping
G1 X100 Y172 F4000                 ; wiping
G1 X80 Y174 F4000                  ; wiping
G1 X100 Y172 F4000                 ; wiping
G1 X110 Y174 F4000                 ; wiping
G1 X100 Y172 F4000                 ; wiping
G1 X110 Y174 F4000                 ; wiping
G1 X100 Y172 F4000                 ; wiping
G1 X110 Y174 F4000                 ; wiping
G1 X115 Y172 Z-0.5 F1000           ; wiping
G1 Z10                             ; raise extruder
G28 X0 Y0                          ; home X and Y
M109 R170 ; wait for extruder to reach probe temp
M204 S300                          ; set probing acceleration
G29                                ; start auto-leveling sequence
M204 S2000                         ; restore standard acceleration
G1 X5 Y15 Z10 F5000                ; move up off last probe point
G4 S1                              ; pause
M400                               ; wait for moves to finish
M117 Heating...                    ; progress indicator message on LCD
M109 R240 ; wait for extruder to reach printing temp
M190 S110   ; wait for bed to reach printing temp
G1 Z2 E0 F75                       ; prime tiny bit of filment into the nozzle
M117 Mini Printing...              ; progress indicator message on LCD

;LAYER_COUNT:47
;LAYER:0
M107
G0 F2625 X41.801 Y50.877 Z0.425
;TYPE:SKIRT
G1 F900 X64.106 Y28.615 E1.04973
G1 X64.691 Y28.088 E1.07596
G1 X65.326 Y27.623 E1.10218
G1 X66.005 Y27.224 E1.12841
G1 X66.721 Y26.897 E1.15463
G1 X67.466 Y26.644 E1.18084
G1 X67.875 Y26.54 E1.19489
G1 X83.956 Y22.912 E1.74402
G1 X84.732 Y22.778 E1.77025
G1 X85.517 Y22.723 E1.79647
G1 X86.304 Y22.749 E1.8227
G1 X87.084 Y22.854 E1.84891
G1 X87.85 Y23.037 E1.87515
G1 X88.592 Y23.297 E1.90134
G1 X89.305 Y23.632 E1.92758
G1 X89.98 Y24.037 E1.9538
G1 X90.611 Y24.508 E1.98003
G1 X91.17 Y25.02 E2.00528
G1 X99.072 Y33.002 E2.37941
G1 X102.653 Y36.443 E2.54484
G1 X106.617 Y39.981 E2.72183
G1 X110.691 Y43.225 E2.8953
G1 X115.275 Y46.469 E3.08236
G1 X115.893 Y46.955 E3.10855
G1 X116.273 Y47.31 E3.12588
G1 X121.02 Y52.049 E3.34931
G1 X121.691 Y52.813 E3.38318
G1 X122.234 Y53.52 E3.41287
G1 X122.682 Y54.168 E3.43912
G1 X123.217 Y55.202 E3.4779
G1 X123.668 Y56.26 E3.51621
G1 X123.94 Y56.999 E3.54244
G1 X124.132 Y57.748 E3.56819
G1 X124.247 Y58.311 E3.58733
G1 X124.365 Y59.089 E3.61355
G1 X124.402 Y59.673 E3.63304
G1 X124.423 Y60.532 E3.66166
G1 X124.402 Y61.318 E3.68785
G1 X124.297 Y62.125 E3.71496
G1 X124.147 Y62.939 E3.74253
G1 X123.965 Y63.705 E3.76876
G1 X123.717 Y64.421 E3.794
G1 X121.449 Y70.073 E3.99686
G1 X120.608 Y72.429 E4.08019
G1 X119.037 Y77.49 E4.25671
G1 X117.765 Y82.586 E4.43167
G1 X117.248 Y85.105 E4.51732
G1 X116.81 Y87.606 E4.6019
G1 X116.117 Y92.854 E4.77823
G1 X115.634 Y98.89 E4.97994
G1 X115.532 Y99.671 E5.00617
G1 X115.351 Y100.437 E5.03239
G1 X115.018 Y101.359 E5.06504
G1 X114.886 Y101.663 E5.07608
G1 X114.536 Y102.368 E5.1023
G1 X114.117 Y103.034 E5.12851
G1 X113.632 Y103.654 E5.15473
G1 X113.26 Y104.053 E5.1729
G1 X91.545 Y125.79 E6.19637
G1 X91.098 Y126.204 E6.21667
G1 X90.368 Y126.828 E6.24866
G1 X89.744 Y127.308 E6.27488
G1 X89.075 Y127.723 E6.3011
G1 X88.367 Y128.068 E6.32734
G1 X87.628 Y128.339 E6.35356
G1 X87.03 Y128.499 E6.37418
G1 X71.036 Y132.09 E6.92021
G1 X70.26 Y132.223 E6.94643
G1 X69.475 Y132.277 E6.97264
G1 X68.688 Y132.251 E6.99887
G1 X67.908 Y132.145 E7.02509
G1 X67.143 Y131.961 E7.0513
G1 X66.4 Y131.7 E7.07754
G1 X65.688 Y131.365 E7.10375
G1 X65.013 Y130.959 E7.12999
G1 X64.383 Y130.487 E7.15621
G1 X63.83 Y129.98 E7.1812
G1 X55.928 Y121.998 E7.55533
G1 X52.347 Y118.557 E7.72076
G1 X48.383 Y115.019 E7.89775
G1 X44.309 Y111.775 E8.07122
G1 X39.725 Y108.531 E8.25829
G1 X39.107 Y108.045 E8.28447
G1 X38.727 Y107.69 E8.3018
G1 X33.976 Y102.948 E8.52539
G1 X33.335 Y102.222 E8.55765
G1 X32.844 Y101.591 E8.58429
G1 X32.392 Y100.946 E8.61052
G1 X31.869 Y99.96 E8.6477
G1 X31.37 Y98.829 E8.68888
G1 X31.09 Y98.094 E8.71508
G1 X30.868 Y97.252 E8.74408
G1 X30.753 Y96.689 E8.76323
G1 X30.635 Y95.911 E8.78944
G1 X30.598 Y95.327 E8.80893
G1 X30.577 Y94.468 E8.83755
G1 X30.598 Y93.682 E8.86374
G1 X30.705 Y92.865 E8.89119
G1 X30.857 Y92.046 E8.91894
G1 X31.04 Y91.28 E8.94517
G1 X31.285 Y90.574 E8.97006
G1 X33.551 Y84.927 E9.17275
G1 X34.392 Y82.571 E9.25608
G1 X35.963 Y77.51 E9.43259
G1 X37.235 Y72.414 E9.60755
G1 X37.752 Y69.895 E9.69321
G1 X38.19 Y67.394 E9.77779
G1 X38.883 Y62.146 E9.95412
G1 X39.366 Y56.11 E10.15582
G1 X39.468 Y55.329 E10.18206
G1 X39.649 Y54.563 E10.20828
G1 X39.907 Y53.82 E10.23448
G1 X40.174 Y53.232 E10.25599
G1 X40.359 Y52.866 E10.26965
G1 X40.75 Y52.182 E10.29589
G1 X41.207 Y51.542 E10.32209
G1 X41.801 Y50.877 E10.35179
G0 F2625 X42.154 Y51.231
G1 F900 X64.459 Y28.969 E11.40152
G1 X65.026 Y28.46 E11.4269
G1 X65.642 Y28.013 E11.45225
G1 X66.302 Y27.634 E11.47761
G1 X66.999 Y27.326 E11.50299
G1 X67.985 Y27.028 E11.5373
G1 X84.066 Y23.4 E12.08643
G1 X84.817 Y23.271 E12.11181
G1 X85.577 Y23.223 E12.13718
G1 X86.337 Y23.254 E12.16251
G1 X87.091 Y23.364 E12.18789
G1 X87.828 Y23.553 E12.21324
G1 X88.542 Y23.818 E12.23861
G1 X89.223 Y24.157 E12.26395
G1 X89.866 Y24.565 E12.28931
G1 X90.462 Y25.039 E12.31468
G1 X90.814 Y25.371 E12.3308
G1 X98.723 Y33.361 E12.70529
G1 X102.313 Y36.81 E12.87112
G1 X106.289 Y40.359 E13.04865
G1 X110.396 Y43.629 E13.22352
G1 X114.986 Y46.877 E13.41082
G1 X115.583 Y47.349 E13.43617
G1 X115.92 Y47.664 E13.45154
G1 X120.667 Y52.403 E13.67497
G1 X121.295 Y53.118 E13.70667
G1 X121.838 Y53.825 E13.73636
G1 X122.269 Y54.452 E13.76171
G1 X122.757 Y55.398 E13.79717
G1 X123.208 Y56.456 E13.83548
G1 X123.47 Y57.171 E13.86084
G1 X123.642 Y57.848 E13.88411
G1 X123.757 Y58.411 E13.90325
G1 X123.87 Y59.164 E13.92861
G1 X123.902 Y59.685 E13.946
G1 X123.923 Y60.544 E13.97462
G1 X123.901 Y61.305 E13.99998
G1 X123.805 Y62.035 E14.02451
G1 X123.655 Y62.849 E14.05208
G1 X123.478 Y63.589 E14.07743
G1 X123.253 Y64.235 E14.10021
G1 X120.976 Y69.908 E14.30384
G1 X120.131 Y72.277 E14.38762
G1 X118.559 Y77.341 E14.56424
G1 X117.281 Y82.463 E14.74009
G1 X116.756 Y85.018 E14.82697
G1 X116.318 Y87.521 E14.91162
G1 X115.619 Y92.808 E15.08926
G1 X115.136 Y98.85 E15.29116
G1 X115.035 Y99.605 E15.31654
G1 X114.856 Y100.345 E15.3419
G1 X114.559 Y101.16 E15.37079
G1 X114.427 Y101.464 E15.38183
G1 X114.088 Y102.145 E15.40717
G1 X113.679 Y102.787 E15.43253
G1 X113.204 Y103.383 E15.45792
G1 X112.906 Y103.7 E15.47241
G1 X91.191 Y125.437 E16.49588
G1 X90.773 Y125.824 E16.51485
G1 X90.043 Y126.448 E16.54684
G1 X89.439 Y126.912 E16.57221
G1 X88.79 Y127.309 E16.59755
G1 X88.102 Y127.637 E16.62294
G1 X87.385 Y127.89 E16.64827
G1 X86.92 Y128.011 E16.66427
G1 X70.926 Y131.602 E17.2103
G1 X70.176 Y131.729 E17.23564
G1 X69.416 Y131.778 E17.26101
G1 X68.655 Y131.746 E17.28638
G1 X67.902 Y131.634 E17.31174
G1 X67.165 Y131.445 E17.33708
G1 X66.452 Y131.179 E17.36243
G1 X65.77 Y130.839 E17.38782
G1 X65.128 Y130.43 E17.41317
G1 X64.532 Y129.956 E17.43854
G1 X64.186 Y129.629 E17.4544
G1 X56.277 Y121.639 E17.82889
G1 X52.687 Y118.19 E17.99472
G1 X48.711 Y114.641 E18.17225
G1 X44.604 Y111.371 E18.34712
G1 X40.014 Y108.123 E18.53442
G1 X39.417 Y107.651 E18.55977
G1 X39.08 Y107.336 E18.57514
G1 X34.329 Y102.594 E18.79874
G1 X33.729 Y101.915 E18.82892
G1 X33.238 Y101.284 E18.85555
G1 X32.803 Y100.66 E18.88089
G1 X32.327 Y99.759 E18.91483
G1 X31.828 Y98.628 E18.95601
G1 X31.558 Y97.916 E18.98138
G1 X31.358 Y97.152 E19.00768
G1 X31.243 Y96.589 E19.02682
G1 X31.13 Y95.836 E19.05219
G1 X31.098 Y95.315 E19.06957
G1 X31.077 Y94.456 E19.0982
G1 X31.099 Y93.695 E19.12356
G1 X31.197 Y92.956 E19.14839
G1 X31.349 Y92.137 E19.17614
G1 X31.527 Y91.397 E19.20149
G1 X31.749 Y90.76 E19.22396
G1 X34.024 Y85.092 E19.4274
G1 X34.869 Y82.723 E19.51118
G1 X36.441 Y77.659 E19.68781
G1 X37.719 Y72.537 E19.86366
G1 X38.245 Y69.978 E19.95068
G1 X38.682 Y67.479 E20.03518
G1 X39.381 Y62.192 E20.21283
G1 X39.864 Y56.15 E20.41473
G1 X39.965 Y55.395 E20.44011
G1 X40.144 Y54.655 E20.46547
G1 X40.399 Y53.938 E20.49081
G1 X40.621 Y53.457 E20.50846
G1 X40.806 Y53.091 E20.52212
G1 X41.184 Y52.431 E20.54746
G1 X41.63 Y51.814 E20.57282
G1 X42.154 Y51.231 E20.59893
G1 F600 E19.59893
G0 F2625 X46.824 Y55.861
G0 X47.839 Y56.874
G0 X47.912 Y56.907
G0 X47.821 Y56.866
;TYPE:WALL-INNER
G1 F600 E20.59893
G1 F900 X69.931 Y34.762 E21.64034
G1 X85.426 Y31.283 E22.16934
G1 X88.319 Y34.178 E22.30567
G1 X86.45 Y36.048 E22.39374
G1 X93.191 Y42.788 E22.71127
G1 X95.061 Y40.922 E22.79927
G1 X98.178 Y44.038 E22.94608
G1 X98.354 Y44.214 E22.95437
G1 X98.178 Y44.39 E22.95972
G1 X66.556 Y76.012 E24.44937
G1 X66.376 Y76.224 E24.45863
G1 X66.244 Y76.432 E24.46684
G1 X55.244 Y99.092 E25.30588
G1 X54.994 Y99.558 E25.3235
G1 X54.717 Y99.991 E25.34062
G1 X54.404 Y100.405 E25.35791
G1 X54.06 Y100.798 E25.37531
G1 X53.838 Y101.024 E25.38586
G1 X53.477 Y101.352 E25.40211
G1 X53.101 Y101.649 E25.41807
G1 X52.892 Y101.797 E25.4266
G1 X52.705 Y101.918 E25.43402
G1 X52.291 Y102.164 E25.45006
G1 X51.875 Y102.372 E25.46555
G1 X51.421 Y102.563 E25.48196
G1 X50.963 Y102.717 E25.49805
G1 X50.503 Y102.842 E25.51393
G1 X50.027 Y102.935 E25.53009
G1 X49.522 Y102.997 E25.54704
G1 X49.001 Y103.025 E25.56442
G1 X48.491 Y103.013 E25.58141
G1 X47.952 Y102.961 E25.59945
G1 X47.654 Y102.914 E25.6095
G1 X47.177 Y102.814 E25.62573
G1 X46.717 Y102.679 E25.6417
G1 X46.263 Y102.515 E25.65778
G1 X46.002 Y102.405 E25.66721
G1 X45.396 Y102.099 E25.68983
G1 X44.991 Y101.85 E25.70566
G1 X44.644 Y101.609 E25.71974
G1 X40.045 Y97.01 E25.93639
G1 X39.896 Y96.853 E25.9436
G1 X39.733 Y96.649 E25.95229
G1 X39.587 Y96.44 E25.96079
G1 X39.472 Y96.244 E25.96836
G1 X39.331 Y95.962 E25.97886
G1 X39.253 Y95.764 E25.98595
G1 X39.187 Y95.558 E25.99315
G1 X39.137 Y95.366 E25.99976
G1 X39.086 Y95.091 E26.00908
G1 X39.062 Y94.857 E26.01691
G1 X39.053 Y94.603 E26.02538
G1 X39.059 Y94.409 E26.03184
G1 X39.09 Y94.117 E26.04163
G1 X39.128 Y93.901 E26.04893
G1 X39.186 Y93.674 E26.05674
G1 X39.292 Y93.36 E26.06777
G1 X39.373 Y93.176 E26.07447
G1 X39.463 Y92.998 E26.08112
G1 X39.577 Y92.804 E26.08861
G1 X39.739 Y92.568 E26.09815
G1 X39.872 Y92.404 E26.10518
G1 X40.058 Y92.205 E26.11425
G1 X45.327 Y86.93 E26.36261
G1 X45.519 Y86.683 E26.37303
G1 X45.675 Y86.401 E26.38376
G1 X45.779 Y86.122 E26.39368
G1 X45.832 Y85.896 E26.40141
G1 X45.851 Y85.766 E26.40579
G1 X47.821 Y56.866 E27.37069
G0 F2625 X47.912 Y56.907
G0 X50.243 Y57.295
G0 X50.343 Y57.295
G1 F900 X50.519 Y57.471 E27.37898
G1 X66.332 Y73.283 E28.12388
G1 X82.32 Y57.295 E28.87704
G1 X66.332 Y41.307 E29.6302
G1 X50.519 Y57.119 E30.3751
G1 X50.343 Y57.295 E30.38045
G0 F2625 X50.243 Y57.295
G0 X54.182 Y67.664
G0 X54.215 Y67.758
G1 F900 X53.804 Y67.924 E30.39521
G1 X53.39 Y68.13 E30.41061
G1 X52.995 Y68.371 E30.42603
G1 X52.62 Y68.64 E30.4414
G1 X52.268 Y68.941 E30.45683
G1 X51.942 Y69.268 E30.47221
G1 X51.644 Y69.62 E30.48757
G1 X51.374 Y69.994 E30.50294
G1 X51.135 Y70.392 E30.5184
G1 X50.94 Y70.79 E30.53316
G1 X50.766 Y71.217 E30.54852
G1 X50.629 Y71.659 E30.56394
G1 X50.528 Y72.108 E30.57927
G1 X50.463 Y72.567 E30.59471
G1 X50.437 Y73.029 E30.61012
G1 X50.447 Y73.49 E30.62548
G1 X50.494 Y73.951 E30.64092
G1 X50.579 Y74.406 E30.65634
G1 X50.7 Y74.851 E30.6717
G1 X50.849 Y75.266 E30.68639
G1 X51.037 Y75.688 E30.70178
G1 X51.261 Y76.094 E30.71722
G1 X51.517 Y76.481 E30.73268
G1 X51.803 Y76.842 E30.74802
G1 X52.115 Y77.181 E30.76337
G1 X52.456 Y77.495 E30.77881
G1 X52.819 Y77.778 E30.79414
G1 X53.206 Y78.033 E30.80958
G1 X53.612 Y78.254 E30.82497
G1 X54.018 Y78.435 E30.83978
G1 X54.453 Y78.591 E30.85518
G1 X54.897 Y78.709 E30.87048
G1 X55.352 Y78.794 E30.8859
G1 X55.813 Y78.839 E30.90133
G1 X56.274 Y78.847 E30.91668
G1 X56.737 Y78.819 E30.93214
G1 X57.195 Y78.752 E30.94755
G1 X57.645 Y78.649 E30.96293
G1 X58.085 Y78.51 E30.9783
G1 X58.495 Y78.344 E30.99304
G1 X58.908 Y78.138 E31.00841
G1 X59.304 Y77.899 E31.02382
G1 X59.679 Y77.628 E31.03923
G1 X60.031 Y77.328 E31.05463
G1 X60.357 Y77.001 E31.07002
G1 X60.655 Y76.649 E31.08538
G1 X60.925 Y76.274 E31.10077
G1 X61.163 Y75.877 E31.11619
G1 X61.359 Y75.48 E31.13094
G1 X61.533 Y75.051 E31.14636
G1 X61.67 Y74.609 E31.16177
G1 X61.771 Y74.161 E31.17707
G1 X61.836 Y73.703 E31.19248
G1 X61.863 Y73.242 E31.20786
G1 X61.853 Y72.778 E31.22332
G1 X61.805 Y72.318 E31.23873
G1 X61.721 Y71.863 E31.25414
G1 X61.599 Y71.418 E31.26951
G1 X61.451 Y71.002 E31.28422
G1 X61.262 Y70.581 E31.29959
G1 X61.038 Y70.174 E31.31506
G1 X60.783 Y69.789 E31.33045
G1 X60.488 Y69.414 E31.34634
G1 X60.192 Y69.092 E31.36091
G1 X59.871 Y68.797 E31.37543
G1 X59.494 Y68.501 E31.3914
G1 X59.109 Y68.246 E31.40678
G1 X58.704 Y68.022 E31.4222
G1 X58.283 Y67.833 E31.43757
G1 X57.847 Y67.677 E31.45299
G1 X57.402 Y67.559 E31.46833
G1 X56.947 Y67.474 E31.48375
G1 X56.486 Y67.429 E31.49918
G1 X56.025 Y67.421 E31.51453
G1 X55.562 Y67.449 E31.52999
G1 X55.103 Y67.516 E31.54544
G1 X54.654 Y67.62 E31.56079
G1 X54.215 Y67.758 E31.57612
G0 F2625 X54.182 Y67.664
G0 X52.973 Y68.338
G0 X51.913 Y69.241
G0 X51.1 Y70.373
G0 X50.591 Y71.649
G0 X50.424 Y72.564
G0 X50.171 Y89.922
G0 X50.151 Y90.019
G1 F900 X49.767 Y89.95 E31.58911
G1 X49.386 Y89.907 E31.60189
G1 X48.996 Y89.889 E31.61489
G1 X48.612 Y89.895 E31.62768
G1 X48.221 Y89.926 E31.64075
G1 X47.819 Y89.987 E31.65429
G1 X47.455 Y90.065 E31.66669
G1 X47.09 Y90.164 E31.67929
G1 X46.701 Y90.303 E31.69305
G1 X46.345 Y90.455 E31.70594
G1 X46.016 Y90.621 E31.71822
G1 X45.678 Y90.818 E31.73125
G1 X45.351 Y91.04 E31.74442
G1 X45.039 Y91.282 E31.75757
G1 X44.748 Y91.541 E31.77055
G1 X44.49 Y91.798 E31.78268
G1 X44.231 Y92.094 E31.79578
G1 X43.991 Y92.404 E31.80884
G1 X43.773 Y92.728 E31.82185
G1 X43.578 Y93.065 E31.83481
G1 X43.404 Y93.412 E31.84775
G1 X43.256 Y93.764 E31.86046
G1 X43.13 Y94.124 E31.87317
G1 X43.028 Y94.487 E31.88573
G1 X42.946 Y94.876 E31.89897
G1 X42.889 Y95.263 E31.912
G1 X42.858 Y95.653 E31.92503
G1 X42.852 Y96.035 E31.93776
G1 X42.871 Y96.426 E31.9508
G1 X42.915 Y96.813 E31.96377
G1 X42.982 Y97.191 E31.97656
G1 X43.075 Y97.573 E31.98966
G1 X43.191 Y97.937 E32.00238
G1 X43.332 Y98.301 E32.01539
G1 X43.496 Y98.655 E32.02838
G1 X43.678 Y98.992 E32.04114
G1 X43.887 Y99.324 E32.05421
G1 X44.111 Y99.634 E32.06695
G1 X44.359 Y99.934 E32.07991
G1 X44.626 Y100.219 E32.09292
G1 X44.907 Y100.483 E32.10577
G1 X45.209 Y100.732 E32.1188
G1 X45.526 Y100.959 E32.13179
G1 X45.85 Y101.163 E32.14455
G1 X46.194 Y101.349 E32.15757
G1 X46.54 Y101.51 E32.17028
G1 X46.907 Y101.65 E32.18337
