; generated by Slic3r 0.9.9 on 2014-04-09 at 08:23:55

; layer_height = 0.25
; perimeters = 2
; top_solid_layers = 3
; bottom_solid_layers = 3
; fill_density = 0.5
; perimeter_speed = 100
; infill_speed = 115
; travel_speed = 180
; nozzle_diameter = 0.35
; filament_diameter = 2.89
; extrusion_multiplier = 1
; perimeters extrusion width = 0.33mm
; infill extrusion width = 0.50mm
; solid infill extrusion width = 0.38mm
; top infill extrusion width = 0.22mm
; first layer extrusion width = 0.50mm

G21 ; set units to millimeters
M107
G28 ; home all axes
M203 X192 Y208 Z3 ; Speed limits to minimize skipped steps when moving really fast courtesy of forum.lulzbot.com user 1013
G90 ; use absolute coordinates
G92 E0
M82 ; use absolute distances for extrusion
G1 F1500.000 E-2.00000
G92 E0
G1 Z0.250 F10800.000
G1 X118.980 Y58.600
G1 F1500.000 E2.00000
G1 X119.380 Y57.800 F3000.000 E2.01595
G1 X119.870 Y57.050 E2.03192
G1 X120.340 Y56.430 E2.04579
G1 X120.970 Y55.720 E2.06271
G1 X121.680 Y55.090 E2.07964
G1 X122.300 Y54.620 E2.09351
G1 X123.050 Y54.130 E2.10948
G1 X123.850 Y53.730 E2.12543
G1 X124.580 Y53.430 E2.13950
G1 X125.440 Y53.150 E2.15562
G1 X126.330 Y52.970 E2.17181
G1 X127.100 Y52.870 E2.18566
G1 X127.990 Y52.810 E2.20156
G1 X169.990 Y52.810 E2.95037
G1 X170.870 Y52.870 E2.96610
G1 X171.650 Y52.970 E2.98012
G1 X172.560 Y53.150 E2.99666
G1 X173.440 Y53.450 E3.01323
G1 X174.160 Y53.750 E3.02714
G1 X174.920 Y54.120 E3.04221
G1 X175.640 Y54.590 E3.05754
G1 X176.270 Y55.060 E3.07155
G1 X177.010 Y55.700 E3.08900
G1 X177.650 Y56.430 E3.10630
G1 X178.120 Y57.050 E3.12018
G1 X178.610 Y57.800 E3.13615
G1 X179.000 Y58.600 E3.15202
G1 X179.280 Y59.280 E3.16513
G1 X179.550 Y60.040 E3.17951
G1 X179.720 Y60.830 E3.19391
G1 X179.850 Y61.650 E3.20872
G1 X179.940 Y62.740 E3.22822
G1 X179.940 Y213.240 E5.91146
G1 X179.870 Y214.210 E5.92880
G1 X179.760 Y214.990 E5.94284
G1 X179.580 Y215.850 E5.95851
G1 X179.290 Y216.690 E5.97435
G1 X178.990 Y217.410 E5.98826
G1 X178.620 Y218.170 E6.00333
G1 X178.150 Y218.890 E6.01866
G1 X177.680 Y219.520 E6.03267
G1 X177.020 Y220.270 E6.05048
G1 X176.270 Y220.930 E6.06830
G1 X175.640 Y221.400 E6.08231
G1 X174.920 Y221.870 E6.09764
G1 X174.160 Y222.240 E6.11271
G1 X173.440 Y222.540 E6.12662
G1 X172.600 Y222.830 E6.14246
G1 X171.740 Y223.010 E6.15812
G1 X170.960 Y223.120 E6.17217
G1 X169.990 Y223.190 E6.18951
G1 X127.990 Y223.190 E6.93832
G1 X127.010 Y223.120 E6.95584
G1 X126.240 Y223.010 E6.96970
G1 X125.400 Y222.830 E6.98502
G1 X124.580 Y222.560 E7.00041
G1 X123.850 Y222.260 E7.01448
G1 X123.050 Y221.860 E7.03043
G1 X122.300 Y221.370 E7.04640
G1 X121.680 Y220.900 E7.06027
G1 X120.950 Y220.260 E7.07758
G1 X120.310 Y219.520 E7.09503
G1 X119.840 Y218.890 E7.10904
G1 X119.370 Y218.170 E7.12437
G1 X119.000 Y217.410 E7.13944
G1 X118.700 Y216.690 E7.15335
G1 X118.400 Y215.810 E7.16992
G1 X118.220 Y214.900 E7.18646
G1 X118.120 Y214.120 E7.20048
G1 X118.060 Y213.240 E7.21621
G1 X118.060 Y62.740 E9.89945
G1 X118.120 Y61.850 E9.91535
G1 X118.220 Y61.080 E9.92920
G1 X118.400 Y60.190 E9.94539
G1 X118.680 Y59.330 E9.96151
G1 X118.953 Y58.665 E9.97433
G1 X119.420 Y58.780 F10800.000
G1 X119.780 Y58.030 F3000.000 E9.98916
G1 X120.250 Y57.330 E10.00420
G1 X120.720 Y56.710 E10.01807
G1 X121.300 Y56.050 E10.03373
G1 X121.960 Y55.470 E10.04940
G1 X122.580 Y55.000 E10.06327
G1 X123.280 Y54.530 E10.07830
G1 X124.030 Y54.170 E10.09313
G1 X124.760 Y53.870 E10.10721
G1 X125.560 Y53.600 E10.12226
G1 X126.390 Y53.440 E10.13733
G1 X127.160 Y53.340 E10.15117
G1 X127.990 Y53.280 E10.16601
G1 X169.990 Y53.280 E10.91482
G1 X170.810 Y53.330 E10.92947
G1 X171.590 Y53.430 E10.94349
G1 X172.440 Y53.600 E10.95894
G1 X173.260 Y53.880 E10.97439
G1 X173.980 Y54.180 E10.98830
G1 X174.690 Y54.530 E11.00241
G1 X175.360 Y54.970 E11.01670
G1 X175.990 Y55.440 E11.03072
G1 X176.680 Y56.030 E11.04690
G1 X177.270 Y56.710 E11.06295
G1 X177.740 Y57.330 E11.07682
G1 X178.200 Y58.030 E11.09176
G1 X178.570 Y58.780 E11.10667
G1 X178.850 Y59.460 E11.11978
G1 X179.100 Y60.170 E11.13320
G1 X179.260 Y60.910 E11.14670
G1 X179.390 Y61.730 E11.16150
G1 X179.470 Y62.740 E11.17956
G1 X179.470 Y213.240 E13.86281
G1 X179.400 Y214.140 E13.87890
G1 X179.290 Y214.920 E13.89295
G1 X179.130 Y215.730 E13.90767
G1 X178.860 Y216.510 E13.92238
G1 X178.560 Y217.230 E13.93629
G1 X178.210 Y217.940 E13.95040
G1 X177.770 Y218.610 E13.96469
G1 X177.300 Y219.240 E13.97871
G1 X176.690 Y219.940 E13.99526
G1 X175.990 Y220.550 E14.01181
G1 X175.360 Y221.020 E14.02583
G1 X174.690 Y221.460 E14.04012
G1 X173.980 Y221.810 E14.05423
G1 X173.260 Y222.110 E14.06814
G1 X172.480 Y222.380 E14.08285
G1 X171.670 Y222.540 E14.09758
G1 X170.890 Y222.650 E14.11162
G1 X169.990 Y222.720 E14.12771
G1 X127.990 Y222.720 E14.87653
G1 X127.080 Y222.650 E14.89280
G1 X126.310 Y222.540 E14.90667
G1 X125.520 Y222.380 E14.92104
G1 X124.760 Y222.120 E14.93536
G1 X124.030 Y221.820 E14.94943
G1 X123.280 Y221.460 E14.96426
G1 X122.580 Y220.990 E14.97929
G1 X121.960 Y220.520 E14.99316
G1 X121.280 Y219.930 E15.00922
G1 X120.690 Y219.240 E15.02540
G1 X120.220 Y218.610 E15.03941
G1 X119.780 Y217.940 E15.05371
G1 X119.430 Y217.230 E15.06782
G1 X119.130 Y216.510 E15.08173
G1 X118.850 Y215.690 E15.09717
G1 X118.680 Y214.840 E15.11263
G1 X118.580 Y214.060 E15.12665
G1 X118.530 Y213.240 E15.14130
G1 X118.530 Y62.740 E17.82454
G1 X118.590 Y61.910 E17.83938
G1 X118.690 Y61.140 E17.85322
G1 X118.850 Y60.310 E17.86829
G1 X119.120 Y59.510 E17.88334
G1 X119.393 Y58.845 E17.89616
G1 F1500.000 E15.89616
G92 E0
G1 X154.124 Y68.010 F10800.000
G1 F1500.000 E2.00000
G1 X154.367 Y67.062 F1800.000 E2.01746
G1 X154.839 Y66.203 E2.03492
G1 X155.509 Y65.489 E2.05239
G1 X156.336 Y64.965 E2.06985
G1 X157.136 Y64.705 E2.08484
G1 X157.268 Y64.662 E2.08731
G1 X158.245 Y64.600 E2.10477
G1 X159.207 Y64.784 E2.12223
G1 X160.094 Y65.201 E2.13970
G1 X160.848 Y65.825 E2.15716
G1 X161.424 Y66.618 E2.17462
G1 X161.785 Y67.528 E2.19208
G1 X161.907 Y68.500 E2.20954
G1 X161.785 Y69.472 E2.22701
G1 X161.424 Y70.382 E2.24447
G1 X160.848 Y71.175 E2.26193
G1 X160.094 Y71.799 E2.27939
G1 X159.207 Y72.216 E2.29686
G1 X158.245 Y72.400 E2.31432
G1 X157.268 Y72.338 E2.33178
G1 X156.336 Y72.035 E2.34924
G1 X155.509 Y71.511 E2.36670
G1 X154.839 Y70.797 E2.38417
G1 X154.367 Y69.938 E2.40163
G1 X154.124 Y68.990 E2.41909
G1 X154.124 Y68.080 E2.43530
G1 X154.591 Y68.069 F10800.000
G1 X154.806 Y67.235 F1800.000 E2.45066
G1 X155.220 Y66.481 E2.46601
G1 X155.810 Y65.853 E2.48136
G1 X156.537 Y65.391 E2.49672
G1 X157.280 Y65.150 E2.51065
G1 X157.356 Y65.125 E2.51207
G1 X158.216 Y65.071 E2.52743
G1 X159.062 Y65.232 E2.54278
G1 X159.841 Y65.599 E2.55814
G1 X160.505 Y66.148 E2.57349
G1 X161.011 Y66.845 E2.58885
G1 X161.328 Y67.646 E2.60420
G1 X161.436 Y68.500 E2.61956
G1 X161.328 Y69.354 E2.63491
G1 X161.011 Y70.155 E2.65027
G1 X160.505 Y70.852 E2.66562
G1 X159.841 Y71.401 E2.68098
G1 X159.062 Y71.768 E2.69633
G1 X158.216 Y71.929 E2.71169
G1 X157.356 Y71.875 E2.72704
G1 X156.537 Y71.609 E2.74240
G1 X155.810 Y71.147 E2.75775
G1 X155.220 Y70.519 E2.77311
G1 X154.806 Y69.765 E2.78846
G1 X154.591 Y68.931 E2.80382
G1 X154.591 Y68.140 E2.81792
G1 X154.231 Y67.771 F10800.000
G1 X158.245 Y203.600
G1 X159.207 Y203.784 F1800.000 E2.83538
G1 X160.094 Y204.201 E2.85284
G1 X160.848 Y204.825 E2.87030
G1 X161.424 Y205.618 E2.88777
G1 X161.785 Y206.528 E2.90523
G1 X161.907 Y207.500 E2.92269
G1 X161.785 Y208.472 E2.94015
G1 X161.424 Y209.382 E2.95762
G1 X160.848 Y210.175 E2.97508
G1 X160.094 Y210.799 E2.99254
G1 X159.207 Y211.216 E3.01000
G1 X158.245 Y211.400 E3.02746
G1 X157.268 Y211.338 E3.04493
G1 X156.336 Y211.035 E3.06239
G1 X155.509 Y210.511 E3.07985
G1 X154.839 Y209.797 E3.09731
G1 X154.367 Y208.938 E3.11477
G1 X154.124 Y207.990 E3.13224
G1 X154.124 Y207.010 E3.14970
G1 X154.367 Y206.062 E3.16716
G1 X154.839 Y205.203 E3.18462
G1 X155.509 Y204.489 E3.20208
G1 X156.336 Y203.965 E3.21955
G1 X157.268 Y203.662 E3.23701
G1 X158.175 Y203.605 E3.25322
G1 X158.216 Y204.071 F10800.000
G1 X159.062 Y204.232 F1800.000 E3.26857
G1 X159.841 Y204.599 E3.28393
G1 X160.505 Y205.148 E3.29928
G1 X161.011 Y205.845 E3.31464
G1 X161.328 Y206.646 E3.32999
G1 X161.436 Y207.500 E3.34535
G1 X161.328 Y208.354 E3.36070
G1 X161.011 Y209.155 E3.37606
G1 X160.505 Y209.852 E3.39141
G1 X159.841 Y210.401 E3.40677
G1 X159.062 Y210.768 E3.42212
G1 X158.216 Y210.929 E3.43748
G1 X157.356 Y210.875 E3.45283
G1 X156.537 Y210.609 E3.46819
G1 X155.810 Y210.147 E3.48354
G1 X155.220 Y209.519 E3.49890
G1 X154.806 Y208.765 E3.51425
G1 X154.591 Y207.931 E3.52960
G1 X154.591 Y207.069 E3.54496
G1 X154.806 Y206.235 E3.56031
G1 X155.220 Y205.481 E3.57567
G1 X155.810 Y204.853 E3.59102
G1 X156.537 Y204.391 E3.60638
G1 X157.356 Y204.125 E3.62173
G1 X158.146 Y204.075 E3.63584
G1 X158.491 Y203.693 F10800.000
G1 X158.169 Y203.791
G1 X155.617 Y204.620
G1 X154.292 Y207.032
G1 X152.500 Y213.151
G1 X152.702 Y213.204
G1 X152.702 Y62.796 F3000.000 E6.31744
G1 X152.786 Y62.157 E6.32894
G1 X153.015 Y61.604 E6.33961
G1 X153.379 Y61.129 E6.35027
G1 X153.854 Y60.765 E6.36094
G1 X154.407 Y60.536 E6.37161
G1 X155.046 Y60.452 E6.38311
G1 X169.954 Y60.452 E6.64890
G1 X170.593 Y60.536 E6.66040
G1 X171.146 Y60.765 E6.67106
G1 X171.621 Y61.129 E6.68173
G1 X171.985 Y61.604 E6.69240
G1 X172.214 Y62.157 E6.70307
G1 X172.298 Y62.796 E6.71457
G1 X172.298 Y213.204 E9.39617
G1 X172.214 Y213.843 E9.40767
G1 X171.985 Y214.396 E9.41834
G1 X171.621 Y214.871 E9.42900
G1 X171.146 Y215.235 E9.43967
G1 X170.593 Y215.464 E9.45034
G1 X169.954 Y215.548 E9.46184
G1 X155.046 Y215.548 E9.72763
G1 X154.407 Y215.464 E9.73913
G1 X153.854 Y215.235 E9.74979
G1 X153.379 Y214.871 E9.76046
G1 X153.015 Y214.396 E9.77113
G1 X152.786 Y213.843 E9.78180
G1 X152.711 Y213.274 E9.79204
G1 X152.234 Y213.235 F10800.000
G1 X152.234 Y62.765 F2400.000 E12.47474
G1 X152.330 Y62.035 E12.48788
G1 X152.606 Y61.368 E12.50075
G1 X153.046 Y60.795 E12.51361
G1 X153.618 Y60.356 E12.52648
G1 X154.285 Y60.080 E12.53934
G1 X155.015 Y59.984 E12.55248
G1 X169.985 Y59.984 E12.81937
G1 X170.715 Y60.080 E12.83251
G1 X171.382 Y60.356 E12.84537
G1 X171.954 Y60.795 E12.85824
G1 X172.394 Y61.368 E12.87110
G1 X172.670 Y62.035 E12.88397
G1 X172.766 Y62.765 E12.89711
G1 X172.766 Y213.235 E15.57981
G1 X172.670 Y213.965 E15.59295
G1 X172.394 Y214.632 E15.60581
G1 X171.954 Y215.205 E15.61868
G1 X171.382 Y215.644 E15.63154
G1 X170.715 Y215.920 E15.64441
G1 X169.985 Y216.016 E15.65755
G1 X155.015 Y216.016 E15.92443
G1 X154.285 Y215.920 E15.93757
G1 X153.618 Y215.644 E15.95044
G1 X153.046 Y215.205 E15.96330
G1 X152.606 Y214.632 E15.97617
G1 X152.330 Y213.965 E15.98903
G1 X152.243 Y213.304 E16.00092
G1 X152.628 Y212.983 F10800.000
G1 X153.041 Y211.466
G1 X156.563 Y211.466 F3000.000 E16.06374
G1 X155.644 Y210.998 E16.08213
G1 X153.041 Y210.998 E16.12856
G1 X153.041 Y210.530 E16.13691
G1 X155.062 Y210.530 E16.17296
G1 X154.623 Y210.062 E16.18440
G1 X153.041 Y210.062 E16.21262
G1 X153.041 Y209.594 E16.22096
G1 X154.341 Y209.594 E16.24414
G1 X154.083 Y209.126 E16.25366
G1 X153.041 Y209.126 E16.27226
G1 X153.041 Y208.658 E16.28060
G1 X153.945 Y208.658 E16.29673
G1 X153.825 Y208.190 E16.30534
G1 X153.041 Y208.190 E16.31932
G1 X153.041 Y207.722 E16.32767
G1 X153.784 Y207.722 E16.34093
G1 X153.784 Y207.254 E16.34928
G1 X153.041 Y207.254 E16.36254
G1 X153.041 Y206.786 E16.37088
G1 X153.831 Y206.786 E16.38497
G1 X153.951 Y206.318 E16.39359
G1 X153.041 Y206.318 E16.40982
G1 X153.041 Y205.850 E16.41817
G1 X154.096 Y205.850 E16.43699
G1 X154.354 Y205.383 E16.44651
G1 X153.041 Y205.383 E16.46992
G1 X153.041 Y204.915 E16.47827
G1 X154.645 Y204.915 E16.50688
G1 X155.084 Y204.447 E16.51832
G1 X153.041 Y204.447 E16.55477
G1 X153.041 Y203.979 E16.56311
G1 X155.681 Y203.979 E16.61020
G1 X156.636 Y203.511 E16.62916
G1 X153.041 Y203.511 E16.69327
G1 X153.041 Y203.043 E16.70162
G1 X171.959 Y203.043 E17.03900
G1 X171.959 Y203.511 E17.04734
G1 X159.423 Y203.511 E17.27091
G1 X160.357 Y203.979 E17.28953
G1 X171.959 Y203.979 E17.49644
G1 X171.959 Y204.447 E17.50479
G1 X160.922 Y204.447 E17.70161
G1 X161.332 Y204.915 E17.71270
G1 X171.959 Y204.915 E17.90222
G1 X171.959 Y205.383 E17.91056
G1 X161.672 Y205.383 E18.09402
G1 X161.881 Y205.850 E18.10315
G1 X171.959 Y205.850 E18.28289
G1 X171.959 Y206.318 E18.29123
G1 X162.066 Y206.318 E18.46766
G1 X162.159 Y206.786 E18.47617
G1 X171.959 Y206.786 E18.65094
G1 X171.959 Y207.254 E18.65929
G1 X162.218 Y207.254 E18.83301
G1 X162.221 Y207.722 E18.84135
G1 X171.959 Y207.722 E19.01502
G1 X171.959 Y208.190 E19.02337
G1 X162.162 Y208.190 E19.19809
G1 X162.075 Y208.658 E19.20657
G1 X171.959 Y208.658 E19.38284
G1 X171.959 Y209.126 E19.39118
G1 X161.890 Y209.126 E19.57075
G1 X161.689 Y209.594 E19.57983
G1 X171.959 Y209.594 E19.76298
G1 X171.959 Y210.062 E19.77132
G1 X161.349 Y210.062 E19.96053
G1 X160.951 Y210.530 E19.97149
G1 X171.959 Y210.530 E20.16781
G1 X171.959 Y210.998 E20.17615
G1 X160.385 Y210.998 E20.38256
G1 X159.473 Y211.466 E20.40084
G1 X171.959 Y211.466 E20.62351
G1 X171.959 Y211.934 E20.63185
G1 X153.041 Y211.934 E20.96923
G1 X153.041 Y212.402 E20.97758
G1 X171.959 Y212.402 E21.31496
G1 X171.959 Y212.869 E21.32331
G1 X153.041 Y212.869 E21.66069
G1 X153.061 Y213.337 E21.66904
G1 X171.939 Y213.337 E22.00570
G1 X171.863 Y213.805 E22.01415
G1 X153.137 Y213.805 E22.34810
G1 X153.348 Y214.273 E22.35725
G1 X171.652 Y214.273 E22.68368
G1 X171.233 Y214.741 E22.69488
G1 X153.767 Y214.741 E23.00636
G1 X155.067 Y215.209 E23.03100
G1 X169.933 Y215.209 E23.29610
G1 X169.902 Y215.749 F10800.000
G1 X161.275 Y205.696
G1 X159.157 Y203.980
G1 X158.169 Y203.791
G1 X155.617 Y204.620
G1 X153.041 Y202.575
G1 X171.959 Y202.575 F3000.000 E23.63349
G1 X171.959 Y202.107 E23.64183
G1 X153.041 Y202.107 E23.97921
G1 X153.041 Y201.639 E23.98756
G1 X171.959 Y201.639 E24.32494
G1 X171.959 Y201.171 E24.33328
G1 X153.041 Y201.171 E24.67067
G1 X153.041 Y200.703 E24.67901
G1 X171.959 Y200.703 E25.01639
G1 X171.959 Y200.235 E25.02474
G1 X153.041 Y200.235 E25.36212
G1 X153.041 Y199.767 E25.37046
G1 X171.959 Y199.767 E25.70785
G1 X171.959 Y199.299 E25.71619
G1 X153.041 Y199.299 E26.05357
G1 X153.041 Y198.831 E26.06192
G1 X171.959 Y198.831 E26.39930
G1 X171.959 Y198.363 E26.40765
G1 X153.041 Y198.363 E26.74503
G1 X153.041 Y197.896 E26.75337
G1 X171.959 Y197.896 E27.09075
G1 X171.959 Y197.428 E27.09910
G1 X153.041 Y197.428 E27.43648
G1 X153.041 Y196.960 E27.44483
G1 X171.959 Y196.960 E27.78221
G1 X171.959 Y196.492 E27.79055
G1 X153.041 Y196.492 E28.12793
G1 X153.041 Y196.024 E28.13628
G1 X171.959 Y196.024 E28.47366
G1 X171.959 Y195.556 E28.48201
G1 X153.041 Y195.556 E28.81939
G1 X153.041 Y195.088 E28.82773
G1 X171.959 Y195.088 E29.16511
G1 X171.959 Y194.620 E29.17346
G1 X153.041 Y194.620 E29.51084
G1 X153.041 Y194.152 E29.51919
G1 X171.959 Y194.152 E29.85657
G1 X171.959 Y193.684 E29.86491
G1 X153.041 Y193.684 E30.20230
G1 X153.041 Y193.216 E30.21064
G1 X171.959 Y193.216 E30.54802
G1 X171.959 Y192.748 E30.55637
G1 X153.041 Y192.748 E30.89375
G1 X153.041 Y192.280 E30.90209
G1 X171.959 Y192.280 E31.23948
G1 X171.959 Y191.812 E31.24782
G1 X153.041 Y191.812 E31.58520
G1 X153.041 Y191.344 E31.59355
G1 X171.959 Y191.344 E31.93093
G1 X171.959 Y190.877 E31.93927
G1 X153.041 Y190.877 E32.27666
G1 X153.041 Y190.409 E32.28500
G1 X171.959 Y190.409 E32.62238
G1 X171.959 Y189.941 E32.63073
G1 X153.041 Y189.941 E32.96811
G1 X153.041 Y189.473 E32.97646
G1 X171.959 Y189.473 E33.31384
G1 X171.959 Y189.005 E33.32218
G1 X153.041 Y189.005 E33.65956
G1 X153.041 Y188.537 E33.66791
G1 X171.959 Y188.537 E34.00529
G1 X171.959 Y188.069 E34.01364
G1 X153.041 Y188.069 E34.35102
G1 X153.041 Y187.601 E34.35936
G1 X171.959 Y187.601 E34.69674
G1 X171.959 Y187.133 E34.70509
G1 X153.041 Y187.133 E35.04247
G1 X153.041 Y186.665 E35.05082
G1 X171.959 Y186.665 E35.38820
G1 X171.959 Y186.197 E35.39654
G1 X153.041 Y186.197 E35.73393
G1 X153.041 Y185.729 E35.74227
G1 X171.959 Y185.729 E36.07965
G1 X171.959 Y185.261 E36.08800
G1 X153.041 Y185.261 E36.42538
G1 X153.041 Y184.793 E36.43372
G1 X171.959 Y184.793 E36.77111
G1 X171.959 Y184.325 E36.77945
G1 X153.041 Y184.325 E37.11683
