; generated by Slic3r 1.1.4 on 2014-07-17 at 18:04:55

; perimeters extrusion width = 0.43mm
; infill extrusion width = 0.49mm
; solid infill extrusion width = 0.43mm
; top infill extrusion width = 0.42mm

G21 ; set units to millimeters
G28 ; home all axes
G90 ; use absolute coordinates
G92 E0
M82 ; use absolute distances for extrusion
G1 F1500.000 E-1.20000
G92 E0
G1 Z0.385 F9600.000
G1 X7.103 Y2.513 F9600.000
G1 E1.20000 F1500.000
G1 X7.403 Y1.789 E1.22299 F2340.000
G1 X8.317 Y0.207 E1.27661
G1 X8.793 Y-0.414 E1.29959
G1 X10.086 Y-1.707 E1.35322
G1 X10.707 Y-2.183 E1.37620
G1 X12.289 Y-3.097 E1.42982
G1 X13.013 Y-3.397 E1.45281
G1 X14.778 Y-3.870 E1.50643
G1 X16.450 Y-4.032 E1.55574
G1 X178.226 Y-4.446 E6.30317
G1 X275.139 Y-4.386 E9.14717
G1 X275.916 Y-4.284 E9.17016
G1 X277.681 Y-3.811 E9.22378
G1 X278.335 Y-3.540 E9.24456
G1 X279.987 Y-2.597 E9.30037
G1 X280.609 Y-2.121 E9.32336
G1 X281.901 Y-0.829 E9.37698
G1 X282.377 Y-0.207 E9.39996
G1 X283.291 Y1.375 E9.45359
G1 X283.591 Y2.099 E9.47657
G1 X284.064 Y3.864 E9.53020
G1 X284.156 Y4.566 E9.55097
G1 X284.226 Y5.550 E9.57994
G1 X284.312 Y170.446 E14.41892
G1 X284.252 Y267.360 E17.26292
G1 X284.149 Y268.136 E17.28590
G1 X283.677 Y269.901 E17.33953
G1 X283.377 Y270.625 E17.36251
G1 X282.463 Y272.207 E17.41614
G1 X282.032 Y272.769 E17.43691
G1 X280.694 Y274.121 E17.49273
G1 X280.073 Y274.598 E17.51571
G1 X278.490 Y275.511 E17.56934
G1 X277.767 Y275.811 E17.59232
G1 X276.002 Y276.284 E17.64595
G1 X274.312 Y276.446 E17.69577
G1 X123.782 Y276.446 E22.11316
G1 X14.775 Y275.935 E25.31211
G1 X13.998 Y275.832 E25.33509
G1 X12.233 Y275.359 E25.38871
G1 X11.510 Y275.060 E25.41170
G1 X9.927 Y274.146 E25.46532
G1 X9.306 Y273.669 E25.48831
G1 X8.014 Y272.377 E25.54193
G1 X7.537 Y271.756 E25.56491
G1 X6.623 Y270.173 E25.61854
G1 X6.324 Y269.450 E25.64152
G1 X5.851 Y267.685 E25.69515
G1 X5.688 Y265.994 E25.74497
G1 X5.689 Y115.445 E30.16297
G1 X6.528 Y5.055 E33.40254
G1 X6.630 Y4.278 E33.42552
G1 X7.084 Y2.586 E33.47694
G1 X7.565 Y2.704 F9600.000
G1 X7.865 Y1.981 E33.49993 F2340.000
G1 X8.713 Y0.511 E33.54972
G1 X9.190 Y-0.110 E33.57271
G1 X10.390 Y-1.310 E33.62250
G1 X11.011 Y-1.787 E33.64548
G1 X12.481 Y-2.635 E33.69528
G1 X13.204 Y-2.935 E33.71826
G1 X14.843 Y-3.374 E33.76806
G1 X16.452 Y-3.532 E33.81548
G1 X178.226 Y-3.946 E38.56287
G1 X275.074 Y-3.890 E41.40496
G1 X275.851 Y-3.788 E41.42795
G1 X277.490 Y-3.349 E41.47774
G1 X278.144 Y-3.078 E41.49851
G1 X279.683 Y-2.201 E41.55050
G1 X280.304 Y-1.724 E41.57349
G1 X281.504 Y-0.524 E41.62328
G1 X281.981 Y0.097 E41.64626
G1 X282.829 Y1.567 E41.69606
G1 X283.129 Y2.290 E41.71904
G1 X283.568 Y3.929 E41.76883
G1 X283.660 Y4.631 E41.78960
G1 X283.726 Y5.551 E41.81666
G1 X283.812 Y170.446 E46.65564
G1 X283.756 Y267.294 E49.49772
G1 X283.654 Y268.071 E49.52071
G1 X283.215 Y269.710 E49.57050
G1 X282.915 Y270.433 E49.59348
G1 X282.066 Y271.903 E49.64328
G1 X281.635 Y272.464 E49.66405
G1 X280.390 Y273.724 E49.71604
G1 X279.768 Y274.201 E49.73903
G1 X278.299 Y275.049 E49.78882
G1 X277.575 Y275.349 E49.81180
G1 X275.936 Y275.788 E49.86160
G1 X274.312 Y275.946 E49.90950
G1 X123.784 Y275.946 E54.32683
G1 X14.840 Y275.439 E57.52392
G1 X14.063 Y275.337 E57.54691
G1 X12.425 Y274.897 E57.59670
G1 X11.701 Y274.598 E57.61968
G1 X10.231 Y273.749 E57.66948
G1 X9.610 Y273.273 E57.69246
G1 X8.410 Y272.073 E57.74225
G1 X7.934 Y271.451 E57.76524
G1 X7.085 Y269.982 E57.81503
G1 X6.785 Y269.258 E57.83801
G1 X6.346 Y267.619 E57.88781
G1 X6.188 Y265.994 E57.93572
G1 X6.189 Y115.448 E62.35361
G1 X7.024 Y5.120 E65.59137
G1 X7.126 Y4.343 E65.61435
G1 X7.546 Y2.777 E65.66194
G1 F1500.000 E64.46194
G92 E0
G1 X265.692 Y13.210 F9600.000
G1 E1.20000 F1500.000
M204 S1500
G1 X265.110 Y14.012 E1.22910 F3705.000
G1 X264.478 Y14.535 E1.25315
G1 X264.345 Y14.644 E1.25820
G1 X263.448 Y15.066 E1.28730
G1 X262.474 Y15.252 E1.31640
G1 X261.484 Y15.190 E1.34550
G1 X260.541 Y14.884 E1.37460
G1 X259.704 Y14.352 E1.40370
G1 X259.025 Y13.629 E1.43280
G1 X258.548 Y12.760 E1.46190
G1 X258.301 Y11.800 E1.49100
G1 X258.301 Y10.808 E1.52010
G1 X258.548 Y9.848 E1.54920
G1 X259.025 Y8.979 E1.57830
G1 X259.704 Y8.256 E1.60740
G1 X260.541 Y7.725 E1.63650
G1 X261.484 Y7.418 E1.66560
G1 X262.474 Y7.356 E1.69470
G1 X263.448 Y7.542 E1.72380
G1 X264.345 Y7.964 E1.75290
G1 X264.977 Y8.486 E1.77695
G1 X265.110 Y8.596 E1.78200
G1 X265.692 Y9.398 E1.81110
G1 X266.057 Y10.320 E1.84020
G1 X266.182 Y11.304 E1.86930
G1 X266.057 Y12.288 E1.89840
G1 X265.720 Y13.140 E1.92530
M204 S1500
G1 X265.251 Y12.967 F9600.000
M204 S1500
G1 X264.742 Y13.667 E1.95069 F2340.000
G1 X264.159 Y14.149 E1.97289
G1 X264.075 Y14.219 E1.97609
G1 X263.292 Y14.587 E2.00148
G1 X262.442 Y14.749 E2.02687
G1 X261.579 Y14.695 E2.05226
G1 X260.756 Y14.428 E2.07766
G1 X260.025 Y13.964 E2.10305
G1 X259.433 Y13.333 E2.12844
G1 X259.016 Y12.575 E2.15383
G1 X258.801 Y11.737 E2.17923
G1 X258.801 Y10.871 E2.20462
G1 X259.016 Y10.033 E2.23001
G1 X259.433 Y9.275 E2.25541
G1 X260.025 Y8.644 E2.28080
G1 X260.756 Y8.181 E2.30619
G1 X261.579 Y7.913 E2.33158
G1 X262.442 Y7.859 E2.35698
G1 X263.292 Y8.021 E2.38237
G1 X264.075 Y8.390 E2.40776
G1 X264.658 Y8.872 E2.42996
G1 X264.742 Y8.941 E2.43316
G1 X265.251 Y9.641 E2.45855
G1 X265.569 Y10.446 E2.48394
G1 X265.678 Y11.304 E2.50933
G1 X265.569 Y12.163 E2.53473
G1 X265.278 Y12.897 E2.55792
M204 S1500
G1 X265.492 Y13.405 F9600.000
G1 F1500.000 E1.35792
G92 E0
G1 X262.474 Y146.356 F9600.000
G1 E1.20000 F1500.000
M204 S1500
G1 X263.448 Y146.542 E1.22910 F3705.000
G1 X264.345 Y146.964 E1.25820
G1 X265.110 Y147.596 E1.28730
G1 X265.692 Y148.398 E1.31640
G1 X265.994 Y149.160 E1.34045
G1 X266.057 Y149.320 E1.34550
G1 X266.182 Y150.304 E1.37460
G1 X266.057 Y151.288 E1.40370
G1 X265.994 Y151.448 E1.40875
G1 X265.692 Y152.210 E1.43280
G1 X265.110 Y153.012 E1.46190
G1 X264.345 Y153.644 E1.49100
G1 X263.448 Y154.066 E1.52010
G1 X262.474 Y154.252 E1.54920
G1 X261.484 Y154.190 E1.57830
G1 X260.541 Y153.884 E1.60740
G1 X259.704 Y153.352 E1.63650
G1 X259.025 Y152.629 E1.66560
G1 X258.548 Y151.760 E1.69470
G1 X258.301 Y150.800 E1.72380
G1 X258.301 Y149.808 E1.75290
G1 X258.548 Y148.848 E1.78200
G1 X259.025 Y147.979 E1.81110
G1 X259.704 Y147.256 E1.84020
G1 X260.541 Y146.725 E1.86930
G1 X261.484 Y146.418 E1.89840
G1 X262.399 Y146.361 E1.92530
M204 S1500
G1 X262.442 Y146.859 F9600.000
M204 S1500
G1 X263.292 Y147.021 E1.95069 F2340.000
G1 X264.075 Y147.389 E1.97609
G1 X264.742 Y147.941 E2.00148
G1 X265.251 Y148.641 E2.02687
G1 X265.529 Y149.344 E2.04907
G1 X265.569 Y149.446 E2.05226
G1 X265.678 Y150.304 E2.07766
G1 X265.569 Y151.163 E2.10305
G1 X265.529 Y151.264 E2.10624
G1 X265.251 Y151.967 E2.12844
G1 X264.742 Y152.667 E2.15384
G1 X264.075 Y153.219 E2.17923
G1 X263.292 Y153.587 E2.20462
G1 X262.442 Y153.749 E2.23001
G1 X261.579 Y153.695 E2.25541
G1 X260.756 Y153.428 E2.28080
G1 X260.025 Y152.964 E2.30619
G1 X259.433 Y152.333 E2.33158
G1 X259.016 Y151.575 E2.35698
G1 X258.801 Y150.737 E2.38237
G1 X258.801 Y149.871 E2.40776
G1 X259.016 Y149.033 E2.43316
G1 X259.433 Y148.275 E2.45855
G1 X260.025 Y147.644 E2.48394
G1 X260.756 Y147.181 E2.50933
G1 X261.579 Y146.913 E2.53473
G1 X262.368 Y146.864 E2.55792
M204 S1500
G1 X262.736 Y146.454 F9600.000
G1 F1500.000 E1.35792
G92 E0
G1 X256.976 Y156.005 F9600.000
G1 E1.20000 F1500.000
M204 S1500
G1 X256.976 Y5.603 E5.61365 F3705.000
G1 X257.059 Y4.973 E5.63229
G1 X257.283 Y4.432 E5.64948
G1 X257.639 Y3.968 E5.66667
G1 X258.104 Y3.611 E5.68385
G1 X258.645 Y3.387 E5.70104
G1 X259.275 Y3.304 E5.71968
G1 X274.177 Y3.304 E6.15698
G1 X274.806 Y3.387 E6.17563
G1 X275.348 Y3.611 E6.19281
G1 X275.812 Y3.968 E6.21000
G1 X276.169 Y4.432 E6.22719
G1 X276.393 Y4.973 E6.24437
G1 X276.476 Y5.603 E6.26302
G1 X276.476 Y156.005 E10.67667
G1 X276.393 Y156.635 E10.69531
G1 X276.169 Y157.176 E10.71250
G1 X275.812 Y157.641 E10.72968
G1 X275.348 Y157.997 E10.74687
G1 X274.806 Y158.221 E10.76406
G1 X274.177 Y158.304 E10.78270
G1 X259.275 Y158.304 E11.22000
G1 X258.645 Y158.221 E11.23864
G1 X258.104 Y157.997 E11.25583
G1 X257.639 Y157.641 E11.27302
G1 X257.283 Y157.176 E11.29020
G1 X257.059 Y156.635 E11.30739
G1 X256.986 Y156.079 E11.32383
M204 S1500
G1 X256.483 Y156.096 F9600.000
M204 S1500
G1 X256.476 Y5.570 E15.74112 F2340.000
G1 X256.572 Y4.843 E15.76266
G1 X256.846 Y4.180 E15.78371
G1 X257.283 Y3.611 E15.80476
G1 X257.852 Y3.174 E15.82581
G1 X258.515 Y2.900 E15.84686
G1 X259.242 Y2.804 E15.86840
G1 X274.209 Y2.804 E16.30762
G1 X274.937 Y2.900 E16.32916
G1 X275.600 Y3.174 E16.35021
G1 X276.169 Y3.611 E16.37126
G1 X276.605 Y4.180 E16.39231
G1 X276.880 Y4.843 E16.41336
G1 X276.976 Y5.570 E16.43490
G1 X276.976 Y156.038 E20.85047
G1 X276.880 Y156.765 E20.87200
G1 X276.605 Y157.428 E20.89305
G1 X276.169 Y157.997 E20.91410
G1 X275.600 Y158.434 E20.93516
G1 X274.937 Y158.708 E20.95621
G1 X274.209 Y158.804 E20.97774
G1 X259.242 Y158.804 E21.41697
G1 X258.515 Y158.708 E21.43850
G1 X257.852 Y158.434 E21.45955
G1 X257.283 Y157.997 E21.48060
G1 X256.846 Y157.428 E21.50165
G1 X256.572 Y156.765 E21.52270
G1 X256.493 Y156.171 E21.54031
M204 S1500
G1 X256.905 Y155.828 F9600.000
G1 X257.789 Y157.274 F9600.000
M204 S2000
G1 X258.006 Y157.490 E21.54930 F3900.000
M204 S1500
G1 X259.169 Y157.945 F9600.000
M204 S2000
G1 X257.335 Y156.110 E21.62543 F3900.000
G1 X257.318 Y155.385 E21.64673
G1 X259.895 Y157.962 E21.75367
G1 X260.604 Y157.962 E21.77447
G1 X257.318 Y154.676 E21.91082
G1 X257.318 Y153.967 E21.93162
G1 X261.313 Y157.962 E22.09739
G1 X262.021 Y157.962 E22.11819
G1 X257.318 Y153.259 E22.31337
G1 X257.318 Y152.550 E22.33417
G1 X262.730 Y157.962 E22.55877
G1 X263.439 Y157.962 E22.57957
G1 X257.318 Y151.841 E22.83358
G1 X257.318 Y151.132 E22.85438
G1 X258.414 Y152.228 E22.89984
M204 S1500
G1 X258.035 Y151.140 F9600.000
M204 S2000
G1 X257.318 Y150.423 E22.92958 F3900.000
G1 X257.958 Y150.355 E22.94847
G1 X257.318 Y149.715 E22.97505
G1 X257.983 Y149.671 E22.99459
G1 X257.318 Y149.006 E23.02217
G1 X257.318 Y148.297 E23.04297
G1 X258.128 Y149.107 E23.07656
G1 X258.306 Y148.576 E23.09298
G1 X257.318 Y147.588 E23.13397
G1 X257.318 Y146.880 E23.15477
G1 X258.557 Y148.119 E23.20620
G1 X258.832 Y147.685 E23.22128
G1 X257.318 Y146.171 E23.28410
G1 X257.318 Y145.462 E23.30490
G1 X259.175 Y147.319 E23.38196
G1 X259.527 Y146.963 E23.39667
G1 X257.318 Y144.753 E23.48835
G1 X257.318 Y144.045 E23.50915
G1 X259.961 Y146.687 E23.61882
G1 X260.395 Y146.412 E23.63389
G1 X257.318 Y143.336 E23.76156
G1 X257.318 Y142.627 E23.78236
G1 X260.930 Y146.238 E23.93224
G1 X261.475 Y146.076 E23.94896
G1 X257.318 Y141.918 E24.12149
G1 X257.318 Y141.210 E24.14229
G1 X262.142 Y146.034 E24.34249
G1 X262.907 Y146.090 E24.36500
G1 X257.318 Y140.501 E24.59695
G1 X257.318 Y139.792 E24.61775
G1 X263.904 Y146.378 E24.89106
M204 S1500
G1 F1500.000 E23.69106
G92 E0
G1 X260.360 Y154.174 F9600.000
G1 E1.20000 F1500.000
M204 S2000
G1 X264.148 Y157.962 E1.35719 F3900.000
G1 X264.856 Y157.962 E1.37799
G1 X261.424 Y154.529 E1.52043
G1 X262.180 Y154.577 E1.54267
G1 X265.565 Y157.962 E1.68314
G1 X266.274 Y157.962 E1.70394
G1 X262.843 Y154.531 E1.84633
G1 X263.438 Y154.417 E1.86411
G1 X266.983 Y157.962 E2.01122
G1 X267.691 Y157.962 E2.03201
G1 X263.942 Y154.212 E2.18761
G1 X264.424 Y153.986 E2.20324
G1 X268.400 Y157.962 E2.36825
G1 X269.109 Y157.962 E2.38905
G1 X264.833 Y153.686 E2.56651
G1 X265.221 Y153.365 E2.58128
G1 X269.818 Y157.962 E2.77206
G1 X270.526 Y157.962 E2.79286
G1 X265.551 Y152.987 E2.99933
G1 X265.850 Y152.576 E3.01422
G1 X271.235 Y157.962 E3.23773
G1 X271.944 Y157.962 E3.25853
G1 X266.098 Y152.116 E3.50114
G1 X266.299 Y151.608 E3.51716
G1 X272.653 Y157.962 E3.78085
G1 X273.361 Y157.962 E3.80165
G1 X266.435 Y151.035 E4.08912
G1 X266.514 Y150.405 E4.10774
G1 X274.070 Y157.962 E4.42132
G1 X274.706 Y157.889 E4.44011
G1 X266.441 Y149.624 E4.78313
G1 X266.150 Y148.624 E4.81369
G1 X275.203 Y157.677 E5.18938
G1 X275.585 Y157.350 E5.20413
G1 X257.318 Y139.083 E5.96224
G1 X257.318 Y138.375 E5.98304
G1 X275.892 Y156.949 E6.75388
G1 X276.075 Y156.423 E6.77021
G1 X257.318 Y137.666 E7.54865
G1 X257.318 Y136.957 E7.56945
G1 X276.133 Y155.772 E8.35030
G1 X276.133 Y155.063 E8.37110
G1 X257.318 Y136.248 E9.15194
G1 X257.318 Y135.540 E9.17274
G1 X276.133 Y154.355 E9.95359
G1 X276.133 Y153.646 E9.97439
G1 X257.318 Y134.831 E10.75523
G1 X257.318 Y134.122 E10.77603
G1 X276.133 Y152.937 E11.55688
G1 X276.133 Y152.228 E11.57768
G1 X257.318 Y133.413 E12.35852
G1 X257.318 Y132.704 E12.37932
G1 X276.133 Y151.520 E13.16017
G1 X276.133 Y150.811 E13.18097
G1 X257.318 Y131.996 E13.96181
G1 X257.318 Y131.287 E13.98261
G1 X276.133 Y150.102 E14.76346
G1 X276.133 Y149.393 E14.78426
G1 X257.318 Y130.578 E15.56511
G1 X257.318 Y129.869 E15.58590
G1 X276.133 Y148.684 E16.36675
G1 X276.133 Y147.976 E16.38755
G1 X257.318 Y129.161 E17.16840
G1 X257.318 Y128.452 E17.18920
G1 X276.133 Y147.267 E17.97004
G1 X276.133 Y146.558 E17.99084
G1 X257.318 Y127.743 E18.77169
G1 X257.318 Y127.034 E18.79249
G1 X276.133 Y145.849 E19.57333
G1 X276.133 Y145.141 E19.59413
G1 X257.318 Y126.326 E20.37498
G1 X257.318 Y125.617 E20.39578
G1 X276.133 Y144.432 E21.17662
G1 X276.133 Y143.723 E21.19742
G1 X257.318 Y124.908 E21.97827
G1 X257.318 Y124.199 E21.99907
G1 X276.133 Y143.014 E22.77991
G1 X276.133 Y142.306 E22.80071
G1 X257.318 Y123.491 E23.58156
G1 X257.318 Y122.782 E23.60236
G1 X276.133 Y141.597 E24.38320
G1 X276.133 Y140.888 E24.40400
G1 X257.318 Y122.073 E25.18485
G1 X257.318 Y121.364 E25.20565
G1 X276.133 Y140.179 E25.98650
G1 X276.133 Y139.471 E26.00729
G1 X257.318 Y120.656 E26.78814
G1 X257.318 Y119.947 E26.80894
G1 X276.133 Y138.762 E27.58979
G1 X276.133 Y138.053 E27.61059
G1 X257.318 Y119.238 E28.39143
G1 X257.318 Y118.529 E28.41223
G1 X276.133 Y137.344 E29.19308
G1 X276.133 Y136.636 E29.21388
G1 X257.318 Y117.820 E29.99472
G1 X257.318 Y117.112 E30.01552
G1 X276.133 Y135.927 E30.79637
G1 X276.133 Y135.218 E30.81717
G1 X257.318 Y116.403 E31.59801
G1 X257.318 Y115.694 E31.61881
G1 X276.133 Y134.509 E32.39966
G1 X276.133 Y133.800 E32.42046
G1 X257.318 Y114.985 E33.20130
G1 X257.318 Y114.277 E33.22210
G1 X276.133 Y133.092 E34.00295
G1 X276.133 Y132.383 E34.02375
G1 X257.318 Y113.568 E34.80460
G1 X257.318 Y112.859 E34.82539
G1 X276.133 Y131.674 E35.60624
G1 X276.133 Y130.965 E35.62704
G1 X257.318 Y112.150 E36.40789
G1 X257.318 Y111.442 E36.42869
G1 X276.133 Y130.257 E37.20953
G1 X276.133 Y129.548 E37.23033
G1 X257.318 Y110.733 E38.01118
G1 X257.318 Y110.024 E38.03198
G1 X276.133 Y128.839 E38.81282
G1 X276.133 Y128.130 E38.83362
G1 X257.318 Y109.315 E39.61447
G1 X257.318 Y108.607 E39.63527
G1 X276.133 Y127.422 E40.41611
G1 X276.133 Y126.713 E40.43691
G1 X257.318 Y107.898 E41.21776
G1 X257.318 Y107.189 E41.23856
G1 X276.133 Y126.004 E42.01940
G1 X276.133 Y125.295 E42.04020
G1 X257.318 Y106.480 E42.82105
G1 X257.318 Y105.772 E42.84185
G1 X276.133 Y124.587 E43.62269
G1 X276.133 Y123.878 E43.64349
G1 X257.318 Y105.063 E44.42434
G1 X257.318 Y104.354 E44.44514
G1 X276.133 Y123.169 E45.22599
G1 X276.133 Y122.460 E45.24678
G1 X257.318 Y103.645 E46.02763
G1 X257.318 Y102.936 E46.04843
G1 X276.133 Y121.752 E46.82928
G1 X276.133 Y121.043 E46.85007
G1 X257.318 Y102.228 E47.63092
G1 X257.318 Y101.519 E47.65172
G1 X276.133 Y120.334 E48.43257
G1 X276.133 Y119.625 E48.45337
G1 X257.318 Y100.810 E49.23421
G1 X257.318 Y100.101 E49.25501
G1 X276.133 Y118.916 E50.03586
G1 X276.133 Y118.208 E50.05666
G1 X257.318 Y99.393 E50.83750
G1 X257.318 Y98.684 E50.85830
G1 X276.133 Y117.499 E51.63915
G1 X276.133 Y116.790 E51.65995
G1 X257.318 Y97.975 E52.44079
G1 X257.318 Y97.266 E52.46159
G1 X276.133 Y116.081 E53.24244
G1 X276.133 Y115.373 E53.26324
G1 X257.318 Y96.558 E54.04408
G1 X257.318 Y95.849 E54.06488
G1 X276.133 Y114.664 E54.84573
G1 X276.133 Y113.955 E54.86653
G1 X257.318 Y95.140 E55.64737
G1 X257.318 Y94.431 E55.66817
G1 X276.133 Y113.246 E56.44902
G1 X276.133 Y112.538 E56.46982
G1 X257.318 Y93.723 E57.25067
G1 X257.318 Y93.014 E57.27146
G1 X276.133 Y111.829 E58.05231
G1 X276.133 Y111.120 E58.07311
G1 X257.318 Y92.305 E58.85396
G1 X257.318 Y91.596 E58.87476
G1 X276.133 Y110.411 E59.65560
