; generated by Slic3r 1.0.0RC3 on 2014-04-14 at 10:18:55

; layer_height = .35
; perimeters = 2
; top_solid_layers = 2
; bottom_solid_layers = 2
; fill_density = 0.78
; perimeter_speed = 95
; infill_speed = 115
; travel_speed = 160
; nozzle_diameter = .5
; filament_diameter = 2.89
; extrusion_multiplier = 1
; perimeters extrusion width = 0.43mm
; infill extrusion width = 0.49mm
; solid infill extrusion width = 0.43mm
; top infill extrusion width = 0.42mm
; first layer extrusion width = 0.50mm

G21 ; set units to millimeters
M107
G28 ; home all axes
G90 ; use absolute coordinates
G92 E0
M82 ; use absolute distances for extrusion
G1 F1500.000 E-1.20000
G92 E0
G1 Z0.385 F9600.000
G1 X62.420 Y56.670 F9600.000
G1 E1.20000 F1500.000
G1 X63.180 Y56.010 E1.22954 F3705.000
G1 X63.810 Y55.540 E1.25260
G1 X64.530 Y55.070 E1.27784
G1 X65.310 Y54.690 E1.30330
G1 X66.030 Y54.390 E1.32619
G1 X66.910 Y54.090 E1.35347
G1 X67.820 Y53.910 E1.38069
G1 X68.590 Y53.810 E1.40348
G1 X69.490 Y53.750 E1.42995
G1 X228.500 Y53.750 E6.09622
G1 X229.400 Y53.810 E6.12269
G1 X230.170 Y53.910 E6.14547
G1 X231.070 Y54.080 E6.17235
G1 X231.930 Y54.380 E6.19908
G1 X232.660 Y54.680 E6.22224
G1 X233.470 Y55.070 E6.24862
G1 X234.230 Y55.570 E6.27532
G1 X234.850 Y56.040 E6.29815
G1 X235.570 Y56.670 E6.32623
G1 X236.200 Y57.390 E6.35430
G1 X236.670 Y58.010 E6.37713
G1 X237.170 Y58.770 E6.40383
G1 X237.560 Y59.580 E6.43021
G1 X237.860 Y60.310 E6.45337
G1 X238.150 Y61.140 E6.47917
G1 X238.320 Y61.990 E6.50461
G1 X238.430 Y62.770 E6.52773
G1 X238.500 Y63.750 E6.55656
G1 X238.500 Y214.240 E10.97280
G1 X238.430 Y215.220 E11.00163
G1 X238.320 Y216.000 E11.02475
G1 X238.140 Y216.870 E11.05082
G1 X237.850 Y217.710 E11.07690
G1 X237.550 Y218.430 E11.09979
G1 X237.170 Y219.210 E11.12525
G1 X236.700 Y219.930 E11.15048
G1 X236.230 Y220.560 E11.17355
G1 X235.590 Y221.300 E11.20226
G1 X234.850 Y221.950 E11.23116
G1 X234.230 Y222.420 E11.25399
G1 X233.470 Y222.920 E11.28069
G1 X232.660 Y223.310 E11.30707
G1 X231.930 Y223.610 E11.33023
G1 X231.110 Y223.890 E11.35566
G1 X230.260 Y224.070 E11.38116
G1 X229.490 Y224.180 E11.40398
G1 X228.500 Y224.250 E11.43311
G1 X69.500 Y224.250 E16.09908
G1 X68.520 Y224.180 E16.12791
G1 X67.740 Y224.070 E16.15103
G1 X66.870 Y223.890 E16.17710
G1 X66.030 Y223.600 E16.20318
G1 X65.310 Y223.300 E16.22607
G1 X64.530 Y222.920 E16.25153
G1 X63.810 Y222.450 E16.27676
G1 X63.180 Y221.980 E16.29983
G1 X62.420 Y221.320 E16.32937
G1 X61.760 Y220.560 E16.35891
G1 X61.290 Y219.930 E16.38197
G1 X60.820 Y219.200 E16.40745
G1 X60.440 Y218.430 E16.43265
G1 X60.170 Y217.780 E16.45330
G1 X59.850 Y216.870 E16.48161
G1 X59.660 Y215.920 E16.51004
G1 X59.560 Y215.150 E16.53283
G1 X59.500 Y214.250 E16.55930
G1 X59.500 Y63.750 E20.97583
G1 X59.560 Y62.860 E21.00201
G1 X59.660 Y62.080 E21.02509
G1 X59.840 Y61.160 E21.05260
G1 X60.140 Y60.280 E21.07988
G1 X60.440 Y59.560 E21.10277
G1 X60.820 Y58.780 E21.12823
G1 X61.290 Y58.060 E21.15346
G1 X61.760 Y57.430 E21.17653
G1 X62.371 Y56.727 E21.20387
G1 X62.770 Y57.020 F9600.000
G1 X63.480 Y56.410 E21.23134 F3705.000
G1 X64.110 Y55.940 E21.25440
G1 X64.780 Y55.500 E21.27792
G1 X65.500 Y55.150 E21.30142
G1 X66.220 Y54.850 E21.32431
G1 X67.040 Y54.570 E21.34974
G1 X67.880 Y54.400 E21.37489
G1 X68.650 Y54.300 E21.39767
G1 X69.490 Y54.250 E21.42237
G1 X228.500 Y54.250 E26.08863
G1 X229.340 Y54.300 E26.11333
G1 X230.110 Y54.400 E26.13611
G1 X230.940 Y54.570 E26.16098
G1 X231.740 Y54.840 E26.18575
G1 X232.470 Y55.140 E26.20891
G1 X233.230 Y55.510 E26.23372
G1 X233.930 Y55.970 E26.25830
G1 X234.550 Y56.440 E26.28113
G1 X235.220 Y57.020 E26.30714
G1 X235.800 Y57.690 E26.33314
G1 X236.270 Y58.310 E26.35597
G1 X236.730 Y59.010 E26.38055
G1 X237.100 Y59.770 E26.40536
G1 X237.400 Y60.500 E26.42852
G1 X237.660 Y61.270 E26.45237
G1 X237.830 Y62.060 E26.47608
G1 X237.940 Y62.840 E26.49920
G1 X238.000 Y63.750 E26.52596
G1 X238.000 Y214.240 E30.94220
G1 X237.940 Y215.150 E30.96897
G1 X237.830 Y215.930 E30.99208
G1 X237.660 Y216.740 E31.01637
G1 X237.390 Y217.520 E31.04059
G1 X237.090 Y218.240 E31.06348
G1 X236.740 Y218.960 E31.08697
G1 X236.300 Y219.630 E31.11050
G1 X235.830 Y220.260 E31.13356
G1 X235.230 Y220.950 E31.16040
G1 X234.550 Y221.550 E31.18701
G1 X233.930 Y222.020 E31.20984
G1 X233.230 Y222.480 E31.23442
G1 X232.470 Y222.850 E31.25923
G1 X231.740 Y223.150 E31.28239
G1 X230.980 Y223.410 E31.30596
G1 X230.190 Y223.570 E31.32961
G1 X229.420 Y223.680 E31.35244
G1 X228.500 Y223.750 E31.37951
G1 X69.500 Y223.750 E36.04549
G1 X68.590 Y223.690 E36.07225
G1 X67.810 Y223.580 E36.09537
G1 X67.000 Y223.410 E36.11965
G1 X66.220 Y223.140 E36.14388
G1 X65.500 Y222.840 E36.16677
G1 X64.780 Y222.490 E36.19026
G1 X64.110 Y222.050 E36.21378
G1 X63.480 Y221.580 E36.23685
G1 X62.770 Y220.970 E36.26432
G1 X62.160 Y220.260 E36.29179
G1 X61.690 Y219.630 E36.31485
G1 X61.250 Y218.950 E36.33862
G1 X60.900 Y218.230 E36.36211
G1 X60.630 Y217.580 E36.38277
G1 X60.330 Y216.740 E36.40894
G1 X60.150 Y215.860 E36.43530
G1 X60.050 Y215.090 E36.45809
G1 X60.000 Y214.250 E36.48278
G1 X60.000 Y63.750 E40.89932
G1 X60.050 Y62.920 E40.92372
G1 X60.150 Y62.140 E40.94680
G1 X60.320 Y61.290 E40.97223
G1 X60.600 Y60.470 E40.99766
G1 X60.900 Y59.750 E41.02055
G1 X61.250 Y59.030 E41.04404
G1 X61.690 Y58.360 E41.06757
G1 X62.160 Y57.730 E41.09063
G1 X62.721 Y57.077 E41.11590
G1 F1500.000 E39.91590
G92 E0
G1 X69.978 Y66.452 F9600.000
G1 E1.20000 F1500.000
M204 S1500
G1 X70.816 Y65.921 E1.22910 F780.000
G1 X71.595 Y65.667 E1.25315
G1 X71.759 Y65.614 E1.25820
G1 X72.748 Y65.552 E1.28730
G1 X73.722 Y65.738 E1.31640
G1 X74.620 Y66.160 E1.34550
G1 X75.384 Y66.792 E1.37460
G1 X75.967 Y67.594 E1.40370
G1 X76.332 Y68.516 E1.43280
G1 X76.456 Y69.500 E1.46190
G1 X76.332 Y70.484 E1.49100
G1 X75.967 Y71.406 E1.52010
G1 X75.384 Y72.208 E1.54920
G1 X74.620 Y72.840 E1.57830
G1 X73.722 Y73.262 E1.60740
G1 X72.748 Y73.448 E1.63650
G1 X71.759 Y73.386 E1.66560
G1 X70.816 Y73.079 E1.69470
G1 X69.978 Y72.548 E1.72380
G1 X69.300 Y71.825 E1.75290
G1 X68.822 Y70.956 E1.78200
G1 X68.575 Y69.996 E1.81110
G1 X68.575 Y69.004 E1.84020
G1 X68.822 Y68.044 E1.86930
G1 X69.300 Y67.175 E1.89840
G1 X69.927 Y66.507 E1.92530
M204 S1500
G1 X70.300 Y66.840 F9600.000
M204 S1500
G1 X71.030 Y66.377 E1.95069 F780.000
G1 X71.750 Y66.143 E1.97289
G1 X71.853 Y66.109 E1.97609
G1 X72.717 Y66.055 E2.00148
G1 X73.567 Y66.217 E2.02687
G1 X74.350 Y66.585 E2.05226
G1 X75.016 Y67.137 E2.07766
G1 X75.525 Y67.837 E2.10305
G1 X75.844 Y68.642 E2.12844
G1 X75.952 Y69.500 E2.15383
G1 X75.844 Y70.358 E2.17923
G1 X75.525 Y71.163 E2.20462
G1 X75.016 Y71.863 E2.23001
G1 X74.350 Y72.415 E2.25541
G1 X73.567 Y72.783 E2.28080
G1 X72.717 Y72.945 E2.30619
G1 X71.853 Y72.891 E2.33158
G1 X71.030 Y72.623 E2.35698
G1 X70.300 Y72.160 E2.38237
G1 X69.707 Y71.529 E2.40776
G1 X69.290 Y70.771 E2.43316
G1 X69.075 Y69.933 E2.45855
G1 X69.075 Y69.067 E2.48394
G1 X69.290 Y68.229 E2.50933
G1 X69.707 Y67.471 E2.53473
G1 X70.248 Y66.895 E2.55792
M204 S1500
G1 X70.237 Y66.344 F9600.000
G1 F1500.000 E1.35792
G92 E0
G1 X72.748 Y204.552 F9600.000
G1 E1.20000 F1500.000
M204 S1500
G1 X73.722 Y204.738 E1.22910 F780.000
G1 X74.620 Y205.160 E1.25820
G1 X75.384 Y205.792 E1.28730
G1 X75.967 Y206.594 E1.31640
G1 X76.332 Y207.516 E1.34550
G1 X76.456 Y208.500 E1.37460
G1 X76.332 Y209.484 E1.40370
G1 X75.967 Y210.406 E1.43280
G1 X75.384 Y211.208 E1.46190
G1 X74.620 Y211.840 E1.49100
G1 X73.722 Y212.262 E1.52010
G1 X72.748 Y212.448 E1.54920
G1 X71.759 Y212.386 E1.57830
G1 X70.816 Y212.079 E1.60740
G1 X69.978 Y211.548 E1.63650
G1 X69.300 Y210.825 E1.66560
G1 X68.822 Y209.956 E1.69470
G1 X68.575 Y208.996 E1.72380
G1 X68.575 Y208.004 E1.75290
G1 X68.779 Y207.210 E1.77695
G1 X68.822 Y207.044 E1.78200
G1 X69.300 Y206.175 E1.81110
G1 X69.978 Y205.452 E1.84020
G1 X70.816 Y204.921 E1.86930
G1 X71.759 Y204.614 E1.89840
G1 X72.674 Y204.557 E1.92530
M204 S1500
G1 X72.717 Y205.055 F9600.000
M204 S1500
G1 X73.567 Y205.217 E1.95069 F780.000
G1 X74.350 Y205.585 E1.97609
G1 X75.016 Y206.137 E2.00148
G1 X75.525 Y206.837 E2.02687
G1 X75.844 Y207.642 E2.05226
G1 X75.952 Y208.500 E2.07766
G1 X75.844 Y209.358 E2.10305
G1 X75.525 Y210.163 E2.12844
G1 X75.016 Y210.863 E2.15383
G1 X74.350 Y211.415 E2.17923
G1 X73.567 Y211.783 E2.20462
G1 X72.717 Y211.945 E2.23001
G1 X71.853 Y211.891 E2.25541
G1 X71.030 Y211.623 E2.28080
G1 X70.300 Y211.160 E2.30619
G1 X69.707 Y210.529 E2.33158
G1 X69.290 Y209.771 E2.35698
G1 X69.075 Y208.933 E2.38237
G1 X69.075 Y208.067 E2.40776
G1 X69.263 Y207.335 E2.42996
G1 X69.290 Y207.229 E2.43316
G1 X69.707 Y206.471 E2.45855
G1 X70.300 Y205.840 E2.48394
G1 X71.030 Y205.377 E2.50933
G1 X71.853 Y205.109 E2.53473
G1 X72.642 Y205.060 E2.55792
M204 S1500
G1 X73.011 Y204.650 F9600.000
G1 F1500.000 E1.35792
G92 E0
G1 X67.250 Y214.201 F9600.000
G1 E1.20000 F1500.000
M204 S1500
G1 X67.250 Y63.799 E5.61365 F3705.000
G1 X67.333 Y63.169 E5.63229
G1 X67.557 Y62.628 E5.64948
G1 X67.914 Y62.164 E5.66667
G1 X68.378 Y61.807 E5.68385
G1 X68.919 Y61.583 E5.70104
G1 X69.549 Y61.500 E5.71968
G1 X84.451 Y61.500 E6.15698
G1 X85.081 Y61.583 E6.17563
G1 X85.622 Y61.807 E6.19281
G1 X86.086 Y62.164 E6.21000
G1 X86.443 Y62.628 E6.22719
G1 X86.667 Y63.169 E6.24438
G1 X86.750 Y63.799 E6.26302
G1 X86.750 Y214.201 E10.67667
G1 X86.667 Y214.831 E10.69531
G1 X86.443 Y215.372 E10.71250
G1 X86.086 Y215.836 E10.72968
G1 X85.622 Y216.193 E10.74687
G1 X85.081 Y216.417 E10.76406
G1 X84.451 Y216.500 E10.78270
G1 X69.549 Y216.500 E11.22000
G1 X68.919 Y216.417 E11.23864
G1 X68.378 Y216.193 E11.25583
G1 X67.914 Y215.836 E11.27302
G1 X67.557 Y215.372 E11.29021
G1 X67.333 Y214.831 E11.30739
G1 X67.260 Y214.275 E11.32383
M204 S1500
G1 X66.758 Y214.292 F9600.000
M204 S1500
G1 X66.750 Y63.766 E15.74112 F2340.000
G1 X66.846 Y63.039 E15.76266
G1 X67.120 Y62.376 E15.78371
G1 X67.557 Y61.807 E15.80476
G1 X68.092 Y61.396 E15.82456
G1 X68.789 Y61.096 E15.84682
G1 X69.516 Y61.000 E15.86836
G1 X84.484 Y61.000 E16.30758
G1 X85.211 Y61.096 E16.32912
G1 X85.874 Y61.370 E16.35017
G1 X86.443 Y61.807 E16.37122
G1 X86.880 Y62.376 E16.39227
G1 X87.154 Y63.039 E16.41332
G1 X87.250 Y63.766 E16.43485
G1 X87.250 Y214.234 E20.85043
G1 X87.154 Y214.961 E20.87196
G1 X86.880 Y215.624 E20.89301
G1 X86.443 Y216.193 E20.91407
G1 X85.874 Y216.630 E20.93512
G1 X85.211 Y216.904 E20.95617
G1 X84.484 Y217.000 E20.97770
G1 X69.516 Y217.000 E21.41693
G1 X68.789 Y216.904 E21.43846
G1 X68.126 Y216.630 E21.45951
G1 X67.557 Y216.193 E21.48056
G1 X67.120 Y215.624 E21.50161
G1 X66.846 Y214.961 E21.52266
G1 X66.767 Y214.366 E21.54027
M204 S1500
G1 X67.179 Y214.023 F9600.000
G1 X67.621 Y214.318 F9600.000
M204 S2000
G1 X69.432 Y216.129 E21.61561 F3900.000
G1 X70.159 Y216.148 E21.63700
G1 X67.602 Y213.591 E21.74336
G1 X67.602 Y212.882 E21.76421
G1 X70.868 Y216.148 E21.90005
G1 X71.577 Y216.148 E21.92090
G1 X67.602 Y212.173 E22.08622
G1 X67.602 Y211.464 E22.10707
G1 X72.286 Y216.148 E22.30188
G1 X72.994 Y216.148 E22.32272
G1 X67.602 Y210.756 E22.54701
G1 X67.602 Y210.047 E22.56786
G1 X73.703 Y216.148 E22.82164
G1 X74.412 Y216.148 E22.84248
G1 X70.666 Y212.401 E22.99832
G1 X71.709 Y212.736 E23.03055
G1 X75.121 Y216.148 E23.17246
G1 X75.829 Y216.148 E23.19331
G1 X72.465 Y212.784 E23.33325
G1 X73.126 Y212.735 E23.35272
G1 X76.538 Y216.148 E23.49468
G1 X77.247 Y216.148 E23.51552
G1 X73.721 Y212.621 E23.66220
G1 X74.224 Y212.416 E23.67819
G1 X77.956 Y216.148 E23.83342
G1 X78.664 Y216.148 E23.85427
G1 X74.706 Y212.189 E24.01893
G1 X75.114 Y211.889 E24.03384
G1 X79.373 Y216.148 E24.21101
G1 X80.082 Y216.148 E24.23186
G1 X75.502 Y211.568 E24.42237
G1 X75.833 Y211.190 E24.43715
G1 X80.791 Y216.148 E24.64338
G1 X81.499 Y216.148 E24.66423
G1 X76.131 Y210.779 E24.88755
G1 X76.380 Y210.319 E24.90293
G1 X82.208 Y216.148 E25.14537
G1 X82.917 Y216.148 E25.16622
G1 X76.581 Y209.812 E25.42978
G1 X76.718 Y209.240 E25.44708
G1 X83.626 Y216.148 E25.73444
G1 X84.334 Y216.148 E25.75529
G1 X76.797 Y208.610 E26.06882
G1 X76.727 Y207.831 E26.09184
G1 X84.972 Y216.076 E26.43481
G1 X85.470 Y215.865 E26.45072
G1 X76.442 Y206.838 E26.82626
M204 S1500
G1 F1500.000 E25.62626
G92 E0
G1 X75.119 Y204.805 F9600.000
G1 E1.20000 F1500.000
M204 S2000
G1 X85.860 Y215.546 E1.64680 F3900.000
G1 X86.159 Y215.137 E1.66172
G1 X67.852 Y196.830 E2.42323
G1 X67.852 Y196.122 E2.44408
G1 X86.341 Y214.610 E3.21316
G1 X86.398 Y213.958 E3.23240
G1 X67.852 Y195.413 E4.00385
G1 X67.852 Y194.704 E4.02469
G1 X86.398 Y213.249 E4.79614
G1 X86.398 Y212.540 E4.81698
G1 X67.852 Y193.995 E5.58843
G1 X67.852 Y193.287 E5.60927
G1 X86.398 Y211.832 E6.38072
G1 X86.398 Y211.123 E6.40156
G1 X67.852 Y192.578 E7.17300
G1 X67.852 Y191.869 E7.19385
G1 X86.398 Y210.414 E7.96529
G1 X86.398 Y209.705 E7.98614
G1 X67.852 Y191.160 E8.75758
G1 X67.852 Y190.452 E8.77843
G1 X86.398 Y208.997 E9.54987
G1 X86.398 Y208.288 E9.57072
G1 X67.852 Y189.743 E10.34216
G1 X67.852 Y189.034 E10.36301
G1 X86.398 Y207.579 E11.13445
G1 X86.398 Y206.870 E11.15530
G1 X67.852 Y188.325 E11.92674
G1 X67.852 Y187.617 E11.94759
G1 X86.398 Y206.162 E12.71903
G1 X86.398 Y205.453 E12.73988
G1 X67.852 Y186.908 E13.51132
G1 X67.852 Y186.199 E13.53217
G1 X86.398 Y204.744 E14.30361
G1 X86.398 Y204.035 E14.32446
G1 X67.852 Y185.490 E15.09590
G1 X67.852 Y184.782 E15.11675
G1 X86.398 Y203.327 E15.88819
G1 X86.398 Y202.618 E15.90904
G1 X67.852 Y184.073 E16.68048
G1 X67.852 Y183.364 E16.70133
G1 X86.398 Y201.909 E17.47277
G1 X86.398 Y201.200 E17.49362
G1 X67.852 Y182.655 E18.26506
G1 X67.852 Y181.946 E18.28591
G1 X86.398 Y200.492 E19.05735
G1 X86.398 Y199.783 E19.07820
G1 X67.852 Y181.238 E19.84964
G1 X67.852 Y180.529 E19.87049
G1 X86.398 Y199.074 E20.64193
G1 X86.398 Y198.365 E20.66278
G1 X67.852 Y179.820 E21.43422
G1 X67.852 Y179.111 E21.45507
G1 X86.398 Y197.656 E22.22651
G1 X86.398 Y196.948 E22.24736
G1 X67.852 Y178.403 E23.01880
G1 X67.852 Y177.694 E23.03965
G1 X86.398 Y196.239 E23.81109
G1 X86.398 Y195.530 E23.83194
G1 X67.852 Y176.985 E24.60338
G1 X67.852 Y176.276 E24.62423
G1 X86.398 Y194.821 E25.39567
G1 X86.398 Y194.113 E25.41651
G1 X67.852 Y175.568 E26.18796
G1 X67.852 Y174.859 E26.20880
G1 X86.398 Y193.404 E26.98025
G1 X86.398 Y192.695 E27.00109
G1 X67.852 Y174.150 E27.77254
G1 X67.852 Y173.441 E27.79338
G1 X86.398 Y191.986 E28.56483
G1 X86.398 Y191.278 E28.58567
G1 X67.852 Y172.733 E29.35712
G1 X67.852 Y172.024 E29.37796
G1 X86.398 Y190.569 E30.14940
G1 X86.398 Y189.860 E30.17025
G1 X67.852 Y171.315 E30.94169
G1 X67.852 Y170.606 E30.96254
G1 X86.398 Y189.151 E31.73398
G1 X86.398 Y188.443 E31.75483
G1 X67.852 Y169.898 E32.52627
G1 X67.852 Y169.189 E32.54712
G1 X86.398 Y187.734 E33.31856
G1 X86.398 Y187.025 E33.33941
G1 X67.852 Y168.480 E34.11085
G1 X67.852 Y167.771 E34.13170
G1 X86.398 Y186.316 E34.90314
G1 X86.398 Y185.608 E34.92399
G1 X67.852 Y167.062 E35.69543
G1 X67.852 Y166.354 E35.71628
G1 X86.398 Y184.899 E36.48772
G1 X86.398 Y184.190 E36.50857
G1 X67.852 Y165.645 E37.28001
G1 X67.852 Y164.936 E37.30086
G1 X86.398 Y183.481 E38.07230
G1 X86.398 Y182.772 E38.09315
G1 X67.852 Y164.227 E38.86459
G1 X67.852 Y163.519 E38.88544
G1 X86.398 Y182.064 E39.65688
G1 X86.398 Y181.355 E39.67773
G1 X67.852 Y162.810 E40.44917
G1 X67.852 Y162.101 E40.47002
G1 X86.398 Y180.646 E41.24146
G1 X86.398 Y179.937 E41.26231
G1 X67.852 Y161.392 E42.03375
G1 X67.852 Y160.684 E42.05460
G1 X86.398 Y179.229 E42.82604
G1 X86.398 Y178.520 E42.84689
G1 X67.852 Y159.975 E43.61833
G1 X67.852 Y159.266 E43.63918
G1 X86.398 Y177.811 E44.41062
G1 X86.398 Y177.102 E44.43147
G1 X67.852 Y158.557 E45.20291
G1 X67.852 Y157.849 E45.22376
G1 X86.398 Y176.394 E45.99520
G1 X86.398 Y175.685 E46.01605
G1 X67.852 Y157.140 E46.78749
G1 X67.852 Y156.431 E46.80834
G1 X86.398 Y174.976 E47.57978
G1 X86.398 Y174.267 E47.60063
G1 X67.852 Y155.722 E48.37207
G1 X67.852 Y155.014 E48.39292
G1 X86.398 Y173.559 E49.16436
G1 X86.398 Y172.850 E49.18520
G1 X67.852 Y154.305 E49.95665
G1 X67.852 Y153.596 E49.97749
G1 X86.398 Y172.141 E50.74894
G1 X86.398 Y171.432 E50.76978
G1 X67.852 Y152.887 E51.54123
G1 X67.852 Y152.178 E51.56207
G1 X86.398 Y170.724 E52.33352
G1 X86.398 Y170.015 E52.35436
