; generated by Slic3r 1.1.4 on 2014-07-01 at 11:47:38

; perimeters extrusion width = 0.50mm
; infill extrusion width = 0.59mm
; solid infill extrusion width = 0.60mm
; top infill extrusion width = 0.43mm

G21 ; set units to millimeters
G28 ; home all axes
G90 ; use absolute coordinates
G92 E0
M82 ; use absolute distances for extrusion
M204 S2000
G1 F1500.000 E-1.20000
G92 E0
G1 Z0.350 F9600.000
G1 X84.220 Y75.240 F9600.000
G1 E1.20000 F1500.000
G1 X85.901 Y74.146 E1.25771 F2700.000
G1 X87.776 Y73.787 E1.31264
G1 X202.231 Y73.936 E4.60587
G1 X204.196 Y74.335 E4.66358
G1 X205.854 Y75.464 E4.72129
G1 X206.946 Y77.146 E4.77900
G1 X207.302 Y79.015 E4.83374
G1 X207.302 Y117.329 E5.93616
G1 X207.153 Y167.329 E7.37482
G1 X206.751 Y169.294 E7.43253
G1 X205.915 Y170.636 E7.47804
G1 X195.169 Y183.058 E7.95063
G1 X192.941 Y184.551 E8.02779
G1 X152.941 Y197.950 E9.24158
G1 X151.328 Y198.213 E9.28861
G1 X147.251 Y198.212 E9.40591
G1 X137.401 Y198.063 E9.68938
G1 X135.864 Y197.801 E9.73423
G1 X95.864 Y184.401 E10.94801
G1 X93.475 Y182.712 E11.03221
G1 X83.774 Y170.290 E11.48571
G1 X82.876 Y168.497 E11.54342
G1 X82.698 Y167.164 E11.58211
G1 X82.698 Y78.866 E14.12275
G1 X83.094 Y76.899 E14.18046
G1 X84.178 Y75.302 E14.23601
G1 X84.750 Y75.482 F9600.000
G1 X86.396 Y74.541 E14.29054 F2700.000
G1 X87.776 Y74.326 E14.33074
G1 X202.230 Y74.475 E17.62396
G1 X204.083 Y74.874 E17.67848
G1 X205.612 Y75.993 E17.73301
G1 X206.550 Y77.640 E17.78754
G1 X206.763 Y79.015 E17.82757
G1 X206.763 Y117.327 E18.92994
G1 X206.614 Y167.327 E20.36861
G1 X206.213 Y169.179 E20.42314
G1 X205.508 Y170.283 E20.46084
G1 X194.761 Y182.705 E20.93343
G1 X192.770 Y184.039 E21.00239
G1 X152.770 Y197.439 E22.21618
G1 X151.328 Y197.674 E22.25822
G1 X147.260 Y197.673 E22.37529
G1 X137.409 Y197.524 E22.65876
G1 X136.036 Y197.289 E22.69884
G1 X96.036 Y183.890 E23.91263
G1 X93.900 Y182.380 E23.98789
G1 X84.199 Y169.958 E24.44138
G1 X83.370 Y168.254 E24.49591
G1 X83.237 Y167.164 E24.52751
G1 X83.237 Y78.866 E27.06815
G1 X83.632 Y77.012 E27.12268
G1 X84.706 Y75.542 E27.17505
G1 F1500.000 E25.97505
G92 E0
G1 X138.292 Y133.022 F9600.000
G1 E1.20000 F1500.000
G1 X132.292 Y133.022 E1.37264 F4500.000
G1 X132.292 Y128.900 E1.49122
G1 X105.663 Y128.900 E2.25741
G1 X105.663 Y130.647 E2.30768
G1 X103.236 Y130.647 E2.37751
G1 X98.292 Y128.999 E2.52748
G1 X98.292 Y126.400 E2.60225
G1 X130.005 Y126.400 E3.51473
G1 X130.578 Y126.328 E3.53136
G1 X131.139 Y126.096 E3.54882
G1 X131.583 Y125.755 E3.56493
G1 X131.965 Y125.277 E3.58256
G1 X132.018 Y125.175 E3.58583
G1 X132.214 Y124.701 E3.60060
G1 X132.233 Y124.588 E3.60389
G1 X132.292 Y124.139 E3.61693
G1 X132.292 Y123.532 E3.63439
G1 X132.214 Y122.970 E3.65072
G1 X131.965 Y122.395 E3.66875
G1 X131.661 Y121.999 E3.68312
G1 X131.583 Y121.916 E3.68639
G1 X131.139 Y121.575 E3.70250
G1 X130.578 Y121.343 E3.71995
G1 X130.005 Y121.272 E3.73658
G1 X98.292 Y121.272 E4.64907
G1 X98.292 Y118.673 E4.72384
G1 X103.236 Y117.025 E4.87380
G1 X105.663 Y117.025 E4.94364
G1 X105.663 Y118.772 E4.99391
G1 X132.292 Y118.771 E5.76010
G1 X132.292 Y114.650 E5.87868
G1 X138.292 Y114.650 E6.05132
G1 X138.292 Y105.501 E6.31458
G1 X140.663 Y105.501 E6.38281
G1 X140.663 Y142.171 E7.43793
G1 X138.292 Y142.171 E7.50617
G1 X138.292 Y133.097 E7.76727
G1 X137.753 Y133.561 F9600.000
G1 X131.753 Y133.561 E7.93991 F3375.000
G1 X131.753 Y129.440 E8.05849
G1 X106.203 Y129.439 E8.79364
G1 X106.203 Y131.186 E8.84391
G1 X103.149 Y131.186 E8.93178
G1 X97.753 Y129.388 E9.09545
G1 X97.753 Y125.861 E9.19692
G1 X129.987 Y125.861 E10.12440
G1 X130.437 Y125.803 E10.13748
G1 X130.867 Y125.625 E10.15084
G1 X131.221 Y125.353 E10.16369
G1 X131.528 Y124.948 E10.17833
G1 X131.699 Y124.509 E10.19189
G1 X131.753 Y124.104 E10.20364
G1 X131.753 Y123.568 E10.21906
G1 X131.692 Y123.120 E10.23207
G1 X131.508 Y122.686 E10.24564
G1 X131.250 Y122.349 E10.25783
G1 X130.867 Y122.047 E10.27190
G1 X130.437 Y121.869 E10.28526
G1 X129.987 Y121.811 E10.29834
G1 X97.753 Y121.811 E11.22582
G1 X97.753 Y118.284 E11.32730
G1 X103.149 Y116.485 E11.49096
G1 X106.203 Y116.485 E11.57883
G1 X106.203 Y118.232 E11.62910
G1 X131.753 Y118.232 E12.36425
G1 X131.753 Y114.111 E12.48283
G1 X137.753 Y114.111 E12.65547
G1 X137.753 Y104.961 E12.91873
G1 X141.203 Y104.961 E13.01800
G1 X141.203 Y142.710 E14.10416
G1 X137.753 Y142.710 E14.20342
G1 X137.753 Y133.636 E14.46452
G1 X137.753 Y133.061 F9600.000
G1 X137.124 Y132.651 F9600.000
G1 X131.020 Y126.547 E14.71290 F4950.000
G1 X131.515 Y126.275 E14.72915
G1 X137.891 Y132.651 E14.98860
G1 X138.658 Y132.651 E15.01066
G1 X131.927 Y125.919 E15.28457
G1 X132.267 Y125.493 E15.30027
G1 X140.292 Y133.518 E15.62683
G1 X140.292 Y134.285 E15.64890
G1 X138.663 Y132.655 E15.71521
G1 X138.663 Y133.422 E15.73727
G1 X140.292 Y135.052 E15.80358
G1 X140.292 Y135.819 E15.82565
G1 X138.663 Y134.189 E15.89196
G1 X138.663 Y134.956 E15.91402
G1 X140.292 Y136.585 E15.98033
G1 X140.292 Y137.352 E16.00239
G1 X138.663 Y135.723 E16.06870
G1 X138.663 Y136.490 E16.09077
G1 X140.292 Y138.119 E16.15708
G1 X140.292 Y138.886 E16.17914
G1 X138.663 Y137.256 E16.24545
G1 X138.663 Y138.023 E16.26752
G1 X140.292 Y139.653 E16.33382
G1 X140.292 Y140.420 E16.35589
G1 X138.663 Y138.790 E16.42220
G1 X138.663 Y139.557 E16.44426
G1 X140.292 Y141.187 E16.51057
G1 X140.139 Y141.800 E16.52877
G1 X138.663 Y140.324 E16.58883
G1 X138.663 Y141.091 E16.61090
G1 X139.372 Y141.800 E16.63976
G1 F1500.000 E15.43976
G92 E0
G1 X140.292 Y132.751 F9600.000
G1 E1.20000 F1500.000
G1 X132.506 Y124.965 E1.51683 F4950.000
G1 X132.641 Y124.333 E1.53544
G1 X140.292 Y131.984 E1.84680
G1 X140.292 Y131.218 E1.86887
G1 X132.663 Y123.588 E2.17932
G1 X132.470 Y122.629 E2.20748
G1 X140.292 Y130.451 E2.52578
G1 F1500.000 E1.32578
G92 E0
G1 X133.290 Y132.651 F9600.000
G1 E1.20000 F1500.000
G1 X132.663 Y132.023 E1.22553 F4950.000
G1 X132.663 Y131.256 E1.24759
G1 X134.057 Y132.651 E1.30432
G1 X134.824 Y132.651 E1.32638
G1 X132.663 Y130.490 E1.41432
G1 X132.663 Y129.723 E1.43638
G1 X135.591 Y132.651 E1.55552
G1 X136.358 Y132.651 E1.57759
G1 X130.428 Y126.721 E1.81887
G1 X129.711 Y126.771 E1.83955
G1 X131.469 Y128.529 E1.91110
G1 X130.703 Y128.529 E1.93316
G1 X128.944 Y126.771 E2.00471
G1 X128.177 Y126.771 E2.02678
G1 X129.936 Y128.529 E2.09833
G1 X129.169 Y128.529 E2.12039
G1 X127.411 Y126.771 E2.19194
G1 X126.644 Y126.771 E2.21400
G1 X128.402 Y128.529 E2.28555
G1 X127.635 Y128.529 E2.30762
G1 X125.877 Y126.771 E2.37916
G1 X125.110 Y126.771 E2.40123
G1 X126.868 Y128.529 E2.47278
G1 X126.101 Y128.529 E2.49484
G1 X124.343 Y126.771 E2.56639
G1 X123.576 Y126.771 E2.58845
G1 X125.335 Y128.529 E2.66000
G1 X124.568 Y128.529 E2.68206
G1 X122.809 Y126.771 E2.75361
G1 X122.043 Y126.771 E2.77567
G1 X123.801 Y128.529 E2.84722
G1 X123.034 Y128.529 E2.86928
G1 X121.276 Y126.771 E2.94083
G1 X120.509 Y126.771 E2.96289
G1 X122.267 Y128.529 E3.03444
G1 X121.500 Y128.529 E3.05650
G1 X119.742 Y126.771 E3.12805
G1 X118.975 Y126.771 E3.15011
G1 X120.733 Y128.529 E3.22165
G1 X119.967 Y128.529 E3.24372
G1 X118.208 Y126.771 E3.31526
G1 X117.442 Y126.771 E3.33732
G1 X119.200 Y128.529 E3.40887
G1 X118.433 Y128.529 E3.43093
G1 X116.675 Y126.771 E3.50247
G1 X115.908 Y126.771 E3.52454
G1 X117.666 Y128.529 E3.59608
G1 X116.899 Y128.529 E3.61814
G1 X115.141 Y126.771 E3.68968
G1 X114.374 Y126.771 E3.71175
G1 X116.132 Y128.529 E3.78329
G1 X115.365 Y128.529 E3.80535
G1 X113.607 Y126.771 E3.87689
G1 X112.840 Y126.771 E3.89895
G1 X114.599 Y128.529 E3.97049
G1 X113.832 Y128.529 E3.99256
G1 X112.074 Y126.771 E4.06410
G1 X111.307 Y126.771 E4.08616
G1 X113.065 Y128.529 E4.15770
G1 X112.298 Y128.529 E4.17976
G1 X110.540 Y126.771 E4.25130
G1 X109.773 Y126.771 E4.27336
G1 X111.531 Y128.529 E4.34490
G1 X110.764 Y128.529 E4.36697
G1 X109.006 Y126.771 E4.43850
G1 X108.239 Y126.771 E4.46057
G1 X109.997 Y128.529 E4.53210
G1 X109.231 Y128.529 E4.55417
G1 X107.473 Y126.771 E4.62570
G1 X106.706 Y126.771 E4.64776
G1 X108.464 Y128.529 E4.71930
G1 X107.697 Y128.529 E4.74136
G1 X105.939 Y126.771 E4.81290
G1 X105.172 Y126.771 F9600.000
G1 X106.930 Y128.529 E4.88443 F4950.000
G1 X106.163 Y128.529 E4.90649
G1 X104.405 Y126.771 E4.97803
G1 X103.638 Y126.771 E5.00009
G1 X105.396 Y128.529 E5.07162
G1 X105.292 Y129.192 E5.09093
G1 X102.871 Y126.771 E5.18944
G1 X102.105 Y126.771 E5.21151
G1 X105.292 Y129.959 E5.34122
G1 X104.843 Y130.276 E5.35705
G1 X101.338 Y126.771 E5.49968
G1 X100.571 Y126.771 E5.52174
G1 X104.076 Y130.276 E5.66437
G1 X103.309 Y130.276 E5.68644
G1 X99.804 Y126.771 E5.82906
G1 X99.037 Y126.771 E5.85113
G1 X102.165 Y129.899 E5.97841
G1 X101.015 Y129.516 E6.01330
G1 X98.663 Y127.163 E6.10901
G1 X98.663 Y127.930 E6.13107
G1 X99.865 Y129.132 E6.17998
G1 X98.714 Y128.749 E6.21487
G1 X98.663 Y128.697 E6.21697
G1 F1500.000 E5.01697
G92 E0
G1 X123.748 Y128.715 F9600.000
G1 X140.478 Y125.223 F9600.000
G1 X138.478 Y114.150 F9600.000
G1 X140.478 Y115.223 F9600.000
G1 X129.385 Y121.086 F9600.000
G1 X98.663 Y120.262 F9600.000
G1 E1.20000 F1500.000
G1 X99.302 Y120.901 E1.22599 F4950.000
G1 X100.068 Y120.901 E1.24806
G1 X98.663 Y119.495 E1.30525
G1 X98.822 Y118.887 E1.32333
G1 X100.835 Y120.901 E1.40526
G1 X101.602 Y120.901 E1.42733
G1 X99.397 Y118.695 E1.51706
G1 X99.972 Y118.504 E1.53451
G1 X102.369 Y120.901 E1.63204
G1 X103.136 Y120.901 E1.65411
G1 X100.547 Y118.312 E1.75944
G1 X101.122 Y118.120 E1.77688
G1 X103.903 Y120.901 E1.89002
G1 X104.670 Y120.901 E1.91209
G1 X101.697 Y117.929 E2.03302
G1 X102.273 Y117.737 E2.05047
G1 X105.436 Y120.901 E2.17921
G1 X106.203 Y120.901 E2.20127
G1 X102.848 Y117.545 E2.33781
G1 X103.465 Y117.396 E2.35609
G1 X106.970 Y120.901 E2.49871
G1 X107.737 Y120.901 E2.52078
G1 X105.979 Y119.143 E2.59231
G1 X106.746 Y119.143 E2.61437
G1 X108.504 Y120.901 E2.68590
G1 X109.271 Y120.901 E2.70797
G1 X107.513 Y119.143 E2.77950
G1 X108.279 Y119.143 E2.80157
G1 X110.037 Y120.901 E2.87310
G1 X110.804 Y120.901 E2.89517
G1 X109.046 Y119.143 E2.96670
G1 X109.813 Y119.143 E2.98876
G1 X111.571 Y120.901 E3.06030
G1 X112.338 Y120.901 E3.08236
G1 X110.580 Y119.143 E3.15390
G1 X111.347 Y119.143 E3.17596
G1 X113.105 Y120.901 E3.24750
G1 X113.872 Y120.901 E3.26956
G1 X112.114 Y119.143 E3.34110
G1 X112.880 Y119.143 E3.36316
G1 X114.639 Y120.901 E3.43470
G1 X115.405 Y120.901 E3.45676
G1 X113.647 Y119.143 E3.52830
G1 X114.414 Y119.143 E3.55037
G1 X116.172 Y120.901 E3.62190
G1 X116.939 Y120.901 E3.64397
G1 X115.181 Y119.143 E3.71551
G1 X115.948 Y119.143 E3.73757
G1 X117.706 Y120.901 E3.80911
G1 X118.473 Y120.901 E3.83118
G1 X116.715 Y119.143 E3.90272
G1 X117.481 Y119.142 E3.92478
G1 X119.240 Y120.901 E3.99632
G1 X120.006 Y120.901 E4.01838
G1 X118.248 Y119.142 E4.08993
G1 X119.015 Y119.142 E4.11199
G1 X120.773 Y120.901 E4.18353
G1 X121.540 Y120.901 E4.20560
G1 X119.782 Y119.142 E4.27714
G1 X120.549 Y119.142 E4.29920
G1 X122.307 Y120.901 E4.37074
G1 X123.074 Y120.901 E4.39281
G1 X121.316 Y119.142 E4.46435
G1 X122.082 Y119.142 E4.48642
G1 X123.841 Y120.901 E4.55796
G1 X124.608 Y120.901 E4.58002
G1 X122.849 Y119.142 E4.65157
G1 X123.616 Y119.142 E4.67363
G1 X125.374 Y120.901 E4.74518
G1 X126.141 Y120.901 E4.76724
G1 X124.383 Y119.142 E4.83879
G1 X125.150 Y119.142 E4.86085
G1 X126.908 Y120.901 E4.93240
G1 X127.675 Y120.901 E4.95446
G1 X125.917 Y119.142 E5.02601
G1 X126.683 Y119.142 E5.04807
G1 X128.442 Y120.901 E5.11962
G1 X129.209 Y120.901 E5.14168
G1 X127.450 Y119.142 E5.21323
G1 X128.217 Y119.142 E5.23530
G1 X129.975 Y120.901 E5.30684
G1 X130.929 Y121.087 E5.33479
G1 X128.984 Y119.142 E5.41393
G1 X129.751 Y119.142 E5.43599
G1 X140.292 Y129.684 E5.86495
G1 X140.292 Y128.917 E5.88701
G1 X130.518 Y119.142 E6.28476
G1 X131.284 Y119.142 E6.30682
G1 X140.292 Y128.150 E6.67337
G1 X140.292 Y127.383 E6.69543
G1 X132.051 Y119.142 E7.03078
G1 X132.663 Y118.987 E7.04893
G1 X140.292 Y126.616 E7.35939
G1 X140.292 Y125.850 E7.38145
G1 X132.663 Y118.220 E7.69191
G1 X132.663 Y117.453 E7.71398
G1 X140.292 Y125.083 E8.02444
G1 X140.292 Y124.316 E8.04650
G1 X132.663 Y116.686 E8.35696
G1 X132.663 Y115.920 E8.37902
G1 X140.292 Y123.549 E8.68948
G1 X140.292 Y122.782 E8.71155
G1 X132.663 Y115.153 E9.02200
G1 X133.298 Y115.021 E9.04067
G1 X140.292 Y122.015 E9.32528
G1 X140.292 Y121.249 E9.34735
G1 X134.065 Y115.021 E9.60075
G1 X134.832 Y115.021 E9.62282
G1 X140.292 Y120.482 E9.84502
G1 X140.292 Y119.715 E9.86708
G1 X135.599 Y115.021 E10.05808
G1 X136.365 Y115.021 E10.08015
G1 X140.292 Y118.948 E10.23994
G1 X140.292 Y118.181 E10.26201
G1 X137.132 Y115.021 E10.39060
G1 X137.899 Y115.021 E10.41266
G1 X140.292 Y117.414 E10.51005
G1 X140.292 Y116.647 E10.53211
G1 X138.663 Y115.018 E10.59842
G1 X138.663 Y114.251 E10.62049
G1 X140.292 Y115.881 E10.68680
G1 X140.292 Y115.114 E10.70886
G1 X138.663 Y113.484 E10.77517
G1 X138.663 Y112.717 E10.79723
G1 X140.292 Y114.347 E10.86354
G1 X140.292 Y113.580 E10.88561
G1 X138.663 Y111.951 E10.95192
G1 X138.663 Y111.184 E10.97398
G1 X140.292 Y112.813 E11.04029
G1 X140.292 Y112.046 E11.06236
G1 X138.663 Y110.417 E11.12867
G1 X138.663 Y109.650 E11.15073
G1 X140.292 Y111.280 E11.21704
G1 X140.292 Y110.513 E11.23910
G1 X138.663 Y108.883 E11.30541
G1 X138.663 Y108.116 E11.32748
G1 X140.292 Y109.746 E11.39379
G1 X140.292 Y108.979 E11.41585
G1 X138.663 Y107.349 E11.48216
G1 X138.663 Y106.583 E11.50423
G1 X140.292 Y108.212 E11.57054
G1 X140.292 Y107.445 E11.59260
G1 X138.719 Y105.872 E11.65664
G1 X139.486 Y105.872 E11.67870
G1 X140.292 Y106.678 E11.71153
G1 X140.292 Y105.912 E11.73360
G1 X140.252 Y105.872 E11.73522
G1 F1500.000 E10.53522
G92 E0
G1 X140.478 Y115.223 F9600.000
G1 X129.385 Y121.086 F9600.000
G1 X99.385 Y121.086 F9600.000
G1 X104.999 Y117.396 F9600.000
G1 E1.20000 F1500.000
G1 X105.292 Y117.689 E1.21195 F4950.000
G1 X105.292 Y118.456 E1.23402
G1 X104.232 Y117.396 E1.27717
M204 S2000
G1 F1500.000 E0.07717
G92 E0
G1 X90.962 Y138.829 F9600.000
G1 E1.20000 F1500.000
G1 X96.962 Y138.829 E1.37264 F4500.000
G1 X96.962 Y142.950 E1.49122
G1 X123.590 Y142.951 E2.25741
G1 X123.590 Y141.204 E2.30768
G1 X126.017 Y141.204 E2.37752
G1 X130.962 Y142.852 E2.52748
G1 X130.962 Y145.451 E2.60225
G1 X99.249 Y145.451 E3.51474
G1 X98.676 Y145.522 E3.53136
G1 X98.115 Y145.755 E3.54882
G1 X97.671 Y146.096 E3.56493
G1 X97.289 Y146.574 E3.58256
G1 X97.236 Y146.675 E3.58583
G1 X97.040 Y147.149 E3.60060
G1 X97.021 Y147.262 E3.60389
G1 X96.962 Y147.712 E3.61693
G1 X96.962 Y148.318 E3.63439
G1 X97.040 Y148.880 E3.65072
G1 X97.289 Y149.456 E3.66875
G1 X97.593 Y149.852 E3.68312
G1 X97.671 Y149.934 E3.68639
G1 X98.115 Y150.275 E3.70250
G1 X98.676 Y150.507 E3.71995
G1 X99.249 Y150.579 E3.73658
G1 X130.962 Y150.579 E4.64907
G1 X130.962 Y153.178 E4.72384
G1 X126.017 Y154.826 E4.87380
G1 X123.590 Y154.826 E4.94364
G1 X123.590 Y153.079 E4.99391
G1 X96.962 Y153.079 E5.76010
G1 X96.962 Y157.201 E5.87868
G1 X90.962 Y157.201 E6.05132
G1 X90.962 Y166.350 E6.31458
G1 X88.590 Y166.350 E6.38281
G1 X88.590 Y129.680 E7.43793
G1 X90.962 Y129.680 E7.50617
G1 X90.962 Y138.754 E7.76727
G1 X91.501 Y138.290 F9600.000
G1 X97.501 Y138.290 E7.93991 F3375.000
G1 X97.501 Y142.411 E8.05849
G1 X123.051 Y142.412 E8.79364
G1 X123.051 Y140.664 E8.84391
G1 X126.105 Y140.664 E8.93178
G1 X131.501 Y142.463 E9.09545
G1 X131.501 Y145.990 E9.19692
G1 X99.267 Y145.990 E10.12441
G1 X98.816 Y146.048 E10.13748
G1 X98.387 Y146.226 E10.15084
G1 X98.033 Y146.498 E10.16369
G1 X97.726 Y146.903 E10.17833
G1 X97.554 Y147.342 E10.19189
G1 X97.501 Y147.747 E10.20364
G1 X97.501 Y148.283 E10.21906
G1 X97.562 Y148.731 E10.23207
G1 X97.745 Y149.165 E10.24564
G1 X98.003 Y149.501 E10.25783
G1 X98.387 Y149.804 E10.27190
G1 X98.816 Y149.982 E10.28526
G1 X99.267 Y150.040 E10.29834
G1 X131.501 Y150.040 E11.22582
G1 X131.501 Y153.567 E11.32730
G1 X126.105 Y155.365 E11.49096
G1 X123.051 Y155.365 E11.57883
G1 X123.051 Y153.618 E11.62910
G1 X97.501 Y153.619 E12.36425
G1 X97.501 Y157.740 E12.48283
G1 X91.501 Y157.740 E12.65547
G1 X91.501 Y166.889 E12.91873
G1 X88.051 Y166.889 E13.01800
G1 X88.051 Y129.141 E14.10416
G1 X91.501 Y129.141 E14.20342
G1 X91.501 Y138.215 E14.46452
G1 X91.501 Y138.790 F9600.000
G1 X91.363 Y139.200 F9600.000
G1 X97.738 Y145.576 E14.72397 F4950.000
