; generated by Slic3r 1.1.4 on 2014-07-17 at 18:13:58

; perimeters extrusion width = 0.50mm
; infill extrusion width = 0.60mm
; solid infill extrusion width = 0.60mm
; top infill extrusion width = 0.43mm

G21 ; set units to millimeters
G28 ; home all axes
G90 ; use absolute coordinates
G92 E0
M82 ; use absolute distances for extrusion
M204 S2000
G1 F1500.000 E-1.50000
G92 E0
G1 Z0.350 F9600.000
G1 X165.656 Y173.168 F9600.000
G1 E1.50000 F1500.000
G1 X185.525 Y157.474 E2.22852 F2700.000
G1 X187.606 Y156.337 E2.29675
G1 X189.912 Y155.951 E2.36405
G1 X238.083 Y155.951 E3.75008
G1 X240.421 Y156.348 E3.81831
G1 X242.496 Y157.495 E3.88653
G1 X243.412 Y158.370 E3.92300
G1 X263.417 Y181.254 E4.79755
G1 X264.656 Y183.275 E4.86577
G1 X265.166 Y185.912 E4.94306
G1 X265.166 Y253.734 E6.89449
G1 X264.769 Y256.071 E6.96272
G1 X263.622 Y258.147 E7.03095
G1 X261.854 Y259.727 E7.09918
G1 X259.663 Y260.634 E7.16741
G1 X258.088 Y260.812 E7.21303
G1 X170.044 Y260.812 E9.74634
G1 X167.706 Y260.415 E9.81457
G1 X165.631 Y259.268 E9.88280
G1 X164.050 Y257.500 E9.95102
G1 X163.143 Y255.309 E10.01925
G1 X162.965 Y253.734 E10.06488
G1 X162.965 Y178.723 E12.22317
G1 X163.362 Y176.385 E12.29140
G1 X164.509 Y174.310 E12.35962
G1 X165.603 Y173.221 E12.40403
G1 X165.990 Y173.592 F9600.000
G1 X185.859 Y157.898 E13.13255 F2700.000
G1 X187.866 Y156.818 E13.19811
G1 X189.912 Y156.490 E13.25775
G1 X238.083 Y156.490 E14.64377
G1 X240.327 Y156.887 E14.70933
G1 X243.006 Y158.725 E14.80284
G1 X263.011 Y181.609 E15.67738
G1 X264.189 Y183.559 E15.74294
G1 X264.627 Y185.912 E15.81182
G1 X264.627 Y253.734 E17.76325
G1 X264.230 Y255.977 E17.82881
G1 X263.087 Y257.948 E17.89437
G1 X261.338 Y259.408 E17.95993
G1 X258.088 Y260.273 E18.05670
G1 X170.044 Y260.273 E20.59000
G1 X167.800 Y259.876 E20.65556
G1 X165.829 Y258.733 E20.72112
G1 X164.369 Y256.984 E20.78668
G1 X163.504 Y253.734 E20.88345
G1 X163.504 Y178.723 E23.04174
G1 X163.901 Y176.480 E23.10730
G1 X165.044 Y174.508 E23.17286
G1 X165.936 Y173.644 E23.20861
G1 F1500.000 E21.70861
G92 E0
G1 X235.495 Y249.995 F9600.000
G1 E1.50000 F1500.000
G1 X234.911 Y250.443 E1.52119 F4500.000
G1 X234.230 Y250.725 E1.54238
G1 X233.553 Y250.814 E1.56202
G1 X225.447 Y250.814 E1.79528
G1 X224.770 Y250.725 E1.81493
G1 X224.089 Y250.443 E1.83612
G1 X223.505 Y249.995 E1.85731
G1 X223.057 Y249.411 E1.87850
G1 X222.775 Y248.730 E1.89969
G1 X222.679 Y248.000 E1.92088
G1 X222.775 Y247.270 E1.94208
G1 X223.057 Y246.589 E1.96327
G1 X223.505 Y246.005 E1.98446
G1 X224.089 Y245.557 E2.00565
G1 X224.770 Y245.275 E2.02684
G1 X225.447 Y245.186 E2.04648
G1 X233.553 Y245.186 E2.27974
G1 X234.230 Y245.275 E2.29939
G1 X234.911 Y245.557 E2.32058
G1 X235.495 Y246.005 E2.34177
G1 X235.943 Y246.589 E2.36296
G1 X236.225 Y247.270 E2.38415
G1 X236.321 Y248.000 E2.40534
G1 X236.225 Y248.730 E2.42654
G1 X235.943 Y249.411 E2.44773
G1 X235.541 Y249.935 E2.46676
G1 X235.110 Y249.610 F9600.000
G1 X234.639 Y249.972 E2.48387 F3375.000
G1 X234.089 Y250.200 E2.50097
G1 X233.518 Y250.275 E2.51756
G1 X225.482 Y250.275 E2.74878
G1 X224.911 Y250.200 E2.76536
G1 X224.361 Y249.972 E2.78247
G1 X223.890 Y249.610 E2.79957
G1 X223.528 Y249.139 E2.81668
G1 X223.300 Y248.589 E2.83379
G1 X223.223 Y248.000 E2.85089
G1 X223.300 Y247.411 E2.86800
G1 X223.528 Y246.861 E2.88511
G1 X223.860 Y246.428 E2.90082
G1 X224.361 Y246.028 E2.91927
G1 X224.911 Y245.800 E2.93638
G1 X225.482 Y245.725 E2.95296
G1 X233.518 Y245.725 E3.18418
G1 X234.089 Y245.800 E3.20077
G1 X234.639 Y246.028 E3.21787
G1 X235.110 Y246.390 E3.23498
G1 X235.472 Y246.861 E3.25209
G1 X235.700 Y247.411 E3.26919
G1 X235.777 Y248.000 E3.28630
G1 X235.700 Y248.589 E3.30340
G1 X235.472 Y249.139 E3.32051
G1 X235.156 Y249.551 E3.33546
G1 X235.219 Y250.099 F9600.000
G1 F1500.000 E1.83546
G92 E0
G1 X245.840 Y245.297 F9600.000
G1 E1.50000 F1500.000
G1 X245.606 Y244.392 E1.52689 F4500.000
G1 X245.609 Y243.572 E1.55049
G1 X245.810 Y242.777 E1.57410
G1 X246.232 Y241.991 E1.59977
G1 X246.307 Y241.910 E1.60295
G1 X246.820 Y241.364 E1.62450
G1 X247.563 Y240.901 E1.64970
G1 X248.359 Y240.640 E1.67380
G1 X249.130 Y240.591 E1.69602
G1 X249.240 Y240.591 E1.69919
G1 X250.063 Y240.750 E1.72331
G1 X250.816 Y241.104 E1.74727
G1 X251.463 Y241.633 E1.77131
G1 X252.016 Y242.397 E1.79845
G1 X252.317 Y243.178 E1.82251
G1 X252.408 Y243.899 E1.84345
G1 X252.419 Y244.000 E1.84636
G1 X252.313 Y244.851 E1.87104
G1 X251.973 Y245.682 E1.89688
G1 X251.551 Y246.262 E1.91751
G1 X251.424 Y246.399 E1.92289
G1 X250.871 Y246.857 E1.94356
G1 X250.777 Y246.915 E1.94671
G1 X250.020 Y247.261 E1.97067
G1 X249.307 Y247.397 E1.99154
G1 X249.198 Y247.413 E1.99472
G1 X248.372 Y247.361 E2.01854
G1 X248.266 Y247.330 E2.02172
G1 X247.574 Y247.105 E2.04266
G1 X246.784 Y246.599 E2.06965
G1 X246.232 Y246.004 E2.09301
G1 X245.876 Y245.363 E2.11410
G1 X246.332 Y245.073 F9600.000
G1 X246.145 Y244.347 E2.13568 F3375.000
G1 X246.146 Y243.640 E2.15603
G1 X246.321 Y242.954 E2.17639
G1 X246.701 Y242.278 E2.19869
G1 X247.166 Y241.783 E2.21826
G1 X247.782 Y241.395 E2.23920
G1 X248.461 Y241.174 E2.25974
G1 X249.148 Y241.130 E2.27954
G1 X249.891 Y241.265 E2.30128
G1 X250.536 Y241.568 E2.32177
G1 X251.086 Y242.021 E2.34228
G1 X251.528 Y242.631 E2.36397
G1 X251.788 Y243.295 E2.38448
G1 X251.872 Y243.961 E2.40381
G1 X251.787 Y244.716 E2.42566
G1 X251.512 Y245.399 E2.44685
G1 X251.120 Y245.939 E2.46606
G1 X250.521 Y246.440 E2.48852
G1 X249.875 Y246.739 E2.50899
G1 X249.216 Y246.865 E2.52829
G1 X248.425 Y246.815 E2.55112
G1 X247.786 Y246.607 E2.57043
G1 X247.153 Y246.203 E2.59205
G1 X246.672 Y245.689 E2.61231
G1 X246.369 Y245.139 E2.63038
G1 X245.841 Y244.980 F9600.000
G1 F1500.000 E1.13038
G92 E0
G1 X234.911 Y219.443 F9600.000
G1 E1.50000 F1500.000
G1 X234.230 Y219.725 E1.52119 F4500.000
G1 X233.553 Y219.814 E1.54083
G1 X225.447 Y219.814 E1.77409
G1 X224.770 Y219.725 E1.79373
G1 X224.089 Y219.443 E1.81493
G1 X223.505 Y218.995 E1.83612
G1 X223.057 Y218.411 E1.85731
G1 X222.775 Y217.730 E1.87850
G1 X222.679 Y217.000 E1.89969
G1 X222.775 Y216.270 E1.92089
G1 X223.057 Y215.589 E1.94208
G1 X223.505 Y215.005 E1.96327
G1 X224.089 Y214.557 E1.98446
G1 X224.770 Y214.275 E2.00565
G1 X225.447 Y214.186 E2.02529
G1 X233.553 Y214.186 E2.25855
G1 X234.230 Y214.275 E2.27820
G1 X234.911 Y214.557 E2.29939
G1 X235.495 Y215.005 E2.32058
G1 X235.943 Y215.589 E2.34177
G1 X236.225 Y216.270 E2.36296
G1 X236.321 Y217.000 E2.38415
G1 X236.225 Y217.730 E2.40534
G1 X235.943 Y218.411 E2.42654
G1 X235.495 Y218.995 E2.44773
G1 X234.970 Y219.398 E2.46676
G1 X234.639 Y218.972 F9600.000
G1 X234.089 Y219.200 E2.48387 F3375.000
G1 X233.518 Y219.275 E2.50045
G1 X225.482 Y219.275 E2.73167
G1 X224.911 Y219.200 E2.74826
G1 X224.361 Y218.972 E2.76536
G1 X223.890 Y218.610 E2.78247
G1 X223.528 Y218.139 E2.79957
G1 X223.294 Y217.541 E2.81803
G1 X223.223 Y217.000 E2.83374
G1 X223.300 Y216.411 E2.85085
G1 X223.528 Y215.861 E2.86795
G1 X223.890 Y215.390 E2.88506
G1 X224.361 Y215.028 E2.90217
G1 X224.911 Y214.800 E2.91927
G1 X225.482 Y214.725 E2.93586
G1 X233.518 Y214.725 E3.16708
G1 X234.089 Y214.800 E3.18366
G1 X234.639 Y215.028 E3.20077
G1 X235.110 Y215.390 E3.21787
G1 X235.472 Y215.861 E3.23498
G1 X235.700 Y216.411 E3.25209
G1 X235.777 Y217.000 E3.26919
G1 X235.700 Y217.589 E3.28630
G1 X235.472 Y218.139 E3.30341
G1 X235.110 Y218.610 E3.32051
G1 X234.698 Y218.927 E3.33546
G1 X234.617 Y219.472 F9600.000
G1 F1500.000 E1.83546
G92 E0
G1 X228.644 Y223.694 F9600.000
G1 E1.50000 F1500.000
G1 X229.176 Y224.380 E1.52497 F4500.000
G1 X229.664 Y225.098 E1.54994
G1 X230.106 Y225.845 E1.57491
G1 X230.480 Y226.578 E1.59860
G1 X230.845 Y227.414 E1.62485
G1 X231.139 Y228.231 E1.64982
G1 X231.381 Y229.064 E1.67479
G1 X231.570 Y229.911 E1.69977
G1 X231.706 Y230.768 E1.72474
G1 X231.787 Y231.633 E1.74971
G1 X231.815 Y232.500 E1.77468
G1 X231.789 Y233.323 E1.79837
G1 X231.706 Y234.231 E1.82462
G1 X231.570 Y235.089 E1.84959
G1 X231.381 Y235.936 E1.87456
G1 X231.139 Y236.769 E1.89954
G1 X230.860 Y237.544 E1.92322
G1 X230.500 Y238.382 E1.94947
G1 X230.106 Y239.155 E1.97445
G1 X229.664 Y239.902 E1.99941
G1 X229.176 Y240.620 E2.02439
G1 X228.672 Y241.271 E2.04807
G1 X228.071 Y241.957 E2.07432
G1 X227.457 Y242.571 E2.09930
G1 X226.806 Y243.144 E2.12427
G1 X226.120 Y243.676 E2.14924
G1 X225.402 Y244.164 E2.17421
G1 X224.655 Y244.606 E2.19918
G1 X223.882 Y245.000 E2.22415
G1 X223.044 Y245.360 E2.25040
G1 X222.269 Y245.639 E2.27409
G1 X221.436 Y245.881 E2.29906
G1 X220.589 Y246.070 E2.32403
G1 X219.732 Y246.206 E2.34900
G1 X218.867 Y246.287 E2.37398
G1 X218.013 Y246.314 E2.39858
G1 X209.987 Y246.314 E2.62950
G1 X209.133 Y246.287 E2.65411
G1 X208.269 Y246.206 E2.67908
G1 X207.455 Y246.077 E2.70276
G1 X206.564 Y245.881 E2.72902
G1 X205.731 Y245.638 E2.75399
G1 X204.956 Y245.360 E2.77767
G1 X204.118 Y245.000 E2.80393
G1 X203.345 Y244.606 E2.82890
G1 X202.636 Y244.187 E2.85259
G1 X201.880 Y243.676 E2.87884
G1 X201.161 Y243.115 E2.90509
G1 X200.543 Y242.570 E2.92878
G1 X199.930 Y241.957 E2.95375
G1 X199.356 Y241.306 E2.97872
G1 X198.824 Y240.620 E3.00369
G1 X198.313 Y239.864 E3.02994
G1 X197.894 Y239.155 E3.05363
G1 X197.500 Y238.382 E3.07860
G1 X197.155 Y237.586 E3.10357
G1 X196.861 Y236.769 E3.12854
G1 X196.619 Y235.936 E3.15351
G1 X196.430 Y235.089 E3.17848
G1 X196.294 Y234.231 E3.20346
G1 X196.213 Y233.367 E3.22843
G1 X196.185 Y232.500 E3.25340
G1 X196.213 Y231.633 E3.27837
G1 X196.294 Y230.768 E3.30334
G1 X196.430 Y229.911 E3.32831
G1 X196.619 Y229.064 E3.35329
G1 X196.861 Y228.231 E3.37825
G1 X197.155 Y227.414 E3.40323
G1 X197.520 Y226.578 E3.42948
G1 X197.894 Y225.845 E3.45317
G1 X198.336 Y225.098 E3.47814
G1 X198.824 Y224.380 E3.50311
G1 X199.328 Y223.729 E3.52679
G1 X199.930 Y223.043 E3.55305
G1 X200.543 Y222.430 E3.57802
G1 X201.194 Y221.856 E3.60299
G1 X201.880 Y221.324 E3.62796
G1 X202.598 Y220.836 E3.65293
G1 X203.345 Y220.394 E3.67790
G1 X204.118 Y220.000 E3.70287
G1 X204.956 Y219.640 E3.72913
G1 X205.731 Y219.361 E3.75281
G1 X206.564 Y219.119 E3.77778
G1 X207.411 Y218.930 E3.80275
G1 X208.269 Y218.794 E3.82773
G1 X209.133 Y218.713 E3.85270
G1 X209.987 Y218.686 E3.87730
G1 X218.013 Y218.686 E4.10822
G1 X218.867 Y218.713 E4.13283
G1 X219.731 Y218.794 E4.15780
G1 X220.589 Y218.930 E4.18277
G1 X221.436 Y219.119 E4.20774
G1 X222.269 Y219.362 E4.23271
G1 X223.086 Y219.655 E4.25768
G1 X223.882 Y220.000 E4.28265
G1 X224.655 Y220.394 E4.30762
G1 X225.402 Y220.836 E4.33260
G1 X226.120 Y221.324 E4.35757
G1 X226.806 Y221.856 E4.38254
G1 X227.457 Y222.430 E4.40751
G1 X228.071 Y223.043 E4.43248
G1 X228.595 Y223.638 E4.45529
G1 X228.229 Y224.038 F9600.000
G1 X228.740 Y224.697 E4.47929 F3375.000
G1 X229.209 Y225.387 E4.50328
G1 X229.633 Y226.105 E4.52728
G1 X229.999 Y226.823 E4.55048
G1 X230.343 Y227.613 E4.57527
G1 X230.625 Y228.398 E4.59926
G1 X230.858 Y229.199 E4.62326
G1 X231.040 Y230.012 E4.64726
G1 X231.170 Y230.836 E4.67125
G1 X231.249 Y231.666 E4.69525
G1 X231.275 Y232.500 E4.71924
G1 X231.250 Y233.306 E4.74244
G1 X231.170 Y234.164 E4.76724
G1 X231.040 Y234.988 E4.79123
G1 X230.858 Y235.801 E4.81523
G1 X230.625 Y236.602 E4.83922
G1 X230.352 Y237.361 E4.86242
G1 X230.012 Y238.152 E4.88721
G1 X229.633 Y238.895 E4.91121
G1 X229.209 Y239.613 E4.93520
G1 X228.740 Y240.303 E4.95920
G1 X228.246 Y240.940 E4.98240
G1 X227.677 Y241.587 E5.00719
G1 X227.087 Y242.177 E5.03119
G1 X226.462 Y242.729 E5.05518
G1 X225.803 Y243.240 E5.07918
G1 X225.113 Y243.709 E5.10317
G1 X224.395 Y244.133 E5.12717
G1 X223.652 Y244.512 E5.15117
G1 X222.861 Y244.852 E5.17596
G1 X222.102 Y245.125 E5.19916
G1 X221.301 Y245.358 E5.22315
G1 X220.488 Y245.540 E5.24715
G1 X219.664 Y245.670 E5.27114
G1 X218.834 Y245.749 E5.29514
G1 X218.004 Y245.775 E5.31901
G1 X209.996 Y245.775 E5.54944
G1 X209.166 Y245.749 E5.57332
G1 X208.336 Y245.670 E5.59731
G1 X207.512 Y245.540 E5.62131
G1 X206.726 Y245.364 E5.64451
G1 X205.898 Y245.125 E5.66930
G1 X205.113 Y244.843 E5.69329
G1 X204.348 Y244.512 E5.71729
G1 X203.605 Y244.133 E5.74129
G1 X202.887 Y243.709 E5.76528
G1 X202.197 Y243.240 E5.78928
G1 X201.538 Y242.729 E5.81327
G1 X200.913 Y242.177 E5.83727
G1 X200.323 Y241.587 E5.86127
G1 X199.771 Y240.962 E5.88526
G1 X199.260 Y240.303 E5.90926
G1 X198.791 Y239.613 E5.93325
G1 X198.367 Y238.895 E5.95725
G1 X197.988 Y238.152 E5.98124
G1 X197.657 Y237.387 E6.00524
G1 X197.367 Y236.576 E6.03003
G1 X197.142 Y235.801 E6.05323
G1 X196.960 Y234.988 E6.07722
G1 X196.830 Y234.164 E6.10122
G1 X196.751 Y233.334 E6.12522
G1 X196.725 Y232.500 E6.14921
G1 X196.751 Y231.666 E6.17321
G1 X196.830 Y230.836 E6.19721
G1 X196.960 Y230.012 E6.22120
G1 X197.142 Y229.199 E6.24520
G1 X197.375 Y228.398 E6.26919
G1 X197.657 Y227.613 E6.29319
G1 X198.001 Y226.823 E6.31798
G1 X198.367 Y226.105 E6.34118
G1 X198.791 Y225.387 E6.36517
G1 X199.260 Y224.697 E6.38917
G1 X199.771 Y224.038 E6.41317
G1 X200.323 Y223.413 E6.43716
G1 X200.913 Y222.823 E6.46116
G1 X201.560 Y222.254 E6.48595
G1 X202.197 Y221.760 E6.50915
G1 X202.887 Y221.291 E6.53314
G1 X203.605 Y220.867 E6.55714
G1 X204.348 Y220.488 E6.58114
G1 X205.139 Y220.148 E6.60593
G1 X205.898 Y219.875 E6.62912
G1 X206.699 Y219.642 E6.65312
G1 X207.512 Y219.460 E6.67712
G1 X208.336 Y219.330 E6.70111
G1 X209.166 Y219.251 E6.72511
G1 X209.996 Y219.225 E6.74898
G1 X218.004 Y219.225 E6.97941
G1 X218.834 Y219.251 E7.00329
G1 X219.664 Y219.330 E7.02728
G1 X220.488 Y219.460 E7.05128
G1 X221.301 Y219.642 E7.07527
G1 X222.102 Y219.875 E7.09927
G1 X222.887 Y220.157 E7.12327
G1 X223.652 Y220.488 E7.14726
G1 X224.395 Y220.867 E7.17126
G1 X225.113 Y221.291 E7.19525
G1 X225.803 Y221.760 E7.21925
G1 X226.462 Y222.271 E7.24324
G1 X227.087 Y222.823 E7.26724
G1 X227.677 Y223.413 E7.29124
G1 X228.179 Y223.982 E7.31307
G1 X228.723 Y223.960 F9600.000
G1 F1500.000 E5.81307
G92 E0
G1 X205.225 Y217.730 F9600.000
G1 E1.50000 F1500.000
G1 X204.943 Y218.411 E1.52119 F4500.000
G1 X204.495 Y218.995 E1.54238
G1 X203.911 Y219.443 E1.56357
G1 X203.230 Y219.725 E1.58477
G1 X202.553 Y219.814 E1.60441
G1 X194.447 Y219.814 E1.83767
G1 X193.770 Y219.725 E1.85731
G1 X193.089 Y219.443 E1.87850
G1 X192.505 Y218.995 E1.89969
G1 X192.057 Y218.411 E1.92088
G1 X191.775 Y217.730 E1.94207
G1 X191.679 Y217.000 E1.96326
G1 X191.775 Y216.270 E1.98446
G1 X192.057 Y215.589 E2.00565
G1 X192.505 Y215.005 E2.02684
G1 X193.089 Y214.557 E2.04803
G1 X193.770 Y214.275 E2.06922
G1 X194.447 Y214.186 E2.08887
G1 X202.553 Y214.186 E2.32213
G1 X203.230 Y214.275 E2.34177
G1 X203.911 Y214.557 E2.36296
G1 X204.495 Y215.005 E2.38415
G1 X204.943 Y215.589 E2.40534
G1 X205.225 Y216.270 E2.42653
G1 X205.321 Y217.000 E2.44773
G1 X205.235 Y217.656 E2.46676
G1 X204.700 Y217.589 F9600.000
G1 X204.472 Y218.139 E2.48387 F3375.000
G1 X204.110 Y218.610 E2.50097
G1 X203.639 Y218.972 E2.51808
G1 X203.089 Y219.200 E2.53518
G1 X202.518 Y219.275 E2.55177
G1 X194.482 Y219.275 E2.78299
G1 X193.911 Y219.200 E2.79957
G1 X193.361 Y218.972 E2.81668
G1 X192.890 Y218.610 E2.83379
G1 X192.528 Y218.139 E2.85089
G1 X192.300 Y217.589 E2.86800
G1 X192.223 Y217.000 E2.88510
G1 X192.294 Y216.459 E2.90082
G1 X192.528 Y215.861 E2.91927
G1 X192.890 Y215.390 E2.93638
G1 X193.361 Y215.028 E2.95348
G1 X193.911 Y214.800 E2.97059
G1 X194.482 Y214.725 E2.98717
G1 X202.518 Y214.725 E3.21840
G1 X203.089 Y214.800 E3.23498
G1 X203.639 Y215.028 E3.25209
G1 X204.110 Y215.390 E3.26919
G1 X204.472 Y215.861 E3.28630
G1 X204.700 Y216.411 E3.30340
G1 X204.777 Y217.000 E3.32051
G1 X204.710 Y217.515 E3.33546
G1 X205.038 Y217.958 F9600.000
G1 F1500.000 E1.83546
G92 E0
G1 X181.962 Y232.302 F9600.000
G1 E1.50000 F1500.000
G1 X182.016 Y232.398 E1.50316 F4500.000
G1 X182.317 Y233.177 E1.52721
G1 X182.419 Y234.000 E1.55106
G1 X182.313 Y234.851 E1.57574
G1 X181.973 Y235.682 E1.60158
G1 X181.497 Y236.334 E1.62480
G1 X180.871 Y236.857 E1.64828
G1 X180.020 Y237.261 E1.67537
G1 X179.198 Y237.413 E1.69941
G1 X178.372 Y237.361 E1.72323
G1 X177.574 Y237.105 E1.74736
G1 X177.477 Y237.053 E1.75051
G1 X176.784 Y236.599 E1.77435
G1 X176.232 Y236.004 E1.79772
G1 X175.840 Y235.297 E1.82097
G1 X175.624 Y234.500 E1.84474
G1 X175.606 Y234.392 E1.84788
G1 X175.609 Y233.572 E1.87146
G1 X175.810 Y232.777 E1.89508
