; generated by Slic3r 1.1.4 on 2014-10-31 at 12:44:14

; perimeters extrusion width = 0.32mm
; infill extrusion width = 0.34mm
; solid infill extrusion width = 0.32mm
; top infill extrusion width = 0.30mm

G21 ; set units to millimeters
M301 P34 I4 D113     ; set PID nozzle
M304 P162 I17 D378 ; set PID Bed

M104 S230                 ; set extruder temp
M140 S105                 ; set bed temp

G28                       ; home
G1 Z5 F300                ; move bed down 5mm
M84                       ; disable steppers
G4 S300                   ; wait 5 mins to preheat

G28                            ; home
G90 ; use absolute coordinates
G92 E0
M82 ; use absolute distances for extrusion
G1 F1500.000 E-1.80000
G92 E0
G1 Z0.286 F9300.000
G1 X107.461 Y204.610 F9300.000
G1 E1.80000 F1500.000
G1 X107.886 Y204.226 E1.80957 F3060.000
G1 X108.328 Y203.861 E1.81916
G1 X108.785 Y203.516 E1.82874
G1 X109.257 Y203.192 E1.83831
G1 X109.744 Y202.889 E1.84791
G1 X110.244 Y202.609 E1.85749
G1 X110.756 Y202.351 E1.86707
G1 X111.278 Y202.117 E1.87665
G1 X111.810 Y201.907 E1.88622
G1 X112.352 Y201.720 E1.89580
G1 X112.902 Y201.558 E1.90540
G1 X113.458 Y201.420 E1.91497
G1 X114.020 Y201.308 E1.92456
G1 X114.586 Y201.221 E1.93413
G1 X115.155 Y201.160 E1.94370
G1 X115.727 Y201.124 E1.95329
G1 X163.823 Y201.114 E2.75766
G1 X164.396 Y201.130 E2.76724
G1 X164.967 Y201.171 E2.77682
G1 X165.535 Y201.238 E2.78638
G1 X166.102 Y201.330 E2.79599
G1 X166.663 Y201.448 E2.80557
G1 X167.217 Y201.591 E2.81515
G1 X167.772 Y201.761 E2.82485
G1 X168.305 Y201.950 E2.83431
G1 X168.836 Y202.166 E2.84390
G1 X169.356 Y202.405 E2.85348
G1 X169.872 Y202.672 E2.86318
G1 X170.362 Y202.953 E2.87264
G1 X170.845 Y203.260 E2.88220
G1 X171.314 Y203.588 E2.89177
G1 X171.769 Y203.938 E2.90138
G1 X172.208 Y204.307 E2.91097
G1 X172.628 Y204.696 E2.92055
G1 X173.032 Y205.103 E2.93013
G1 X173.416 Y205.527 E2.93970
G1 X173.780 Y205.968 E2.94925
G1 X174.126 Y206.427 E2.95887
G1 X174.449 Y206.899 E2.96844
G1 X174.752 Y207.386 E2.97804
G1 X175.033 Y207.886 E2.98762
G1 X175.290 Y208.396 E2.99717
G1 X175.524 Y208.918 E3.00675
G1 X175.735 Y209.453 E3.01636
G1 X175.922 Y209.994 E3.02593
G1 X176.084 Y210.544 E3.03552
G1 X176.221 Y211.100 E3.04510
G1 X176.333 Y211.660 E3.05466
G1 X176.420 Y212.228 E3.06427
G1 X176.482 Y212.805 E3.07398
G1 X176.518 Y213.370 E3.08344
G1 X176.528 Y213.943 E3.09302
G1 X176.512 Y214.515 E3.10260
G1 X176.471 Y215.087 E3.11218
G1 X176.334 Y216.094 E3.12917
G1 X176.194 Y216.782 E3.14092
G1 X176.051 Y217.337 E3.15050
G1 X175.884 Y217.885 E3.16008
G1 X175.527 Y218.836 E3.17707
G1 X175.236 Y219.476 E3.18883
G1 X174.974 Y219.985 E3.19841
G1 X174.689 Y220.482 E3.20799
G1 X174.094 Y221.380 E3.22601
G1 X150.740 Y253.674 E3.89252
G1 X150.390 Y254.128 E3.90210
G1 X150.021 Y254.566 E3.91168
G1 X149.632 Y254.987 E3.92127
G1 X149.225 Y255.390 E3.93085
G1 X148.801 Y255.774 E3.94043
G1 X148.359 Y256.139 E3.95001
G1 X147.538 Y256.736 E3.96699
G1 X146.942 Y257.111 E3.97875
G1 X146.443 Y257.391 E3.98834
G1 X145.931 Y257.649 E3.99792
G1 X145.408 Y257.883 E4.00750
G1 X144.875 Y258.094 E4.01708
G1 X144.334 Y258.280 E4.02666
G1 X143.784 Y258.442 E4.03624
G1 X143.228 Y258.580 E4.04583
G1 X142.666 Y258.692 E4.05540
G1 X142.100 Y258.779 E4.06499
G1 X141.530 Y258.840 E4.07457
G1 X140.959 Y258.876 E4.08415
G1 X140.386 Y258.886 E4.09373
G1 X139.373 Y258.841 E4.11068
G1 X138.763 Y258.775 E4.12095
G1 X138.107 Y258.670 E4.13205
G1 X137.546 Y258.552 E4.14164
G1 X136.991 Y258.409 E4.15122
G1 X136.444 Y258.242 E4.16080
G1 X135.491 Y257.885 E4.17781
G1 X134.853 Y257.595 E4.18954
G1 X134.343 Y257.332 E4.19912
G1 X133.847 Y257.047 E4.20870
G1 X133.363 Y256.740 E4.21829
G1 X132.894 Y256.411 E4.22787
G1 X132.100 Y255.779 E4.24484
G1 X131.580 Y255.304 E4.25661
G1 X131.177 Y254.897 E4.26619
G1 X130.793 Y254.472 E4.27577
G1 X130.428 Y254.031 E4.28535
G1 X105.874 Y221.334 E4.96920
G1 X105.550 Y220.862 E4.97878
G1 X105.248 Y220.375 E4.98836
G1 X104.967 Y219.876 E4.99794
G1 X104.710 Y219.364 E5.00752
G1 X104.475 Y218.841 E5.01710
G1 X104.265 Y218.308 E5.02669
G1 X104.078 Y217.767 E5.03627
G1 X103.916 Y217.217 E5.04585
G1 X103.779 Y216.661 E5.05543
G1 X103.666 Y216.099 E5.06501
G1 X103.580 Y215.533 E5.07459
G1 X103.518 Y214.963 E5.08417
G1 X103.482 Y214.391 E5.09376
G1 X103.472 Y213.818 E5.10334
G1 X103.488 Y213.246 E5.11292
G1 X103.529 Y212.674 E5.12250
G1 X103.596 Y212.106 E5.13207
G1 X103.689 Y211.540 E5.14167
G1 X103.806 Y210.980 E5.15124
G1 X103.949 Y210.424 E5.16083
G1 X104.116 Y209.877 E5.17041
G1 X104.308 Y209.338 E5.17997
G1 X104.527 Y208.799 E5.18970
G1 X104.763 Y208.286 E5.19914
G1 X105.026 Y207.777 E5.20873
G1 X105.311 Y207.279 E5.21832
G1 X105.618 Y206.797 E5.22788
G1 X105.951 Y206.321 E5.23760
G1 X106.296 Y205.872 E5.24706
G1 X106.664 Y205.436 E5.25661
G1 X107.408 Y204.663 E5.27455
G1 X107.720 Y204.893 F9300.000
G1 X108.560 Y204.166 E5.29313 F3060.000
G1 X109.461 Y203.517 E5.31170
G1 X110.418 Y202.951 E5.33030
G1 X111.421 Y202.473 E5.34888
G1 X112.462 Y202.087 E5.36744
G1 X113.535 Y201.796 E5.38604
G1 X114.629 Y201.603 E5.40462
G1 X115.736 Y201.508 E5.42320
G1 X163.815 Y201.498 E6.22728
G1 X164.924 Y201.552 E6.24586
G1 X166.025 Y201.706 E6.26444
G1 X167.107 Y201.958 E6.28303
G1 X167.639 Y202.120 E6.29232
G1 X168.677 Y202.515 E6.31090
G1 X169.182 Y202.747 E6.32020
G1 X169.683 Y203.005 E6.32961
G1 X170.627 Y203.575 E6.34806
G1 X171.082 Y203.893 E6.35734
G1 X171.949 Y204.591 E6.37595
G1 X172.357 Y204.967 E6.38524
G1 X173.121 Y205.773 E6.40382
G1 X173.475 Y206.200 E6.41309
G1 X173.811 Y206.645 E6.42241
G1 X174.129 Y207.110 E6.43183
G1 X174.691 Y208.060 E6.45029
G1 X175.168 Y209.062 E6.46885
G1 X175.373 Y209.580 E6.47817
G1 X175.712 Y210.638 E6.49675
G1 X175.954 Y211.720 E6.51530
G1 X176.039 Y212.271 E6.52463
G1 X176.100 Y212.831 E6.53404
G1 X176.144 Y213.934 E6.55250
G1 X176.090 Y215.044 E6.57109
G1 X175.956 Y216.034 E6.58779
G1 X175.822 Y216.688 E6.59896
G1 X175.522 Y217.758 E6.61755
G1 X175.171 Y218.693 E6.63424
G1 X174.895 Y219.302 E6.64542
G1 X174.364 Y220.278 E6.66401
G1 X173.783 Y221.155 E6.68161
G1 X150.434 Y253.441 E7.34797
G1 X149.813 Y254.221 E7.36465
G1 X149.361 Y254.716 E7.37584
G1 X148.555 Y255.480 E7.39443
G1 X148.127 Y255.834 E7.40372
G1 X147.319 Y256.421 E7.42041
G1 X146.753 Y256.777 E7.43160
G1 X146.269 Y257.049 E7.44089
G1 X145.265 Y257.527 E7.45948
G1 X144.331 Y257.878 E7.47617
G1 X143.691 Y258.070 E7.48735
G1 X142.606 Y258.313 E7.50593
G1 X141.505 Y258.457 E7.52452
G1 X140.950 Y258.492 E7.53381
G1 X139.950 Y258.492 E7.55054
G1 X139.399 Y258.458 E7.55976
G1 X138.810 Y258.394 E7.56967
G1 X138.184 Y258.294 E7.58027
G1 X137.640 Y258.180 E7.58957
G1 X136.678 Y257.915 E7.60626
G1 X136.047 Y257.694 E7.61745
G1 X135.027 Y257.253 E7.63603
G1 X134.051 Y256.722 E7.65461
G1 X133.581 Y256.424 E7.66391
G1 X132.774 Y255.838 E7.68059
G1 X132.260 Y255.409 E7.69179
G1 X131.852 Y255.033 E7.70108
G1 X131.087 Y254.226 E7.71966
G1 X130.452 Y253.429 E7.73672
G1 X106.189 Y221.116 E8.41251
G1 X105.581 Y220.186 E8.43109
G1 X105.059 Y219.205 E8.44967
G1 X104.627 Y218.182 E8.46826
G1 X104.288 Y217.123 E8.48684
G1 X104.045 Y216.039 E8.50542
G1 X103.961 Y215.490 E8.51471
G1 X103.866 Y214.383 E8.53330
G1 X103.856 Y213.827 E8.54259
G1 X103.910 Y212.717 E8.56117
G1 X104.064 Y211.617 E8.57976
G1 X104.316 Y210.535 E8.59834
G1 X104.664 Y209.480 E8.61691
G1 X104.876 Y208.958 E8.62634
G1 X105.360 Y207.966 E8.64479
G1 X105.933 Y207.015 E8.66337
G1 X106.257 Y206.553 E8.67280
G1 X106.948 Y205.694 E8.69123
G1 X107.667 Y204.946 E8.70859
G1 F1500.000 E6.90859
G92 E0
G1 X146.911 Y253.518 F9300.000
G1 E1.80000 F1500.000
M204 S1500
G1 X146.222 Y254.067 E1.81475 F3442.500
G1 X145.486 Y254.553 E1.82949
G1 X144.710 Y254.971 E1.84423
G1 X143.900 Y255.317 E1.85897
G1 X143.061 Y255.589 E1.87372
G1 X142.634 Y255.697 E1.88109
G1 X141.766 Y255.855 E1.89583
G1 X140.888 Y255.934 E1.91057
G1 X140.007 Y255.934 E1.92532
G1 X139.129 Y255.855 E1.94006
G1 X138.262 Y255.697 E1.95480
G1 X137.834 Y255.589 E1.96217
G1 X136.996 Y255.317 E1.97692
G1 X136.185 Y254.971 E1.99166
G1 X135.409 Y254.553 E2.00640
G1 X134.673 Y254.067 E2.02114
G1 X133.984 Y253.518 E2.03589
G1 X133.347 Y252.908 E2.05063
G1 X133.050 Y252.583 E2.05800
G1 X132.767 Y252.245 E2.06538
G1 X132.249 Y251.532 E2.08012
G1 X131.797 Y250.775 E2.09486
G1 X131.414 Y249.980 E2.10961
G1 X131.105 Y249.155 E2.12434
G1 X130.870 Y248.305 E2.13909
G1 X130.713 Y247.438 E2.15383
G1 X130.634 Y246.560 E2.16857
G1 X130.634 Y245.679 E2.18331
G1 X130.713 Y244.801 E2.19806
G1 X130.870 Y243.933 E2.21280
G1 X130.978 Y243.506 E2.22017
G1 X131.250 Y242.668 E2.23491
G1 X131.597 Y241.857 E2.24966
G1 X132.014 Y241.081 E2.26440
G1 X132.500 Y240.345 E2.27914
G1 X132.767 Y239.994 E2.28652
G1 X133.347 Y239.330 E2.30126
G1 X133.984 Y238.721 E2.31600
G1 X134.673 Y238.172 E2.33074
G1 X135.036 Y237.920 E2.33812
G1 X135.792 Y237.468 E2.35286
G1 X136.587 Y237.086 E2.36761
G1 X137.412 Y236.776 E2.38235
G1 X138.262 Y236.542 E2.39709
G1 X139.129 Y236.384 E2.41183
G1 X139.567 Y236.335 E2.41921
G1 X140.448 Y236.295 E2.43395
G1 X141.328 Y236.335 E2.44869
G1 X142.202 Y236.453 E2.46343
G1 X143.061 Y236.649 E2.47817
G1 X143.484 Y236.776 E2.48555
G1 X144.309 Y237.086 E2.50029
G1 X145.103 Y237.468 E2.51503
G1 X145.860 Y237.921 E2.52978
G1 X146.573 Y238.439 E2.54452
G1 X147.237 Y239.019 E2.55926
G1 X147.846 Y239.656 E2.57400
G1 X148.396 Y240.345 E2.58875
G1 X148.881 Y241.081 E2.60349
G1 X149.299 Y241.857 E2.61823
G1 X149.645 Y242.667 E2.63297
G1 X149.918 Y243.506 E2.64772
G1 X150.114 Y244.365 E2.66246
G1 X150.183 Y244.801 E2.66983
G1 X150.262 Y245.679 E2.68458
G1 X150.262 Y246.560 E2.69932
G1 X150.183 Y247.438 E2.71406
G1 X150.114 Y247.874 E2.72143
G1 X149.918 Y248.733 E2.73617
G1 X149.645 Y249.571 E2.75092
G1 X149.299 Y250.382 E2.76566
G1 X148.881 Y251.158 E2.78041
G1 X148.396 Y251.894 E2.79515
G1 X147.846 Y252.583 E2.80989
G1 X147.549 Y252.908 E2.81726
G1 X146.967 Y253.467 E2.83075
M204 S900
G1 X146.441 Y253.349 F9300.000
G1 X146.659 Y253.229 F9300.000
M204 S1500
G1 X145.997 Y253.757 E2.84492 F4590.000
G1 X145.290 Y254.224 E2.85908
G1 X144.544 Y254.625 E2.87325
G1 X143.765 Y254.958 E2.88742
G1 X142.959 Y255.220 E2.90158
G1 X142.548 Y255.323 E2.90867
G1 X141.715 Y255.474 E2.92284
G1 X140.871 Y255.550 E2.93700
G1 X140.024 Y255.550 E2.95117
G1 X139.180 Y255.474 E2.96534
G1 X138.347 Y255.323 E2.97950
G1 X137.936 Y255.220 E2.98659
G1 X137.131 Y254.958 E3.00076
G1 X136.352 Y254.625 E3.01492
G1 X135.606 Y254.223 E3.02909
G1 X134.899 Y253.757 E3.04326
G1 X134.237 Y253.229 E3.05742
G1 X133.624 Y252.643 E3.07159
G1 X133.338 Y252.331 E3.07867
G1 X133.067 Y252.005 E3.08576
G1 X132.569 Y251.320 E3.09993
G1 X132.135 Y250.593 E3.11409
G1 X131.767 Y249.830 E3.12826
G1 X131.469 Y249.037 E3.14242
G1 X131.244 Y248.220 E3.15659
G1 X131.093 Y247.387 E3.17076
G1 X131.017 Y246.543 E3.18493
G1 X131.017 Y245.696 E3.19909
G1 X131.093 Y244.852 E3.21326
G1 X131.244 Y244.019 E3.22743
G1 X131.348 Y243.608 E3.23451
G1 X131.609 Y242.802 E3.24868
G1 X131.942 Y242.023 E3.26285
G1 X132.344 Y241.278 E3.27701
G1 X132.810 Y240.571 E3.29118
G1 X133.067 Y240.233 E3.29826
G1 X133.624 Y239.596 E3.31243
G1 X134.237 Y239.010 E3.32660
G1 X134.899 Y238.482 E3.34076
G1 X135.247 Y238.241 E3.34785
G1 X135.974 Y237.806 E3.36202
G1 X136.738 Y237.439 E3.37619
G1 X137.531 Y237.141 E3.39035
G1 X138.347 Y236.916 E3.40452
G1 X139.180 Y236.764 E3.41868
G1 X139.602 Y236.717 E3.42577
G1 X140.448 Y236.679 E3.43994
G1 X141.294 Y236.717 E3.45410
G1 X142.133 Y236.831 E3.46827
G1 X142.959 Y237.019 E3.48244
G1 X143.365 Y237.141 E3.48952
G1 X144.158 Y237.439 E3.50369
G1 X144.921 Y237.806 E3.51786
G1 X145.648 Y238.241 E3.53202
G1 X146.334 Y238.739 E3.54619
G1 X146.972 Y239.296 E3.56036
G1 X147.557 Y239.908 E3.57452
G1 X148.085 Y240.570 E3.58869
G1 X148.552 Y241.277 E3.60285
G1 X148.953 Y242.023 E3.61702
G1 X149.286 Y242.802 E3.63119
G1 X149.548 Y243.608 E3.64536
G1 X149.736 Y244.434 E3.65952
G1 X149.803 Y244.852 E3.66661
G1 X149.879 Y245.696 E3.68078
G1 X149.879 Y246.543 E3.69494
G1 X149.803 Y247.387 E3.70911
G1 X149.736 Y247.805 E3.71620
G1 X149.548 Y248.631 E3.73036
G1 X149.286 Y249.437 E3.74453
G1 X148.953 Y250.215 E3.75869
G1 X148.552 Y250.961 E3.77286
G1 X148.085 Y251.668 E3.78703
G1 X147.557 Y252.331 E3.80119
G1 X147.271 Y252.643 E3.80828
G1 X146.714 Y253.178 E3.82119
M204 S900
G1 F1500.000 E2.02119
G92 E0
G1 X143.724 Y252.845 F9300.000
G1 E1.80000 F1500.000
M204 S1500
G1 X137.172 Y252.845 E1.90957 F3442.500
G1 X137.172 Y249.594 E1.96396
G1 X143.724 Y249.594 E2.07353
G1 X143.724 Y252.770 E2.12666
M204 S900
G1 X143.724 Y253.345 F9300.000
G1 F1500.000 E0.32666
G92 E0
G1 X141.646 Y248.568 F9300.000
G1 E1.80000 F1500.000
M204 S1500
G1 X141.198 Y248.740 E1.80802 F3442.500
G1 X140.727 Y248.831 E1.81604
G1 X140.248 Y248.838 E1.82407
G1 X139.931 Y248.796 E1.82942
G1 X139.621 Y248.717 E1.83476
G1 X139.178 Y248.532 E1.84279
G1 X138.775 Y248.272 E1.85081
G1 X138.424 Y247.945 E1.85883
G1 X138.224 Y247.696 E1.86418
G1 X138.054 Y247.424 E1.86953
G1 X137.863 Y246.985 E1.87755
G1 X137.779 Y246.676 E1.88290
G1 X137.732 Y246.359 E1.88825
G1 X137.732 Y245.880 E1.89627
G1 X137.779 Y245.563 E1.90163
G1 X137.863 Y245.254 E1.90698
G1 X138.054 Y244.815 E1.91500
G1 X138.224 Y244.543 E1.92035
G1 X138.424 Y244.293 E1.92570
G1 X138.775 Y243.967 E1.93372
G1 X139.178 Y243.707 E1.94174
G1 X139.470 Y243.575 E1.94709
G1 X139.775 Y243.478 E1.95245
G1 X140.248 Y243.401 E1.96047
G1 X140.727 Y243.408 E1.96849
G1 X141.043 Y243.459 E1.97383
G1 X141.351 Y243.547 E1.97919
G1 X141.788 Y243.745 E1.98721
G1 X142.183 Y244.017 E1.99523
G1 X142.525 Y244.354 E2.00325
G1 X142.717 Y244.609 E2.00860
G1 X142.878 Y244.885 E2.01395
G1 X143.057 Y245.330 E2.02197
G1 X143.155 Y245.800 E2.02999
G1 X143.169 Y246.279 E2.03801
G1 X143.132 Y246.597 E2.04337
G1 X143.057 Y246.908 E2.04872
G1 X142.947 Y247.209 E2.05407
G1 X142.802 Y247.494 E2.05942
G1 X142.525 Y247.885 E2.06744
G1 X142.183 Y248.222 E2.07546
G1 X141.925 Y248.411 E2.08081
G1 X141.712 Y248.533 E2.08491
M204 S900
G1 X141.259 Y248.285 F9300.000
G1 X141.693 Y248.968 F9300.000
M204 S1500
G1 X141.745 Y249.210 E2.08905 F4590.000
G1 X144.107 Y249.210 E2.12856
G1 X144.107 Y253.229 E2.19577
G1 X136.788 Y253.229 E2.31817
G1 X136.788 Y249.210 E2.38539
G1 X139.151 Y249.210 E2.42490
G1 X139.206 Y248.972 E2.42898
G1 X138.841 Y248.782 E2.43587
G1 X138.399 Y248.458 E2.44503
G1 X138.021 Y248.063 E2.45417
G1 X137.717 Y247.608 E2.46332
G1 X137.562 Y247.278 E2.46943
G1 X137.446 Y246.932 E2.47553
G1 X137.350 Y246.393 E2.48468
G1 X137.339 Y246.028 E2.49079
G1 X137.372 Y245.664 E2.49689
G1 X137.499 Y245.132 E2.50604
G1 X137.635 Y244.794 E2.51214
G1 X137.809 Y244.473 E2.51825
G1 X138.139 Y244.036 E2.52740
G1 X138.399 Y243.780 E2.53350
G1 X138.687 Y243.556 E2.53961
G1 X139.163 Y243.287 E2.54876
G1 X139.680 Y243.106 E2.55791
G1 X140.220 Y243.018 E2.56706
G1 X140.767 Y243.026 E2.57621
G1 X141.127 Y243.085 E2.58231
G1 X141.478 Y243.185 E2.58842
G1 X141.815 Y243.326 E2.59452
G1 X142.132 Y243.506 E2.60062
G1 X142.565 Y243.841 E2.60978
G1 X142.931 Y244.248 E2.61893
G1 X143.133 Y244.551 E2.62503
G1 X143.298 Y244.877 E2.63114
G1 X143.472 Y245.396 E2.64029
G1 X143.536 Y245.755 E2.64639
G1 X143.557 Y246.119 E2.65249
G1 X143.509 Y246.664 E2.66164
G1 X143.366 Y247.193 E2.67079
G1 X143.133 Y247.687 E2.67994
G1 X142.931 Y247.991 E2.68605
G1 X142.694 Y248.269 E2.69215
G1 X142.283 Y248.630 E2.70131
G1 X141.976 Y248.828 E2.70741
G1 X141.761 Y248.937 E2.71144
M204 S900
G1 X142.523 Y248.763 F9300.000
M204 S1400
G1 X142.792 Y248.952 E2.71695 F4590.000
G1 X143.472 Y248.952 E2.72831
G1 X142.824 Y248.499 E2.74152
M204 S900
G1 F1500.000 E0.94152
G92 E0
G1 X143.475 Y244.672 F9300.000
G1 E1.80000 F1500.000
M204 S1400
G1 X149.249 Y248.715 E1.91788 F4590.000
G1 X149.123 Y249.103 E1.92470
G1 X143.705 Y245.308 E2.03533
G1 X143.792 Y245.846 E2.04443
G1 X148.986 Y249.482 E2.15046
G1 X148.829 Y249.848 E2.15713
G1 X143.804 Y246.329 E2.25973
G1 X143.748 Y246.766 E2.26710
G1 X148.664 Y250.208 E2.36747
G1 X148.478 Y250.554 E2.37403
G1 X143.637 Y247.164 E2.47287
G1 X143.495 Y247.541 E2.47960
G1 X148.286 Y250.895 E2.57742
