; generated by Slic3r 1.1.4 on 2014-10-31 at 12:44:14

; perimeters extrusion width = 0.32mm
; infill extrusion width = 0.34mm
; solid infill extrusion width = 0.32mm
; top infill extrusion width = 0.30mm

G21 ; set units to millimeters
M301 P34 I4 D113     ; set PID nozzle
M304 P162 I17 D378 ; set PID Bed

M104 S230                 ; set extruder temp
M140 S105                 ; set bed temp

G28                       ; home
G1 Z5 F300                ; move bed down 5mm
M84                       ; disable steppers
G4 S300                   ; wait 5 mins to preheat

G28                            ; home
G90 ; use absolute coordinates
G92 E0
M82 ; use absolute distances for extrusion
G1 F1500.000 E-1.80000
G92 E0
G1 Z0.286 F9300.000
G1 X107.461 Y114.610 F9300.000
G1 E1.80000 F1500.000
G1 X107.886 Y114.226 E1.80957 F3060.000
G1 X108.328 Y113.861 E1.81916
G1 X108.785 Y113.516 E1.82874
G1 X109.257 Y113.192 E1.83831
G1 X109.744 Y112.889 E1.84791
G1 X110.244 Y112.609 E1.85749
G1 X110.756 Y112.351 E1.86707
G1 X111.278 Y112.117 E1.87665
G1 X111.810 Y111.907 E1.88622
G1 X112.352 Y111.720 E1.89580
G1 X112.902 Y111.558 E1.90540
G1 X113.458 Y111.420 E1.91497
G1 X114.020 Y111.308 E1.92456
G1 X114.586 Y111.221 E1.93413
G1 X115.155 Y111.160 E1.94370
G1 X115.727 Y111.124 E1.95329
G1 X163.823 Y111.114 E2.75766
G1 X164.396 Y111.130 E2.76724
G1 X164.967 Y111.171 E2.77682
G1 X165.535 Y111.238 E2.78638
G1 X166.102 Y111.330 E2.79599
G1 X166.663 Y111.448 E2.80557
G1 X167.217 Y111.591 E2.81515
G1 X167.772 Y111.761 E2.82485
G1 X168.305 Y111.950 E2.83431
G1 X168.836 Y112.166 E2.84390
G1 X169.356 Y112.405 E2.85348
G1 X169.872 Y112.672 E2.86318
G1 X170.362 Y112.953 E2.87264
G1 X170.845 Y113.260 E2.88220
G1 X171.314 Y113.588 E2.89177
G1 X171.769 Y113.938 E2.90138
G1 X172.208 Y114.307 E2.91097
G1 X172.628 Y114.696 E2.92055
G1 X173.032 Y115.103 E2.93013
G1 X173.416 Y115.527 E2.93970
G1 X173.780 Y115.968 E2.94925
G1 X174.126 Y116.427 E2.95887
G1 X174.449 Y116.899 E2.96844
G1 X174.752 Y117.386 E2.97804
G1 X175.033 Y117.886 E2.98762
G1 X175.290 Y118.396 E2.99717
G1 X175.524 Y118.918 E3.00675
G1 X175.735 Y119.453 E3.01636
G1 X175.922 Y119.994 E3.02593
G1 X176.084 Y120.544 E3.03552
G1 X176.221 Y121.100 E3.04510
G1 X176.333 Y121.660 E3.05466
G1 X176.420 Y122.228 E3.06427
G1 X176.482 Y122.805 E3.07398
G1 X176.518 Y123.370 E3.08344
G1 X176.528 Y123.943 E3.09302
G1 X176.512 Y124.515 E3.10260
G1 X176.471 Y125.087 E3.11218
G1 X176.334 Y126.094 E3.12917
G1 X176.194 Y126.782 E3.14092
G1 X176.051 Y127.337 E3.15050
G1 X175.884 Y127.885 E3.16008
G1 X175.527 Y128.836 E3.17707
G1 X175.236 Y129.476 E3.18883
G1 X174.974 Y129.985 E3.19841
G1 X174.689 Y130.482 E3.20799
G1 X174.094 Y131.380 E3.22601
G1 X150.740 Y163.674 E3.89252
G1 X150.390 Y164.128 E3.90210
G1 X150.021 Y164.566 E3.91168
G1 X149.632 Y164.987 E3.92127
G1 X149.225 Y165.390 E3.93085
G1 X148.801 Y165.774 E3.94043
G1 X148.359 Y166.139 E3.95001
G1 X147.538 Y166.736 E3.96699
G1 X146.942 Y167.111 E3.97875
G1 X146.443 Y167.391 E3.98834
G1 X145.931 Y167.649 E3.99792
G1 X145.408 Y167.883 E4.00750
G1 X144.875 Y168.094 E4.01708
G1 X144.334 Y168.280 E4.02666
G1 X143.784 Y168.442 E4.03624
G1 X143.228 Y168.580 E4.04583
G1 X142.666 Y168.692 E4.05540
G1 X142.100 Y168.779 E4.06499
G1 X141.530 Y168.840 E4.07457
G1 X140.959 Y168.876 E4.08415
G1 X140.386 Y168.886 E4.09373
G1 X139.373 Y168.841 E4.11068
G1 X138.763 Y168.775 E4.12095
G1 X138.107 Y168.670 E4.13205
G1 X137.546 Y168.552 E4.14164
G1 X136.991 Y168.409 E4.15122
G1 X136.444 Y168.242 E4.16080
G1 X135.491 Y167.885 E4.17781
G1 X134.853 Y167.595 E4.18954
G1 X134.343 Y167.332 E4.19912
G1 X133.847 Y167.047 E4.20870
G1 X133.363 Y166.740 E4.21829
G1 X132.894 Y166.411 E4.22787
G1 X132.100 Y165.779 E4.24484
G1 X131.580 Y165.304 E4.25661
G1 X131.177 Y164.897 E4.26619
G1 X130.793 Y164.472 E4.27577
G1 X130.428 Y164.031 E4.28535
G1 X105.874 Y131.334 E4.96920
G1 X105.550 Y130.862 E4.97878
G1 X105.248 Y130.375 E4.98836
G1 X104.967 Y129.876 E4.99794
G1 X104.710 Y129.364 E5.00752
G1 X104.475 Y128.841 E5.01710
G1 X104.265 Y128.308 E5.02669
G1 X104.078 Y127.767 E5.03627
G1 X103.916 Y127.217 E5.04585
G1 X103.779 Y126.661 E5.05543
G1 X103.666 Y126.099 E5.06501
G1 X103.580 Y125.533 E5.07459
G1 X103.518 Y124.963 E5.08417
G1 X103.482 Y124.391 E5.09376
G1 X103.472 Y123.818 E5.10334
G1 X103.488 Y123.246 E5.11292
G1 X103.529 Y122.674 E5.12250
G1 X103.596 Y122.106 E5.13207
G1 X103.689 Y121.540 E5.14167
G1 X103.806 Y120.980 E5.15124
G1 X103.949 Y120.424 E5.16083
G1 X104.116 Y119.877 E5.17041
G1 X104.308 Y119.338 E5.17997
G1 X104.527 Y118.799 E5.18970
G1 X104.763 Y118.286 E5.19914
G1 X105.026 Y117.777 E5.20873
G1 X105.311 Y117.279 E5.21832
G1 X105.618 Y116.797 E5.22788
G1 X105.951 Y116.321 E5.23760
G1 X106.296 Y115.872 E5.24706
G1 X106.664 Y115.436 E5.25661
G1 X107.408 Y114.663 E5.27455
G1 X107.720 Y114.893 F9300.000
G1 X108.560 Y114.166 E5.29313 F3060.000
G1 X109.461 Y113.517 E5.31170
G1 X110.418 Y112.951 E5.33030
G1 X111.421 Y112.473 E5.34888
G1 X112.462 Y112.087 E5.36744
G1 X113.535 Y111.796 E5.38604
G1 X114.629 Y111.603 E5.40462
G1 X115.736 Y111.508 E5.42320
G1 X163.815 Y111.498 E6.22728
G1 X164.924 Y111.552 E6.24586
G1 X166.025 Y111.706 E6.26444
G1 X167.107 Y111.958 E6.28303
G1 X167.639 Y112.120 E6.29232
G1 X168.677 Y112.515 E6.31090
G1 X169.182 Y112.747 E6.32020
G1 X169.683 Y113.005 E6.32961
G1 X170.627 Y113.575 E6.34806
G1 X171.082 Y113.893 E6.35734
G1 X171.949 Y114.591 E6.37595
G1 X172.357 Y114.967 E6.38524
G1 X173.121 Y115.773 E6.40382
G1 X173.475 Y116.200 E6.41309
G1 X173.811 Y116.645 E6.42241
G1 X174.129 Y117.110 E6.43183
G1 X174.691 Y118.060 E6.45029
G1 X175.168 Y119.062 E6.46885
G1 X175.373 Y119.580 E6.47817
G1 X175.712 Y120.638 E6.49675
G1 X175.954 Y121.720 E6.51530
G1 X176.039 Y122.271 E6.52463
G1 X176.100 Y122.831 E6.53404
G1 X176.144 Y123.934 E6.55250
G1 X176.090 Y125.044 E6.57109
G1 X175.956 Y126.034 E6.58779
G1 X175.822 Y126.688 E6.59896
G1 X175.522 Y127.758 E6.61755
G1 X175.171 Y128.693 E6.63424
G1 X174.895 Y129.302 E6.64542
G1 X174.364 Y130.278 E6.66401
G1 X173.783 Y131.155 E6.68161
G1 X150.434 Y163.441 E7.34797
G1 X149.813 Y164.221 E7.36465
G1 X149.361 Y164.716 E7.37584
G1 X148.555 Y165.480 E7.39443
G1 X148.127 Y165.834 E7.40372
G1 X147.319 Y166.421 E7.42041
G1 X146.753 Y166.777 E7.43160
G1 X146.269 Y167.049 E7.44089
G1 X145.265 Y167.527 E7.45948
G1 X144.331 Y167.878 E7.47617
G1 X143.691 Y168.070 E7.48735
G1 X142.606 Y168.313 E7.50593
G1 X141.505 Y168.457 E7.52452
G1 X140.950 Y168.492 E7.53381
G1 X139.950 Y168.492 E7.55054
G1 X139.399 Y168.458 E7.55976
G1 X138.810 Y168.394 E7.56967
G1 X138.184 Y168.294 E7.58027
G1 X137.640 Y168.180 E7.58957
G1 X136.678 Y167.915 E7.60626
G1 X136.047 Y167.694 E7.61745
G1 X135.027 Y167.253 E7.63603
G1 X134.051 Y166.722 E7.65461
G1 X133.581 Y166.424 E7.66391
G1 X132.774 Y165.838 E7.68059
G1 X132.260 Y165.409 E7.69179
G1 X131.852 Y165.033 E7.70108
G1 X131.087 Y164.226 E7.71966
G1 X130.452 Y163.429 E7.73672
G1 X106.189 Y131.116 E8.41251
G1 X105.581 Y130.186 E8.43109
G1 X105.059 Y129.205 E8.44967
G1 X104.627 Y128.182 E8.46826
G1 X104.288 Y127.123 E8.48684
G1 X104.045 Y126.039 E8.50542
G1 X103.961 Y125.490 E8.51471
G1 X103.866 Y124.383 E8.53330
G1 X103.856 Y123.827 E8.54259
G1 X103.910 Y122.717 E8.56117
G1 X104.064 Y121.617 E8.57976
G1 X104.316 Y120.535 E8.59834
G1 X104.664 Y119.480 E8.61691
G1 X104.876 Y118.958 E8.62634
G1 X105.360 Y117.966 E8.64479
G1 X105.933 Y117.015 E8.66337
G1 X106.257 Y116.553 E8.67280
G1 X106.948 Y115.694 E8.69123
G1 X107.667 Y114.946 E8.70859
G1 F1500.000 E6.90859
G92 E0
G1 X146.911 Y163.518 F9300.000
G1 E1.80000 F1500.000
M204 S1500
G1 X146.222 Y164.067 E1.81475 F3442.500
G1 X145.486 Y164.553 E1.82949
G1 X144.710 Y164.971 E1.84423
G1 X143.900 Y165.317 E1.85897
G1 X143.061 Y165.589 E1.87372
G1 X142.634 Y165.697 E1.88109
G1 X141.766 Y165.855 E1.89583
G1 X140.888 Y165.934 E1.91057
G1 X140.007 Y165.934 E1.92532
G1 X139.129 Y165.855 E1.94006
G1 X138.262 Y165.697 E1.95480
G1 X137.834 Y165.589 E1.96217
G1 X136.996 Y165.317 E1.97692
G1 X136.185 Y164.971 E1.99166
G1 X135.409 Y164.553 E2.00640
G1 X134.673 Y164.067 E2.02114
G1 X133.984 Y163.518 E2.03589
G1 X133.347 Y162.908 E2.05063
G1 X133.050 Y162.583 E2.05800
G1 X132.767 Y162.245 E2.06538
G1 X132.249 Y161.532 E2.08012
G1 X131.797 Y160.775 E2.09486
G1 X131.414 Y159.980 E2.10961
G1 X131.105 Y159.155 E2.12434
G1 X130.870 Y158.305 E2.13909
G1 X130.713 Y157.438 E2.15383
G1 X130.634 Y156.560 E2.16857
G1 X130.634 Y155.679 E2.18331
G1 X130.713 Y154.801 E2.19806
G1 X130.870 Y153.933 E2.21280
G1 X130.978 Y153.506 E2.22017
G1 X131.250 Y152.668 E2.23491
G1 X131.597 Y151.857 E2.24966
G1 X132.014 Y151.081 E2.26440
G1 X132.500 Y150.345 E2.27914
G1 X132.767 Y149.994 E2.28652
G1 X133.347 Y149.330 E2.30126
G1 X133.984 Y148.721 E2.31600
G1 X134.673 Y148.172 E2.33074
G1 X135.036 Y147.920 E2.33812
G1 X135.792 Y147.468 E2.35286
G1 X136.587 Y147.086 E2.36761
G1 X137.412 Y146.776 E2.38235
G1 X138.262 Y146.542 E2.39709
G1 X139.129 Y146.384 E2.41183
G1 X139.567 Y146.335 E2.41921
G1 X140.448 Y146.295 E2.43395
G1 X141.328 Y146.335 E2.44869
G1 X142.202 Y146.453 E2.46343
G1 X143.061 Y146.649 E2.47817
G1 X143.484 Y146.776 E2.48555
G1 X144.309 Y147.086 E2.50029
G1 X145.103 Y147.468 E2.51503
G1 X145.860 Y147.921 E2.52978
G1 X146.573 Y148.439 E2.54452
G1 X147.237 Y149.019 E2.55926
G1 X147.846 Y149.656 E2.57400
G1 X148.396 Y150.345 E2.58875
G1 X148.881 Y151.081 E2.60349
G1 X149.299 Y151.857 E2.61823
G1 X149.645 Y152.667 E2.63297
G1 X149.918 Y153.506 E2.64772
G1 X150.114 Y154.365 E2.66246
G1 X150.183 Y154.801 E2.66983
G1 X150.262 Y155.679 E2.68458
G1 X150.262 Y156.560 E2.69932
G1 X150.183 Y157.438 E2.71406
G1 X150.114 Y157.874 E2.72143
G1 X149.918 Y158.733 E2.73617
G1 X149.645 Y159.571 E2.75092
G1 X149.299 Y160.382 E2.76566
G1 X148.881 Y161.158 E2.78041
G1 X148.396 Y161.894 E2.79515
G1 X147.846 Y162.583 E2.80989
G1 X147.549 Y162.908 E2.81726
G1 X146.967 Y163.467 E2.83075
M204 S900
G1 X146.441 Y163.349 F9300.000
G1 X146.659 Y163.229 F9300.000
M204 S1500
G1 X145.997 Y163.757 E2.84492 F4590.000
G1 X145.290 Y164.224 E2.85908
G1 X144.544 Y164.625 E2.87325
G1 X143.765 Y164.958 E2.88742
G1 X142.959 Y165.220 E2.90158
G1 X142.548 Y165.323 E2.90867
G1 X141.715 Y165.474 E2.92284
G1 X140.871 Y165.550 E2.93700
G1 X140.024 Y165.550 E2.95117
G1 X139.180 Y165.474 E2.96534
G1 X138.347 Y165.323 E2.97950
G1 X137.936 Y165.220 E2.98659
G1 X137.131 Y164.958 E3.00076
G1 X136.352 Y164.625 E3.01492
G1 X135.606 Y164.223 E3.02909
G1 X134.899 Y163.757 E3.04326
G1 X134.237 Y163.229 E3.05742
G1 X133.624 Y162.643 E3.07159
G1 X133.338 Y162.331 E3.07867
G1 X133.067 Y162.005 E3.08576
G1 X132.569 Y161.320 E3.09993
G1 X132.135 Y160.593 E3.11409
G1 X131.767 Y159.830 E3.12826
G1 X131.469 Y159.037 E3.14242
G1 X131.244 Y158.220 E3.15659
G1 X131.093 Y157.387 E3.17076
G1 X131.017 Y156.543 E3.18493
G1 X131.017 Y155.696 E3.19909
G1 X131.093 Y154.852 E3.21326
G1 X131.244 Y154.019 E3.22743
G1 X131.348 Y153.608 E3.23451
G1 X131.609 Y152.802 E3.24868
G1 X131.942 Y152.023 E3.26285
G1 X132.344 Y151.278 E3.27701
G1 X132.810 Y150.571 E3.29118
G1 X133.067 Y150.233 E3.29826
G1 X133.624 Y149.596 E3.31243
G1 X134.237 Y149.010 E3.32660
G1 X134.899 Y148.482 E3.34076
G1 X135.247 Y148.241 E3.34785
G1 X135.974 Y147.806 E3.36202
G1 X136.738 Y147.439 E3.37619
G1 X137.531 Y147.141 E3.39035
G1 X138.347 Y146.916 E3.40452
G1 X139.180 Y146.764 E3.41868
G1 X139.602 Y146.717 E3.42577
G1 X140.448 Y146.679 E3.43994
G1 X141.294 Y146.717 E3.45410
G1 X142.133 Y146.831 E3.46827
G1 X142.959 Y147.019 E3.48244
G1 X143.365 Y147.141 E3.48952
G1 X144.158 Y147.439 E3.50369
G1 X144.921 Y147.806 E3.51786
G1 X145.648 Y148.241 E3.53202
G1 X146.334 Y148.739 E3.54619
G1 X146.972 Y149.296 E3.56036
G1 X147.557 Y149.908 E3.57452
G1 X148.085 Y150.570 E3.58869
G1 X148.552 Y151.277 E3.60285
G1 X148.953 Y152.023 E3.61702
G1 X149.286 Y152.802 E3.63119
G1 X149.548 Y153.608 E3.64536
G1 X149.736 Y154.434 E3.65952
G1 X149.803 Y154.852 E3.66661
G1 X149.879 Y155.696 E3.68078
G1 X149.879 Y156.543 E3.69494
G1 X149.803 Y157.387 E3.70911
G1 X149.736 Y157.805 E3.71620
G1 X149.548 Y158.631 E3.73036
G1 X149.286 Y159.437 E3.74453
G1 X148.953 Y160.215 E3.75869
G1 X148.552 Y160.961 E3.77286
G1 X148.085 Y161.668 E3.78703
G1 X147.557 Y162.331 E3.80119
G1 X147.271 Y162.643 E3.80828
G1 X146.714 Y163.178 E3.82119
M204 S900
G1 F1500.000 E2.02119
G92 E0
G1 X143.724 Y162.845 F9300.000
G1 E1.80000 F1500.000
M204 S1500
G1 X137.172 Y162.845 E1.90957 F3442.500
G1 X137.172 Y159.594 E1.96396
G1 X143.724 Y159.594 E2.07353
G1 X143.724 Y162.770 E2.12666
M204 S900
G1 X143.724 Y163.345 F9300.000
G1 F1500.000 E0.32666
G92 E0
G1 X141.646 Y158.568 F9300.000
G1 E1.80000 F1500.000
M204 S1500
G1 X141.198 Y158.740 E1.80802 F3442.500
G1 X140.727 Y158.831 E1.81604
G1 X140.248 Y158.838 E1.82407
G1 X139.931 Y158.796 E1.82942
G1 X139.621 Y158.717 E1.83476
G1 X139.178 Y158.532 E1.84279
G1 X138.775 Y158.272 E1.85081
G1 X138.424 Y157.945 E1.85883
G1 X138.224 Y157.696 E1.86418
G1 X138.054 Y157.424 E1.86953
G1 X137.863 Y156.985 E1.87755
G1 X137.779 Y156.676 E1.88290
G1 X137.732 Y156.359 E1.88825
G1 X137.732 Y155.880 E1.89627
G1 X137.779 Y155.563 E1.90163
G1 X137.863 Y155.254 E1.90698
G1 X138.054 Y154.815 E1.91500
G1 X138.224 Y154.543 E1.92035
G1 X138.424 Y154.293 E1.92570
G1 X138.775 Y153.967 E1.93372
G1 X139.178 Y153.707 E1.94174
G1 X139.470 Y153.575 E1.94709
G1 X139.775 Y153.478 E1.95245
G1 X140.248 Y153.401 E1.96047
G1 X140.727 Y153.408 E1.96849
G1 X141.043 Y153.459 E1.97383
G1 X141.351 Y153.547 E1.97919
G1 X141.788 Y153.745 E1.98721
G1 X142.183 Y154.017 E1.99523
G1 X142.525 Y154.354 E2.00325
G1 X142.717 Y154.609 E2.00860
G1 X142.878 Y154.885 E2.01395
G1 X143.057 Y155.330 E2.02197
G1 X143.155 Y155.800 E2.02999
G1 X143.169 Y156.279 E2.03801
G1 X143.132 Y156.597 E2.04337
G1 X143.057 Y156.908 E2.04872
G1 X142.947 Y157.209 E2.05407
G1 X142.802 Y157.494 E2.05942
G1 X142.525 Y157.885 E2.06744
G1 X142.183 Y158.222 E2.07546
G1 X141.925 Y158.411 E2.08081
G1 X141.712 Y158.533 E2.08491
M204 S900
G1 X141.259 Y158.285 F9300.000
G1 X141.693 Y158.968 F9300.000
M204 S1500
G1 X141.745 Y159.210 E2.08905 F4590.000
G1 X144.107 Y159.210 E2.12856
G1 X144.107 Y163.229 E2.19577
G1 X136.788 Y163.229 E2.31817
G1 X136.788 Y159.210 E2.38539
G1 X139.151 Y159.210 E2.42490
G1 X139.206 Y158.972 E2.42898
G1 X138.841 Y158.782 E2.43587
G1 X138.399 Y158.458 E2.44503
G1 X138.021 Y158.063 E2.45417
G1 X137.717 Y157.608 E2.46332
G1 X137.562 Y157.278 E2.46943
G1 X137.446 Y156.932 E2.47553
G1 X137.350 Y156.393 E2.48468
G1 X137.339 Y156.028 E2.49079
G1 X137.372 Y155.664 E2.49689
G1 X137.499 Y155.132 E2.50604
G1 X137.635 Y154.794 E2.51214
G1 X137.809 Y154.473 E2.51825
G1 X138.139 Y154.036 E2.52740
G1 X138.399 Y153.780 E2.53350
G1 X138.687 Y153.556 E2.53961
G1 X139.163 Y153.287 E2.54876
G1 X139.680 Y153.106 E2.55791
G1 X140.220 Y153.018 E2.56706
G1 X140.767 Y153.026 E2.57621
G1 X141.127 Y153.085 E2.58231
G1 X141.478 Y153.185 E2.58842
G1 X141.815 Y153.326 E2.59452
G1 X142.132 Y153.506 E2.60062
G1 X142.565 Y153.841 E2.60978
G1 X142.931 Y154.248 E2.61893
G1 X143.133 Y154.551 E2.62503
G1 X143.298 Y154.877 E2.63114
G1 X143.472 Y155.396 E2.64029
G1 X143.536 Y155.755 E2.64639
G1 X143.557 Y156.119 E2.65249
G1 X143.509 Y156.664 E2.66164
G1 X143.366 Y157.193 E2.67079
G1 X143.133 Y157.687 E2.67994
G1 X142.931 Y157.991 E2.68605
G1 X142.694 Y158.269 E2.69215
G1 X142.283 Y158.630 E2.70131
G1 X141.976 Y158.828 E2.70741
G1 X141.761 Y158.937 E2.71144
M204 S900
G1 X142.523 Y158.763 F9300.000
M204 S1400
G1 X142.792 Y158.952 E2.71695 F4590.000
G1 X143.472 Y158.952 E2.72831
G1 X142.824 Y158.499 E2.74152
M204 S900
G1 F1500.000 E0.94152
G92 E0
G1 X143.475 Y154.672 F9300.000
G1 E1.80000 F1500.000
M204 S1400
G1 X149.249 Y158.715 E1.91788 F4590.000
G1 X149.123 Y159.103 E1.92470
G1 X143.705 Y155.308 E2.03533
G1 X143.792 Y155.846 E2.04443
G1 X148.986 Y159.482 E2.15046
G1 X148.829 Y159.848 E2.15713
G1 X143.804 Y156.329 E2.25973
G1 X143.748 Y156.766 E2.26710
G1 X148.664 Y160.208 E2.36747
G1 X148.478 Y160.554 E2.37403
G1 X143.637 Y157.164 E2.47287
G1 X143.495 Y157.541 E2.47960
G1 X148.286 Y160.895 E2.57742
