; generated by Slic3r 1.1.4 on 2014-10-31 at 12:44:14

; perimeters extrusion width = 0.32mm
; infill extrusion width = 0.34mm
; solid infill extrusion width = 0.32mm
; top infill extrusion width = 0.30mm

G21 ; set units to millimeters
M301 P34 I4 D113     ; set PID nozzle
M304 P162 I17 D378 ; set PID Bed

M104 S230                 ; set extruder temp
M140 S105                 ; set bed temp

G28                       ; home
G1 Z5 F300                ; move bed down 5mm
M84                       ; disable steppers
G4 S300                   ; wait 5 mins to preheat

G28                            ; home
G90 ; use absolute coordinates
G92 E0
M82 ; use absolute distances for extrusion
G1 F1500.000 E-1.80000
G92 E0
G1 Z0.286 F9300.000
G1 X11.461 Y24.610 F9300.000
G1 E1.80000 F1500.000
G1 X11.886 Y24.226 E1.80957 F3060.000
G1 X12.328 Y23.861 E1.81916
G1 X12.785 Y23.516 E1.82874
G1 X13.257 Y23.192 E1.83831
G1 X13.744 Y22.889 E1.84791
G1 X14.244 Y22.609 E1.85749
G1 X14.756 Y22.351 E1.86707
G1 X15.278 Y22.117 E1.87665
G1 X15.810 Y21.907 E1.88622
G1 X16.352 Y21.720 E1.89580
G1 X16.902 Y21.558 E1.90540
G1 X17.458 Y21.420 E1.91497
G1 X18.020 Y21.308 E1.92456
G1 X18.586 Y21.221 E1.93413
G1 X19.155 Y21.160 E1.94370
G1 X19.727 Y21.124 E1.95329
G1 X67.823 Y21.114 E2.75766
G1 X68.396 Y21.130 E2.76724
G1 X68.967 Y21.171 E2.77682
G1 X69.535 Y21.238 E2.78638
G1 X70.102 Y21.330 E2.79599
G1 X70.663 Y21.448 E2.80557
G1 X71.217 Y21.591 E2.81515
G1 X71.772 Y21.761 E2.82485
G1 X72.305 Y21.950 E2.83431
G1 X72.836 Y22.166 E2.84390
G1 X73.356 Y22.405 E2.85348
G1 X73.872 Y22.672 E2.86318
G1 X74.362 Y22.953 E2.87264
G1 X74.845 Y23.260 E2.88220
G1 X75.314 Y23.588 E2.89177
G1 X75.769 Y23.938 E2.90138
G1 X76.208 Y24.307 E2.91097
G1 X76.628 Y24.696 E2.92055
G1 X77.032 Y25.103 E2.93013
G1 X77.416 Y25.527 E2.93970
G1 X77.780 Y25.968 E2.94925
G1 X78.126 Y26.427 E2.95887
G1 X78.449 Y26.899 E2.96844
G1 X78.752 Y27.386 E2.97804
G1 X79.033 Y27.886 E2.98762
G1 X79.290 Y28.396 E2.99717
G1 X79.524 Y28.918 E3.00675
G1 X79.735 Y29.453 E3.01636
G1 X79.922 Y29.994 E3.02593
G1 X80.084 Y30.544 E3.03552
G1 X80.221 Y31.100 E3.04510
G1 X80.333 Y31.660 E3.05466
G1 X80.420 Y32.228 E3.06427
G1 X80.482 Y32.805 E3.07398
G1 X80.518 Y33.370 E3.08344
G1 X80.528 Y33.943 E3.09302
G1 X80.512 Y34.515 E3.10260
G1 X80.471 Y35.087 E3.11218
G1 X80.334 Y36.094 E3.12917
G1 X80.194 Y36.782 E3.14092
G1 X80.051 Y37.337 E3.15050
G1 X79.884 Y37.885 E3.16008
G1 X79.527 Y38.836 E3.17707
G1 X79.236 Y39.476 E3.18883
G1 X78.974 Y39.985 E3.19841
G1 X78.689 Y40.482 E3.20799
G1 X78.094 Y41.380 E3.22601
G1 X54.740 Y73.674 E3.89252
G1 X54.390 Y74.128 E3.90210
G1 X54.021 Y74.566 E3.91168
G1 X53.632 Y74.987 E3.92127
G1 X53.225 Y75.390 E3.93085
G1 X52.801 Y75.774 E3.94043
G1 X52.359 Y76.139 E3.95001
G1 X51.538 Y76.736 E3.96699
G1 X50.942 Y77.111 E3.97875
G1 X50.443 Y77.391 E3.98834
G1 X49.931 Y77.649 E3.99792
G1 X49.408 Y77.883 E4.00750
G1 X48.875 Y78.094 E4.01708
G1 X48.334 Y78.280 E4.02666
G1 X47.784 Y78.442 E4.03624
G1 X47.228 Y78.580 E4.04583
G1 X46.666 Y78.692 E4.05540
G1 X46.100 Y78.779 E4.06499
G1 X45.530 Y78.840 E4.07457
G1 X44.959 Y78.876 E4.08415
G1 X44.386 Y78.886 E4.09373
G1 X43.373 Y78.841 E4.11068
G1 X42.763 Y78.775 E4.12095
G1 X42.107 Y78.670 E4.13205
G1 X41.546 Y78.552 E4.14164
G1 X40.991 Y78.409 E4.15122
G1 X40.444 Y78.242 E4.16080
G1 X39.491 Y77.885 E4.17781
G1 X38.853 Y77.595 E4.18954
G1 X38.343 Y77.332 E4.19912
G1 X37.847 Y77.047 E4.20870
G1 X37.363 Y76.740 E4.21829
G1 X36.894 Y76.411 E4.22787
G1 X36.100 Y75.779 E4.24484
G1 X35.580 Y75.304 E4.25661
G1 X35.177 Y74.897 E4.26619
G1 X34.793 Y74.472 E4.27577
G1 X34.428 Y74.031 E4.28535
G1 X9.874 Y41.334 E4.96920
G1 X9.550 Y40.862 E4.97878
G1 X9.248 Y40.375 E4.98836
G1 X8.967 Y39.876 E4.99794
G1 X8.710 Y39.364 E5.00752
G1 X8.475 Y38.841 E5.01710
G1 X8.265 Y38.308 E5.02669
G1 X8.078 Y37.767 E5.03627
G1 X7.916 Y37.217 E5.04585
G1 X7.779 Y36.661 E5.05543
G1 X7.666 Y36.099 E5.06501
G1 X7.580 Y35.533 E5.07459
G1 X7.518 Y34.963 E5.08417
G1 X7.482 Y34.391 E5.09376
G1 X7.472 Y33.818 E5.10334
G1 X7.488 Y33.246 E5.11292
G1 X7.529 Y32.674 E5.12250
G1 X7.596 Y32.106 E5.13207
G1 X7.689 Y31.540 E5.14167
G1 X7.806 Y30.980 E5.15124
G1 X7.949 Y30.424 E5.16083
G1 X8.116 Y29.877 E5.17041
G1 X8.308 Y29.338 E5.17997
G1 X8.527 Y28.799 E5.18970
G1 X8.763 Y28.286 E5.19914
G1 X9.026 Y27.777 E5.20873
G1 X9.311 Y27.279 E5.21832
G1 X9.618 Y26.797 E5.22788
G1 X9.951 Y26.321 E5.23760
G1 X10.296 Y25.872 E5.24706
G1 X10.664 Y25.436 E5.25661
G1 X11.408 Y24.663 E5.27455
G1 X11.720 Y24.893 F9300.000
G1 X12.560 Y24.166 E5.29313 F3060.000
G1 X13.461 Y23.517 E5.31170
G1 X14.418 Y22.951 E5.33030
G1 X15.421 Y22.473 E5.34888
G1 X16.462 Y22.087 E5.36744
G1 X17.535 Y21.796 E5.38604
G1 X18.629 Y21.603 E5.40462
G1 X19.736 Y21.508 E5.42320
G1 X67.815 Y21.498 E6.22728
G1 X68.924 Y21.552 E6.24586
G1 X70.025 Y21.706 E6.26444
G1 X71.107 Y21.958 E6.28303
G1 X71.639 Y22.120 E6.29232
G1 X72.677 Y22.515 E6.31090
G1 X73.182 Y22.747 E6.32020
G1 X73.683 Y23.005 E6.32961
G1 X74.627 Y23.575 E6.34806
G1 X75.082 Y23.893 E6.35734
G1 X75.949 Y24.591 E6.37595
G1 X76.357 Y24.967 E6.38524
G1 X77.121 Y25.773 E6.40382
G1 X77.475 Y26.200 E6.41309
G1 X77.811 Y26.645 E6.42241
G1 X78.129 Y27.110 E6.43183
G1 X78.691 Y28.060 E6.45029
G1 X79.168 Y29.062 E6.46885
G1 X79.373 Y29.580 E6.47817
G1 X79.712 Y30.638 E6.49675
G1 X79.954 Y31.720 E6.51530
G1 X80.039 Y32.271 E6.52463
G1 X80.100 Y32.831 E6.53404
G1 X80.144 Y33.934 E6.55250
G1 X80.090 Y35.044 E6.57109
G1 X79.956 Y36.034 E6.58779
G1 X79.822 Y36.688 E6.59896
G1 X79.522 Y37.758 E6.61755
G1 X79.171 Y38.693 E6.63424
G1 X78.895 Y39.302 E6.64542
G1 X78.364 Y40.278 E6.66401
G1 X77.783 Y41.155 E6.68161
G1 X54.434 Y73.441 E7.34797
G1 X53.813 Y74.221 E7.36465
G1 X53.361 Y74.716 E7.37584
G1 X52.555 Y75.480 E7.39443
G1 X52.127 Y75.834 E7.40372
G1 X51.319 Y76.421 E7.42041
G1 X50.753 Y76.777 E7.43160
G1 X50.269 Y77.049 E7.44089
G1 X49.265 Y77.527 E7.45948
G1 X48.331 Y77.878 E7.47617
G1 X47.691 Y78.070 E7.48735
G1 X46.606 Y78.313 E7.50593
G1 X45.505 Y78.457 E7.52452
G1 X44.950 Y78.492 E7.53381
G1 X43.950 Y78.492 E7.55054
G1 X43.399 Y78.458 E7.55976
G1 X42.810 Y78.394 E7.56967
G1 X42.184 Y78.294 E7.58027
G1 X41.640 Y78.180 E7.58957
G1 X40.678 Y77.915 E7.60626
G1 X40.047 Y77.694 E7.61745
G1 X39.027 Y77.253 E7.63603
G1 X38.051 Y76.722 E7.65461
G1 X37.581 Y76.424 E7.66391
G1 X36.774 Y75.838 E7.68059
G1 X36.260 Y75.409 E7.69179
G1 X35.852 Y75.033 E7.70108
G1 X35.087 Y74.226 E7.71966
G1 X34.452 Y73.429 E7.73672
G1 X10.189 Y41.116 E8.41251
G1 X9.581 Y40.186 E8.43109
G1 X9.059 Y39.205 E8.44967
G1 X8.627 Y38.182 E8.46826
G1 X8.288 Y37.123 E8.48684
G1 X8.045 Y36.039 E8.50542
G1 X7.961 Y35.490 E8.51471
G1 X7.866 Y34.383 E8.53330
G1 X7.856 Y33.827 E8.54259
G1 X7.910 Y32.717 E8.56117
G1 X8.064 Y31.617 E8.57976
G1 X8.316 Y30.535 E8.59834
G1 X8.664 Y29.480 E8.61691
G1 X8.876 Y28.958 E8.62634
G1 X9.360 Y27.966 E8.64479
G1 X9.933 Y27.015 E8.66337
G1 X10.257 Y26.553 E8.67280
G1 X10.948 Y25.694 E8.69123
G1 X11.667 Y24.946 E8.70859
G1 F1500.000 E6.90859
G92 E0
G1 X50.911 Y73.518 F9300.000
G1 E1.80000 F1500.000
M204 S1500
G1 X50.222 Y74.067 E1.81475 F3442.500
G1 X49.486 Y74.553 E1.82949
G1 X48.710 Y74.971 E1.84423
G1 X47.900 Y75.317 E1.85897
G1 X47.061 Y75.589 E1.87372
G1 X46.634 Y75.697 E1.88109
G1 X45.766 Y75.855 E1.89583
G1 X44.888 Y75.934 E1.91057
G1 X44.007 Y75.934 E1.92532
G1 X43.129 Y75.855 E1.94006
G1 X42.262 Y75.697 E1.95480
G1 X41.834 Y75.589 E1.96217
G1 X40.996 Y75.317 E1.97692
G1 X40.185 Y74.971 E1.99166
G1 X39.409 Y74.553 E2.00640
G1 X38.673 Y74.067 E2.02114
G1 X37.984 Y73.518 E2.03589
G1 X37.347 Y72.908 E2.05063
G1 X37.050 Y72.583 E2.05800
G1 X36.767 Y72.245 E2.06538
G1 X36.249 Y71.532 E2.08012
G1 X35.797 Y70.775 E2.09486
G1 X35.414 Y69.980 E2.10961
G1 X35.105 Y69.155 E2.12434
G1 X34.870 Y68.305 E2.13909
G1 X34.713 Y67.438 E2.15383
G1 X34.634 Y66.560 E2.16857
G1 X34.634 Y65.679 E2.18331
G1 X34.713 Y64.801 E2.19806
G1 X34.870 Y63.933 E2.21280
G1 X34.978 Y63.506 E2.22017
G1 X35.250 Y62.668 E2.23491
G1 X35.597 Y61.857 E2.24966
G1 X36.014 Y61.081 E2.26440
G1 X36.500 Y60.345 E2.27914
G1 X36.767 Y59.994 E2.28652
G1 X37.347 Y59.330 E2.30126
G1 X37.984 Y58.721 E2.31600
G1 X38.673 Y58.172 E2.33074
G1 X39.036 Y57.920 E2.33812
G1 X39.792 Y57.468 E2.35286
G1 X40.587 Y57.086 E2.36761
G1 X41.412 Y56.776 E2.38235
G1 X42.262 Y56.542 E2.39709
G1 X43.129 Y56.384 E2.41183
G1 X43.567 Y56.335 E2.41921
G1 X44.448 Y56.295 E2.43395
G1 X45.328 Y56.335 E2.44869
G1 X46.202 Y56.453 E2.46343
G1 X47.061 Y56.649 E2.47817
G1 X47.484 Y56.776 E2.48555
G1 X48.309 Y57.086 E2.50029
G1 X49.103 Y57.468 E2.51503
G1 X49.860 Y57.921 E2.52978
G1 X50.573 Y58.439 E2.54452
G1 X51.237 Y59.019 E2.55926
G1 X51.846 Y59.656 E2.57400
G1 X52.396 Y60.345 E2.58875
G1 X52.881 Y61.081 E2.60349
G1 X53.299 Y61.857 E2.61823
G1 X53.645 Y62.667 E2.63297
G1 X53.918 Y63.506 E2.64772
G1 X54.114 Y64.365 E2.66246
G1 X54.183 Y64.801 E2.66983
G1 X54.262 Y65.679 E2.68458
G1 X54.262 Y66.560 E2.69932
G1 X54.183 Y67.438 E2.71406
G1 X54.114 Y67.874 E2.72143
G1 X53.918 Y68.733 E2.73617
G1 X53.645 Y69.571 E2.75092
G1 X53.299 Y70.382 E2.76566
G1 X52.881 Y71.158 E2.78041
G1 X52.396 Y71.894 E2.79515
G1 X51.846 Y72.583 E2.80989
G1 X51.549 Y72.908 E2.81726
G1 X50.967 Y73.467 E2.83075
M204 S900
G1 X50.441 Y73.349 F9300.000
G1 X50.659 Y73.229 F9300.000
M204 S1500
G1 X49.997 Y73.757 E2.84492 F4590.000
G1 X49.290 Y74.224 E2.85908
G1 X48.544 Y74.625 E2.87325
G1 X47.765 Y74.958 E2.88742
G1 X46.959 Y75.220 E2.90158
G1 X46.548 Y75.323 E2.90867
G1 X45.715 Y75.474 E2.92284
G1 X44.871 Y75.550 E2.93700
G1 X44.024 Y75.550 E2.95117
G1 X43.180 Y75.474 E2.96534
G1 X42.347 Y75.323 E2.97950
G1 X41.936 Y75.220 E2.98659
G1 X41.131 Y74.958 E3.00076
G1 X40.352 Y74.625 E3.01492
G1 X39.606 Y74.223 E3.02909
G1 X38.899 Y73.757 E3.04326
G1 X38.237 Y73.229 E3.05742
G1 X37.624 Y72.643 E3.07159
G1 X37.338 Y72.331 E3.07867
G1 X37.067 Y72.005 E3.08576
G1 X36.569 Y71.320 E3.09993
G1 X36.135 Y70.593 E3.11409
G1 X35.767 Y69.830 E3.12826
G1 X35.469 Y69.037 E3.14242
G1 X35.244 Y68.220 E3.15659
G1 X35.093 Y67.387 E3.17076
G1 X35.017 Y66.543 E3.18493
G1 X35.017 Y65.696 E3.19909
G1 X35.093 Y64.852 E3.21326
G1 X35.244 Y64.019 E3.22743
G1 X35.348 Y63.608 E3.23451
G1 X35.609 Y62.802 E3.24868
G1 X35.942 Y62.023 E3.26285
G1 X36.344 Y61.278 E3.27701
G1 X36.810 Y60.571 E3.29118
G1 X37.067 Y60.233 E3.29826
G1 X37.624 Y59.596 E3.31243
G1 X38.237 Y59.010 E3.32660
G1 X38.899 Y58.482 E3.34076
G1 X39.247 Y58.241 E3.34785
G1 X39.974 Y57.806 E3.36202
G1 X40.738 Y57.439 E3.37619
G1 X41.531 Y57.141 E3.39035
G1 X42.347 Y56.916 E3.40452
G1 X43.180 Y56.764 E3.41868
G1 X43.602 Y56.717 E3.42577
G1 X44.448 Y56.679 E3.43994
G1 X45.294 Y56.717 E3.45410
G1 X46.133 Y56.831 E3.46827
G1 X46.959 Y57.019 E3.48244
G1 X47.365 Y57.141 E3.48952
G1 X48.158 Y57.439 E3.50369
G1 X48.921 Y57.806 E3.51786
G1 X49.648 Y58.241 E3.53202
G1 X50.334 Y58.739 E3.54619
G1 X50.972 Y59.296 E3.56036
G1 X51.557 Y59.908 E3.57452
G1 X52.085 Y60.570 E3.58869
G1 X52.552 Y61.277 E3.60285
G1 X52.953 Y62.023 E3.61702
G1 X53.286 Y62.802 E3.63119
G1 X53.548 Y63.608 E3.64536
G1 X53.736 Y64.434 E3.65952
G1 X53.803 Y64.852 E3.66661
G1 X53.879 Y65.696 E3.68078
G1 X53.879 Y66.543 E3.69494
G1 X53.803 Y67.387 E3.70911
G1 X53.736 Y67.805 E3.71620
G1 X53.548 Y68.631 E3.73036
G1 X53.286 Y69.437 E3.74453
G1 X52.953 Y70.215 E3.75869
G1 X52.552 Y70.961 E3.77286
G1 X52.085 Y71.668 E3.78703
G1 X51.557 Y72.331 E3.80119
G1 X51.271 Y72.643 E3.80828
G1 X50.714 Y73.178 E3.82119
M204 S900
G1 F1500.000 E2.02119
G92 E0
G1 X47.724 Y72.845 F9300.000
G1 E1.80000 F1500.000
M204 S1500
G1 X41.172 Y72.845 E1.90957 F3442.500
G1 X41.172 Y69.594 E1.96396
G1 X47.724 Y69.594 E2.07353
G1 X47.724 Y72.770 E2.12666
M204 S900
G1 X47.724 Y73.345 F9300.000
G1 F1500.000 E0.32666
G92 E0
G1 X45.646 Y68.568 F9300.000
G1 E1.80000 F1500.000
M204 S1500
G1 X45.198 Y68.740 E1.80802 F3442.500
G1 X44.727 Y68.831 E1.81604
G1 X44.248 Y68.838 E1.82407
G1 X43.931 Y68.796 E1.82942
G1 X43.621 Y68.717 E1.83476
G1 X43.178 Y68.532 E1.84279
G1 X42.775 Y68.272 E1.85081
G1 X42.424 Y67.945 E1.85883
G1 X42.224 Y67.696 E1.86418
G1 X42.054 Y67.424 E1.86953
G1 X41.863 Y66.985 E1.87755
G1 X41.779 Y66.676 E1.88290
G1 X41.732 Y66.359 E1.88825
G1 X41.732 Y65.880 E1.89627
G1 X41.779 Y65.563 E1.90163
G1 X41.863 Y65.254 E1.90698
G1 X42.054 Y64.815 E1.91500
G1 X42.224 Y64.543 E1.92035
G1 X42.424 Y64.293 E1.92570
G1 X42.775 Y63.967 E1.93372
G1 X43.178 Y63.707 E1.94174
G1 X43.470 Y63.575 E1.94709
G1 X43.775 Y63.478 E1.95245
G1 X44.248 Y63.401 E1.96047
G1 X44.727 Y63.408 E1.96849
G1 X45.043 Y63.459 E1.97383
G1 X45.351 Y63.547 E1.97919
G1 X45.788 Y63.745 E1.98721
G1 X46.183 Y64.017 E1.99523
G1 X46.525 Y64.354 E2.00325
G1 X46.717 Y64.609 E2.00860
G1 X46.878 Y64.885 E2.01395
G1 X47.057 Y65.330 E2.02197
G1 X47.155 Y65.800 E2.02999
G1 X47.169 Y66.279 E2.03801
G1 X47.132 Y66.597 E2.04337
G1 X47.057 Y66.908 E2.04872
G1 X46.947 Y67.209 E2.05407
G1 X46.802 Y67.494 E2.05942
G1 X46.525 Y67.885 E2.06744
G1 X46.183 Y68.222 E2.07546
G1 X45.925 Y68.411 E2.08081
G1 X45.712 Y68.533 E2.08491
M204 S900
G1 X45.259 Y68.285 F9300.000
G1 X45.693 Y68.968 F9300.000
M204 S1500
G1 X45.745 Y69.210 E2.08905 F4590.000
G1 X48.107 Y69.210 E2.12856
G1 X48.107 Y73.229 E2.19577
G1 X40.788 Y73.229 E2.31817
G1 X40.788 Y69.210 E2.38539
G1 X43.151 Y69.210 E2.42490
G1 X43.206 Y68.972 E2.42898
G1 X42.841 Y68.782 E2.43587
G1 X42.399 Y68.458 E2.44503
G1 X42.021 Y68.063 E2.45417
G1 X41.717 Y67.608 E2.46332
G1 X41.562 Y67.278 E2.46943
G1 X41.446 Y66.932 E2.47553
G1 X41.350 Y66.393 E2.48468
G1 X41.339 Y66.028 E2.49079
G1 X41.372 Y65.664 E2.49689
G1 X41.499 Y65.132 E2.50604
G1 X41.635 Y64.794 E2.51214
G1 X41.809 Y64.473 E2.51825
G1 X42.139 Y64.036 E2.52740
G1 X42.399 Y63.780 E2.53350
G1 X42.687 Y63.556 E2.53961
G1 X43.163 Y63.287 E2.54876
G1 X43.680 Y63.106 E2.55791
G1 X44.220 Y63.018 E2.56706
G1 X44.767 Y63.026 E2.57621
G1 X45.127 Y63.085 E2.58231
G1 X45.478 Y63.185 E2.58842
G1 X45.815 Y63.326 E2.59452
G1 X46.132 Y63.506 E2.60062
G1 X46.565 Y63.841 E2.60978
G1 X46.931 Y64.248 E2.61893
G1 X47.133 Y64.551 E2.62503
G1 X47.298 Y64.877 E2.63114
G1 X47.472 Y65.396 E2.64029
G1 X47.536 Y65.755 E2.64639
G1 X47.557 Y66.119 E2.65249
G1 X47.509 Y66.664 E2.66164
G1 X47.366 Y67.193 E2.67079
G1 X47.133 Y67.687 E2.67994
G1 X46.931 Y67.991 E2.68605
G1 X46.694 Y68.269 E2.69215
G1 X46.283 Y68.630 E2.70131
G1 X45.976 Y68.828 E2.70741
G1 X45.761 Y68.937 E2.71144
M204 S900
G1 X46.523 Y68.763 F9300.000
M204 S1400
G1 X46.792 Y68.952 E2.71695 F4590.000
G1 X47.472 Y68.952 E2.72831
G1 X46.824 Y68.499 E2.74152
M204 S900
G1 F1500.000 E0.94152
G92 E0
G1 X47.475 Y64.672 F9300.000
G1 E1.80000 F1500.000
M204 S1400
G1 X53.249 Y68.715 E1.91788 F4590.000
G1 X53.123 Y69.103 E1.92470
G1 X47.705 Y65.308 E2.03533
G1 X47.792 Y65.846 E2.04443
G1 X52.986 Y69.482 E2.15046
G1 X52.829 Y69.848 E2.15713
G1 X47.804 Y66.329 E2.25973
G1 X47.748 Y66.766 E2.26710
G1 X52.664 Y70.208 E2.36747
G1 X52.478 Y70.554 E2.37403
G1 X47.637 Y67.164 E2.47287
G1 X47.495 Y67.541 E2.47960
G1 X52.286 Y70.895 E2.57742
G1 X52.063 Y71.215 E2.58394
G1 X47.307 Y67.885 E2.68103
G1 X47.080 Y68.201 E2.68755
G1 X51.839 Y71.534 E2.78473
G1 X51.616 Y71.854 E2.79125
G1 X48.365 Y69.578 E2.85761
G1 X48.365 Y70.053 E2.86557
G1 X51.360 Y72.150 E2.92670
G1 X51.102 Y72.445 E2.93326
G1 X48.365 Y70.529 E2.98912
G1 X48.365 Y71.005 E2.99708
G1 X50.816 Y72.721 E3.04712
G1 X50.529 Y72.996 E3.05377
G1 X48.365 Y71.481 E3.09794
G1 X48.365 Y71.957 E3.10590
G1 X50.215 Y73.252 E3.14367
G1 X49.898 Y73.506 E3.15047
G1 X48.365 Y72.433 E3.18175
G1 X48.365 Y72.908 E3.18971
G1 X49.553 Y73.740 E3.21397
G1 X49.204 Y73.971 E3.22098
G1 X48.365 Y73.384 E3.23809
G1 X47.833 Y73.487 E3.24717
G1 X48.824 Y74.181 E3.26741
G1 X48.440 Y74.388 E3.27470
G1 X47.153 Y73.487 E3.30097
G1 X46.473 Y73.487 E3.31234
G1 X48.018 Y74.569 E3.34388
G1 X47.589 Y74.744 E3.35164
G1 X45.794 Y73.487 E3.38828
G1 X45.114 Y73.487 E3.39965
G1 X47.125 Y74.895 E3.44069
G1 X46.643 Y75.033 E3.44907
G1 X44.435 Y73.487 E3.49415
G1 X43.755 Y73.487 E3.50552
G1 X46.115 Y75.139 E3.55370
