; generated by Slic3r 1.1.7 on 2015-05-19 at 12:48:52

; perimeters extrusion width = 0.50mm
; infill extrusion width = 0.60mm
; solid infill extrusion width = 0.60mm
; top infill extrusion width = 0.43mm

G21 ; set units to millimeters

M301 P34 I4 D113     ; set PID nozzle
M304 P162 I17 D378 ; set PID Bed

M104 S230                 ; set extruder temp for budaschnozzle
;M104 S250                 ; set extruder temp for hex_hot_end
M140 S109                 ; set bed temp for PEI (reminder ~G1 Z2 ~ M140 S(@-10 degree change) ;if -m is present in file name)

;G28                            ; home
;G1 Z5 F300                ; move bed down 5mm
;M84                            ; disable steppers
;G4 S300                     ; wait 5 mins to preheat

G28                            ; home

G90 ; use absolute coordinates
G92 E0
M82 ; use absolute distances for extrusion
M204 S2000
G1 F1200.000 E-1.00000
G92 E0
G1 Z0.350 F9600.000
G1 X166.513 Y167.931 F9600.000
G1 E1.00000 F1200.000
G1 X167.871 Y166.779 E1.05498 F1080.000
G1 X199.871 Y146.779 E2.21983
G1 X201.925 Y145.963 E2.28806
G1 X203.134 Y145.843 E2.32557
G1 X238.866 Y145.843 E3.42854
G1 X241.040 Y146.240 E3.49677
G1 X242.934 Y147.379 E3.56500 F1080.000
G1 X244.601 Y149.762 E3.65477
G1 X276.601 Y231.762 E6.37190
G1 X277.023 Y234.000 E6.44221
G1 X277.023 Y242.000 E6.68916
G1 X276.626 Y244.174 E6.75739
G1 X275.487 Y246.069 E6.82562
G1 X274.129 Y247.221 E6.88060
G1 X242.129 Y267.221 E8.04545
G1 X240.075 Y268.037 E8.11368
G1 X238.866 Y268.157 E8.15118
G1 X203.134 Y268.157 E9.25416
G1 X200.960 Y267.760 E9.32239
G1 X199.066 Y266.621 E9.39062
G1 X197.399 Y264.238 E9.48039
G1 X165.399 Y182.238 E12.19752
G1 X164.977 Y180.000 E12.26783
G1 X164.977 Y172.000 E12.51478
G1 X165.374 Y169.826 E12.58301
G1 X166.474 Y167.996 E12.64892
G1 X167.024 Y168.258 F9600.000
G1 X167.085 Y168.163 E12.65241 F1080.000
G1 X168.178 Y167.269 E12.69598
G1 X200.178 Y147.269 E13.86083
G1 X203.134 Y146.421 E13.95578
G1 X238.866 Y146.421 E15.05875
G1 X240.931 Y146.818 E15.12367
G1 X242.703 Y147.951 E15.18859 F1080.000
G1 X244.063 Y149.972 E15.26378
G1 X276.063 Y231.972 E17.98091
G1 X276.444 Y234.000 E18.04461
G1 X276.444 Y242.000 E18.29156
G1 X276.048 Y244.065 E18.35648
G1 X274.915 Y245.837 E18.42140
G1 X273.822 Y246.731 E18.46496
G1 X241.822 Y266.731 E19.62982
G1 X238.866 Y267.579 E19.72476
G1 X203.134 Y267.579 E20.82774
G1 X201.069 Y267.182 E20.89265
G1 X199.297 Y266.049 E20.95757
G1 X197.937 Y264.028 E21.03277
G1 X165.937 Y182.028 E23.74990
G1 X165.556 Y180.000 E23.81360
G1 X165.556 Y172.000 E24.06055
G1 X165.952 Y169.935 E24.12546
G1 X166.984 Y168.321 E24.18458
G1 F1200.000 E23.18458
G92 E0
G1 X213.015 Y161.068 F9600.000
G1 E1.00000 F1200.000
G1 X212.162 Y161.688 E1.03256 F1800.000
G1 X211.181 Y162.077 E1.06513
G1 X210.134 Y162.209 E1.09770
G1 X209.088 Y162.077 E1.13026
G1 X208.107 Y161.688 E1.16283
G1 X207.253 Y161.068 E1.19539
G1 X206.581 Y160.255 E1.22796
G1 X206.132 Y159.301 E1.26053
G1 X205.934 Y158.264 E1.29309
G1 X206.000 Y157.211 E1.32566
G1 X206.326 Y156.208 E1.35823
G1 X206.891 Y155.317 E1.39079
G1 X207.660 Y154.595 E1.42336
G1 X208.585 Y154.087 E1.45593
G1 X209.607 Y153.824 E1.48849
G1 X210.662 Y153.824 E1.52106
G1 X211.077 Y153.931 E1.53427
G1 X211.684 Y154.087 E1.55362 F1800.000
G1 X212.608 Y154.595 E1.58619
G1 X213.377 Y155.317 E1.61875
G1 X213.943 Y156.208 E1.65132
G1 X214.269 Y157.211 E1.68389
G1 X214.335 Y158.264 E1.71645
G1 X214.137 Y159.301 E1.74902
G1 X213.688 Y160.255 E1.78159
G1 X213.063 Y161.010 E1.81184
G1 X212.616 Y160.643 F9600.000
G1 X211.881 Y161.177 E1.83989 F1350.000
G1 X211.036 Y161.512 E1.86795
G1 X210.134 Y161.626 E1.89600
G1 X209.233 Y161.512 E1.92406
G1 X208.388 Y161.177 E1.95211
G1 X207.652 Y160.643 E1.98016
G1 X207.073 Y159.943 E2.00822
G1 X206.993 Y159.773 E2.01401
G1 X206.686 Y159.120 E2.03627
G1 X206.516 Y158.228 E2.06432
G1 X206.573 Y157.321 E2.09238
G1 X206.854 Y156.456 E2.12043
G1 X207.341 Y155.689 E2.14849
G1 X208.003 Y155.067 E2.17654
G1 X208.800 Y154.629 E2.20460
G1 X209.680 Y154.403 E2.23265
G1 X210.589 Y154.403 E2.26070 F1350.000
G1 X211.469 Y154.629 E2.28876
G1 X211.564 Y154.681 E2.29209
G1 X212.265 Y155.067 E2.31681
G1 X212.928 Y155.689 E2.34486
G1 X213.415 Y156.456 E2.37292
G1 X213.696 Y157.321 E2.40097
G1 X213.753 Y158.228 E2.42903
G1 X213.583 Y159.120 E2.45708
G1 X213.196 Y159.943 E2.48514
G1 X212.664 Y160.585 E2.51088
G1 F1200.000 E1.51088
G92 E0
G1 X209.586 Y153.912 F9600.000
G1 X210.662 Y202.824 F9600.000
G1 E1.00000 F1200.000
G1 X211.123 Y202.943 E1.01469 F1800.000
G1 X211.684 Y203.087 E1.03257 F1800.000
G1 X212.608 Y203.595 E1.06513
G1 X213.377 Y204.317 E1.09770
G1 X213.943 Y205.208 E1.13026
G1 X214.269 Y206.211 E1.16283
G1 X214.335 Y207.264 E1.19540
G1 X214.137 Y208.301 E1.22796
G1 X213.688 Y209.255 E1.26053
G1 X213.015 Y210.068 E1.29310
G1 X212.162 Y210.688 E1.32566
G1 X211.181 Y211.077 E1.35823
G1 X210.134 Y211.209 E1.39080
G1 X209.088 Y211.077 E1.42336
G1 X208.107 Y210.688 E1.45593
G1 X207.762 Y210.438 E1.46909
G1 X207.253 Y210.068 E1.48849
G1 X206.581 Y209.255 E1.52106
G1 X206.132 Y208.301 E1.55363
G1 X205.934 Y207.264 E1.58619
G1 X206.000 Y206.211 E1.61876
G1 X206.326 Y205.208 E1.65133
G1 X206.891 Y204.317 E1.68389
G1 X207.660 Y203.595 E1.71646
G1 X208.585 Y203.087 E1.74902
G1 X209.607 Y202.824 E1.78159
G1 X210.587 Y202.824 E1.81184
G1 X210.589 Y203.403 F9600.000
G1 X211.469 Y203.629 E1.83989 F1350.000
G1 X212.265 Y204.067 E1.86795
G1 X212.928 Y204.689 E1.89600
G1 X213.415 Y205.456 E1.92406
G1 X213.566 Y205.920 E1.93912
G1 X213.696 Y206.321 E1.95211
G1 X213.753 Y207.228 E1.98017
G1 X213.583 Y208.120 E2.00822
G1 X213.196 Y208.943 E2.03627
G1 X212.616 Y209.643 E2.06433
G1 X211.881 Y210.177 E2.09238
G1 X211.036 Y210.512 E2.12044
G1 X210.134 Y210.626 E2.14849
G1 X209.233 Y210.512 E2.17654
G1 X208.832 Y210.353 E2.18986
G1 X208.388 Y210.177 E2.20460
G1 X207.652 Y209.643 E2.23265
G1 X207.073 Y208.943 E2.26071
G1 X206.884 Y208.540 E2.27444
G1 X206.686 Y208.120 E2.28876
G1 X206.516 Y207.228 E2.31681
G1 X206.573 Y206.321 E2.34487
G1 X206.854 Y205.456 E2.37292
G1 X207.341 Y204.689 E2.40098
G1 X208.003 Y204.067 E2.42903
G1 X208.800 Y203.629 E2.45708
G1 X209.680 Y203.403 E2.48514
G1 X210.514 Y203.403 E2.51088 F1350.000
G1 X209.680 Y202.903 F9600.000
G1 F1200.000 E1.51088
G92 E0
G1 X210.589 Y251.824 F9600.000
G1 E1.00000 F1200.000
G1 X210.662 Y251.824 E1.00226 F1800.000
G1 X211.684 Y252.087 E1.03482
G1 X212.608 Y252.595 E1.06739
G1 X213.377 Y253.317 E1.09995
G1 X213.943 Y254.208 E1.13252
G1 X214.269 Y255.211 E1.16509
G1 X214.335 Y256.264 E1.19765
G1 X214.137 Y257.301 E1.23022
G1 X213.688 Y258.255 E1.26279
G1 X213.015 Y259.068 E1.29535
G1 X212.162 Y259.688 E1.32792
G1 X211.640 Y259.895 E1.34524
G1 X211.181 Y260.077 E1.36049
G1 X210.134 Y260.209 E1.39305
G1 X209.088 Y260.077 E1.42562
G1 X208.889 Y259.998 E1.43222
G1 X208.107 Y259.688 E1.45819
G1 X207.253 Y259.068 E1.49075
G1 X206.581 Y258.255 E1.52332
G1 X206.132 Y257.301 E1.55588
G1 X205.934 Y256.264 E1.58844
G1 X206.000 Y255.211 E1.62102
G1 X206.326 Y254.208 E1.65358
G1 X206.891 Y253.317 E1.68614
G1 X207.660 Y252.595 E1.71871
G1 X208.585 Y252.087 E1.75128
G1 X209.607 Y251.824 E1.78384
G1 X210.111 Y251.824 E1.79942
G1 X210.514 Y251.824 E1.81184 F1800.000
G1 X210.589 Y252.403 F9600.000
G1 X211.469 Y252.629 E1.83989 F1350.000
G1 X212.265 Y253.067 E1.86795
G1 X212.928 Y253.689 E1.89600
G1 X213.415 Y254.456 E1.92406
G1 X213.696 Y255.321 E1.95211
G1 X213.753 Y256.228 E1.98016
G1 X213.583 Y257.120 E2.00822
G1 X213.409 Y257.490 E2.02082
G1 X213.196 Y257.943 E2.03627
G1 X212.616 Y258.643 E2.06433
G1 X211.881 Y259.177 E2.09238
G1 X211.427 Y259.357 E2.10744
G1 X211.036 Y259.512 E2.12044
G1 X210.134 Y259.626 E2.14849
G1 X209.233 Y259.512 E2.17654
G1 X209.102 Y259.460 E2.18089
G1 X208.388 Y259.177 E2.20460
G1 X207.652 Y258.643 E2.23265
G1 X207.073 Y257.943 E2.26070
G1 X206.861 Y257.493 E2.27605
G1 X206.686 Y257.120 E2.28876
G1 X206.516 Y256.228 E2.31681
G1 X206.573 Y255.321 E2.34487
G1 X206.854 Y254.456 E2.37292
G1 X207.341 Y253.689 E2.40097
G1 X208.003 Y253.067 E2.42903
G1 X208.800 Y252.629 E2.45708
G1 X209.585 Y252.427 E2.48211
G1 X209.680 Y252.403 E2.48514 F1350.000
G1 X210.514 Y252.403 E2.51088
G1 X209.516 Y252.357 F9600.000
G1 F1200.000 E1.51088
G92 E0
G1 X204.013 Y179.121 F9600.000
G1 E1.00000 F1200.000
G1 X179.971 Y179.121 E1.74213 F1800.000
G1 X180.688 Y178.255 E1.77684
G1 X181.137 Y177.301 E1.80940
G1 X181.335 Y176.264 E1.84196
G1 X181.269 Y175.211 E1.87453
G1 X180.943 Y174.208 E1.90710
G1 X180.377 Y173.317 E1.93967
G1 X179.910 Y172.879 E1.95945
G1 X204.013 Y172.879 E2.70347
G1 X204.013 Y152.879 E3.32084
G1 X216.256 Y152.879 E3.69876
G1 X216.256 Y261.121 E7.04006
G1 X204.013 Y261.121 E7.41798
G1 X204.013 Y179.196 E9.94688
G1 X203.434 Y179.700 F9600.000
G1 X178.582 Y179.700 E10.71403 F1350.000
G1 X178.510 Y179.324 E10.72585
G1 X178.881 Y179.177 E10.73815
G1 X179.616 Y178.643 E10.76621
G1 X180.196 Y177.943 E10.79426
G1 X180.583 Y177.120 E10.82232
G1 X180.753 Y176.228 E10.85037
G1 X180.696 Y175.321 E10.87842
G1 X180.415 Y174.456 E10.90648
G1 X179.928 Y173.689 E10.93453
G1 X179.265 Y173.067 E10.96259
G1 X178.503 Y172.648 E10.98944
G1 X178.592 Y172.300 E11.00052
G1 X203.434 Y172.300 E11.76735
G1 X203.434 Y152.300 E12.38472
G1 X216.834 Y152.300 E12.79836
G1 X216.834 Y261.700 E16.17538
G1 X203.434 Y261.700 E16.58902
G1 X203.434 Y179.775 E19.11792
G1 X203.434 Y179.200 F9600.000
G1 F1200.000 E18.11792
G92 E0
G1 X174.297 Y179.121 F9600.000
G1 E1.00000 F1200.000
G1 X172.013 Y179.121 E1.07052 F1800.000
G1 X172.013 Y172.879 E1.26323
G1 X174.359 Y172.879 E1.33564
G1 X173.891 Y173.317 E1.35542
G1 X173.326 Y174.208 E1.38799
G1 X173.000 Y175.211 E1.42056
G1 X172.934 Y176.264 E1.45312
G1 X173.132 Y177.301 E1.48569
G1 X173.581 Y178.255 E1.51826
G1 X174.250 Y179.064 E1.55064
G1 X175.758 Y179.324 F9600.000
G1 X175.687 Y179.700 E1.56246 F1350.000
G1 X171.434 Y179.700 E1.69372
G1 X171.434 Y172.300 E1.92215
G1 X175.676 Y172.300 E2.05309
G1 X175.766 Y172.648 E2.06417
G1 X175.003 Y173.067 E2.09102
G1 X174.341 Y173.689 E2.11908
G1 X173.854 Y174.456 E2.14713
G1 X173.573 Y175.321 E2.17519
G1 X173.516 Y176.228 E2.20324
G1 X173.686 Y177.120 E2.23130
G1 X174.073 Y177.943 E2.25935
G1 X174.652 Y178.643 E2.28740
G1 X175.388 Y179.177 E2.31546
G1 X175.689 Y179.296 E2.32545
G1 X175.490 Y179.597 F9600.000
G1 F1200.000 E1.32545
G92 E0
G1 X178.180 Y179.191 F9600.000
G1 E1.00000 F1200.000
G1 X177.871 Y179.617 E1.01623 F1350.000
G1 X177.092 Y179.660 E1.04031
G1 X176.398 Y179.617 E1.06177
G1 X176.240 Y179.391 E1.07027
G1 X176.099 Y179.136 E1.07925
G1 F1200.000 E0.07925
G92 E0
G1 X176.020 Y172.434 F9600.000
G1 E1.00000 F1200.000
G1 X176.718 Y172.351 E1.02168 F1350.000
G1 X177.551 Y172.351 E1.04739
G1 X178.248 Y172.434 E1.06907
G1 F1200.000 E0.06907
G92 E0
G1 X180.919 Y173.278 F9600.000
G1 E1.00000 F1200.000
G1 X186.363 Y178.722 E1.23766 F1980.000
G1 X187.182 Y178.722 E1.26295
G1 X181.738 Y173.278 E1.50061
G1 X182.558 Y173.278 E1.52590
G1 X188.002 Y178.722 E1.76356
G1 X188.821 Y178.722 E1.78886
G1 X183.377 Y173.278 E2.02652
G1 X184.196 Y173.278 E2.05181
G1 X189.640 Y178.722 E2.28947
G1 X190.460 Y178.722 E2.31476
G1 X185.016 Y173.278 E2.55242
G1 X185.835 Y173.278 E2.57771
G1 X191.279 Y178.722 E2.81537
G1 X192.098 Y178.722 E2.84066
G1 X186.654 Y173.278 E3.07832
G1 X187.474 Y173.278 E3.10362
G1 X192.918 Y178.722 E3.34128
G1 X193.737 Y178.722 E3.36657
G1 X188.293 Y173.278 E3.60423
G1 X189.112 Y173.278 E3.62952
G1 X194.557 Y178.722 E3.86718
G1 X195.376 Y178.722 E3.89247
G1 X189.932 Y173.278 E4.13013
G1 X190.751 Y173.278 E4.15543
G1 X196.195 Y178.722 E4.39308
G1 X197.015 Y178.722 E4.41838
G1 X191.571 Y173.278 E4.65604
G1 X192.390 Y173.278 E4.68133
G1 X197.834 Y178.722 E4.91899
G1 X198.653 Y178.722 E4.94428
G1 X193.209 Y173.278 E5.18194
G1 X194.029 Y173.278 E5.20723
G1 X199.473 Y178.722 E5.44489
G1 X200.292 Y178.722 E5.47019
G1 X194.848 Y173.278 E5.70785
G1 X195.667 Y173.278 E5.73314
G1 X201.111 Y178.722 E5.97080
G1 X201.931 Y178.722 E5.99609
G1 X196.487 Y173.278 E6.23375
G1 X197.306 Y173.278 E6.25904
G1 X202.750 Y178.722 E6.49670
G1 X203.570 Y178.722 E6.52199
G1 X198.126 Y173.278 E6.75965
G1 X198.945 Y173.278 E6.78495
G1 X215.856 Y190.189 E7.52321
G1 X215.856 Y189.370 E7.54851
G1 X199.764 Y173.278 E8.25100
G1 X200.584 Y173.278 E8.27629
G1 X215.856 Y188.551 E8.94302
G1 X215.856 Y187.731 E8.96831
G1 X201.403 Y173.278 E9.59927
G1 X202.222 Y173.278 E9.62457
G1 X215.856 Y186.912 E10.21975
G1 X215.856 Y186.093 E10.24505
G1 X203.042 Y173.278 E10.80447
G1 X203.861 Y173.278 E10.82976
G1 X215.856 Y185.273 E11.35341
G1 X215.856 Y184.454 E11.37870
G1 X204.412 Y173.010 E11.87829
G1 X204.412 Y172.190 E11.90358
G1 X215.856 Y183.635 E12.40317
G1 X215.856 Y182.815 E12.42846
G1 X204.412 Y171.371 E12.92805
G1 X204.412 Y170.552 E12.95334
G1 X215.856 Y181.996 E13.45293
G1 X215.856 Y181.176 E13.47822
G1 X204.412 Y169.732 E13.97781
G1 X204.412 Y168.913 E14.00310
G1 X215.856 Y180.357 E14.50269
G1 X215.856 Y179.538 E14.52798
G1 X204.412 Y168.094 E15.02757
G1 X204.412 Y167.274 E15.05286
G1 X215.856 Y178.718 E15.55245
G1 X215.856 Y177.899 E15.57774
G1 X204.412 Y166.455 E16.07733
G1 X204.412 Y165.636 E16.10262
G1 X215.856 Y177.080 E16.60221
G1 X215.856 Y176.260 E16.62751
G1 X204.412 Y164.816 E17.12709
G1 X204.412 Y163.997 E17.15239
G1 X215.856 Y175.441 E17.65197
G1 X215.856 Y174.621 E17.67727
G1 X204.412 Y163.177 E18.17685
G1 X204.412 Y162.358 E18.20215
G1 X215.856 Y173.802 E18.70173
G1 X215.856 Y172.983 E18.72703
G1 X204.412 Y161.539 E19.22661
G1 X204.412 Y160.719 E19.25191
G1 X215.856 Y172.163 E19.75149
G1 X215.856 Y171.344 E19.77679
G1 X204.412 Y159.900 E20.27637
G1 F1200.000 E19.27637
G92 E0
G1 X205.652 Y153.000 F9600.000
G1 X208.442 Y153.278 F9600.000
G1 E1.00000 F1200.000
G1 X208.511 Y153.347 E1.00300 F1980.000
G1 X208.192 Y153.847 E1.02131
G1 X207.623 Y153.278 E1.04616
G1 X206.803 Y153.278 E1.07145
G1 X207.663 Y154.138 E1.10899
G1 X207.193 Y154.487 E1.12707
G1 X205.984 Y153.278 E1.17983
G1 X205.165 Y153.278 E1.20512
G1 X206.770 Y154.883 E1.27521
G1 X206.405 Y155.338 E1.29320
G1 X204.412 Y153.345 E1.38020
G1 X204.412 Y154.164 E1.40549
G1 X206.087 Y155.839 E1.47860
G1 X205.840 Y156.411 E1.49785
G1 X204.412 Y154.984 E1.56017
G1 X204.412 Y155.803 E1.58547
G1 X205.639 Y157.030 E1.63902
G1 X205.564 Y157.775 E1.66213
G1 X204.412 Y156.622 E1.71242
G1 X204.412 Y157.442 E1.73772
G1 X205.596 Y158.626 E1.78940
G1 X205.902 Y159.751 E1.82539
G1 X204.412 Y158.261 E1.89043
G1 X204.412 Y159.081 E1.91572
G1 X215.856 Y170.525 E2.41531
G1 X215.856 Y169.705 E2.44060
G1 X208.375 Y162.224 E2.76719
G1 X209.502 Y162.531 E2.80325
G1 X215.856 Y168.886 E3.08065
G1 X215.856 Y168.067 E3.10594
G1 X210.371 Y162.581 E3.34540
G1 X211.099 Y162.490 E3.36803
G1 X215.856 Y167.247 E3.57572
G1 X215.856 Y166.428 E3.60102
G1 X211.721 Y162.292 E3.78155
G1 X212.308 Y162.060 E3.80104
G1 X215.856 Y165.608 E3.95594
G1 X215.856 Y164.789 E3.98124
G1 X212.792 Y161.724 E4.11503
G1 X213.266 Y161.380 E4.13313
G1 X215.856 Y163.970 E4.24621
G1 X215.856 Y163.150 E4.27150
G1 X213.643 Y160.937 E4.36814
G1 X214.014 Y160.488 E4.38611
G1 X215.856 Y162.331 E4.46655
G1 X215.856 Y161.512 E4.49185
G1 X214.280 Y159.935 E4.56067
G1 X214.531 Y159.367 E4.57984
G1 X215.856 Y160.692 E4.63770
G1 X215.856 Y159.873 E4.66299
G1 X214.662 Y158.679 E4.71512
G1 X214.713 Y157.910 E4.73890
G1 X215.856 Y159.054 E4.78883
G1 X215.856 Y158.234 E4.81412
G1 X214.619 Y156.997 E4.86815
G1 X214.009 Y155.568 F9600.000
G1 X215.856 Y157.415 E4.94879 F1980.000
G1 X215.856 Y156.595 E4.97408
G1 X212.539 Y153.278 E5.11890
G1 X213.358 Y153.278 E5.14420
G1 X215.856 Y155.776 E5.25325
G1 X215.856 Y154.957 E5.27854
G1 X214.178 Y153.278 E5.35183
G1 X214.997 Y153.278 E5.37712
G1 X215.856 Y154.137 E5.41463
G1 X215.856 Y153.318 E5.43993
G1 X215.816 Y153.278 E5.44167
G1 F1200.000 E4.44167
G92 E0
G1 X212.547 Y154.106 F9600.000
G1 E1.00000 F1200.000
G1 X211.761 Y153.320 E1.03431 F1980.000
G1 F1200.000 E0.03431
G92 E0
G1 X205.652 Y153.000 F9600.000
G1 X204.412 Y179.565 F9600.000
G1 E1.00000 F1200.000
G1 X215.856 Y191.009 E1.49959 F1980.000
