; generated by Slic3r 1.1.7 on 2015-04-30 at 14:12:09

; perimeters extrusion width = 0.50mm
; infill extrusion width = 0.61mm
; solid infill extrusion width = 0.50mm
; top infill extrusion width = 0.43mm

G21 ; set units to millimeters
M107

M301 P34 I4 D113     ; set PID nozzle
M304 P162 I17 D378 ; set PID Bed

;M104 S230                 ; set extruder temp for budaschnozzle
M104 S250                 ; set extruder temp for hex_hot_end
;M140 S100                 ; set bed temp for PET
M140 S110                 ; set bed temp for PEI (reminder ~G1 Z2 ~ M140 S(@-10 degree change) ;if -m is present in file name)

G28                            ; home
G1 Z5 F300                ; move bed down 5mm
M84                            ; disable steppers
G4 S300                     ; wait 5 mins to preheat

G28                            ; home

G90 ; use absolute coordinates
G92 E0
M82 ; use absolute distances for extrusion
M204 S1800
G1 F1500.000 E-1.40000
G92 E0
G1 Z0.350 F9600.000
G1 X156.838 Y63.317 F9600.000
G1 E1.40000 F1500.000
G1 X157.339 Y62.815 E1.42340 F1365.000
G1 X158.304 Y62.005 E1.46492
G1 X159.353 Y61.309 E1.50643
G1 X160.474 Y60.734 E1.54795
G1 X161.652 Y60.289 E1.58947
G1 X162.180 Y60.137 E1.60758
G1 X162.873 Y59.978 E1.63100
G1 X164.120 Y59.806 E1.67252
G1 X165.030 Y59.764 E1.70253
G1 X229.380 Y59.774 E3.82374
G1 X230.634 Y59.884 E3.86525 F1365.000
G1 X231.175 Y59.976 E3.88335
G1 X231.869 Y60.133 E3.90679
G1 X233.068 Y60.520 E3.94831
G1 X233.576 Y60.730 E3.96644
G1 X234.216 Y61.038 E3.98984
G1 X234.697 Y61.304 E4.00796
G1 X235.298 Y61.681 E4.03137
G1 X235.746 Y61.998 E4.04945
G1 X236.302 Y62.441 E4.07290
G1 X237.215 Y63.309 E4.11442
G1 X238.025 Y64.274 E4.15594
G1 X238.721 Y65.323 E4.19745
G1 X239.296 Y66.444 E4.23898
G1 X239.506 Y66.953 E4.25712
G1 X239.741 Y67.622 E4.28051
G1 X239.893 Y68.151 E4.29864
G1 X240.052 Y68.843 E4.32203
G1 X240.144 Y69.386 E4.34021
G1 X240.224 Y70.091 E4.36357
G1 X240.265 Y71.000 E4.39358
G1 X240.256 Y139.350 E6.64664
G1 X240.224 Y139.906 E6.66500
G1 X240.146 Y140.604 E6.68818
G1 X240.053 Y141.154 E6.70656
G1 X239.896 Y141.839 E6.72971
G1 X239.510 Y143.037 E6.77122
G1 X239.297 Y143.554 E6.78964
G1 X238.992 Y144.186 E6.81277
G1 X238.349 Y145.269 E6.85428
G1 X238.028 Y145.720 E6.87254
G1 X237.589 Y146.272 E6.89581
G1 X237.217 Y146.688 E6.91418
G1 X236.720 Y147.185 E6.93735
G1 X235.756 Y147.995 E6.97887
G1 X235.302 Y148.316 E6.99720
G1 X234.706 Y148.691 E7.02039
G1 X234.223 Y148.959 E7.03862
G1 X233.586 Y149.266 E7.06193
G1 X233.075 Y149.477 E7.08016
G1 X232.407 Y149.711 E7.10347
G1 X231.187 Y150.022 E7.14498
G1 X230.641 Y150.115 E7.16323
G1 X229.939 Y150.194 E7.18651
G1 X229.386 Y150.225 E7.20479
G1 X205.000 Y150.236 E8.00863
G1 X164.621 Y150.035 E9.33972
G1 X163.366 Y149.925 E9.38123
G1 X162.131 Y149.676 E9.42275
G1 X161.599 Y149.522 E9.44100
G1 X160.932 Y149.289 E9.46428
G1 X159.784 Y148.771 E9.50580
G1 X158.702 Y148.128 E9.54732
G1 X157.698 Y147.368 E9.58883
G1 X157.286 Y146.999 E9.60705
G1 X156.785 Y146.500 E9.63037
G1 X155.975 Y145.535 E9.67189
G1 X155.654 Y145.081 E9.69022
G1 X155.279 Y144.486 E9.71341
G1 X155.010 Y143.999 E9.73175
G1 X154.704 Y143.365 E9.75495
G1 X154.493 Y142.854 E9.77318
G1 X154.259 Y142.186 E9.79649
G1 X153.948 Y140.966 E9.83800
G1 X153.855 Y140.420 E9.85625
G1 X153.776 Y139.718 E9.87954
G1 X153.745 Y139.166 E9.89778
G1 X153.735 Y112.800 E10.76690
G1 X153.804 Y70.650 E12.15631
G1 X153.835 Y70.103 E12.17439
G1 X153.914 Y69.396 E12.19785
G1 X154.006 Y68.854 E12.21594
G1 X154.163 Y68.161 E12.23937
G1 X154.549 Y66.962 E12.28089
G1 X154.760 Y66.454 E12.29904
G1 X155.068 Y65.814 E12.32243
G1 X155.333 Y65.333 E12.34054
G1 X155.711 Y64.732 E12.36396
G1 X156.028 Y64.284 E12.38205
G1 X156.471 Y63.728 E12.40549
G1 X156.788 Y63.373 E12.42115
G1 X157.298 Y63.729 F9600.000
G1 X157.751 Y63.276 E12.44227 F1365.000
G1 X158.662 Y62.509 E12.48151
G1 X159.652 Y61.850 E12.52074
G1 X160.711 Y61.305 E12.55998
G1 X161.823 Y60.882 E12.59921
G1 X162.351 Y60.730 E12.61732
G1 X162.976 Y60.587 E12.63846
G1 X164.155 Y60.422 E12.67769
G1 X165.030 Y60.382 E12.70656
G1 X229.345 Y60.391 E14.82663
G1 X230.531 Y60.493 E14.86586 F1365.000
G1 X231.072 Y60.585 E14.88395
G1 X231.698 Y60.727 E14.90511
G1 X232.831 Y61.090 E14.94435
G1 X233.339 Y61.301 E14.96247
G1 X233.917 Y61.578 E14.98360
G1 X234.398 Y61.844 E15.00171
G1 X234.941 Y62.185 E15.02284
G1 X235.388 Y62.502 E15.04093
G1 X235.891 Y62.902 E15.06209
G1 X236.754 Y63.721 E15.10133
G1 X237.521 Y64.632 E15.14056
G1 X238.180 Y65.622 E15.17980
G1 X238.725 Y66.681 E15.21903
G1 X238.935 Y67.189 E15.23717
G1 X239.148 Y67.793 E15.25828
G1 X239.300 Y68.322 E15.27641
G1 X239.443 Y68.946 E15.29752
G1 X239.535 Y69.490 E15.31570
G1 X239.607 Y70.125 E15.33678
G1 X239.648 Y71.000 E15.36565
G1 X239.639 Y139.315 E17.61757
G1 X239.608 Y139.871 E17.63591
G1 X239.537 Y140.501 E17.65682
G1 X239.444 Y141.050 E17.67518
G1 X239.303 Y141.668 E17.69607
G1 X238.940 Y142.801 E17.73530
G1 X238.726 Y143.317 E17.75369
G1 X238.452 Y143.887 E17.77455
G1 X237.845 Y144.911 E17.81378
G1 X237.525 Y145.363 E17.83204
G1 X237.128 Y145.861 E17.85303
G1 X236.757 Y146.276 E17.87139
G1 X236.309 Y146.724 E17.89229
G1 X235.398 Y147.491 E17.93152
G1 X234.945 Y147.812 E17.94984
G1 X234.408 Y148.150 E17.97076
G1 X233.924 Y148.418 E17.98899
G1 X233.349 Y148.695 E18.01002
G1 X232.838 Y148.907 E18.02825
G1 X232.236 Y149.118 E18.04927
G1 X231.083 Y149.413 E18.08850
G1 X230.538 Y149.506 E18.10674
G1 X229.905 Y149.578 E18.12775
G1 X229.351 Y149.609 E18.14602
G1 X205.003 Y149.618 E18.94863
G1 X164.655 Y149.418 E20.27867
G1 X163.469 Y149.316 E20.31790
G1 X162.302 Y149.082 E20.35713
G1 X161.770 Y148.929 E20.37538
G1 X161.169 Y148.719 E20.39639
G1 X160.083 Y148.231 E20.43562
G1 X159.059 Y147.624 E20.47485
G1 X158.109 Y146.907 E20.51409
G1 X157.697 Y146.539 E20.53231
G1 X157.246 Y146.088 E20.55334
G1 X156.479 Y145.177 E20.59257
G1 X156.158 Y144.724 E20.61089
G1 X155.820 Y144.187 E20.63181
G1 X155.551 Y143.700 E20.65014
G1 X155.275 Y143.128 E20.67107
G1 X155.063 Y142.617 E20.68930
G1 X154.852 Y142.015 E20.71032
G1 X154.557 Y140.863 E20.74955
G1 X154.464 Y140.317 E20.76780
G1 X154.393 Y139.684 E20.78880
G1 X154.352 Y138.809 E20.81767
G1 X154.352 Y112.801 E21.67499
G1 X154.421 Y70.685 E23.06329
G1 X154.452 Y70.137 E23.08138
G1 X154.523 Y69.499 E23.10255
G1 X154.615 Y68.958 E23.12064
G1 X154.757 Y68.332 E23.14179
G1 X155.120 Y67.199 E23.18103
G1 X155.331 Y66.690 E23.19917
G1 X155.608 Y66.113 E23.22028
G1 X155.874 Y65.632 E23.23839
G1 X156.215 Y65.089 E23.25953
G1 X156.532 Y64.641 E23.27762
G1 X156.932 Y64.139 E23.29877
G1 X157.248 Y63.785 E23.31443
G1 F1500.000 E21.91443
G92 E0
G1 X230.571 Y80.185 F9600.000
G1 E1.40000 F1500.000
G1 X230.161 Y80.678 E1.42114 F2100.000
G1 X229.708 Y81.132 E1.44229
G1 X229.214 Y81.541 E1.46343
G1 X228.685 Y81.904 E1.48457
G1 X228.125 Y82.216 E1.50571
G1 X227.538 Y82.475 E1.52686
G1 X226.930 Y82.679 E1.54800
G1 X226.306 Y82.826 E1.56914
G1 X225.671 Y82.914 E1.59028
G1 X225.030 Y82.944 E1.61143
G1 X224.389 Y82.914 E1.63257
G1 X223.754 Y82.826 E1.65371
G1 X223.130 Y82.679 E1.67485
G1 X222.521 Y82.475 E1.69599
G1 X221.935 Y82.216 E1.71714
G1 X221.374 Y81.904 E1.73828
G1 X220.901 Y81.580 E1.75719
G1 X220.352 Y81.132 E1.78055
G1 X219.898 Y80.678 E1.80169
G1 X219.488 Y80.184 E1.82284
G1 X219.126 Y79.655 E1.84398
G1 X218.814 Y79.095 E1.86513
G1 X218.555 Y78.508 E1.88627
G1 X218.351 Y77.900 E1.90740
G1 X218.204 Y77.276 E1.92855
G1 X218.116 Y76.641 E1.94969
G1 X218.086 Y76.000 E1.97084
G1 X218.116 Y75.359 E1.99198
G1 X218.204 Y74.724 E2.01312
G1 X218.351 Y74.100 E2.03426
G1 X218.555 Y73.491 E2.05541
G1 X218.814 Y72.905 E2.07654
G1 X219.126 Y72.345 E2.09769
G1 X219.489 Y71.815 E2.11883
G1 X219.898 Y71.322 E2.13997
G1 X220.352 Y70.868 E2.16112
G1 X220.845 Y70.459 E2.18226
G1 X221.374 Y70.096 E2.20340
G1 X221.935 Y69.784 E2.22454
G1 X222.521 Y69.525 E2.24569
G1 X223.130 Y69.321 E2.26683
G1 X223.754 Y69.174 E2.28797
G1 X224.389 Y69.086 E2.30911
G1 X225.030 Y69.056 E2.33025
G1 X225.603 Y69.083 E2.34916
G1 X226.306 Y69.174 E2.37253 F2100.000
G1 X226.930 Y69.321 E2.39367
G1 X227.538 Y69.525 E2.41481
G1 X228.284 Y69.854 E2.44168
G1 X228.284 Y69.873 E2.44229
G1 X228.685 Y70.096 E2.45744
G1 X229.214 Y70.459 E2.47858
G1 X229.708 Y70.868 E2.49972
G1 X230.161 Y71.322 E2.52086
G1 X230.571 Y71.815 E2.54200
G1 X230.895 Y72.289 E2.56091
G1 X231.246 Y72.905 E2.58428
G1 X231.505 Y73.492 E2.60542
G1 X231.709 Y74.100 E2.62656
G1 X231.855 Y74.724 E2.64771
G1 X231.944 Y75.359 E2.66885
G1 X231.974 Y76.000 E2.68999
G1 X231.944 Y76.641 E2.71113
G1 X231.855 Y77.276 E2.73228
G1 X231.709 Y77.900 E2.75342
G1 X231.505 Y78.509 E2.77456
G1 X231.246 Y79.095 E2.79570
G1 X230.934 Y79.655 E2.81684
G1 X230.614 Y80.123 E2.83551
G1 X230.078 Y79.812 F9600.000
G1 X229.704 Y80.261 E2.85477 F1575.000
G1 X229.291 Y80.675 E2.87403
G1 X228.842 Y81.048 E2.89329
G1 X228.360 Y81.378 E2.91255
G1 X227.849 Y81.662 E2.93181
G1 X227.315 Y81.898 E2.95107
G1 X226.761 Y82.084 E2.97033
G1 X226.192 Y82.218 E2.98959
G1 X225.613 Y82.298 E3.00885
G1 X225.030 Y82.325 E3.02810
G1 X224.446 Y82.298 E3.04736
G1 X223.868 Y82.218 E3.06662
G1 X223.299 Y82.084 E3.08588
G1 X222.745 Y81.898 E3.10514
G1 X222.210 Y81.662 E3.12440
G1 X221.700 Y81.378 E3.14366
G1 X221.250 Y81.070 E3.16163
G1 X220.769 Y80.674 E3.18217
G1 X220.355 Y80.261 E3.20143
G1 X219.982 Y79.812 E3.22069
G1 X219.652 Y79.330 E3.23995
G1 X219.368 Y78.819 E3.25921
G1 X219.132 Y78.285 E3.27847
G1 X218.946 Y77.731 E3.29773
G1 X218.812 Y77.162 E3.31699
G1 X218.731 Y76.584 E3.33625
G1 X218.705 Y76.000 E3.35551
G1 X218.731 Y75.416 E3.37476
G1 X218.812 Y74.838 E3.39402
G1 X218.946 Y74.269 E3.41328
G1 X219.132 Y73.715 E3.43254
G1 X219.368 Y73.181 E3.45180
G1 X219.652 Y72.670 E3.47106
G1 X219.982 Y72.188 E3.49032
G1 X220.355 Y71.739 E3.50958
G1 X220.769 Y71.325 E3.52884
G1 X221.188 Y70.977 E3.54680
G1 X221.700 Y70.622 E3.56735
G1 X222.210 Y70.338 E3.58661
G1 X222.745 Y70.102 E3.60587
G1 X223.299 Y69.916 E3.62513
G1 X223.868 Y69.782 E3.64439
G1 X224.485 Y69.700 E3.66494
G1 X225.030 Y69.675 E3.68290 F1575.000
G1 X225.613 Y69.702 E3.70216
G1 X226.192 Y69.782 E3.72142
G1 X226.761 Y69.916 E3.74068
G1 X227.315 Y70.102 E3.75994
G1 X227.849 Y70.338 E3.77920
G1 X228.360 Y70.622 E3.79846
G1 X228.842 Y70.952 E3.81772
G1 X229.291 Y71.326 E3.83697
G1 X229.704 Y71.739 E3.85623
G1 X230.053 Y72.158 E3.87420
G1 X230.408 Y72.670 E3.89475
G1 X230.692 Y73.181 E3.91401
G1 X230.928 Y73.715 E3.93327
G1 X231.114 Y74.269 E3.95252
G1 X231.248 Y74.838 E3.97178
G1 X231.328 Y75.416 E3.99104
G1 X231.355 Y76.000 E4.01030
G1 X231.328 Y76.584 E4.02956
G1 X231.248 Y77.162 E4.04882
G1 X231.114 Y77.731 E4.06808
G1 X230.928 Y78.285 E4.08734
G1 X230.692 Y78.819 E4.10660
G1 X230.408 Y79.330 E4.12586
G1 X230.120 Y79.750 E4.14264
G1 F1500.000 E2.74264
G92 E0
G1 X224.379 Y69.211 F9600.000
G1 X215.855 Y77.276 F9600.000
G1 E1.40000 F1500.000
G1 X215.709 Y77.900 E1.42114 F2100.000
G1 X215.526 Y78.444 E1.44005
G1 X215.246 Y79.095 E1.46341
G1 X214.934 Y79.655 E1.48456
G1 X214.571 Y80.185 E1.50570
G1 X214.161 Y80.678 E1.52684
G1 X213.756 Y81.084 E1.54575
G1 X213.214 Y81.541 E1.56912
G1 X212.685 Y81.904 E1.59026
G1 X212.125 Y82.216 E1.61141
G1 X211.538 Y82.475 E1.63255
G1 X210.930 Y82.679 E1.65369
G1 X210.306 Y82.826 E1.67483
G1 X209.671 Y82.914 E1.69597
G1 X209.030 Y82.944 E1.71712
G1 X208.389 Y82.914 E1.73826
G1 X207.754 Y82.826 E1.75940
G1 X207.130 Y82.679 E1.78054
G1 X206.521 Y82.475 E1.80169
G1 X205.935 Y82.216 E1.82283
G1 X205.374 Y81.904 E1.84397
G1 X204.845 Y81.541 E1.86512
G1 X204.352 Y81.132 E1.88625
G1 X203.898 Y80.678 E1.90739
G1 X203.488 Y80.184 E1.92854
G1 X203.126 Y79.655 E1.94968
G1 X202.847 Y79.154 E1.96859
G1 X202.555 Y78.508 E1.99196
G1 X202.351 Y77.900 E2.01310
G1 X202.204 Y77.276 E2.03425
G1 X202.116 Y76.641 E2.05539
G1 X202.086 Y76.000 E2.07653
G1 X202.116 Y75.359 E2.09767
G1 X202.204 Y74.724 E2.11881
G1 X202.351 Y74.100 E2.13995
G1 X202.555 Y73.491 E2.16110
G1 X202.814 Y72.905 E2.18223
G1 X203.126 Y72.345 E2.20338
G1 X203.489 Y71.815 E2.22452
G1 X203.898 Y71.322 E2.24566
G1 X204.352 Y70.868 E2.26681
G1 X204.793 Y70.502 E2.28571
G1 X205.374 Y70.096 E2.30908
G1 X205.935 Y69.784 E2.33023
G1 X206.521 Y69.525 E2.35137
G1 X207.130 Y69.321 E2.37251
G1 X207.754 Y69.174 E2.39365
G1 X208.389 Y69.086 E2.41479
G1 X209.030 Y69.056 E2.43594
G1 X209.603 Y69.083 E2.45484
G1 X210.306 Y69.174 E2.47821 F2100.000
G1 X210.930 Y69.321 E2.49936
G1 X211.538 Y69.525 E2.52050
G1 X212.284 Y69.854 E2.54737
G1 X212.284 Y69.873 E2.54797
G1 X212.685 Y70.096 E2.56312
G1 X213.214 Y70.459 E2.58426
G1 X213.708 Y70.868 E2.60540
G1 X214.161 Y71.322 E2.62654
G1 X214.571 Y71.815 E2.64769
G1 X214.934 Y72.345 E2.66884
G1 X215.246 Y72.905 E2.68997
G1 X215.505 Y73.492 E2.71111
G1 X215.709 Y74.100 E2.73225
G1 X215.855 Y74.724 E2.75340
G1 X215.944 Y75.359 E2.77454
G1 X215.974 Y76.000 E2.79568
G1 X215.944 Y76.641 E2.81682
G1 X215.866 Y77.202 E2.83549
G1 X215.248 Y77.162 F9600.000
G1 X215.114 Y77.731 E2.85475 F1575.000
G1 X214.941 Y78.248 E2.87272
G1 X214.692 Y78.819 E2.89327
G1 X214.408 Y79.330 E2.91253
G1 X214.078 Y79.812 E2.93178
G1 X213.704 Y80.261 E2.95104
G1 X213.291 Y80.675 E2.97031
G1 X212.842 Y81.048 E2.98956
G1 X212.360 Y81.378 E3.00882
G1 X211.849 Y81.662 E3.02808
G1 X211.315 Y81.898 E3.04734
G1 X210.761 Y82.084 E3.06660
G1 X210.192 Y82.218 E3.08586
G1 X209.613 Y82.298 E3.10512
G1 X209.030 Y82.325 E3.12438
G1 X208.446 Y82.298 E3.14364
G1 X207.868 Y82.218 E3.16290
G1 X207.299 Y82.084 E3.18216
G1 X206.745 Y81.898 E3.20141
G1 X206.246 Y81.678 E3.21938
G1 X205.700 Y81.378 E3.23993
G1 X205.218 Y81.048 E3.25919
G1 X204.769 Y80.674 E3.27845
G1 X204.355 Y80.261 E3.29770
G1 X203.982 Y79.812 E3.31697
G1 X203.652 Y79.330 E3.33622
G1 X203.368 Y78.819 E3.35548
G1 X203.132 Y78.285 E3.37474
G1 X202.946 Y77.731 E3.39400
G1 X202.812 Y77.162 E3.41326
G1 X202.731 Y76.584 E3.43252
G1 X202.705 Y76.000 E3.45178
G1 X202.731 Y75.416 E3.47104
G1 X202.812 Y74.838 E3.49030
G1 X202.946 Y74.269 E3.50956
G1 X203.132 Y73.715 E3.52882
G1 X203.368 Y73.181 E3.54807
G1 X203.652 Y72.670 E3.56733
G1 X203.982 Y72.188 E3.58659
G1 X204.355 Y71.739 E3.60585
G1 X204.769 Y71.325 E3.62511
G1 X205.218 Y70.952 E3.64437
G1 X205.734 Y70.603 E3.66492
G1 X206.210 Y70.338 E3.68288
G1 X206.745 Y70.102 E3.70214
G1 X207.299 Y69.916 E3.72140
G1 X207.868 Y69.782 E3.74066
G1 X208.485 Y69.700 E3.76121
G1 X209.030 Y69.675 E3.77917 F1575.000
G1 X209.613 Y69.702 E3.79843
G1 X210.192 Y69.782 E3.81769
G1 X210.761 Y69.916 E3.83695
G1 X211.315 Y70.102 E3.85621
G1 X211.849 Y70.338 E3.87547
G1 X212.360 Y70.622 E3.89473
G1 X212.842 Y70.952 E3.91399
G1 X213.291 Y71.326 E3.93325
G1 X213.704 Y71.739 E3.95251
G1 X214.078 Y72.188 E3.97177
G1 X214.408 Y72.670 E3.99103
G1 X214.692 Y73.181 E4.01028
G1 X214.928 Y73.715 E4.02954
G1 X215.114 Y74.269 E4.04880
G1 X215.248 Y74.838 E4.06806
G1 X215.328 Y75.416 E4.08732
G1 X215.355 Y76.000 E4.10658
G1 X215.328 Y76.584 E4.12584
G1 X215.258 Y77.088 E4.14263
G1 F1500.000 E2.74263
G92 E0
G1 X208.342 Y69.221 F9600.000
G1 X216.553 Y89.038 F9600.000
G1 E1.40000 F1500.000
G1 X216.895 Y89.017 E1.41129 F2100.000
G1 X217.507 Y89.038 E1.43148
G1 X218.112 Y89.133 E1.45167 F2100.000
G1 X218.374 Y89.201 E1.46058
G1 X218.701 Y89.303 E1.47187
G1 X219.264 Y89.543 E1.49207
G1 X219.794 Y89.850 E1.51226
G1 X220.013 Y90.009 E1.52117
G1 X220.282 Y90.220 E1.53246
G1 X220.722 Y90.647 E1.55266
G1 X221.105 Y91.125 E1.57286
G1 X221.250 Y91.353 E1.58176
G1 X221.427 Y91.647 E1.59306
G1 X221.683 Y92.203 E1.61326
G1 X221.868 Y92.788 E1.63346
G1 X221.919 Y93.053 E1.64237
G1 X221.981 Y93.390 E1.65367
G1 X222.018 Y94.000 E1.67381
G1 X221.981 Y94.610 E1.69395
G1 X221.919 Y94.947 E1.70525
G1 X221.868 Y95.212 E1.71415
G1 X221.683 Y95.797 E1.73435
G1 X221.427 Y96.353 E1.75456
G1 X221.250 Y96.647 E1.76585
G1 X221.105 Y96.875 E1.77475
G1 X220.722 Y97.353 E1.79495
G1 X220.282 Y97.780 E1.81515
G1 X220.013 Y97.991 E1.82645
G1 X219.794 Y98.150 E1.83535
G1 X219.264 Y98.457 E1.85555
G1 X218.701 Y98.697 E1.87574
G1 X218.112 Y98.867 E1.89593
G1 X217.507 Y98.962 E1.91612
G1 X217.165 Y98.983 E1.92742
