; generated by PrusaSlicer 2.2.0+ on 2023-02-13 at 22:36:02 UTC

; 

; external perimeters extrusion width = 0.45mm
; perimeters extrusion width = 0.45mm
; infill extrusion width = 0.45mm
; solid infill extrusion width = 0.45mm
; top infill extrusion width = 0.40mm
; first layer extrusion width = 0.42mm

M73 P0 R62
M73 Q0 S62
M201 X1000 Y1000 Z200 E5000 ; sets maximum accelerations, mm/sec^2
M203 X200 Y200 Z12 E120 ; sets maximum feedrates, mm/sec
M204 P1250 R1250 T1250 ; sets acceleration (P, T) and retract acceleration (R), mm/sec^2
M205 X8.00 Y8.00 Z0.40 E4.50 ; sets the jerk limits, mm/sec
M205 S0 T0 ; sets the minimum extruding and travel feed rate, mm/sec
M107
M862.3 P "MK3S" ; printer model check
M862.1 P0.4 ; nozzle diameter check
M115 U3.12.1 ; tell printer latest fw version
G90 ; use absolute coordinates
M83 ; extruder relative mode
M104 S215 ; set extruder temp
M140 S60 ; set bed temp
M190 S60 ; wait for bed temp
M109 S215 ; wait for extruder temp
G28 W ; home all without mesh bed level
G80 ; mesh bed leveling
G1 Y-3.0 F1000.0 ; go outside print area
G92 E0.0
G1 X60.0 E9.0 F1000.0 ; intro line
M73 Q0 S62
M73 P0 R62
G1 X100.0 E12.5 F1000.0 ; intro line
G92 E0.0
M221 S95

; Don't change E values below. Excessive value can damage the printer.
M907 E430 ; set extruder motor current
G21 ; set units to millimeters
G90 ; use absolute coordinates
M83 ; use relative distances for extrusion
M900 K0.05 ; Filament gcode LA 1.5
M900 K30 ; Filament gcode LA 1.0
;BEFORE_LAYER_CHANGE
G92 E0.0
;0.2


G1 E-0.80000 F2100.00000
G1 Z0.400 F10800.000
;AFTER_LAYER_CHANGE
;0.2
G1 X87.964 Y67.964
G1 Z0.200
G1 E0.80000 F2100.00000
M204 S1000
G1 F1200.000
G1 X88.724 Y67.453 E0.02872
G1 X124.090 Y52.804 E1.20025
G1 X125.004 Y52.623 E0.02919
G1 X125.899 Y52.799 E0.02860
G1 X161.265 Y67.449 E1.20025
G1 X162.036 Y67.964 E0.02907
G1 X162.551 Y68.735 E0.02909
G1 X177.200 Y104.101 E1.20023
G1 X177.377 Y105.000 E0.02872
G1 X177.196 Y105.910 E0.02909
G1 X162.547 Y141.276 E1.20023
G1 X162.036 Y142.036 E0.02872
G1 X161.265 Y142.551 E0.02909
G1 X125.899 Y157.200 E1.20023
G1 X125.000 Y157.377 E0.02872
G1 X124.090 Y157.196 E0.02909
G1 X88.724 Y142.547 E1.20023
G1 X87.964 Y142.036 E0.02872
G1 X87.636 Y141.627 E0.01645
G1 X87.397 Y141.141 E0.01697
G1 X72.800 Y105.899 E1.19603
G1 X72.623 Y105.000 E0.02872
G1 X72.804 Y104.090 E0.02909
G1 X87.453 Y68.724 E1.20023
G1 X87.930 Y68.014 E0.02684
; printing object 3D_test_V3_0.4mm.stl id:0 copy 0
G1 F8640.000
G1 X88.724 Y67.453 E-0.22440
G1 X90.867 Y66.565 E-0.53560
G1 E-0.04000 F2100.00000
G1 Z0.600 F10800.000
G1 X134.508 Y69.086
G1 Z0.200
G1 E0.80000 F2100.00000
G1 F1200.000
G1 X134.605 Y69.079 E0.00305
G1 X134.649 Y69.145 E0.00248
G1 X134.563 Y69.109 E0.00291
G1 F8640.000
G1 X134.605 Y69.079 E-0.01185
G1 X134.649 Y69.145 E-0.01827
G1 X134.563 Y69.109 E-0.02146
G1 E-0.74841 F2100.00000
G1 Z0.600 F10800.000
G1 X133.056 Y68.485
G1 Z0.200
G1 E0.80000 F2100.00000
G1 F1200.000
G1 X132.374 Y68.202 E0.02313
G1 X133.102 Y67.299 E0.03638
G1 X133.060 Y67.814 E0.01621
G1 X133.056 Y68.425 E0.01914
G1 X133.433 Y68.427 F10800.000
G1 F1200.000
G1 X133.437 Y67.831 E0.01869
G1 X133.476 Y67.350 E0.01513
G1 X133.561 Y66.870 E0.01530
G1 X133.689 Y66.419 E0.01468
G1 X133.774 Y65.616 E0.02533
G1 X133.330 Y66.167 E0.02219
G1 X133.110 Y66.598 E0.01516
G1 X132.837 Y67.027 E0.01595
G1 X132.033 Y68.024 E0.04017
G1 X130.748 Y67.492 E0.04363
G1 X132.765 Y65.139 E0.09718
G1 X133.395 Y64.438 E0.02954
G1 X133.893 Y63.939 E0.02211
G1 X134.372 Y64.108 E0.01593
G1 X134.833 Y64.323 E0.01594
G1 X134.837 Y65.555 E0.03863
G1 X134.775 Y66.564 E0.03169
G1 X134.687 Y67.081 E0.01643
G1 X134.543 Y67.558 E0.01564
G1 X134.513 Y68.169 E0.01917
G1 X134.868 Y67.780 E0.01651
G1 X135.166 Y67.869 E0.00975
G1 X135.392 Y68.056 E0.00919
G1 X135.563 Y68.134 E0.00591
G1 X135.790 Y68.205 E0.00746
G1 X135.951 Y68.200 E0.00503
G1 X135.970 Y68.021 E0.00565
G1 X135.773 Y67.781 E0.00973
G1 X135.197 Y67.426 E0.02121
G1 X135.447 Y66.462 E0.03122
G1 X136.061 Y66.684 E0.02047
G1 X136.306 Y66.749 E0.00797
G1 X136.603 Y66.737 E0.00929
G1 X136.745 Y66.579 E0.00666
G1 X136.735 Y66.537 E0.00136
G1 X136.768 Y66.491 E0.00175
G1 X136.707 Y66.375 E0.00412
G1 X136.576 Y66.251 E0.00565
G1 X136.383 Y66.154 E0.00679
G1 X136.173 Y66.102 E0.00677
G1 X135.914 Y66.087 E0.00814
G1 X135.318 Y66.147 E0.01877
G1 X135.407 Y64.941 E0.03792
G1 X135.840 Y64.897 E0.01362
G1 X136.168 Y64.926 E0.01033
G1 X136.815 Y65.106 E0.02106
G1 X137.027 Y65.198 E0.00725
G1 X137.493 Y65.486 E0.01718
G1 X137.726 Y65.703 E0.00997
G1 X137.922 Y66.026 E0.01185
G1 X138.019 Y66.380 E0.01153
G1 X138.015 Y66.746 E0.01147
G1 X137.886 Y67.135 E0.01284
G1 X137.750 Y67.381 E0.00880
G1 X137.646 Y67.395 E0.00330
G1 X137.489 Y67.562 E0.00718
G1 X137.220 Y67.746 E0.01022
G1 X137.095 Y67.630 E0.00533
G1 X136.869 Y67.689 E0.00733
G1 X136.951 Y67.882 E0.00657
G1 X137.124 Y67.902 E0.00546
G1 X137.137 Y68.294 E0.01230
G1 X137.097 Y68.491 E0.00630
G1 X137.130 Y68.619 E0.00413
G1 X136.961 Y68.923 E0.01091
G1 X136.724 Y69.183 E0.01103
G1 X136.449 Y69.340 E0.00994
G1 X136.139 Y69.419 E0.01003
G1 X135.929 Y69.427 E0.00658
G1 X135.714 Y69.401 E0.00680
G1 X135.496 Y69.330 E0.00717
G1 X135.280 Y69.219 E0.00762
G1 X135.004 Y68.997 E0.01111
G1 X134.879 Y68.811 E0.00705
G1 X134.662 Y68.612 E0.00921
G1 X134.502 Y68.404 E0.00824
G1 X134.487 Y68.710 E0.00960
G1 X133.972 Y68.747 E0.01619
G1 X133.432 Y68.571 E0.01779
G1 X133.433 Y68.487 E0.00264
G1 X133.040 Y68.354 F10800.000
G1 F8640.000
G1 X133.437 Y67.831 E-0.15147
G1 X133.476 Y67.350 E-0.11141
G1 X133.561 Y66.870 E-0.11270
G1 X133.689 Y66.419 E-0.10808
G1 X133.774 Y65.616 E-0.18651
G1 X133.530 Y65.919 E-0.08982
G1 E-0.04000 F2100.00000
G1 Z0.600 F10800.000
G1 X135.211 Y64.582
G1 Z0.200
G1 E0.80000 F2100.00000
G1 F1200.000
G1 X135.210 Y64.387 E0.00610
G1 X135.778 Y64.524 E0.01833
G1 X135.270 Y64.576 E0.01600
G1 F8640.000
G1 X135.210 Y64.387 E-0.04570
G1 X135.778 Y64.524 E-0.13497
G1 X135.270 Y64.576 E-0.11786
G1 E-0.50148 F2100.00000
G1 Z0.600 F10800.000
G1 X125.000 Y65.556
G1 Z0.200
G1 E0.80000 F2100.00000
G1 F1200.000
G1 X152.891 Y77.109 E0.94655
G1 X164.444 Y105.000 E0.94655
G1 X152.891 Y132.891 E0.94655
G1 X130.880 Y142.008 E0.74701
G1 X130.250 Y142.500 E0.02506
G1 X129.350 Y143.133 E0.03449
G1 X128.421 Y143.722 E0.03449
G1 X127.464 Y144.264 E0.03449
G1 X126.482 Y144.759 E0.03449
G1 X125.476 Y145.204 E0.03449
G1 X124.450 Y145.600 E0.03449
G1 X123.405 Y145.945 E0.03449
G1 X122.345 Y146.239 E0.03449
G1 X121.272 Y146.480 E0.03449
G1 X120.188 Y146.668 E0.03449
G1 X119.097 Y146.802 E0.03449
G1 X118.000 Y146.883 E0.03449
G1 X116.900 Y146.910 E0.03449
G1 X115.800 Y146.883 E0.03449
G1 X114.703 Y146.802 E0.03449
G1 X113.612 Y146.668 E0.03449
G1 X112.528 Y146.480 E0.03449
G1 X111.455 Y146.239 E0.03449
G1 X110.395 Y145.945 E0.03449
G1 X109.350 Y145.600 E0.03449
G1 X108.324 Y145.204 E0.03449
G1 X107.318 Y144.759 E0.03449
G1 X106.336 Y144.264 E0.03449
G1 X105.379 Y143.722 E0.03449
G1 X104.450 Y143.133 E0.03449
G1 X103.550 Y142.500 E0.03449
G1 X102.683 Y141.823 E0.03449
G1 X101.850 Y141.105 E0.03449
G1 X101.054 Y140.346 E0.03449
G1 X100.295 Y139.550 E0.03449
G1 X99.577 Y138.717 E0.03449
G1 X98.900 Y137.850 E0.03449
G1 X98.267 Y136.950 E0.03449
G1 X97.678 Y136.021 E0.03449
G1 X97.136 Y135.064 E0.03449
G1 X96.641 Y134.082 E0.03449
G1 X96.196 Y133.076 E0.03449
G1 X95.800 Y132.050 E0.03449
G1 X95.455 Y131.005 E0.03449
G1 X95.161 Y129.945 E0.03449
G1 X94.920 Y128.872 E0.03449
G1 X94.732 Y127.788 E0.03449
G1 X94.621 Y126.884 E0.02856
G1 X85.556 Y105.000 E0.74270
G1 X97.109 Y77.109 E0.94655
G1 X124.945 Y65.579 E0.94467
G1 X125.200 Y65.210 F10800.000
G1 F8640.000
G1 X127.987 Y66.834 E-0.76000
G1 E-0.04000 F2100.00000
G1 Z0.600 F10800.000
G1 X145.268 Y69.490
G1 Z0.200
G1 E0.80000 F2100.00000
G1 F1200.000
G1 X144.928 Y69.683 E0.01228
G1 X144.582 Y69.804 E0.01147
G1 X144.127 Y69.858 E0.01437
G1 X143.676 Y69.817 E0.01421
G1 X143.245 Y69.689 E0.01410
G1 X142.848 Y69.480 E0.01407
G1 X142.499 Y69.197 E0.01408
G1 X142.212 Y68.852 E0.01407
G1 X141.999 Y68.457 E0.01408
G1 X141.866 Y68.028 E0.01407
G1 X141.819 Y67.582 E0.01408
G1 X141.861 Y67.134 E0.01408
G1 X141.988 Y66.708 E0.01396
G1 X142.170 Y66.351 E0.01255
G1 X142.442 Y65.999 E0.01396
G1 X142.781 Y65.704 E0.01408
G1 X143.170 Y65.481 E0.01408
G1 X143.595 Y65.338 E0.01407
G1 X144.041 Y65.280 E0.01408
G1 X144.485 Y65.310 E0.01395
G1 X144.872 Y65.410 E0.01256
G1 X145.273 Y65.597 E0.01386
G1 X145.596 Y65.828 E0.01246
G1 X145.876 Y66.114 E0.01255
G1 X146.125 Y66.494 E0.01425
G1 X146.255 Y66.837 E0.01148
G1 X146.326 Y67.225 E0.01237
G1 X146.593 Y67.006 E0.01082
G1 X146.977 Y66.798 E0.01370
G1 X147.444 Y66.654 E0.01531
G1 X147.923 Y66.598 E0.01511
G1 X148.404 Y66.625 E0.01512
G1 X148.932 Y66.754 E0.01703
G1 X149.428 Y66.985 E0.01715
G1 X149.866 Y67.307 E0.01704
G1 X150.199 Y67.661 E0.01524
G1 X150.494 Y68.123 E0.01718
G1 X150.692 Y68.652 E0.01770
G1 X150.745 Y69.124 E0.01491
G1 X151.080 Y68.836 E0.01385
G1 X151.533 Y68.596 E0.01610
G1 X152.061 Y68.424 E0.01739
G1 X152.390 Y68.365 E0.01048
G1 X152.711 Y68.340 E0.01012
G1 X153.034 Y68.346 E0.01012
G1 X153.355 Y68.384 E0.01012
G1 X153.670 Y68.453 E0.01012
G1 X153.977 Y68.552 E0.01012
G1 X154.272 Y68.681 E0.01011
G1 X154.554 Y68.839 E0.01012
G1 X154.819 Y69.023 E0.01012
G1 X155.064 Y69.233 E0.01012
G1 X155.288 Y69.465 E0.01011
G1 X155.488 Y69.718 E0.01011
G1 X155.662 Y69.990 E0.01012
G1 X155.808 Y70.277 E0.01011
G1 X155.926 Y70.578 E0.01012
G1 X156.014 Y70.888 E0.01012
G1 X156.071 Y71.206 E0.01011
G1 X156.096 Y71.528 E0.01012
G1 X156.090 Y71.850 E0.01011
G1 X156.052 Y72.171 E0.01012
G1 X155.983 Y72.486 E0.01012
G1 X155.884 Y72.793 E0.01011
G1 X155.755 Y73.088 E0.01012
G1 X155.597 Y73.370 E0.01012
G1 X155.413 Y73.635 E0.01011
G1 X155.204 Y73.880 E0.01012
G1 X154.971 Y74.104 E0.01012
G1 X154.718 Y74.304 E0.01012
G1 X154.446 Y74.478 E0.01011
G1 X154.159 Y74.625 E0.01012
G1 X153.858 Y74.742 E0.01012
G1 X153.548 Y74.830 E0.01012
G1 X153.230 Y74.887 E0.01011
G1 X152.909 Y74.912 E0.01011
G1 X152.586 Y74.906 E0.01012
G1 X152.255 Y74.867 E0.01045
G1 X151.729 Y74.732 E0.01702
G1 X151.420 Y74.606 E0.01046
G1 X151.135 Y74.455 E0.01011
G1 X150.866 Y74.278 E0.01011
G1 X150.615 Y74.074 E0.01011
G1 X150.386 Y73.847 E0.01011
G1 X150.173 Y73.591 E0.01046
G1 X149.886 Y73.130 E0.01703
G1 X149.748 Y72.824 E0.01051
G1 X149.646 Y72.514 E0.01024
G1 X149.576 Y72.188 E0.01044
G1 X149.553 Y71.916 E0.00856
G1 X149.564 Y71.654 E0.00823
G1 X149.109 Y71.943 E0.01690
G1 X148.634 Y72.104 E0.01572
G1 X148.091 Y72.175 E0.01717
G1 X147.548 Y72.138 E0.01705
G1 X147.078 Y72.017 E0.01523
G1 X146.585 Y71.787 E0.01703
G1 X146.144 Y71.464 E0.01715
G1 X145.775 Y71.060 E0.01716
G1 X145.489 Y70.588 E0.01729
G1 X145.305 Y70.058 E0.01760
G1 X145.265 Y69.550 E0.01597
G1 X145.062 Y69.173 F10800.000
G1 F1200.000
G1 X144.771 Y69.339 E0.01049
G1 X144.497 Y69.435 E0.00911
G1 X144.122 Y69.479 E0.01184
G1 X143.747 Y69.445 E0.01179
G1 X143.388 Y69.338 E0.01175
G1 X143.057 Y69.164 E0.01174
G1 X142.766 Y68.928 E0.01175
G1 X142.526 Y68.639 E0.01174
G1 X142.348 Y68.310 E0.01175
G1 X142.237 Y67.952 E0.01174
G1 X142.198 Y67.579 E0.01175
G1 X142.233 Y67.206 E0.01175
G1 X142.340 Y66.849 E0.01170
G1 X142.490 Y66.554 E0.01037
G1 X142.718 Y66.259 E0.01170
G1 X143.001 Y66.013 E0.01175
G1 X143.326 Y65.826 E0.01175
G1 X143.680 Y65.707 E0.01174
G1 X144.052 Y65.659 E0.01175
G1 X144.424 Y65.684 E0.01170
G1 X144.745 Y65.767 E0.01037
G1 X145.082 Y65.924 E0.01167
G1 X145.350 Y66.116 E0.01033
G1 X145.581 Y66.352 E0.01036
G1 X145.787 Y66.666 E0.01180
G1 X145.890 Y66.938 E0.00912
G1 X145.951 Y67.269 E0.01053
G1 X145.912 Y67.645 E0.01186
G1 X145.799 Y67.974 E0.01091
G1 X145.541 Y68.535 E0.01934
G1 X145.300 Y68.933 E0.01461
G1 X145.104 Y69.131 E0.00872
G1 X145.105 Y69.505 F10800.000
G1 X145.649 Y69.425
G1 F1200.000
G1 X145.697 Y69.185 E0.00767
G1 X145.814 Y68.867 E0.01061
G1 X146.277 Y67.891 E0.03388
G1 X146.520 Y67.554 E0.01304
G1 X146.804 Y67.320 E0.01153
G1 X147.124 Y67.148 E0.01139
G1 X147.522 Y67.025 E0.01307
G1 X147.934 Y66.977 E0.01301
G1 X148.349 Y67.000 E0.01301
G1 X148.806 Y67.112 E0.01478
G1 X149.235 Y67.311 E0.01482
G1 X149.615 Y67.590 E0.01479
G1 X149.900 Y67.894 E0.01305
G1 X150.155 Y68.292 E0.01483
G1 X150.322 Y68.741 E0.01500
G1 X150.370 Y69.166 E0.01341
G1 X150.310 Y69.582 E0.01320
G1 X150.135 Y70.045 E0.01550
G1 X149.783 Y70.776 E0.02545
G1 X149.639 Y71.022 E0.00893
G1 X149.522 Y71.166 E0.00582
G1 X149.307 Y71.378 E0.00947
G1 X148.947 Y71.600 E0.01325
G1 X148.548 Y71.735 E0.01322
G1 X148.079 Y71.796 E0.01483
G1 X147.609 Y71.764 E0.01478
G1 X147.206 Y71.660 E0.01305
G1 X146.778 Y71.461 E0.01478
G1 X146.397 Y71.182 E0.01482
G1 X146.078 Y70.833 E0.01482
G1 X145.832 Y70.427 E0.01487
G1 X145.676 Y69.976 E0.01497
G1 X145.640 Y69.616 E0.01134
G1 X145.646 Y69.485 E0.00413
G1 X145.452 Y69.279 F10800.000
G1 F8640.000
G1 X145.697 Y69.185 E-0.07021
G1 X145.814 Y68.867 E-0.07815
G1 X146.277 Y67.891 E-0.24952
G1 X146.520 Y67.554 E-0.09604
G1 X146.804 Y67.320 E-0.08490
G1 X147.124 Y67.148 E-0.08386
G1 X147.522 Y67.025 E-0.09626
G1 X147.527 Y67.024 E-0.00105
G1 E-0.04000 F2100.00000
G1 Z0.600 F10800.000
G1 X149.946 Y71.542
G1 Z0.200
G1 E0.80000 F2100.00000
G1 F1200.000
G1 X150.063 Y71.125 E0.01359
G1 X150.627 Y69.911 E0.04197
G1 X150.732 Y69.722 E0.00677
G1 X150.909 Y69.481 E0.00938
G1 X151.294 Y69.150 E0.01592
G1 X151.681 Y68.944 E0.01374
G1 X152.153 Y68.791 E0.01555
G1 X152.438 Y68.740 E0.00908
G1 X152.723 Y68.717 E0.00895
G1 X153.008 Y68.723 E0.00896
G1 X153.292 Y68.756 E0.00896
G1 X153.571 Y68.817 E0.00895
G1 X153.843 Y68.905 E0.00896
G1 X154.104 Y69.019 E0.00895
G1 X154.354 Y69.159 E0.00896
G1 X154.588 Y69.322 E0.00896
G1 X154.805 Y69.508 E0.00895
G1 X155.003 Y69.713 E0.00895
G1 X155.180 Y69.937 E0.00895
G1 X155.334 Y70.178 E0.00896
G1 X155.464 Y70.432 E0.00896
G1 X155.568 Y70.698 E0.00895
G1 X155.646 Y70.973 E0.00895
G1 X155.696 Y71.254 E0.00895
G1 X155.719 Y71.539 E0.00896
G1 X155.714 Y71.824 E0.00895
G1 X155.680 Y72.108 E0.00895
G1 X155.619 Y72.387 E0.00895
G1 X155.531 Y72.659 E0.00895
G1 X155.417 Y72.920 E0.00896
G1 X155.277 Y73.170 E0.00895
G1 X155.114 Y73.404 E0.00895
G1 X154.929 Y73.621 E0.00896
G1 X154.723 Y73.819 E0.00895
G1 X154.499 Y73.996 E0.00896
G1 X154.258 Y74.150 E0.00895
G1 X154.004 Y74.280 E0.00896
G1 X153.738 Y74.384 E0.00896
G1 X153.463 Y74.462 E0.00896
G1 X153.182 Y74.512 E0.00895
G1 X152.897 Y74.535 E0.00895
G1 X152.612 Y74.530 E0.00896
G1 X152.324 Y74.496 E0.00907
G1 X151.848 Y74.373 E0.01542
G1 X151.580 Y74.264 E0.00908
G1 X151.327 Y74.130 E0.00895
G1 X151.089 Y73.973 E0.00895
G1 X150.867 Y73.793 E0.00895
G1 X150.664 Y73.592 E0.00895
G1 X150.479 Y73.370 E0.00908
G1 X150.219 Y72.952 E0.01542
G1 X150.100 Y72.687 E0.00910
G1 X150.011 Y72.415 E0.00900
G1 X149.950 Y72.132 E0.00906
G1 X149.930 Y71.908 E0.00705
G1 X149.943 Y71.602 E0.00961
G1 X149.641 Y71.283 F10800.000
G1 F8640.000
G1 X150.063 Y71.125 E-0.11357
G1 X150.627 Y69.911 E-0.30912
G1 X150.732 Y69.722 E-0.04985
G1 X150.909 Y69.481 E-0.06910
G1 X151.294 Y69.150 E-0.11726
G1 X151.681 Y68.944 E-0.10111
G1 E-0.04000 F2100.00000
G1 Z0.600 F10800.000
G1 X132.666 Y63.522
G1 Z0.200
G1 E0.80000 F2100.00000
G1 F1200.000
G1 X133.513 Y63.786 E0.02782
G1 X133.121 Y64.179 E0.01741
G1 X132.482 Y64.891 E0.02999
G1 X130.358 Y67.367 E0.10230
G1 X125.000 Y65.148 E0.18183
G1 X96.820 Y76.820 E0.95635
G1 X85.148 Y105.000 E0.95635
G1 X94.253 Y126.981 E0.74599
G1 X94.359 Y127.844 E0.02725
G1 X94.551 Y128.946 E0.03507
G1 X94.796 Y130.037 E0.03507
G1 X95.094 Y131.115 E0.03507
G1 X95.445 Y132.177 E0.03507
G1 X95.847 Y133.220 E0.03507
G1 X96.300 Y134.243 E0.03507
G1 X96.803 Y135.242 E0.03507
G1 X97.355 Y136.215 E0.03507
G1 X97.953 Y137.160 E0.03506
G1 X98.597 Y138.074 E0.03507
G1 X99.285 Y138.956 E0.03507
G1 X100.016 Y139.803 E0.03507
G1 X100.787 Y140.613 E0.03507
G1 X101.597 Y141.384 E0.03507
G1 X102.444 Y142.115 E0.03507
G1 X103.326 Y142.803 E0.03507
G1 X104.240 Y143.447 E0.03507
G1 X105.185 Y144.045 E0.03506
G1 X106.158 Y144.597 E0.03507
G1 X107.157 Y145.100 E0.03507
G1 X108.180 Y145.553 E0.03507
