; generated by Slic3r 1.1.7 on 2015-05-19 at 12:48:52

; perimeters extrusion width = 0.50mm
; infill extrusion width = 0.60mm
; solid infill extrusion width = 0.60mm
; top infill extrusion width = 0.43mm

G21 ; set units to millimeters

M301 P34 I4 D113     ; set PID nozzle
M304 P162 I17 D378 ; set PID Bed

M104 S230                 ; set extruder temp for budaschnozzle
;M104 S250                 ; set extruder temp for hex_hot_end
M140 S109                 ; set bed temp for PEI (reminder ~G1 Z2 ~ M140 S(@-10 degree change) ;if -m is present in file name)

G28                            ; home
G1 Z5 F300                ; move bed down 5mm
M84                            ; disable steppers
G4 S300                     ; wait 5 mins to preheat

G28                            ; home

G90 ; use absolute coordinates
G92 E0
M82 ; use absolute distances for extrusion
M204 S2000
G1 F1200.000 E-1.00000
G92 E0
G1 Z0.350 F9600.000
G1 X94.513 Y99.931 F9600.000
G1 E1.00000 F1200.000
G1 X95.871 Y98.779 E1.05498 F1080.000
G1 X127.871 Y78.779 E2.21983
G1 X129.925 Y77.963 E2.28806
G1 X131.134 Y77.843 E2.32557
G1 X166.866 Y77.843 E3.42854
G1 X169.040 Y78.240 E3.49677
G1 X170.934 Y79.379 E3.56500 F1080.000
G1 X172.601 Y81.762 E3.65477
G1 X204.601 Y163.762 E6.37190
G1 X205.023 Y166.000 E6.44221
G1 X205.023 Y174.000 E6.68916
G1 X204.626 Y176.174 E6.75739
G1 X203.487 Y178.069 E6.82562
G1 X202.129 Y179.221 E6.88060
G1 X170.129 Y199.221 E8.04545
G1 X168.075 Y200.037 E8.11368
G1 X166.866 Y200.157 E8.15118
G1 X131.134 Y200.157 E9.25416
G1 X128.960 Y199.760 E9.32239
G1 X127.066 Y198.621 E9.39062
G1 X125.399 Y196.238 E9.48039
G1 X93.399 Y114.238 E12.19752
G1 X92.977 Y112.000 E12.26783
G1 X92.977 Y104.000 E12.51478
G1 X93.374 Y101.826 E12.58301
G1 X94.474 Y99.996 E12.64892
G1 X95.024 Y100.258 F9600.000
G1 X95.085 Y100.163 E12.65241 F1080.000
G1 X96.178 Y99.269 E12.69598
G1 X128.178 Y79.269 E13.86083
G1 X131.134 Y78.421 E13.95578
G1 X166.866 Y78.421 E15.05875
G1 X168.931 Y78.818 E15.12367
G1 X170.703 Y79.951 E15.18859 F1080.000
G1 X172.063 Y81.972 E15.26378
G1 X204.063 Y163.972 E17.98091
G1 X204.444 Y166.000 E18.04461
G1 X204.444 Y174.000 E18.29156
G1 X204.048 Y176.065 E18.35648
G1 X202.915 Y177.837 E18.42140
G1 X201.822 Y178.731 E18.46496
G1 X169.822 Y198.731 E19.62982
G1 X166.866 Y199.579 E19.72476
G1 X131.134 Y199.579 E20.82774
G1 X129.069 Y199.182 E20.89265
G1 X127.297 Y198.049 E20.95757
G1 X125.937 Y196.028 E21.03277
G1 X93.937 Y114.028 E23.74990
G1 X93.556 Y112.000 E23.81360
G1 X93.556 Y104.000 E24.06055
G1 X93.952 Y101.935 E24.12546
G1 X94.984 Y100.321 E24.18458
G1 F1200.000 E23.18458
G92 E0
G1 X141.015 Y93.068 F9600.000
G1 E1.00000 F1200.000
G1 X140.162 Y93.688 E1.03256 F1800.000
G1 X139.181 Y94.077 E1.06513
G1 X138.134 Y94.209 E1.09770
G1 X137.088 Y94.077 E1.13026
G1 X136.107 Y93.688 E1.16283
G1 X135.253 Y93.068 E1.19539
G1 X134.581 Y92.255 E1.22796
G1 X134.132 Y91.301 E1.26053
G1 X133.934 Y90.264 E1.29309
G1 X134.000 Y89.211 E1.32566
G1 X134.326 Y88.208 E1.35823
G1 X134.891 Y87.317 E1.39079
G1 X135.660 Y86.595 E1.42336
G1 X136.585 Y86.087 E1.45593
G1 X137.607 Y85.824 E1.48849
G1 X138.662 Y85.824 E1.52106
G1 X139.077 Y85.931 E1.53427
G1 X139.684 Y86.087 E1.55362 F1800.000
G1 X140.608 Y86.595 E1.58619
G1 X141.377 Y87.317 E1.61875
G1 X141.943 Y88.208 E1.65132
G1 X142.269 Y89.211 E1.68389
G1 X142.335 Y90.264 E1.71645
G1 X142.137 Y91.301 E1.74902
G1 X141.688 Y92.255 E1.78159
G1 X141.063 Y93.010 E1.81184
G1 X140.616 Y92.643 F9600.000
G1 X139.881 Y93.177 E1.83989 F1350.000
G1 X139.036 Y93.512 E1.86795
G1 X138.134 Y93.626 E1.89600
G1 X137.233 Y93.512 E1.92406
G1 X136.388 Y93.177 E1.95211
G1 X135.652 Y92.643 E1.98016
G1 X135.073 Y91.943 E2.00822
G1 X134.993 Y91.773 E2.01401
G1 X134.686 Y91.120 E2.03627
G1 X134.516 Y90.228 E2.06432
G1 X134.573 Y89.321 E2.09238
G1 X134.854 Y88.456 E2.12043
G1 X135.341 Y87.689 E2.14849
G1 X136.003 Y87.067 E2.17654
G1 X136.800 Y86.629 E2.20460
G1 X137.680 Y86.403 E2.23265
G1 X138.589 Y86.403 E2.26070 F1350.000
G1 X139.469 Y86.629 E2.28876
G1 X139.564 Y86.681 E2.29209
G1 X140.265 Y87.067 E2.31681
G1 X140.928 Y87.689 E2.34486
G1 X141.415 Y88.456 E2.37292
G1 X141.696 Y89.321 E2.40097
G1 X141.753 Y90.228 E2.42903
G1 X141.583 Y91.120 E2.45708
G1 X141.196 Y91.943 E2.48514
G1 X140.664 Y92.585 E2.51088
G1 F1200.000 E1.51088
G92 E0
G1 X137.586 Y85.912 F9600.000
G1 X138.662 Y134.824 F9600.000
G1 E1.00000 F1200.000
G1 X139.123 Y134.943 E1.01469 F1800.000
G1 X139.684 Y135.087 E1.03257 F1800.000
G1 X140.608 Y135.595 E1.06513
G1 X141.377 Y136.317 E1.09770
G1 X141.943 Y137.208 E1.13026
G1 X142.269 Y138.211 E1.16283
G1 X142.335 Y139.264 E1.19540
G1 X142.137 Y140.301 E1.22796
G1 X141.688 Y141.255 E1.26053
G1 X141.015 Y142.068 E1.29310
G1 X140.162 Y142.688 E1.32566
G1 X139.181 Y143.077 E1.35823
G1 X138.134 Y143.209 E1.39080
G1 X137.088 Y143.077 E1.42336
G1 X136.107 Y142.688 E1.45593
G1 X135.762 Y142.438 E1.46909
G1 X135.253 Y142.068 E1.48849
G1 X134.581 Y141.255 E1.52106
G1 X134.132 Y140.301 E1.55363
G1 X133.934 Y139.264 E1.58619
G1 X134.000 Y138.211 E1.61876
G1 X134.326 Y137.208 E1.65133
G1 X134.891 Y136.317 E1.68389
G1 X135.660 Y135.595 E1.71646
G1 X136.585 Y135.087 E1.74902
G1 X137.607 Y134.824 E1.78159
G1 X138.587 Y134.824 E1.81184
G1 X138.589 Y135.403 F9600.000
G1 X139.469 Y135.629 E1.83989 F1350.000
G1 X140.265 Y136.067 E1.86795
G1 X140.928 Y136.689 E1.89600
G1 X141.415 Y137.456 E1.92406
G1 X141.566 Y137.920 E1.93912
G1 X141.696 Y138.321 E1.95211
G1 X141.753 Y139.228 E1.98017
G1 X141.583 Y140.120 E2.00822
G1 X141.196 Y140.943 E2.03627
G1 X140.616 Y141.643 E2.06433
G1 X139.881 Y142.177 E2.09238
G1 X139.036 Y142.512 E2.12044
G1 X138.134 Y142.626 E2.14849
G1 X137.233 Y142.512 E2.17654
G1 X136.832 Y142.353 E2.18986
G1 X136.388 Y142.177 E2.20460
G1 X135.652 Y141.643 E2.23265
G1 X135.073 Y140.943 E2.26071
G1 X134.884 Y140.540 E2.27444
G1 X134.686 Y140.120 E2.28876
G1 X134.516 Y139.228 E2.31681
G1 X134.573 Y138.321 E2.34487
G1 X134.854 Y137.456 E2.37292
G1 X135.341 Y136.689 E2.40098
G1 X136.003 Y136.067 E2.42903
G1 X136.800 Y135.629 E2.45708
G1 X137.680 Y135.403 E2.48514
G1 X138.514 Y135.403 E2.51088 F1350.000
G1 X137.680 Y134.903 F9600.000
G1 F1200.000 E1.51088
G92 E0
G1 X138.589 Y183.824 F9600.000
G1 E1.00000 F1200.000
G1 X138.662 Y183.824 E1.00226 F1800.000
G1 X139.684 Y184.087 E1.03482
G1 X140.608 Y184.595 E1.06739
G1 X141.377 Y185.317 E1.09995
G1 X141.943 Y186.208 E1.13252
G1 X142.269 Y187.211 E1.16509
G1 X142.335 Y188.264 E1.19765
G1 X142.137 Y189.301 E1.23022
G1 X141.688 Y190.255 E1.26279
G1 X141.015 Y191.068 E1.29535
G1 X140.162 Y191.688 E1.32792
G1 X139.640 Y191.895 E1.34524
G1 X139.181 Y192.077 E1.36049
G1 X138.134 Y192.209 E1.39305
G1 X137.088 Y192.077 E1.42562
G1 X136.889 Y191.998 E1.43222
G1 X136.107 Y191.688 E1.45819
G1 X135.253 Y191.068 E1.49075
G1 X134.581 Y190.255 E1.52332
G1 X134.132 Y189.301 E1.55588
G1 X133.934 Y188.264 E1.58844
G1 X134.000 Y187.211 E1.62102
G1 X134.326 Y186.208 E1.65358
G1 X134.891 Y185.317 E1.68614
G1 X135.660 Y184.595 E1.71871
G1 X136.585 Y184.087 E1.75128
G1 X137.607 Y183.824 E1.78384
G1 X138.111 Y183.824 E1.79942
G1 X138.514 Y183.824 E1.81184 F1800.000
G1 X138.589 Y184.403 F9600.000
G1 X139.469 Y184.629 E1.83989 F1350.000
G1 X140.265 Y185.067 E1.86795
G1 X140.928 Y185.689 E1.89600
G1 X141.415 Y186.456 E1.92406
G1 X141.696 Y187.321 E1.95211
G1 X141.753 Y188.228 E1.98016
G1 X141.583 Y189.120 E2.00822
G1 X141.409 Y189.490 E2.02082
G1 X141.196 Y189.943 E2.03627
G1 X140.616 Y190.643 E2.06433
G1 X139.881 Y191.177 E2.09238
G1 X139.427 Y191.357 E2.10744
G1 X139.036 Y191.512 E2.12044
G1 X138.134 Y191.626 E2.14849
G1 X137.233 Y191.512 E2.17654
G1 X137.102 Y191.460 E2.18089
G1 X136.388 Y191.177 E2.20460
G1 X135.652 Y190.643 E2.23265
G1 X135.073 Y189.943 E2.26070
G1 X134.861 Y189.493 E2.27605
G1 X134.686 Y189.120 E2.28876
G1 X134.516 Y188.228 E2.31681
G1 X134.573 Y187.321 E2.34487
G1 X134.854 Y186.456 E2.37292
G1 X135.341 Y185.689 E2.40097
G1 X136.003 Y185.067 E2.42903
G1 X136.800 Y184.629 E2.45708
G1 X137.585 Y184.427 E2.48211
G1 X137.680 Y184.403 E2.48514 F1350.000
G1 X138.514 Y184.403 E2.51088
G1 X137.516 Y184.357 F9600.000
G1 F1200.000 E1.51088
G92 E0
G1 X132.013 Y111.121 F9600.000
G1 E1.00000 F1200.000
G1 X107.971 Y111.121 E1.74213 F1800.000
G1 X108.688 Y110.255 E1.77684
G1 X109.137 Y109.301 E1.80940
G1 X109.335 Y108.264 E1.84196
G1 X109.269 Y107.211 E1.87453
G1 X108.943 Y106.208 E1.90710
G1 X108.377 Y105.317 E1.93967
G1 X107.910 Y104.879 E1.95945
G1 X132.013 Y104.879 E2.70347
G1 X132.013 Y84.879 E3.32084
G1 X144.256 Y84.879 E3.69876
G1 X144.256 Y193.121 E7.04006
G1 X132.013 Y193.121 E7.41798
G1 X132.013 Y111.196 E9.94688
G1 X131.434 Y111.700 F9600.000
G1 X106.582 Y111.700 E10.71403 F1350.000
G1 X106.510 Y111.324 E10.72585
G1 X106.881 Y111.177 E10.73815
G1 X107.616 Y110.643 E10.76621
G1 X108.196 Y109.943 E10.79426
G1 X108.583 Y109.120 E10.82232
G1 X108.753 Y108.228 E10.85037
G1 X108.696 Y107.321 E10.87842
G1 X108.415 Y106.456 E10.90648
G1 X107.928 Y105.689 E10.93453
G1 X107.265 Y105.067 E10.96259
G1 X106.503 Y104.648 E10.98944
G1 X106.592 Y104.300 E11.00052
G1 X131.434 Y104.300 E11.76735
G1 X131.434 Y84.300 E12.38472
G1 X144.834 Y84.300 E12.79836
G1 X144.834 Y193.700 E16.17538
G1 X131.434 Y193.700 E16.58902
G1 X131.434 Y111.775 E19.11792
G1 X131.434 Y111.200 F9600.000
G1 F1200.000 E18.11792
G92 E0
G1 X102.297 Y111.121 F9600.000
G1 E1.00000 F1200.000
G1 X100.013 Y111.121 E1.07052 F1800.000
G1 X100.013 Y104.879 E1.26323
G1 X102.359 Y104.879 E1.33564
G1 X101.891 Y105.317 E1.35542
G1 X101.326 Y106.208 E1.38799
G1 X101.000 Y107.211 E1.42056
G1 X100.934 Y108.264 E1.45312
G1 X101.132 Y109.301 E1.48569
G1 X101.581 Y110.255 E1.51826
G1 X102.250 Y111.064 E1.55064
G1 X103.758 Y111.324 F9600.000
G1 X103.687 Y111.700 E1.56246 F1350.000
G1 X99.434 Y111.700 E1.69372
G1 X99.434 Y104.300 E1.92215
G1 X103.676 Y104.300 E2.05309
G1 X103.766 Y104.648 E2.06417
G1 X103.003 Y105.067 E2.09102
G1 X102.341 Y105.689 E2.11908
G1 X101.854 Y106.456 E2.14713
G1 X101.573 Y107.321 E2.17519
G1 X101.516 Y108.228 E2.20324
G1 X101.686 Y109.120 E2.23130
G1 X102.073 Y109.943 E2.25935
G1 X102.652 Y110.643 E2.28740
G1 X103.388 Y111.177 E2.31546
G1 X103.689 Y111.296 E2.32545
G1 X103.490 Y111.597 F9600.000
G1 F1200.000 E1.32545
G92 E0
G1 X106.180 Y111.191 F9600.000
G1 E1.00000 F1200.000
G1 X105.871 Y111.617 E1.01623 F1350.000
G1 X105.092 Y111.660 E1.04031
G1 X104.398 Y111.617 E1.06177
G1 X104.240 Y111.391 E1.07027
G1 X104.099 Y111.136 E1.07925
G1 F1200.000 E0.07925
G92 E0
G1 X104.020 Y104.434 F9600.000
G1 E1.00000 F1200.000
G1 X104.718 Y104.351 E1.02168 F1350.000
G1 X105.551 Y104.351 E1.04739
G1 X106.248 Y104.434 E1.06907
G1 F1200.000 E0.06907
G92 E0
G1 X108.919 Y105.278 F9600.000
G1 E1.00000 F1200.000
G1 X114.363 Y110.722 E1.23766 F1980.000
G1 X115.182 Y110.722 E1.26295
G1 X109.738 Y105.278 E1.50061
G1 X110.558 Y105.278 E1.52590
G1 X116.002 Y110.722 E1.76356
G1 X116.821 Y110.722 E1.78886
G1 X111.377 Y105.278 E2.02652
G1 X112.196 Y105.278 E2.05181
G1 X117.640 Y110.722 E2.28947
G1 X118.460 Y110.722 E2.31476
G1 X113.016 Y105.278 E2.55242
G1 X113.835 Y105.278 E2.57771
G1 X119.279 Y110.722 E2.81537
G1 X120.098 Y110.722 E2.84066
G1 X114.654 Y105.278 E3.07832
G1 X115.474 Y105.278 E3.10362
G1 X120.918 Y110.722 E3.34128
G1 X121.737 Y110.722 E3.36657
G1 X116.293 Y105.278 E3.60423
G1 X117.112 Y105.278 E3.62952
G1 X122.557 Y110.722 E3.86718
G1 X123.376 Y110.722 E3.89247
G1 X117.932 Y105.278 E4.13013
G1 X118.751 Y105.278 E4.15543
G1 X124.195 Y110.722 E4.39308
G1 X125.015 Y110.722 E4.41838
G1 X119.571 Y105.278 E4.65604
G1 X120.390 Y105.278 E4.68133
G1 X125.834 Y110.722 E4.91899
G1 X126.653 Y110.722 E4.94428
G1 X121.209 Y105.278 E5.18194
G1 X122.029 Y105.278 E5.20723
G1 X127.473 Y110.722 E5.44489
G1 X128.292 Y110.722 E5.47019
G1 X122.848 Y105.278 E5.70785
G1 X123.667 Y105.278 E5.73314
G1 X129.111 Y110.722 E5.97080
G1 X129.931 Y110.722 E5.99609
G1 X124.487 Y105.278 E6.23375
G1 X125.306 Y105.278 E6.25904
G1 X130.750 Y110.722 E6.49670
G1 X131.570 Y110.722 E6.52199
G1 X126.126 Y105.278 E6.75965
G1 X126.945 Y105.278 E6.78495
G1 X143.856 Y122.189 E7.52321
G1 X143.856 Y121.370 E7.54851
G1 X127.764 Y105.278 E8.25100
G1 X128.584 Y105.278 E8.27629
G1 X143.856 Y120.551 E8.94302
G1 X143.856 Y119.731 E8.96831
G1 X129.403 Y105.278 E9.59927
G1 X130.222 Y105.278 E9.62457
G1 X143.856 Y118.912 E10.21975
G1 X143.856 Y118.093 E10.24505
G1 X131.042 Y105.278 E10.80447
G1 X131.861 Y105.278 E10.82976
G1 X143.856 Y117.273 E11.35341
G1 X143.856 Y116.454 E11.37870
G1 X132.412 Y105.010 E11.87829
G1 X132.412 Y104.190 E11.90358
G1 X143.856 Y115.635 E12.40317
G1 X143.856 Y114.815 E12.42846
G1 X132.412 Y103.371 E12.92805
G1 X132.412 Y102.552 E12.95334
G1 X143.856 Y113.996 E13.45293
G1 X143.856 Y113.176 E13.47822
G1 X132.412 Y101.732 E13.97781
G1 X132.412 Y100.913 E14.00310
G1 X143.856 Y112.357 E14.50269
G1 X143.856 Y111.538 E14.52798
G1 X132.412 Y100.094 E15.02757
G1 X132.412 Y99.274 E15.05286
G1 X143.856 Y110.718 E15.55245
G1 X143.856 Y109.899 E15.57774
G1 X132.412 Y98.455 E16.07733
G1 X132.412 Y97.636 E16.10262
G1 X143.856 Y109.080 E16.60221
G1 X143.856 Y108.260 E16.62751
G1 X132.412 Y96.816 E17.12709
G1 X132.412 Y95.997 E17.15239
G1 X143.856 Y107.441 E17.65197
G1 X143.856 Y106.621 E17.67727
G1 X132.412 Y95.177 E18.17685
G1 X132.412 Y94.358 E18.20215
G1 X143.856 Y105.802 E18.70173
G1 X143.856 Y104.983 E18.72703
G1 X132.412 Y93.539 E19.22661
G1 X132.412 Y92.719 E19.25191
G1 X143.856 Y104.163 E19.75149
G1 X143.856 Y103.344 E19.77679
G1 X132.412 Y91.900 E20.27637
G1 F1200.000 E19.27637
G92 E0
G1 X133.652 Y85.000 F9600.000
G1 X136.442 Y85.278 F9600.000
G1 E1.00000 F1200.000
G1 X136.511 Y85.347 E1.00300 F1980.000
G1 X136.192 Y85.847 E1.02131
G1 X135.623 Y85.278 E1.04616
G1 X134.803 Y85.278 E1.07145
G1 X135.663 Y86.138 E1.10899
G1 X135.193 Y86.487 E1.12707
G1 X133.984 Y85.278 E1.17983
G1 X133.165 Y85.278 E1.20512
G1 X134.770 Y86.883 E1.27521
G1 X134.405 Y87.338 E1.29320
G1 X132.412 Y85.345 E1.38020
G1 X132.412 Y86.164 E1.40549
G1 X134.087 Y87.839 E1.47860
G1 X133.840 Y88.411 E1.49785
G1 X132.412 Y86.984 E1.56017
G1 X132.412 Y87.803 E1.58547
G1 X133.639 Y89.030 E1.63902
G1 X133.564 Y89.775 E1.66213
G1 X132.412 Y88.622 E1.71242
G1 X132.412 Y89.442 E1.73772
G1 X133.596 Y90.626 E1.78940
G1 X133.902 Y91.751 E1.82539
G1 X132.412 Y90.261 E1.89043
G1 X132.412 Y91.081 E1.91572
G1 X143.856 Y102.525 E2.41531
G1 X143.856 Y101.705 E2.44060
G1 X136.375 Y94.224 E2.76719
G1 X137.502 Y94.531 E2.80325
G1 X143.856 Y100.886 E3.08065
G1 X143.856 Y100.067 E3.10594
G1 X138.371 Y94.581 E3.34540
G1 X139.099 Y94.490 E3.36803
G1 X143.856 Y99.247 E3.57572
G1 X143.856 Y98.428 E3.60102
G1 X139.721 Y94.292 E3.78155
G1 X140.308 Y94.060 E3.80104
G1 X143.856 Y97.608 E3.95594
G1 X143.856 Y96.789 E3.98124
G1 X140.792 Y93.724 E4.11503
G1 X141.266 Y93.380 E4.13313
G1 X143.856 Y95.970 E4.24621
G1 X143.856 Y95.150 E4.27150
G1 X141.643 Y92.937 E4.36814
G1 X142.014 Y92.488 E4.38611
G1 X143.856 Y94.331 E4.46655
G1 X143.856 Y93.512 E4.49185
G1 X142.280 Y91.935 E4.56067
G1 X142.531 Y91.367 E4.57984
G1 X143.856 Y92.692 E4.63770
G1 X143.856 Y91.873 E4.66299
G1 X142.662 Y90.679 E4.71512
G1 X142.713 Y89.910 E4.73890
G1 X143.856 Y91.054 E4.78883
G1 X143.856 Y90.234 E4.81412
G1 X142.619 Y88.997 E4.86815
G1 X142.009 Y87.568 F9600.000
G1 X143.856 Y89.415 E4.94879 F1980.000
G1 X143.856 Y88.595 E4.97408
G1 X140.539 Y85.278 E5.11890
G1 X141.358 Y85.278 E5.14420
G1 X143.856 Y87.776 E5.25325
G1 X143.856 Y86.957 E5.27854
G1 X142.178 Y85.278 E5.35183
G1 X142.997 Y85.278 E5.37712
G1 X143.856 Y86.137 E5.41463
G1 X143.856 Y85.318 E5.43993
G1 X143.816 Y85.278 E5.44167
G1 F1200.000 E4.44167
G92 E0
G1 X140.547 Y86.106 F9600.000
G1 E1.00000 F1200.000
G1 X139.761 Y85.320 E1.03431 F1980.000
G1 F1200.000 E0.03431
G92 E0
G1 X133.652 Y85.000 F9600.000
G1 X132.412 Y111.565 F9600.000
G1 E1.00000 F1200.000
G1 X143.856 Y123.009 E1.49959 F1980.000
G1 X143.856 Y123.828 E1.52488
G1 X132.412 Y112.384 E2.02447
G1 X132.412 Y113.203 E2.04976
G1 X143.856 Y124.648 E2.54935
G1 X143.856 Y125.467 E2.57464
G1 X132.412 Y114.023 E3.07423
