; generated by Slic3r 1.1.4 on 2014-07-14 at 16:49:32

; perimeters extrusion width = 0.50mm
; infill extrusion width = 0.60mm
; solid infill extrusion width = 0.60mm
; top infill extrusion width = 0.43mm

G21 ; set units to millimeters
G28 ; home all axes
G90 ; use absolute coordinates
G92 E0
M82 ; use absolute distances for extrusion
M204 S2000
G1 F1500.000 E-1.50000
G92 E0
G1 Z0.350 F9600.000
G1 X96.735 Y112.853 F9600.000
G1 E1.50000 F1500.000
G1 X98.925 Y111.945 E1.56823 F2700.000
G1 X100.501 Y111.767 E1.61385
G1 X189.455 Y111.767 E4.17336
G1 X191.793 Y112.165 E4.24159
G1 X193.869 Y113.312 E4.30982
G1 X195.449 Y115.080 E4.37804
G1 X196.356 Y117.270 E4.44627
G1 X196.534 Y118.846 E4.49190
G1 X196.534 Y142.516 E5.17297
G1 X196.137 Y144.854 E5.24120
G1 X194.990 Y146.930 E5.30943
G1 X194.000 Y147.944 E5.35022
G1 X182.400 Y157.647 E5.78535
G1 X181.972 Y157.973 E5.80084
G1 X181.467 Y158.323 E5.81851
G1 X180.987 Y158.626 E5.83484
G1 X179.947 Y159.183 E5.86879
G1 X179.430 Y159.412 E5.88505
G1 X178.854 Y159.643 E5.90291
G1 X177.728 Y159.997 E5.93689
G1 X176.570 Y160.245 E5.97096
G1 X176.211 Y160.296 E5.98140
G1 X175.400 Y160.384 E6.00485
G1 X174.400 Y160.415 E6.03366
G1 X115.414 Y160.412 E7.73086
G1 X114.284 Y160.354 E7.76343
G1 X113.163 Y160.195 E7.79599
G1 X112.062 Y159.937 E7.82855
G1 X110.990 Y159.582 E7.86102
G1 X109.949 Y159.131 E7.89367
G1 X108.955 Y158.590 E7.92623
G1 X108.021 Y157.968 E7.95851
G1 X106.587 Y156.864 E8.01061
G1 X95.957 Y147.964 E8.40951
G1 X94.419 Y146.158 E8.47774
G1 X93.564 Y143.947 E8.54597
G1 X93.423 Y142.536 E8.58675
G1 X93.423 Y118.846 E9.26840
G1 X93.820 Y116.508 E9.33663
G1 X94.967 Y114.433 E9.40486
G1 X96.679 Y112.903 E9.47093
G1 X97.251 Y113.172 F9600.000
G1 X100.501 Y112.307 E9.56770 F2700.000
G1 X189.455 Y112.307 E12.12720
G1 X191.699 Y112.704 E12.19276
G1 X193.670 Y113.846 E12.25832
G1 X195.130 Y115.596 E12.32388
G1 X195.995 Y118.846 E12.42065
G1 X195.995 Y142.516 E13.10172
G1 X195.598 Y144.760 E13.16728
G1 X193.653 Y147.530 E13.26467
G1 X182.072 Y157.218 E13.69911
G1 X181.646 Y157.544 E13.71455
G1 X181.180 Y157.867 E13.73088
G1 X180.704 Y158.167 E13.74706
G1 X180.249 Y158.423 E13.76207
G1 X179.709 Y158.699 E13.77952
G1 X178.664 Y159.138 E13.81212
G1 X177.587 Y159.476 E13.84461
G1 X176.480 Y159.714 E13.87719
G1 X175.362 Y159.846 E13.90958
G1 X174.400 Y159.875 E13.93729
G1 X115.428 Y159.873 E15.63408
G1 X114.346 Y159.818 E15.66526
G1 X113.273 Y159.667 E15.69644
G1 X112.218 Y159.421 E15.72761
G1 X111.192 Y159.082 E15.75870
G1 X110.195 Y158.651 E15.78996
G1 X109.243 Y158.134 E15.82113
G1 X108.348 Y157.539 E15.85205
G1 X106.933 Y156.450 E15.90343
G1 X96.303 Y147.550 E16.30233
G1 X94.838 Y145.805 E16.36789
G1 X93.962 Y142.536 E16.46528
G1 X93.962 Y118.846 E17.14692
G1 X94.359 Y116.602 E17.21248
G1 X95.501 Y114.631 E17.27804
G1 X97.193 Y113.220 E17.34144
G1 F1500.000 E15.84144
G92 E0
G1 X183.342 Y140.252 F9600.000
G1 E1.50000 F1500.000
G1 X182.836 Y140.556 E1.51699 F4500.000
G1 X182.302 Y140.808 E1.53397
G1 X181.746 Y141.007 E1.55095
G1 X181.174 Y141.150 E1.56794
G1 X180.589 Y141.237 E1.58493
G1 X180.000 Y141.266 E1.60190
G1 X179.410 Y141.237 E1.61890
G1 X178.826 Y141.150 E1.63589
G1 X178.254 Y141.007 E1.65287
G1 X177.698 Y140.808 E1.66985
G1 X177.164 Y140.555 E1.68684
G1 X176.658 Y140.252 E1.70382
G1 X176.184 Y139.901 E1.72079
G1 X175.746 Y139.504 E1.73781
G1 X175.350 Y139.066 E1.75478
G1 X174.999 Y138.592 E1.77176
G1 X174.695 Y138.086 E1.78875
G1 X174.443 Y137.552 E1.80573
G1 X174.244 Y136.997 E1.82272
G1 X174.100 Y136.424 E1.83970
G1 X174.014 Y135.840 E1.85670
G1 X173.985 Y135.251 E1.87367
G1 X174.014 Y134.661 E1.89066
G1 X174.100 Y134.077 E1.90765
G1 X174.244 Y133.504 E1.92463
G1 X174.443 Y132.949 E1.94161
G1 X174.695 Y132.415 E1.95860
G1 X174.998 Y131.909 E1.97558
G1 X175.350 Y131.435 E1.99256
G1 X175.747 Y130.997 E2.00957
G1 X176.197 Y130.589 E2.02706
G1 X176.666 Y130.244 E2.04378
G1 X177.152 Y129.953 E2.06009
G1 X177.676 Y129.703 E2.07680
G1 X178.246 Y129.497 E2.09422
G1 X178.806 Y129.356 E2.11087
G1 X179.388 Y129.267 E2.12778
G1 X179.979 Y129.236 E2.14482
G1 X180.573 Y129.263 E2.16193
G1 X181.159 Y129.349 E2.17895
G1 X181.727 Y129.489 E2.19580
G1 X182.312 Y129.698 E2.21367
G1 X182.847 Y129.952 E2.23072
G1 X183.334 Y130.244 E2.24707
G1 X183.803 Y130.589 E2.26379
G1 X184.254 Y130.997 E2.28130
G1 X184.650 Y131.434 E2.29828
G1 X185.001 Y131.909 E2.31526
G1 X185.305 Y132.415 E2.33226
G1 X185.557 Y132.949 E2.34924
G1 X185.756 Y133.505 E2.36623
G1 X185.900 Y134.077 E2.38320
G1 X185.986 Y134.661 E2.40019
G1 X186.015 Y135.251 E2.41718
G1 X185.986 Y135.840 E2.43416
G1 X185.900 Y136.424 E2.45114
G1 X185.756 Y136.997 E2.46813
G1 X185.557 Y137.552 E2.48511
G1 X185.305 Y138.086 E2.50210
G1 X185.001 Y138.592 E2.51909
G1 X184.650 Y139.066 E2.53607
G1 X184.253 Y139.504 E2.55306
G1 X183.816 Y139.900 E2.57005
G1 X183.402 Y140.207 E2.58487
G1 X183.042 Y139.803 F9600.000
G1 X182.581 Y140.079 E2.60033 F3375.000
G1 X182.095 Y140.309 E2.61579
G1 X181.589 Y140.490 E2.63125
G1 X181.068 Y140.621 E2.64671
G1 X180.537 Y140.700 E2.66217
G1 X180.000 Y140.726 E2.67763
G1 X179.463 Y140.700 E2.69309
G1 X178.932 Y140.621 E2.70855
G1 X178.411 Y140.490 E2.72401
G1 X177.905 Y140.309 E2.73947
G1 X177.419 Y140.079 E2.75494
G1 X176.958 Y139.803 E2.77039
G1 X176.527 Y139.483 E2.78585
G1 X176.128 Y139.122 E2.80132
G1 X175.767 Y138.724 E2.81678
G1 X175.447 Y138.292 E2.83224
G1 X175.171 Y137.832 E2.84770
G1 X174.941 Y137.346 E2.86316
G1 X174.760 Y136.840 E2.87862
G1 X174.630 Y136.319 E2.89408
G1 X174.551 Y135.787 E2.90954
G1 X174.525 Y135.251 E2.92500
G1 X174.551 Y134.714 E2.94046
G1 X174.630 Y134.182 E2.95592
G1 X174.760 Y133.661 E2.97138
G1 X174.941 Y133.155 E2.98684
G1 X175.171 Y132.669 E3.00230
G1 X175.447 Y132.209 E3.01776
G1 X175.767 Y131.777 E3.03322
G1 X176.128 Y131.379 E3.04869
G1 X176.531 Y131.014 E3.06432
G1 X176.966 Y130.693 E3.07986
G1 X177.414 Y130.424 E3.09491
G1 X177.914 Y130.189 E3.11080
G1 X178.407 Y130.012 E3.12587
G1 X178.922 Y129.883 E3.14115
G1 X179.452 Y129.803 E3.15657
G1 X179.989 Y129.776 E3.17205
G1 X180.528 Y129.801 E3.18757
G1 X181.061 Y129.879 E3.20307
G1 X181.580 Y130.009 E3.21847
G1 X182.100 Y130.194 E3.23434
G1 X182.585 Y130.424 E3.24980
G1 X183.034 Y130.693 E3.26487
G1 X183.469 Y131.014 E3.28041
G1 X183.872 Y131.379 E3.29605
G1 X184.232 Y131.777 E3.31150
G1 X184.553 Y132.209 E3.32696
G1 X184.829 Y132.670 E3.34243
G1 X185.059 Y133.155 E3.35789
G1 X185.240 Y133.661 E3.37335
G1 X185.370 Y134.182 E3.38881
G1 X185.449 Y134.714 E3.40427
G1 X185.475 Y135.251 E3.41973
G1 X185.449 Y135.787 E3.43519
G1 X185.370 Y136.319 E3.45065
G1 X185.240 Y136.840 E3.46611
G1 X185.059 Y137.346 E3.48157
G1 X184.829 Y137.832 E3.49703
G1 X184.553 Y138.292 E3.51249
G1 X184.233 Y138.724 E3.52795
G1 X183.872 Y139.122 E3.54341
G1 X183.473 Y139.483 E3.55887
G1 X183.102 Y139.758 E3.57217
G1 X183.066 Y140.302 F9600.000
G1 F1500.000 E2.07217
G92 E0
G1 X115.986 Y135.840 F9600.000
G1 E1.50000 F1500.000
G1 X115.900 Y136.424 E1.51699 F4500.000
G1 X115.756 Y136.997 E1.53397
G1 X115.557 Y137.552 E1.55095
G1 X115.305 Y138.086 E1.56794
G1 X115.002 Y138.592 E1.58492
G1 X114.650 Y139.066 E1.60190
G1 X114.253 Y139.504 E1.61891
G1 X113.816 Y139.901 E1.63589
G1 X113.342 Y140.252 E1.65287
G1 X112.835 Y140.556 E1.66986
G1 X112.302 Y140.808 E1.68684
G1 X111.746 Y141.007 E1.70382
G1 X111.173 Y141.150 E1.72081
G1 X110.589 Y141.237 E1.73780
G1 X110.000 Y141.266 E1.75477
G1 X109.411 Y141.237 E1.77176
G1 X108.826 Y141.150 E1.78875
G1 X108.254 Y141.007 E1.80573
G1 X107.698 Y140.808 E1.82272
G1 X107.164 Y140.555 E1.83971
G1 X106.658 Y140.252 E1.85668
G1 X106.184 Y139.901 E1.87366
G1 X105.746 Y139.504 E1.89067
G1 X105.350 Y139.067 E1.90763
G1 X104.998 Y138.592 E1.92464
G1 X104.695 Y138.086 E1.94160
G1 X104.442 Y137.552 E1.95861
G1 X104.244 Y136.996 E1.97560
G1 X104.100 Y136.423 E1.99259
G1 X104.014 Y135.840 E2.00956
G1 X103.985 Y135.251 E2.02653
G1 X104.014 Y134.662 E2.04350
G1 X104.100 Y134.078 E2.06049
G1 X104.244 Y133.505 E2.07748
G1 X104.443 Y132.948 E2.09449
G1 X104.695 Y132.415 E2.11145
G1 X104.999 Y131.908 E2.12846
G1 X105.350 Y131.435 E2.14542
G1 X105.747 Y130.997 E2.16243
G1 X106.197 Y130.589 E2.17992
G1 X106.666 Y130.244 E2.19665
G1 X107.152 Y129.953 E2.21297
G1 X107.677 Y129.703 E2.22968
G1 X108.246 Y129.497 E2.24709
G1 X108.806 Y129.356 E2.26373
G1 X109.388 Y129.267 E2.28065
G1 X109.979 Y129.236 E2.29768
G1 X110.573 Y129.263 E2.31479
G1 X111.159 Y129.349 E2.33182
G1 X111.727 Y129.489 E2.34866
G1 X112.312 Y129.698 E2.36654
G1 X112.847 Y129.952 E2.38359
G1 X113.334 Y130.244 E2.39993
G1 X113.802 Y130.588 E2.41665
G1 X114.254 Y130.997 E2.43417
G1 X114.650 Y131.435 E2.45115
G1 X115.001 Y131.909 E2.46813
G1 X115.305 Y132.415 E2.48512
G1 X115.557 Y132.949 E2.50210
G1 X115.756 Y133.504 E2.51908
G1 X115.900 Y134.077 E2.53607
G1 X115.986 Y134.661 E2.55307
G1 X116.015 Y135.250 E2.57003
G1 X115.990 Y135.765 E2.58487
G1 X115.449 Y135.787 F9600.000
G1 X115.370 Y136.319 E2.60033 F3375.000
G1 X115.240 Y136.840 E2.61579
G1 X115.059 Y137.346 E2.63125
G1 X114.829 Y137.832 E2.64671
G1 X114.553 Y138.292 E2.66217
G1 X114.233 Y138.724 E2.67763
G1 X113.872 Y139.122 E2.69310
G1 X113.473 Y139.483 E2.70855
G1 X113.042 Y139.803 E2.72401
G1 X112.581 Y140.079 E2.73948
G1 X112.095 Y140.309 E2.75493
G1 X111.589 Y140.490 E2.77039
G1 X111.068 Y140.621 E2.78586
G1 X110.537 Y140.700 E2.80132
G1 X110.000 Y140.726 E2.81677
G1 X109.463 Y140.700 E2.83224
G1 X108.932 Y140.621 E2.84770
G1 X108.411 Y140.490 E2.86316
G1 X107.905 Y140.309 E2.87862
G1 X107.419 Y140.079 E2.89408
G1 X106.958 Y139.803 E2.90954
G1 X106.527 Y139.483 E2.92500
G1 X106.128 Y139.122 E2.94047
G1 X105.768 Y138.724 E2.95592
G1 X105.447 Y138.292 E2.97139
G1 X105.171 Y137.832 E2.98684
G1 X104.941 Y137.346 E3.00231
G1 X104.760 Y136.840 E3.01777
G1 X104.630 Y136.319 E3.03323
G1 X104.551 Y135.787 E3.04869
G1 X104.525 Y135.251 E3.06414
G1 X104.551 Y134.714 E3.07960
G1 X104.630 Y134.183 E3.09506
G1 X104.760 Y133.661 E3.11052
G1 X104.942 Y133.155 E3.12599
G1 X105.171 Y132.670 E3.14144
G1 X105.448 Y132.209 E3.15691
G1 X105.767 Y131.777 E3.17236
G1 X106.128 Y131.379 E3.18783
G1 X106.531 Y131.014 E3.20346
G1 X106.966 Y130.693 E3.21901
G1 X107.414 Y130.424 E3.23406
G1 X107.914 Y130.189 E3.24995
G1 X108.407 Y130.012 E3.26502
G1 X108.922 Y129.883 E3.28030
G1 X109.452 Y129.803 E3.29572
G1 X109.989 Y129.776 E3.31119
G1 X110.528 Y129.801 E3.32672
G1 X111.061 Y129.879 E3.34221
G1 X111.580 Y130.009 E3.35762
G1 X112.100 Y130.194 E3.37349
G1 X112.585 Y130.424 E3.38895
G1 X113.034 Y130.693 E3.40401
G1 X113.469 Y131.014 E3.41955
G1 X113.872 Y131.379 E3.43519
G1 X114.233 Y131.777 E3.45065
G1 X114.553 Y132.209 E3.46611
G1 X114.829 Y132.670 E3.48157
G1 X115.059 Y133.155 E3.49703
G1 X115.240 Y133.661 E3.51249
G1 X115.370 Y134.182 E3.52795
G1 X115.449 Y134.714 E3.54342
G1 X115.475 Y135.250 E3.55887
G1 X115.453 Y135.712 E3.57218
G1 X115.851 Y136.085 F9600.000
G1 F1500.000 E2.07218
G92 E0
G1 X119.725 Y139.959 F9600.000
G1 E1.50000 F1500.000
G1 X119.725 Y128.542 E1.82853 F3375.000
G1 X119.752 Y128.123 E1.84060
G1 X119.836 Y127.703 E1.85293
G1 X119.974 Y127.297 E1.86525
G1 X120.163 Y126.913 E1.87759
G1 X120.401 Y126.557 E1.88991
G1 X120.684 Y126.234 E1.90224
G1 X121.006 Y125.952 E1.91458
G1 X121.362 Y125.714 E1.92690
G1 X121.747 Y125.524 E1.93923
G1 X122.152 Y125.387 E1.95156
G1 X122.573 Y125.303 E1.96389
G1 X122.991 Y125.276 E1.97595
G1 X135.388 Y125.276 E2.33265
G1 X136.031 Y125.315 E2.35119
G1 X136.673 Y125.436 E2.36998
G1 X137.295 Y125.635 E2.38878
G1 X137.888 Y125.910 E2.40757
G1 X138.442 Y126.255 E2.42636
G1 X138.949 Y126.666 E2.44515
G1 X139.402 Y127.137 E2.46395
G1 X140.120 Y128.115 E2.49887
G1 X140.488 Y128.539 E2.51500
G1 X140.892 Y128.927 E2.53113
G1 X141.329 Y129.278 E2.54726
G1 X141.797 Y129.588 E2.56339
G1 X142.290 Y129.854 E2.57952
G1 X142.805 Y130.075 E2.59565
G1 X143.338 Y130.249 E2.61178
G1 X143.884 Y130.374 E2.62791
G1 X144.440 Y130.450 E2.64404
G1 X145.000 Y130.475 E2.66018
G1 X145.560 Y130.450 E2.67631
G1 X146.116 Y130.374 E2.69244
G1 X146.662 Y130.249 E2.70857
G1 X147.195 Y130.075 E2.72470
G1 X147.710 Y129.854 E2.74083
G1 X148.203 Y129.588 E2.75696
G1 X148.671 Y129.278 E2.77309
G1 X149.108 Y128.927 E2.78922
G1 X149.512 Y128.539 E2.80535
G1 X149.880 Y128.115 E2.82148
G1 X150.598 Y127.137 E2.85640
G1 X151.051 Y126.666 E2.87520
G1 X151.558 Y126.255 E2.89399
G1 X152.112 Y125.910 E2.91278
G1 X152.705 Y125.635 E2.93157
G1 X153.327 Y125.436 E2.95036
G1 X153.969 Y125.315 E2.96916
G1 X154.612 Y125.276 E2.98770
G1 X167.009 Y125.276 E3.34440
G1 X167.437 Y125.305 E3.35674
G1 X167.843 Y125.386 E3.36866
G1 X168.253 Y125.524 E3.38110
G1 X168.642 Y125.717 E3.39359
G1 X169.009 Y125.965 E3.40635
G1 X169.317 Y126.235 E3.41812
G1 X169.592 Y126.549 E3.43014
G1 X169.837 Y126.913 E3.44275
G1 X170.030 Y127.307 E3.45538
G1 X170.163 Y127.699 E3.46731
G1 X170.247 Y128.121 E3.47969
G1 X170.275 Y128.542 E3.49180
G1 X170.275 Y139.960 E3.82034
G1 X170.245 Y140.389 E3.83274
G1 X170.164 Y140.798 E3.84472
G1 X170.023 Y141.211 E3.85727
G1 X169.825 Y141.606 E3.86999
G1 X169.598 Y141.945 E3.88173
G1 X169.326 Y142.256 E3.89363
G1 X169.000 Y142.544 E3.90615
G1 X168.642 Y142.785 E3.91856
G1 X168.255 Y142.976 E3.93096
G1 X167.848 Y143.115 E3.94335
G1 X167.426 Y143.198 E3.95571
G1 X167.008 Y143.226 E3.96777
G1 X122.991 Y143.226 E5.23428
G1 X122.572 Y143.198 E5.24635
G1 X122.152 Y143.115 E5.25868
G1 X121.747 Y142.977 E5.27101
G1 X121.362 Y142.787 E5.28334
G1 X121.006 Y142.549 E5.29566
G1 X120.684 Y142.267 E5.30799
G1 X120.401 Y141.944 E5.32033
G1 X120.163 Y141.588 E5.33265
G1 X119.974 Y141.204 E5.34498
G1 X119.836 Y140.798 E5.35731
G1 X119.752 Y140.378 E5.36964
G1 X119.730 Y140.034 E5.37955
G1 X119.287 Y139.719 F9600.000
G1 F1500.000 E3.87955
G92 E0
G1 X120.976 Y149.024 F9600.000
G1 E1.50000 F1500.000
G1 X121.086 Y148.403 E1.51812 F4500.000
G1 X121.124 Y147.751 E1.53694
G1 X121.086 Y147.098 E1.55576
G1 X120.972 Y146.454 E1.57457
G1 X120.762 Y145.775 E1.59503
G1 X120.526 Y145.227 E1.61220
G1 X120.199 Y144.660 E1.63102
G1 X119.808 Y144.136 E1.64984
G1 X119.359 Y143.660 E1.66865
G1 X118.858 Y143.240 E1.68747
G1 X118.312 Y142.880 E1.70629
G1 X117.727 Y142.587 E1.72511
G1 X117.113 Y142.363 E1.74392
G1 X116.477 Y142.212 E1.76274
G1 X115.827 Y142.136 E1.78155
G1 X115.173 Y142.136 E1.80038
G1 X114.523 Y142.212 E1.81919
G1 X113.887 Y142.363 E1.83801
G1 X113.273 Y142.587 E1.85683
G1 X112.688 Y142.880 E1.87565
G1 X112.142 Y143.240 E1.89446
G1 X111.641 Y143.660 E1.91328
G1 X111.192 Y144.136 E1.93210
G1 X110.801 Y144.660 E1.95091
G1 X110.513 Y145.160 E1.96752
G1 X110.215 Y145.827 E1.98854
G1 X110.028 Y146.454 E2.00736
G1 X109.914 Y147.098 E2.02617
G1 X109.876 Y147.751 E2.04499
G1 X109.914 Y148.404 E2.06381
G1 X110.111 Y149.520 E2.09644
G1 X101.315 Y142.156 E2.42651
G1 X101.315 Y119.660 E3.07379
G1 X141.736 Y119.660 E4.23683
G1 X141.141 Y120.160 E4.25920
G1 X140.692 Y120.636 E4.27801
G1 X140.301 Y121.160 E4.29683
G1 X139.974 Y121.727 E4.31565
G1 X139.715 Y122.327 E4.33447
G1 X139.528 Y122.954 E4.35329
G1 X139.414 Y123.598 E4.37210
G1 X139.376 Y124.251 E4.39093
G1 X139.414 Y124.904 E4.40974
G1 X139.528 Y125.548 E4.42856
G1 X139.731 Y126.225 E4.44891
G1 X139.437 Y126.396 E4.45867
G1 X139.315 Y126.269 E4.46377
G1 X138.756 Y125.815 E4.48448
G1 X138.145 Y125.434 E4.50520
G1 X137.491 Y125.132 E4.52591
G1 X136.805 Y124.912 E4.54664
G1 X136.098 Y124.779 E4.56735
G1 X135.404 Y124.736 E4.58734
G1 X122.973 Y124.736 E4.94502
G1 X122.502 Y124.767 E4.95861
G1 X122.012 Y124.865 E4.97298
G1 X121.540 Y125.025 E4.98733
G1 X121.092 Y125.246 E5.00170
G1 X120.634 Y125.560 E5.01768
G1 X120.301 Y125.853 E5.03043
G1 X119.972 Y126.228 E5.04478
G1 X119.695 Y126.643 E5.05914
G1 X119.474 Y127.090 E5.07351
G1 X119.314 Y127.563 E5.08786
G1 X119.217 Y128.053 E5.10224
G1 X119.186 Y128.524 E5.11582
G1 X119.186 Y139.977 E5.44537
G1 X119.217 Y140.449 E5.45896
G1 X119.332 Y140.992 E5.47495
G1 X119.474 Y141.411 E5.48767
G1 X119.695 Y141.858 E5.50203
G1 X119.972 Y142.273 E5.51639
G1 X120.302 Y142.649 E5.53078
G1 X120.677 Y142.978 E5.54513
G1 X121.092 Y143.255 E5.55949
