; generated by Slic3r 1.1.7 on 2015-02-16 at 09:41:02

; perimeters extrusion width = 0.50mm
; infill extrusion width = 0.54mm
; solid infill extrusion width = 0.45mm
; top infill extrusion width = 0.40mm

G21 ; set units to millimeters
M107

M301 P34 I4 D113     ; set PID nozzle
M304 P162 I17 D378 ; set PID Bed

M104 S230                  ; set extruder temp for budaschnozzle
;M104 S240                 ; set extruder temp for hex_hot_end
M140 S95                    ; set bed temp for PET
;M140 S110                 ; set bed temp for PEI (reminder ~G1 Z2 ~ M140 S(@-10 degree change) ;if -m is present in file name)

;G28                            ; home
;G1 Z5 F300                ; move bed down 5mm
;M84                            ; disable steppers
;G4 S300                     ; wait 5 mins to preheat

G28                            ; home

G90 ; use absolute coordinates
G92 E0
M82 ; use absolute distances for extrusion
G1 F1500.000 E-1.20000
G92 E0
G1 Z0.350 F9000.000
G1 X27.306 Y151.901 F9000.000
G1 E1.20000 F1500.000
G1 X29.044 Y150.514 E1.27307 F1260.000
G1 X32.000 Y149.768 E1.37324
G1 X122.000 Y149.768 E4.33056
G1 X124.188 Y150.165 E4.40363
G1 X126.098 Y151.305 E4.47670 F1260.000
G1 X127.485 Y153.043 E4.54977
G1 X128.232 Y155.998 E4.64995
G1 X128.250 Y257.636 E7.98965
G1 X127.853 Y259.824 E8.06273
G1 X126.713 Y261.733 E8.13580
G1 X124.975 Y263.121 E8.20887
G1 X122.112 Y263.867 E8.30608
G1 X98.000 Y264.232 E9.09848
G1 X55.906 Y264.231 E10.48166
G1 X31.888 Y263.867 E11.27096
G1 X29.706 Y263.437 E11.34403
G1 X27.814 Y262.268 E11.41710
G1 X26.453 Y260.510 E11.49018
G1 X25.750 Y257.636 E11.58739
G1 X25.768 Y155.998 E14.92709
G1 X26.166 Y153.810 E15.00016
G1 X27.267 Y151.966 E15.07077
G1 X27.850 Y152.248 F9000.000
G1 X27.915 Y152.146 E15.07473 F1260.000
G1 X29.625 Y150.911 E15.14406
G1 X32.000 Y150.384 E15.22399
G1 X122.000 Y150.384 E18.18130
G1 X124.073 Y150.781 E18.25064
G1 X125.853 Y151.914 E18.31997 F1260.000
G1 X127.089 Y153.624 E18.38931
G1 X127.616 Y155.999 E18.46923
G1 X127.634 Y257.636 E21.80893
G1 X127.237 Y259.708 E21.87827
G1 X126.104 Y261.488 E21.94761
G1 X124.394 Y262.724 E22.01694
G1 X122.103 Y263.251 E22.09418
G1 X98.000 Y263.616 E22.88627
G1 X55.915 Y263.615 E24.26915
G1 X31.897 Y263.251 E25.05844
G1 X29.831 Y262.823 E25.12778
G1 X28.068 Y261.663 E25.19712
G1 X26.858 Y259.934 E25.26645
G1 X26.366 Y257.636 E25.34369
G1 X26.384 Y155.999 E28.68339
G1 X26.781 Y153.926 E28.75273
G1 X27.810 Y152.311 E28.81564
G1 F1500.000 E27.61564
G92 E0
G1 X66.521 Y200.535 F9000.000
G1 E1.20000 F1500.000
M204 S600
G1 X66.035 Y201.021 E1.22258 F1890.000
G1 X65.955 Y201.077 E1.22579
G1 X65.472 Y201.415 E1.24517
G1 X64.849 Y201.705 E1.26776
G1 X64.185 Y201.883 E1.29034
G1 X63.500 Y201.943 E1.31293
G1 X62.815 Y201.883 E1.33551
G1 X62.151 Y201.705 E1.35810
G1 X61.528 Y201.415 E1.38069
G1 X60.965 Y201.021 E1.40327
G1 X60.479 Y200.535 E1.42585
G1 X60.085 Y199.972 E1.44844
G1 X59.795 Y199.349 E1.47103
G1 X59.617 Y198.685 E1.49361
G1 X59.557 Y198.000 E1.51619
G1 X59.617 Y197.315 E1.53878
G1 X59.795 Y196.651 E1.56137
G1 X60.085 Y196.028 E1.58395
G1 X60.479 Y195.465 E1.60654
G1 X60.965 Y194.979 E1.62912
G1 X61.045 Y194.923 E1.63232
G1 X61.528 Y194.585 E1.65171
G1 X62.151 Y194.295 E1.67430
G1 X62.815 Y194.117 E1.69688
G1 X63.500 Y194.057 E1.71946
G1 X63.597 Y194.065 E1.72267
M204 S800
M204 S600
G1 X64.185 Y194.117 E1.74204 F1890.000
G1 X64.849 Y194.295 E1.76464
G1 X65.472 Y194.585 E1.78722
G1 X66.035 Y194.979 E1.80981
G1 X66.521 Y195.465 E1.83239
G1 X66.915 Y196.028 E1.85498
G1 X67.205 Y196.651 E1.87757
G1 X67.383 Y197.315 E1.90015
G1 X67.443 Y198.000 E1.92273
G1 X67.383 Y198.685 E1.94531
G1 X67.205 Y199.349 E1.96791
G1 X66.915 Y199.972 E1.99049
G1 X66.564 Y200.473 E2.01061
M204 S800
G1 X66.047 Y200.137 F9000.000
M204 S600
G1 X65.602 Y200.572 E2.03107 F1323.000
G1 X65.163 Y200.880 E2.04868
G1 X64.637 Y201.124 E2.06772
G1 X64.077 Y201.274 E2.08677
G1 X63.457 Y201.321 E2.10722
G1 X62.923 Y201.274 E2.12484
G1 X62.363 Y201.124 E2.14388
G1 X61.837 Y200.880 E2.16293
G1 X61.363 Y200.547 E2.18197
G1 X60.953 Y200.137 E2.20101
G1 X60.620 Y199.662 E2.22006
G1 X60.376 Y199.137 E2.23911
G1 X60.226 Y198.577 E2.25815
G1 X60.175 Y198.000 E2.27719
G1 X60.237 Y197.381 E2.29765
G1 X60.376 Y196.863 E2.31526
G1 X60.620 Y196.337 E2.33431
G1 X60.953 Y195.863 E2.35335
G1 X61.363 Y195.453 E2.37240
G1 X61.837 Y195.120 E2.39144
G1 X62.363 Y194.876 E2.41049
G1 X62.966 Y194.722 E2.43094
M204 S800
M204 S600
G1 X63.500 Y194.675 E2.44855 F1323.000
G1 X64.077 Y194.726 E2.46760
G1 X64.637 Y194.876 E2.48664
G1 X65.163 Y195.120 E2.50569
G1 X65.637 Y195.453 E2.52473
G1 X66.047 Y195.863 E2.54378
G1 X66.380 Y196.337 E2.56282
G1 X66.624 Y196.863 E2.58187
G1 X66.774 Y197.423 E2.60091
G1 X66.825 Y198.000 E2.61995
G1 X66.774 Y198.577 E2.63900
G1 X66.624 Y199.137 E2.65804
G1 X66.380 Y199.663 E2.67709
G1 X66.090 Y200.076 E2.69367
M204 S800
G1 F1500.000 E1.49367
G92 E0
G1 X62.838 Y194.238 F9000.000
G1 X70.940 Y209.860 F9000.000
G1 E1.20000 F1500.000
M204 S600
G1 X70.940 Y218.940 E1.49833 F1890.000
G1 X59.060 Y218.940 E1.88867
G1 X59.060 Y209.860 E2.18701
G1 X70.865 Y209.860 E2.57488
M204 S800
G1 X70.324 Y210.476 F9000.000
M204 S600
G1 X70.324 Y218.324 E2.83274 F1323.000
G1 X59.676 Y218.324 E3.18261
G1 X59.676 Y210.476 E3.44047
G1 X70.249 Y210.476 E3.78787
M204 S800
G1 X70.824 Y210.476 F9000.000
G1 X73.060 Y221.060 F9000.000
M204 S600
G1 X56.940 Y221.060 E4.31758 F1890.000
G1 X56.940 Y192.940 E5.24161
G1 X73.060 Y192.940 E5.77132
G1 X73.060 Y220.985 E6.69288
M204 S800
G1 X73.676 Y221.676 F9000.000
M204 S600
G1 X56.324 Y221.676 E7.26307 F1323.000
G1 X56.324 Y192.324 E8.22756
G1 X73.676 Y192.324 E8.79775
G1 X73.676 Y221.601 E9.75978
M204 S800
G1 X73.243 Y221.426 F9000.000
G1 X57.406 Y220.634 F9000.000
M204 S800
G1 X57.366 Y220.594 E9.76164 F2310.000
G1 X57.366 Y219.709 E9.79070
G1 X58.291 Y220.634 E9.83366
G1 X59.175 Y220.634 E9.86272
G1 X57.366 Y218.825 E9.94679
M204 S800
G1 X61.765 Y201.996 F9000.000
M204 S800
G1 X69.203 Y209.434 E10.29245 F2310.000
G1 X70.087 Y209.434 E10.32151
G1 X62.979 Y202.326 E10.65183
M204 S800
G1 F1500.000 E9.45183
G92 E0
G1 X65.304 Y194.036 F9000.000
G1 E1.20000 F1500.000
M204 S800
G1 X64.700 Y193.432 E1.22807 F2310.000
M204 S800
G1 X62.312 Y193.698 F9000.000
M204 S800
G1 X61.980 Y193.366 E1.24350 F2310.000
G1 X61.096 Y193.366 E1.27256
G1 X61.744 Y194.014 E1.30268
G1 X61.164 Y194.319 E1.32419
G1 X60.211 Y193.366 E1.36849
G1 X59.327 Y193.366 E1.39756
G1 X60.651 Y194.691 E1.45911
G1 X60.209 Y195.133 E1.47966
G1 X58.442 Y193.366 E1.56176
G1 X57.558 Y193.366 E1.59082
G1 X59.834 Y195.643 E1.69663
G1 X59.526 Y196.219 E1.71810
G1 X57.366 Y194.059 E1.81846
G1 X57.366 Y194.944 E1.84752
G1 X59.294 Y196.872 E1.93712
G1 X59.162 Y197.624 E1.96221
G1 X57.366 Y195.828 E2.04565
G1 X57.366 Y196.713 E2.07471
G1 X59.174 Y198.521 E2.15874
G1 X59.504 Y199.735 E2.20010
G1 X57.366 Y197.597 E2.29947
G1 X57.366 Y198.482 E2.32853
G1 X68.318 Y209.434 E2.83749
G1 X67.434 Y209.434 E2.86655
G1 X57.366 Y199.366 E3.33440
G1 X57.366 Y200.251 E3.36346
G1 X66.549 Y209.434 E3.79021
G1 X65.665 Y209.434 E3.81928
G1 X57.366 Y201.135 E4.20492
G1 X57.366 Y202.020 E4.23399
G1 X64.780 Y209.434 E4.57853
G1 X63.896 Y209.434 E4.60759
G1 X57.366 Y202.904 E4.91104
G1 X57.366 Y203.789 E4.94010
G1 X63.011 Y209.434 E5.20244
G1 X62.127 Y209.434 E5.23150
G1 X57.366 Y204.673 E5.45274
G1 X57.366 Y205.558 E5.48181
G1 X61.242 Y209.434 E5.66194
G1 X60.358 Y209.434 E5.69100
G1 X57.366 Y206.442 E5.83004
G1 X57.366 Y207.327 E5.85910
G1 X59.473 Y209.434 E5.95703
G1 X58.634 Y209.479 E5.98466
G1 X57.366 Y208.211 E6.04358
G1 X57.366 Y209.096 E6.07264
G1 X58.634 Y210.363 E6.13156
G1 X58.634 Y211.248 E6.16062
G1 X57.366 Y209.980 E6.21954
G1 X57.366 Y210.864 E6.24860
G1 X58.634 Y212.132 E6.30752
G1 X58.634 Y213.017 E6.33658
G1 X57.366 Y211.749 E6.39550
G1 X57.366 Y212.633 E6.42457
G1 X58.634 Y213.901 E6.48348
G1 X58.634 Y214.786 E6.51255
G1 X57.366 Y213.518 E6.57146
G1 X57.366 Y214.402 E6.60053
G1 X58.634 Y215.670 E6.65945
G1 X58.634 Y216.555 E6.68851
G1 X57.366 Y215.287 E6.74743
G1 X57.366 Y216.171 E6.77649
G1 X58.634 Y217.439 E6.83541
G1 X58.634 Y218.324 E6.86447
G1 X57.366 Y217.056 E6.92339
G1 X57.366 Y217.940 E6.95245
G1 X60.060 Y220.634 E7.07762
G1 X60.944 Y220.634 E7.10668
G1 X59.676 Y219.366 E7.16560
G1 X60.561 Y219.366 E7.19466
G1 X61.829 Y220.634 E7.25358
G1 X62.713 Y220.634 E7.28265
G1 X61.445 Y219.366 E7.34156
G1 X62.330 Y219.366 E7.37063
G1 X63.598 Y220.634 E7.42954
G1 X64.482 Y220.634 E7.45861
G1 X63.214 Y219.366 E7.51753
G1 X64.099 Y219.366 E7.54659
G1 X65.367 Y220.634 E7.60551
G1 X66.251 Y220.634 E7.63457
G1 X64.983 Y219.366 E7.69349
G1 X65.868 Y219.366 E7.72255
G1 X67.136 Y220.634 E7.78147
G1 X68.020 Y220.634 E7.81053
G1 X66.752 Y219.366 E7.86945
G1 X67.637 Y219.366 E7.89852
G1 X68.904 Y220.634 E7.95743
G1 X69.789 Y220.634 E7.98650
G1 X68.521 Y219.366 E8.04541
G1 X69.406 Y219.366 E8.07448
G1 X70.673 Y220.634 E8.13340
G1 X71.558 Y220.634 E8.16246
G1 X70.290 Y219.366 E8.22138
G1 X71.175 Y219.366 E8.25044
G1 X72.442 Y220.634 E8.30936
G1 X72.634 Y219.941 E8.33298
G1 X71.366 Y218.673 E8.39190
G1 X71.366 Y217.789 E8.42097
G1 X72.634 Y219.056 E8.47988
G1 X72.634 Y218.172 E8.50895
G1 X71.366 Y216.904 E8.56786
G1 X71.366 Y216.020 E8.59693
G1 X72.634 Y217.287 E8.65585
G1 X72.634 Y216.403 E8.68491
G1 X71.366 Y215.135 E8.74383
G1 X71.366 Y214.251 E8.77289
G1 X72.634 Y215.518 E8.83181
G1 X72.634 Y214.634 E8.86087
G1 X71.366 Y213.366 E8.91979
G1 X71.366 Y212.482 E8.94885
G1 X72.634 Y213.749 E9.00777
G1 X72.634 Y212.865 E9.03683
G1 X71.366 Y211.597 E9.09575
G1 X71.366 Y210.713 E9.12482
G1 X72.634 Y211.980 E9.18373
G1 X72.634 Y211.096 E9.21280
G1 X63.876 Y202.338 E9.61976
G1 X64.628 Y202.206 E9.64485
G1 X72.634 Y210.211 E10.01687
G1 X72.634 Y209.327 E10.04593
G1 X65.281 Y201.974 E10.38761
G1 X65.857 Y201.666 E10.40908
G1 X72.634 Y208.442 E10.72400
G1 X72.634 Y207.558 E10.75306
G1 X66.367 Y201.291 E11.04428
G1 X66.809 Y200.849 E11.06483
G1 X72.634 Y206.673 E11.33549
G1 X72.634 Y205.789 E11.36455
G1 X67.181 Y200.336 E11.61797
G1 X67.486 Y199.756 E11.63948
G1 X72.634 Y204.904 E11.87871
G1 X72.634 Y204.020 E11.90778
G1 X67.714 Y199.100 E12.13643
G1 X67.841 Y198.343 E12.16164
G1 X72.634 Y203.136 E12.38436
G1 X72.634 Y202.251 E12.41342
G1 X67.822 Y197.439 E12.63702
G1 X67.464 Y196.196 E12.67953
G1 X72.634 Y201.367 E12.91978
G1 X72.634 Y200.482 E12.94885
G1 X65.518 Y193.366 E13.27952
G1 X66.402 Y193.366 E13.30859
G1 X72.634 Y199.598 E13.59816
G1 X72.634 Y198.713 E13.62722
G1 X67.287 Y193.366 E13.87570
G1 X68.171 Y193.366 E13.90476
G1 X72.634 Y197.829 E14.11213
G1 X72.634 Y196.944 E14.14119
G1 X69.056 Y193.366 E14.30746
G1 X69.940 Y193.366 E14.33652
G1 X72.634 Y196.060 E14.46169
G1 X72.634 Y195.175 E14.49075
G1 X70.825 Y193.366 E14.57482
G1 X71.709 Y193.366 E14.60388
G1 X72.634 Y194.291 E14.64684
G1 X72.634 Y193.406 E14.67591
G1 X72.594 Y193.366 E14.67776
M204 S800
G1 X64.268 Y193.531 F9000.000
G1 X63.522 Y193.498 E14.69218 F420.000
G1 X62.732 Y193.531 E14.70744
G1 F1500.000 E13.50744
G92 E0
G1 X40.849 Y201.705 F9000.000
G1 E1.20000 F1500.000
M204 S600
G1 X40.185 Y201.883 E1.22258 F1890.000
G1 X39.500 Y201.943 E1.24516
G1 X38.815 Y201.883 E1.26775
G1 X38.151 Y201.705 E1.29034
G1 X37.528 Y201.415 E1.31292
G1 X36.965 Y201.021 E1.33551
G1 X36.479 Y200.535 E1.35809
G1 X36.085 Y199.972 E1.38068
G1 X35.795 Y199.349 E1.40327
G1 X35.617 Y198.685 E1.42585
G1 X35.557 Y198.000 E1.44843
G1 X35.617 Y197.315 E1.47102
G1 X35.642 Y197.221 E1.47422
G1 X35.795 Y196.651 E1.49361
G1 X36.085 Y196.028 E1.51619
G1 X36.479 Y195.465 E1.53878
G1 X36.965 Y194.979 E1.56136
G1 X37.045 Y194.923 E1.56456
G1 X37.528 Y194.585 E1.58395
G1 X38.151 Y194.295 E1.60654
G1 X38.815 Y194.117 E1.62912
G1 X39.500 Y194.057 E1.65170
G1 X39.597 Y194.065 E1.65491
M204 S800
M204 S600
G1 X40.185 Y194.117 E1.67428 F1890.000
G1 X40.849 Y194.295 E1.69688
G1 X41.472 Y194.585 E1.71946
G1 X42.035 Y194.979 E1.74205
G1 X42.521 Y195.465 E1.76463
G1 X42.915 Y196.028 E1.78722
G1 X43.205 Y196.651 E1.80981
G1 X43.383 Y197.315 E1.83239
G1 X43.443 Y198.000 E1.85497
G1 X43.383 Y198.685 E1.87755
G1 X43.205 Y199.349 E1.90014
G1 X42.915 Y199.972 E1.92273
G1 X42.521 Y200.535 E1.94531
G1 X42.035 Y201.021 E1.96790
G1 X41.472 Y201.415 E1.99048
G1 X40.917 Y201.674 E2.01061
M204 S800
G1 X40.637 Y201.124 F9000.000
M204 S600
G1 X40.077 Y201.274 E2.02965 F1323.000
G1 X39.500 Y201.325 E2.04870
G1 X38.923 Y201.274 E2.06774
G1 X38.363 Y201.124 E2.08679
G1 X37.837 Y200.880 E2.10583
G1 X37.363 Y200.547 E2.12488
G1 X36.928 Y200.102 E2.14533
G1 X36.620 Y199.662 E2.16294
G1 X36.376 Y199.137 E2.18199
G1 X36.226 Y198.577 E2.20103
G1 X36.175 Y198.000 E2.22008
G1 X36.237 Y197.381 E2.24053
G1 X36.376 Y196.863 E2.25815
G1 X36.620 Y196.337 E2.27719
G1 X36.953 Y195.863 E2.29624
G1 X37.363 Y195.453 E2.31528
G1 X37.837 Y195.120 E2.33432
G1 X38.363 Y194.876 E2.35337
G1 X38.966 Y194.722 E2.37383
M204 S800
M204 S600
G1 X39.500 Y194.675 E2.39144 F1323.000
G1 X40.077 Y194.726 E2.41048
G1 X40.637 Y194.876 E2.42953
G1 X41.163 Y195.120 E2.44857
G1 X41.637 Y195.453 E2.46762
G1 X42.047 Y195.863 E2.48666
G1 X42.380 Y196.337 E2.50571
G1 X42.624 Y196.863 E2.52475
G1 X42.774 Y197.423 E2.54380
G1 X42.825 Y198.000 E2.56284
G1 X42.774 Y198.577 E2.58188
G1 X42.624 Y199.137 E2.60093
G1 X42.380 Y199.663 E2.61997
G1 X42.047 Y200.137 E2.63902
G1 X41.637 Y200.547 E2.65806
G1 X41.163 Y200.880 E2.67711
G1 X40.705 Y201.093 E2.69369
M204 S800
G1 F1500.000 E1.49369
G92 E0
G1 X38.880 Y194.229 F9000.000
G1 X35.060 Y209.860 F9000.000
G1 E1.20000 F1500.000
M204 S600
G1 X46.940 Y209.860 E1.59034 F1890.000
G1 X46.940 Y218.940 E1.88867
G1 X35.060 Y218.940 E2.27901
G1 X35.060 Y209.935 E2.57488
M204 S800
G1 X35.676 Y210.476 F9000.000
M204 S600
G1 X46.324 Y210.476 E2.92475 F1323.000
G1 X46.324 Y218.324 E3.18261
G1 X35.676 Y218.324 E3.53247
G1 X35.676 Y210.551 E3.78787
M204 S800
G1 X35.676 Y209.976 F9000.000
G1 X32.940 Y221.060 F9000.000
M204 S600
G1 X32.940 Y192.940 E4.71189 F1890.000
G1 X49.060 Y192.940 E5.24161
G1 X49.060 Y221.060 E6.16563
G1 X33.015 Y221.060 E6.69288
M204 S800
G1 X32.324 Y221.676 F9000.000
M204 S600
G1 X32.324 Y192.324 E7.65737 F1323.000
G1 X49.676 Y192.324 E8.22756
G1 X49.676 Y221.676 E9.19206
G1 X32.399 Y221.676 E9.75978
M204 S800
G1 X32.574 Y221.243 F9000.000
G1 X33.406 Y220.634 F9000.000
M204 S800
G1 X33.366 Y220.594 E9.76164 F2310.000
G1 X33.366 Y219.709 E9.79070
G1 X34.291 Y220.634 E9.83366
G1 X35.175 Y220.634 E9.86272
G1 X33.366 Y218.825 E9.94679
M204 S800
G1 X37.765 Y201.996 F9000.000
M204 S800
G1 X45.203 Y209.434 E10.29245 F2310.000
G1 X46.087 Y209.434 E10.32151
G1 X38.979 Y202.326 E10.65183
M204 S800
G1 F1500.000 E9.45183
G92 E0
G1 X41.304 Y194.036 F9000.000
G1 E1.20000 F1500.000
M204 S800
G1 X40.700 Y193.432 E1.22807 F2310.000
M204 S800
G1 X38.312 Y193.698 F9000.000
M204 S800
G1 X37.980 Y193.366 E1.24350 F2310.000
G1 X37.096 Y193.366 E1.27256
G1 X37.744 Y194.014 E1.30268
G1 X37.164 Y194.319 E1.32419
G1 X36.211 Y193.366 E1.36849
G1 X35.327 Y193.366 E1.39756
G1 X36.651 Y194.691 E1.45911
G1 X36.209 Y195.133 E1.47966
G1 X34.442 Y193.366 E1.56176
G1 X33.558 Y193.366 E1.59082
G1 X35.834 Y195.643 E1.69663
G1 X35.526 Y196.219 E1.71810
G1 X33.366 Y194.059 E1.81846
G1 X33.366 Y194.944 E1.84752
G1 X35.294 Y196.872 E1.93712
G1 X35.162 Y197.624 E1.96221
G1 X33.366 Y195.828 E2.04565
G1 X33.366 Y196.713 E2.07471
G1 X35.174 Y198.521 E2.15874
G1 X35.504 Y199.735 E2.20010
G1 X33.366 Y197.597 E2.29947
G1 X33.366 Y198.482 E2.32853
G1 X44.318 Y209.434 E2.83749
G1 X43.434 Y209.434 E2.86655
G1 X33.366 Y199.366 E3.33440
G1 X33.366 Y200.251 E3.36346
G1 X42.549 Y209.434 E3.79021
G1 X41.665 Y209.434 E3.81928
G1 X33.366 Y201.135 E4.20492
G1 X33.366 Y202.020 E4.23399
G1 X40.780 Y209.434 E4.57853
G1 X39.896 Y209.434 E4.60759
G1 X33.366 Y202.904 E4.91104
G1 X33.366 Y203.789 E4.94010
G1 X39.011 Y209.434 E5.20244
G1 X38.127 Y209.434 E5.23150
G1 X33.366 Y204.673 E5.45274
G1 X33.366 Y205.558 E5.48181
G1 X37.242 Y209.434 E5.66194
G1 X36.358 Y209.434 E5.69100
G1 X33.366 Y206.442 E5.83004
G1 X33.366 Y207.327 E5.85910
