; generated by Slic3r 1.1.7 on 2015-02-16 at 09:41:02

; perimeters extrusion width = 0.50mm
; infill extrusion width = 0.54mm
; solid infill extrusion width = 0.45mm
; top infill extrusion width = 0.40mm

G21 ; set units to millimeters
M107

M301 P34 I4 D113     ; set PID nozzle
M304 P162 I17 D378 ; set PID Bed

M104 S230                  ; set extruder temp for budaschnozzle
;M104 S240                 ; set extruder temp for hex_hot_end
M140 S95                    ; set bed temp for PET
;M140 S110                 ; set bed temp for PEI (reminder ~G1 Z2 ~ M140 S(@-10 degree change) ;if -m is present in file name)

;G28                            ; home
;G1 Z5 F300                ; move bed down 5mm
;M84                            ; disable steppers
;G4 S300                     ; wait 5 mins to preheat

G28                            ; home

G90 ; use absolute coordinates
G92 E0
M82 ; use absolute distances for extrusion
G1 F1500.000 E-1.20000
G92 E0
G1 Z0.350 F9000.000
G1 X171.306 Y15.901 F9000.000
G1 E1.20000 F1500.000
G1 X173.044 Y14.514 E1.27307 F1260.000
G1 X176.000 Y13.768 E1.37324
G1 X266.000 Y13.768 E4.33056
G1 X268.188 Y14.165 E4.40363
G1 X270.098 Y15.305 E4.47670 F1260.000
G1 X271.485 Y17.043 E4.54977
G1 X272.232 Y19.998 E4.64995
G1 X272.250 Y121.636 E7.98965
G1 X271.853 Y123.824 E8.06273
G1 X270.713 Y125.733 E8.13580
G1 X268.975 Y127.121 E8.20887
G1 X266.112 Y127.867 E8.30608
G1 X242.000 Y128.232 E9.09848
G1 X199.906 Y128.231 E10.48166
G1 X175.888 Y127.867 E11.27096
G1 X173.706 Y127.437 E11.34403
G1 X171.814 Y126.268 E11.41710
G1 X170.453 Y124.510 E11.49018
G1 X169.750 Y121.636 E11.58739
G1 X169.768 Y19.998 E14.92709
G1 X170.166 Y17.810 E15.00016
G1 X171.267 Y15.966 E15.07077
G1 X171.850 Y16.248 F9000.000
G1 X171.915 Y16.146 E15.07473 F1260.000
G1 X173.625 Y14.911 E15.14406
G1 X176.000 Y14.384 E15.22399
G1 X266.000 Y14.384 E18.18130
G1 X268.073 Y14.781 E18.25064
G1 X269.853 Y15.914 E18.31997 F1260.000
G1 X271.089 Y17.624 E18.38931
G1 X271.616 Y19.999 E18.46923
G1 X271.634 Y121.636 E21.80893
G1 X271.237 Y123.708 E21.87827
G1 X270.104 Y125.488 E21.94761
G1 X268.394 Y126.724 E22.01694
G1 X266.103 Y127.251 E22.09418
G1 X242.000 Y127.616 E22.88627
G1 X199.915 Y127.615 E24.26915
G1 X175.897 Y127.251 E25.05844
G1 X173.831 Y126.823 E25.12778
G1 X172.068 Y125.663 E25.19712
G1 X170.858 Y123.934 E25.26645
G1 X170.366 Y121.636 E25.34369
G1 X170.384 Y19.999 E28.68339
G1 X170.781 Y17.926 E28.75273
G1 X171.810 Y16.311 E28.81564
G1 F1500.000 E27.61564
G92 E0
G1 X210.521 Y64.535 F9000.000
G1 E1.20000 F1500.000
M204 S600
G1 X210.035 Y65.021 E1.22258 F1890.000
G1 X209.955 Y65.077 E1.22579
G1 X209.472 Y65.415 E1.24517
G1 X208.849 Y65.705 E1.26776
G1 X208.185 Y65.883 E1.29034
G1 X207.500 Y65.943 E1.31293
G1 X206.815 Y65.883 E1.33551
G1 X206.151 Y65.705 E1.35810
G1 X205.528 Y65.415 E1.38069
G1 X204.965 Y65.021 E1.40327
G1 X204.479 Y64.535 E1.42585
G1 X204.085 Y63.972 E1.44844
G1 X203.795 Y63.349 E1.47103
G1 X203.617 Y62.685 E1.49361
G1 X203.557 Y62.000 E1.51619
G1 X203.617 Y61.315 E1.53878
G1 X203.795 Y60.651 E1.56137
G1 X204.085 Y60.028 E1.58395
G1 X204.479 Y59.465 E1.60654
G1 X204.965 Y58.979 E1.62912
G1 X205.045 Y58.923 E1.63232
G1 X205.528 Y58.585 E1.65171
G1 X206.151 Y58.295 E1.67430
G1 X206.815 Y58.117 E1.69688
G1 X207.500 Y58.057 E1.71946
G1 X207.597 Y58.065 E1.72267
M204 S800
M204 S600
G1 X208.185 Y58.117 E1.74204 F1890.000
G1 X208.849 Y58.295 E1.76464
G1 X209.472 Y58.585 E1.78722
G1 X210.035 Y58.979 E1.80981
G1 X210.521 Y59.465 E1.83239
G1 X210.915 Y60.028 E1.85498
G1 X211.205 Y60.651 E1.87757
G1 X211.383 Y61.315 E1.90015
G1 X211.443 Y62.000 E1.92273
G1 X211.383 Y62.685 E1.94531
G1 X211.205 Y63.349 E1.96791
G1 X210.915 Y63.972 E1.99049
G1 X210.564 Y64.473 E2.01061
M204 S800
G1 X210.047 Y64.137 F9000.000
M204 S600
G1 X209.602 Y64.572 E2.03107 F1323.000
G1 X209.163 Y64.880 E2.04868
G1 X208.637 Y65.124 E2.06772
G1 X208.077 Y65.274 E2.08677
G1 X207.457 Y65.321 E2.10722
G1 X206.923 Y65.274 E2.12484
G1 X206.363 Y65.124 E2.14388
G1 X205.837 Y64.880 E2.16293
G1 X205.363 Y64.547 E2.18197
G1 X204.953 Y64.137 E2.20101
G1 X204.620 Y63.662 E2.22006
G1 X204.376 Y63.137 E2.23911
G1 X204.226 Y62.577 E2.25815
G1 X204.175 Y62.000 E2.27719
G1 X204.237 Y61.381 E2.29765
G1 X204.376 Y60.863 E2.31526
G1 X204.620 Y60.337 E2.33431
G1 X204.953 Y59.863 E2.35335
G1 X205.363 Y59.453 E2.37240
G1 X205.837 Y59.120 E2.39144
G1 X206.363 Y58.876 E2.41049
G1 X206.966 Y58.722 E2.43094
M204 S800
M204 S600
G1 X207.500 Y58.675 E2.44855 F1323.000
G1 X208.077 Y58.726 E2.46760
G1 X208.637 Y58.876 E2.48664
G1 X209.163 Y59.120 E2.50569
G1 X209.637 Y59.453 E2.52473
G1 X210.047 Y59.863 E2.54378
G1 X210.380 Y60.337 E2.56282
G1 X210.624 Y60.863 E2.58187
G1 X210.774 Y61.423 E2.60091
G1 X210.825 Y62.000 E2.61995
G1 X210.774 Y62.577 E2.63900
G1 X210.624 Y63.137 E2.65804
G1 X210.380 Y63.663 E2.67709
G1 X210.090 Y64.076 E2.69367
M204 S800
G1 F1500.000 E1.49367
G92 E0
G1 X206.838 Y58.238 F9000.000
G1 X214.940 Y73.860 F9000.000
G1 E1.20000 F1500.000
M204 S600
G1 X214.940 Y82.940 E1.49833 F1890.000
G1 X203.060 Y82.940 E1.88867
G1 X203.060 Y73.860 E2.18701
G1 X214.865 Y73.860 E2.57488
M204 S800
G1 X214.324 Y74.476 F9000.000
M204 S600
G1 X214.324 Y82.324 E2.83274 F1323.000
G1 X203.676 Y82.324 E3.18261
G1 X203.676 Y74.476 E3.44047
G1 X214.249 Y74.476 E3.78787
M204 S800
G1 X214.824 Y74.476 F9000.000
G1 X217.060 Y85.060 F9000.000
M204 S600
G1 X200.940 Y85.060 E4.31758 F1890.000
G1 X200.940 Y56.940 E5.24161
G1 X217.060 Y56.940 E5.77132
G1 X217.060 Y84.985 E6.69288
M204 S800
G1 X217.676 Y85.676 F9000.000
M204 S600
G1 X200.324 Y85.676 E7.26307 F1323.000
G1 X200.324 Y56.324 E8.22756
G1 X217.676 Y56.324 E8.79775
G1 X217.676 Y85.601 E9.75978
M204 S800
G1 X217.243 Y85.426 F9000.000
G1 X201.406 Y84.634 F9000.000
M204 S800
G1 X201.366 Y84.594 E9.76164 F2310.000
G1 X201.366 Y83.709 E9.79070
G1 X202.291 Y84.634 E9.83366
G1 X203.175 Y84.634 E9.86272
G1 X201.366 Y82.825 E9.94679
M204 S800
G1 X205.765 Y65.996 F9000.000
M204 S800
G1 X213.203 Y73.434 E10.29245 F2310.000
G1 X214.087 Y73.434 E10.32151
G1 X206.979 Y66.326 E10.65183
M204 S800
G1 F1500.000 E9.45183
G92 E0
G1 X209.304 Y58.036 F9000.000
G1 E1.20000 F1500.000
M204 S800
G1 X208.700 Y57.432 E1.22807 F2310.000
M204 S800
G1 X206.312 Y57.698 F9000.000
M204 S800
G1 X205.980 Y57.366 E1.24350 F2310.000
G1 X205.096 Y57.366 E1.27256
G1 X205.744 Y58.014 E1.30268
G1 X205.164 Y58.319 E1.32419
G1 X204.211 Y57.366 E1.36849
G1 X203.327 Y57.366 E1.39756
G1 X204.651 Y58.691 E1.45911
G1 X204.209 Y59.133 E1.47966
G1 X202.442 Y57.366 E1.56176
G1 X201.558 Y57.366 E1.59082
G1 X203.834 Y59.643 E1.69663
G1 X203.526 Y60.219 E1.71810
G1 X201.366 Y58.059 E1.81846
G1 X201.366 Y58.944 E1.84752
G1 X203.294 Y60.872 E1.93712
G1 X203.162 Y61.624 E1.96221
G1 X201.366 Y59.828 E2.04565
G1 X201.366 Y60.713 E2.07471
G1 X203.174 Y62.521 E2.15874
G1 X203.504 Y63.735 E2.20010
G1 X201.366 Y61.597 E2.29947
G1 X201.366 Y62.482 E2.32853
G1 X212.318 Y73.434 E2.83749
G1 X211.434 Y73.434 E2.86655
G1 X201.366 Y63.366 E3.33440
G1 X201.366 Y64.251 E3.36346
G1 X210.549 Y73.434 E3.79021
G1 X209.665 Y73.434 E3.81928
G1 X201.366 Y65.135 E4.20492
G1 X201.366 Y66.020 E4.23399
G1 X208.780 Y73.434 E4.57853
G1 X207.896 Y73.434 E4.60759
G1 X201.366 Y66.904 E4.91104
G1 X201.366 Y67.789 E4.94010
G1 X207.011 Y73.434 E5.20244
G1 X206.127 Y73.434 E5.23150
G1 X201.366 Y68.673 E5.45274
G1 X201.366 Y69.558 E5.48181
G1 X205.242 Y73.434 E5.66194
G1 X204.358 Y73.434 E5.69100
G1 X201.366 Y70.442 E5.83004
G1 X201.366 Y71.327 E5.85910
G1 X203.473 Y73.434 E5.95703
G1 X202.634 Y73.479 E5.98466
G1 X201.366 Y72.211 E6.04358
G1 X201.366 Y73.096 E6.07264
G1 X202.634 Y74.363 E6.13156
G1 X202.634 Y75.248 E6.16062
G1 X201.366 Y73.980 E6.21954
G1 X201.366 Y74.864 E6.24860
G1 X202.634 Y76.132 E6.30752
G1 X202.634 Y77.017 E6.33658
G1 X201.366 Y75.749 E6.39550
G1 X201.366 Y76.633 E6.42457
G1 X202.634 Y77.901 E6.48348
G1 X202.634 Y78.786 E6.51255
G1 X201.366 Y77.518 E6.57146
G1 X201.366 Y78.402 E6.60053
G1 X202.634 Y79.670 E6.65945
G1 X202.634 Y80.555 E6.68851
G1 X201.366 Y79.287 E6.74743
G1 X201.366 Y80.171 E6.77649
G1 X202.634 Y81.439 E6.83541
G1 X202.634 Y82.324 E6.86447
G1 X201.366 Y81.056 E6.92339
G1 X201.366 Y81.940 E6.95245
G1 X204.060 Y84.634 E7.07762
G1 X204.944 Y84.634 E7.10668
G1 X203.676 Y83.366 E7.16560
G1 X204.561 Y83.366 E7.19466
G1 X205.829 Y84.634 E7.25358
G1 X206.713 Y84.634 E7.28265
G1 X205.445 Y83.366 E7.34156
G1 X206.330 Y83.366 E7.37063
G1 X207.598 Y84.634 E7.42954
G1 X208.482 Y84.634 E7.45861
G1 X207.214 Y83.366 E7.51753
G1 X208.099 Y83.366 E7.54659
G1 X209.367 Y84.634 E7.60551
G1 X210.251 Y84.634 E7.63457
G1 X208.983 Y83.366 E7.69349
G1 X209.868 Y83.366 E7.72255
G1 X211.136 Y84.634 E7.78147
G1 X212.020 Y84.634 E7.81053
G1 X210.752 Y83.366 E7.86945
G1 X211.637 Y83.366 E7.89852
G1 X212.904 Y84.634 E7.95743
G1 X213.789 Y84.634 E7.98650
G1 X212.521 Y83.366 E8.04541
G1 X213.406 Y83.366 E8.07448
G1 X214.673 Y84.634 E8.13340
G1 X215.558 Y84.634 E8.16246
G1 X214.290 Y83.366 E8.22138
G1 X215.175 Y83.366 E8.25044
G1 X216.442 Y84.634 E8.30936
G1 X216.634 Y83.941 E8.33298
G1 X215.366 Y82.673 E8.39190
G1 X215.366 Y81.789 E8.42097
G1 X216.634 Y83.056 E8.47988
G1 X216.634 Y82.172 E8.50895
G1 X215.366 Y80.904 E8.56786
G1 X215.366 Y80.020 E8.59693
G1 X216.634 Y81.287 E8.65585
G1 X216.634 Y80.403 E8.68491
G1 X215.366 Y79.135 E8.74383
G1 X215.366 Y78.251 E8.77289
G1 X216.634 Y79.518 E8.83181
G1 X216.634 Y78.634 E8.86087
G1 X215.366 Y77.366 E8.91979
G1 X215.366 Y76.482 E8.94885
G1 X216.634 Y77.749 E9.00777
G1 X216.634 Y76.865 E9.03683
G1 X215.366 Y75.597 E9.09575
G1 X215.366 Y74.713 E9.12482
G1 X216.634 Y75.980 E9.18373
G1 X216.634 Y75.096 E9.21280
G1 X207.876 Y66.338 E9.61976
G1 X208.628 Y66.206 E9.64485
G1 X216.634 Y74.211 E10.01687
G1 X216.634 Y73.327 E10.04593
G1 X209.281 Y65.974 E10.38761
G1 X209.857 Y65.666 E10.40908
G1 X216.634 Y72.442 E10.72400
G1 X216.634 Y71.558 E10.75306
G1 X210.367 Y65.291 E11.04428
G1 X210.809 Y64.849 E11.06483
G1 X216.634 Y70.673 E11.33549
G1 X216.634 Y69.789 E11.36455
G1 X211.181 Y64.336 E11.61797
G1 X211.486 Y63.756 E11.63948
G1 X216.634 Y68.904 E11.87871
G1 X216.634 Y68.020 E11.90778
G1 X211.714 Y63.100 E12.13643
G1 X211.841 Y62.343 E12.16164
G1 X216.634 Y67.136 E12.38436
G1 X216.634 Y66.251 E12.41342
G1 X211.822 Y61.439 E12.63702
G1 X211.464 Y60.196 E12.67953
G1 X216.634 Y65.367 E12.91978
G1 X216.634 Y64.482 E12.94885
G1 X209.518 Y57.366 E13.27952
G1 X210.402 Y57.366 E13.30859
G1 X216.634 Y63.598 E13.59816
G1 X216.634 Y62.713 E13.62722
G1 X211.287 Y57.366 E13.87570
G1 X212.171 Y57.366 E13.90476
G1 X216.634 Y61.829 E14.11213
G1 X216.634 Y60.944 E14.14119
G1 X213.056 Y57.366 E14.30746
G1 X213.940 Y57.366 E14.33652
G1 X216.634 Y60.060 E14.46169
G1 X216.634 Y59.175 E14.49075
G1 X214.825 Y57.366 E14.57482
G1 X215.709 Y57.366 E14.60388
G1 X216.634 Y58.291 E14.64684
G1 X216.634 Y57.406 E14.67591
G1 X216.594 Y57.366 E14.67776
M204 S800
G1 X208.268 Y57.531 F9000.000
G1 X207.522 Y57.498 E14.69218 F420.000
G1 X206.732 Y57.531 E14.70744
G1 F1500.000 E13.50744
G92 E0
G1 X184.849 Y65.705 F9000.000
G1 E1.20000 F1500.000
M204 S600
G1 X184.185 Y65.883 E1.22258 F1890.000
G1 X183.500 Y65.943 E1.24516
G1 X182.815 Y65.883 E1.26775
G1 X182.151 Y65.705 E1.29034
G1 X181.528 Y65.415 E1.31292
G1 X180.965 Y65.021 E1.33551
G1 X180.479 Y64.535 E1.35809
G1 X180.085 Y63.972 E1.38068
G1 X179.795 Y63.349 E1.40327
G1 X179.617 Y62.685 E1.42585
G1 X179.557 Y62.000 E1.44843
G1 X179.617 Y61.315 E1.47102
G1 X179.642 Y61.221 E1.47422
G1 X179.795 Y60.651 E1.49361
G1 X180.085 Y60.028 E1.51619
G1 X180.479 Y59.465 E1.53878
G1 X180.965 Y58.979 E1.56136
G1 X181.045 Y58.923 E1.56456
G1 X181.528 Y58.585 E1.58395
G1 X182.151 Y58.295 E1.60654
G1 X182.815 Y58.117 E1.62912
G1 X183.500 Y58.057 E1.65170
G1 X183.597 Y58.065 E1.65491
M204 S800
M204 S600
G1 X184.185 Y58.117 E1.67428 F1890.000
G1 X184.849 Y58.295 E1.69688
G1 X185.472 Y58.585 E1.71946
G1 X186.035 Y58.979 E1.74205
G1 X186.521 Y59.465 E1.76463
G1 X186.915 Y60.028 E1.78722
G1 X187.205 Y60.651 E1.80981
G1 X187.383 Y61.315 E1.83239
G1 X187.443 Y62.000 E1.85497
G1 X187.383 Y62.685 E1.87755
G1 X187.205 Y63.349 E1.90014
G1 X186.915 Y63.972 E1.92273
G1 X186.521 Y64.535 E1.94531
G1 X186.035 Y65.021 E1.96790
G1 X185.472 Y65.415 E1.99048
G1 X184.917 Y65.674 E2.01061
M204 S800
G1 X184.637 Y65.124 F9000.000
M204 S600
G1 X184.077 Y65.274 E2.02965 F1323.000
G1 X183.500 Y65.325 E2.04870
G1 X182.923 Y65.274 E2.06774
G1 X182.363 Y65.124 E2.08679
G1 X181.837 Y64.880 E2.10583
G1 X181.363 Y64.547 E2.12488
G1 X180.928 Y64.102 E2.14533
G1 X180.620 Y63.662 E2.16294
G1 X180.376 Y63.137 E2.18199
G1 X180.226 Y62.577 E2.20103
G1 X180.175 Y62.000 E2.22008
G1 X180.237 Y61.381 E2.24053
G1 X180.376 Y60.863 E2.25815
G1 X180.620 Y60.337 E2.27719
G1 X180.953 Y59.863 E2.29624
G1 X181.363 Y59.453 E2.31528
G1 X181.837 Y59.120 E2.33432
G1 X182.363 Y58.876 E2.35337
G1 X182.966 Y58.722 E2.37383
M204 S800
M204 S600
G1 X183.500 Y58.675 E2.39144 F1323.000
G1 X184.077 Y58.726 E2.41048
G1 X184.637 Y58.876 E2.42953
G1 X185.163 Y59.120 E2.44857
G1 X185.637 Y59.453 E2.46762
G1 X186.047 Y59.863 E2.48666
G1 X186.380 Y60.337 E2.50571
G1 X186.624 Y60.863 E2.52475
G1 X186.774 Y61.423 E2.54380
G1 X186.825 Y62.000 E2.56284
G1 X186.774 Y62.577 E2.58188
G1 X186.624 Y63.137 E2.60093
G1 X186.380 Y63.663 E2.61997
G1 X186.047 Y64.137 E2.63902
G1 X185.637 Y64.547 E2.65806
G1 X185.163 Y64.880 E2.67711
G1 X184.705 Y65.093 E2.69369
M204 S800
G1 F1500.000 E1.49369
G92 E0
G1 X182.880 Y58.229 F9000.000
G1 X179.060 Y73.860 F9000.000
G1 E1.20000 F1500.000
M204 S600
G1 X190.940 Y73.860 E1.59034 F1890.000
G1 X190.940 Y82.940 E1.88867
G1 X179.060 Y82.940 E2.27901
G1 X179.060 Y73.935 E2.57488
M204 S800
G1 X179.676 Y74.476 F9000.000
M204 S600
G1 X190.324 Y74.476 E2.92475 F1323.000
G1 X190.324 Y82.324 E3.18261
G1 X179.676 Y82.324 E3.53247
G1 X179.676 Y74.551 E3.78787
M204 S800
G1 X179.676 Y73.976 F9000.000
G1 X176.940 Y85.060 F9000.000
M204 S600
G1 X176.940 Y56.940 E4.71189 F1890.000
G1 X193.060 Y56.940 E5.24161
G1 X193.060 Y85.060 E6.16563
G1 X177.015 Y85.060 E6.69288
M204 S800
G1 X176.324 Y85.676 F9000.000
M204 S600
G1 X176.324 Y56.324 E7.65737 F1323.000
G1 X193.676 Y56.324 E8.22756
G1 X193.676 Y85.676 E9.19206
G1 X176.399 Y85.676 E9.75978
M204 S800
G1 X176.574 Y85.243 F9000.000
G1 X177.406 Y84.634 F9000.000
M204 S800
G1 X177.366 Y84.594 E9.76164 F2310.000
G1 X177.366 Y83.709 E9.79070
G1 X178.291 Y84.634 E9.83366
G1 X179.175 Y84.634 E9.86272
G1 X177.366 Y82.825 E9.94679
M204 S800
G1 X181.765 Y65.996 F9000.000
M204 S800
G1 X189.203 Y73.434 E10.29245 F2310.000
G1 X190.087 Y73.434 E10.32151
G1 X182.979 Y66.326 E10.65183
M204 S800
G1 F1500.000 E9.45183
G92 E0
G1 X185.304 Y58.036 F9000.000
G1 E1.20000 F1500.000
M204 S800
G1 X184.700 Y57.432 E1.22807 F2310.000
M204 S800
G1 X182.312 Y57.698 F9000.000
M204 S800
G1 X181.980 Y57.366 E1.24350 F2310.000
G1 X181.096 Y57.366 E1.27256
G1 X181.744 Y58.014 E1.30268
G1 X181.164 Y58.319 E1.32419
G1 X180.211 Y57.366 E1.36849
G1 X179.327 Y57.366 E1.39756
G1 X180.651 Y58.691 E1.45911
G1 X180.209 Y59.133 E1.47966
G1 X178.442 Y57.366 E1.56176
G1 X177.558 Y57.366 E1.59082
G1 X179.834 Y59.643 E1.69663
G1 X179.526 Y60.219 E1.71810
G1 X177.366 Y58.059 E1.81846
G1 X177.366 Y58.944 E1.84752
G1 X179.294 Y60.872 E1.93712
G1 X179.162 Y61.624 E1.96221
G1 X177.366 Y59.828 E2.04565
G1 X177.366 Y60.713 E2.07471
G1 X179.174 Y62.521 E2.15874
G1 X179.504 Y63.735 E2.20010
G1 X177.366 Y61.597 E2.29947
G1 X177.366 Y62.482 E2.32853
G1 X188.318 Y73.434 E2.83749
G1 X187.434 Y73.434 E2.86655
G1 X177.366 Y63.366 E3.33440
G1 X177.366 Y64.251 E3.36346
G1 X186.549 Y73.434 E3.79021
G1 X185.665 Y73.434 E3.81928
G1 X177.366 Y65.135 E4.20492
G1 X177.366 Y66.020 E4.23399
G1 X184.780 Y73.434 E4.57853
G1 X183.896 Y73.434 E4.60759
G1 X177.366 Y66.904 E4.91104
G1 X177.366 Y67.789 E4.94010
G1 X183.011 Y73.434 E5.20244
G1 X182.127 Y73.434 E5.23150
G1 X177.366 Y68.673 E5.45274
G1 X177.366 Y69.558 E5.48181
G1 X181.242 Y73.434 E5.66194
G1 X180.358 Y73.434 E5.69100
G1 X177.366 Y70.442 E5.83004
G1 X177.366 Y71.327 E5.85910
