; generated by Slic3r 1.1.7 on 2015-03-05 at 09:44:37

; perimeters extrusion width = 0.50mm
; infill extrusion width = 0.55mm
; solid infill extrusion width = 0.45mm
; top infill extrusion width = 0.45mm

G21 ; set units to millimeters

M301 P34 I4 D113     ; set PID nozzle
M304 P162 I17 D378 ; set PID Bed

M104 S230                 ; set extruder temp for budaschnozzle
;M104 S240                 ; set extruder temp for hex_hot_end
;M140 S95                   ; set bed temp for PET
M140 S105                 ; set bed temp for PEI (reminder ~G1 Z2 ~ M140 S(@-10 degree change) ;if -m is present in file name)

G28                            ; home
G1 Z5 F300                ; move bed down 5mm
M84                            ; disable steppers
G4 S300                     ; wait 5 mins to preheat

G28                            ; home

G90 ; use absolute coordinates
G92 E0
M82 ; use absolute distances for extrusion
M204 S800
G1 F1200.000 E-1.00000
G92 E0
G1 Z0.350 F7800.000
G1 X154.931 Y49.572 F7800.000
G1 E1.00000 F1200.000
G1 X155.635 Y48.732 E1.03601 F1260.000
G1 X156.713 Y47.787 E1.08313
G1 X157.939 Y47.044 E1.13024
G1 X158.247 Y46.901 E1.14138
G1 X159.276 Y46.525 E1.17739
G1 X160.683 Y46.246 E1.22451
G1 X161.408 Y46.194 E1.24840
G1 X177.561 Y45.768 E1.77936
G1 X215.718 Y45.770 E3.03315
G1 X232.982 Y46.216 E3.60062 F1260.000
G1 X233.321 Y46.246 E3.61180
G1 X234.399 Y46.435 E3.64777
G1 X234.726 Y46.523 E3.65890
G1 X235.756 Y46.897 E3.69492
G1 X237.013 Y47.587 E3.74203
G1 X237.291 Y47.782 E3.75317
G1 X238.131 Y48.485 E3.78918
G1 X239.076 Y49.564 E3.83630
G1 X239.270 Y49.841 E3.84742
G1 X239.819 Y50.790 E3.88344
G1 X239.962 Y51.098 E3.89460
G1 X240.338 Y52.127 E3.93059
G1 X240.425 Y52.454 E3.94173
G1 X240.616 Y53.533 E3.97773
G1 X240.671 Y54.424 E4.00705
G1 X240.667 Y152.775 E7.23879
G1 X240.573 Y154.050 E7.28079
G1 X240.504 Y154.468 E7.29471
G1 X240.281 Y155.507 E7.32961
G1 X240.162 Y155.898 E7.34305
G1 X239.799 Y156.914 E7.37850
G1 X239.636 Y157.271 E7.39139
G1 X239.135 Y158.244 E7.42737
G1 X238.935 Y158.563 E7.43972
G1 X238.301 Y159.474 E7.47620
G1 X238.071 Y159.752 E7.48806
G1 X237.312 Y160.585 E7.52508
G1 X236.186 Y161.554 E7.57390
G1 X235.917 Y161.744 E7.58472
G1 X234.940 Y162.367 E7.62279
G1 X233.599 Y163.007 E7.67162
G1 X232.186 Y163.465 E7.72045
G1 X230.734 Y163.731 E7.76895
G1 X230.471 Y163.754 E7.77761
G1 X229.605 Y163.806 E7.80610
G1 X212.571 Y164.232 E8.36600
G1 X180.406 Y164.229 E9.42292
G1 X164.137 Y163.793 E9.95771
G1 X162.900 Y163.680 E9.99851
G1 X161.450 Y163.362 E10.04730
G1 X160.051 Y162.854 E10.09620
G1 X158.734 Y162.167 E10.14501
G1 X157.515 Y161.309 E10.19399
G1 X156.425 Y160.301 E10.24279
G1 X155.409 Y159.058 E10.29554
G1 X154.685 Y157.894 E10.34060
G1 X154.044 Y156.466 E10.39201
G1 X153.626 Y155.058 E10.44027
G1 X153.398 Y153.637 E10.48758
G1 X153.341 Y152.579 E10.52239
G1 X153.330 Y81.997 E12.84163
G1 X153.365 Y53.881 E13.76551
G1 X153.395 Y53.542 E13.77669
G1 X153.584 Y52.464 E13.81266
G1 X154.046 Y51.106 E13.85978
G1 X154.736 Y49.850 E13.90689
G1 X154.888 Y49.633 E13.91556
G1 X155.435 Y49.925 F7800.000
G1 X156.070 Y49.167 E13.94805 F1260.000
G1 X157.066 Y48.292 E13.99164
G1 X158.200 Y47.602 E14.03522
G1 X158.507 Y47.459 E14.04636
G1 X159.436 Y47.120 E14.07885
G1 X160.736 Y46.860 E14.12244
G1 X161.424 Y46.810 E14.14510
G1 X177.561 Y46.384 E14.67553
G1 X215.702 Y46.386 E15.92880
G1 X232.928 Y46.829 E16.49502 F1260.000
G1 X233.267 Y46.859 E16.50619
G1 X234.240 Y47.030 E16.53864
G1 X234.567 Y47.117 E16.54977
G1 X235.496 Y47.455 E16.58226
G1 X236.660 Y48.092 E16.62585
G1 X236.938 Y48.286 E16.63699
G1 X237.695 Y48.921 E16.66947
G1 X238.571 Y49.917 E16.71306
G1 X238.765 Y50.195 E16.72419
G1 X239.261 Y51.050 E16.75668
G1 X239.404 Y51.358 E16.76784
G1 X239.743 Y52.286 E16.80030
G1 X239.830 Y52.614 E16.81144
G1 X240.003 Y53.587 E16.84392
G1 X240.055 Y54.424 E16.87147
G1 X240.052 Y152.756 E20.10256
G1 X239.962 Y153.969 E20.14253
G1 X239.900 Y154.347 E20.15513
G1 X239.687 Y155.345 E20.18866
G1 X239.579 Y155.699 E20.20081
G1 X239.231 Y156.674 E20.23483
G1 X238.604 Y157.931 E20.28099
G1 X237.818 Y159.094 E20.32711
G1 X236.884 Y160.143 E20.37327
G1 X236.654 Y160.355 E20.38354
G1 X235.820 Y161.059 E20.41940
G1 X234.644 Y161.827 E20.46557
G1 X233.377 Y162.433 E20.51170
G1 X232.042 Y162.866 E20.55782
G1 X231.802 Y162.919 E20.56590
G1 X230.671 Y163.119 E20.60363
G1 X229.590 Y163.190 E20.63924
G1 X212.571 Y163.616 E21.19863
G1 X180.422 Y163.614 E22.25501
G1 X164.177 Y163.179 E22.78901
G1 X163.002 Y163.073 E22.82777
G1 X161.631 Y162.774 E22.87387
G1 X160.309 Y162.295 E22.92007
G1 X159.065 Y161.648 E22.96617
G1 X157.912 Y160.838 E23.01244
G1 X156.881 Y159.887 E23.05854
G1 X155.921 Y158.716 E23.10831
G1 X155.234 Y157.615 E23.15094
G1 X154.627 Y156.268 E23.19949
G1 X154.230 Y154.938 E23.24510
G1 X154.012 Y153.596 E23.28977
G1 X153.957 Y152.579 E23.32326
G1 X153.945 Y81.998 E25.64249
G1 X153.979 Y53.934 E26.56461
G1 X154.008 Y53.596 E26.57579
G1 X154.179 Y52.623 E26.60823
G1 X154.604 Y51.366 E26.65183
G1 X155.241 Y50.203 E26.69541
G1 X155.392 Y49.987 E26.70408
G1 F1200.000 E25.70408
G92 E0
G1 X199.983 Y108.827 F7800.000
G1 E1.00000 F1200.000
G1 X200.366 Y109.048 E1.01451 F2100.000
G1 X200.810 Y110.024 E1.04976
G1 X198.604 Y108.750 E1.13348
G1 X197.357 Y108.750 E1.17444
G1 X200.811 Y110.744 E1.30550
G1 X200.811 Y111.464 E1.32915
G1 X196.110 Y108.750 E1.50750
G1 X194.864 Y108.750 E1.54846
G1 X197.119 Y110.052 E1.63402
G1 X195.920 Y110.080 E1.67342
G1 X193.617 Y108.750 E1.76080
G1 X192.814 Y109.006 E1.78849
G1 X195.152 Y110.356 E1.87719
G1 X194.583 Y110.747 E1.89988
G1 X192.431 Y109.505 E1.98155
G1 X192.311 Y110.156 E2.00329
G1 X194.155 Y111.220 E2.07325
G1 X193.840 Y111.758 E2.09374
G1 X192.311 Y110.875 E2.15172
G1 X192.311 Y111.595 E2.17537
G1 X193.636 Y112.360 E2.22561
G1 X193.561 Y113.036 E2.24799
G1 X192.311 Y112.315 E2.29541
G1 X192.311 Y113.034 E2.31906
G1 X193.686 Y113.828 E2.37121
G1 X194.201 Y114.845 E2.40867
G1 X192.311 Y113.754 E2.48037
G1 X192.311 Y114.474 E2.50402
G1 X200.811 Y119.381 E2.82651
G1 X200.811 Y120.101 E2.85016
G1 X192.311 Y115.194 E3.17266
G1 X192.311 Y115.913 E3.19631
G1 X200.811 Y120.821 E3.51880
G1 X200.811 Y121.540 E3.54245
G1 X192.311 Y116.633 E3.86494
G1 X192.311 Y117.353 E3.88859
G1 X200.811 Y122.260 E4.21108
G1 X200.811 Y122.980 E4.23473
G1 X192.311 Y118.073 E4.55723
G1 X192.311 Y118.792 E4.58088
G1 X200.811 Y123.699 E4.90337
G1 X200.811 Y124.419 E4.92702
G1 X192.311 Y119.512 E5.24951
G1 X192.311 Y120.232 E5.27316
G1 X200.800 Y125.133 E5.59525
G1 X200.722 Y125.807 E5.61756
G1 X192.311 Y120.951 E5.93669
G1 X192.311 Y121.671 E5.96034
G1 X200.552 Y126.429 E6.27302
G1 X200.290 Y126.997 E6.29358
G1 X192.311 Y122.391 E6.59630
G1 X192.311 Y123.111 E6.61995
G1 X199.968 Y127.531 E6.91044
G1 X199.555 Y128.012 E6.93128
G1 X192.311 Y123.830 E7.20611
G1 X192.311 Y124.550 E7.22976
G1 X199.045 Y128.438 E7.48526
G1 X198.432 Y128.803 E7.50872
G1 X192.332 Y125.281 E7.74018
G1 X192.452 Y126.071 E7.76642
G1 X197.688 Y129.094 E7.96508
G1 X196.694 Y129.240 E7.99807
G1 X192.823 Y127.005 E8.14496
G1 X194.182 Y128.509 F7800.000
G1 X194.712 Y128.815 E8.16506 F2100.000
G1 X200.811 Y118.661 F7800.000
G1 X196.143 Y115.967 E8.34216 F2100.000
G1 X197.282 Y115.904 E8.37962
G1 X200.811 Y117.942 E8.51353
G1 X200.811 Y117.222 E8.53718
G1 X198.030 Y115.616 E8.64270
G1 X198.579 Y115.213 E8.66508
G1 X200.811 Y116.502 E8.74978
G1 X200.811 Y115.782 E8.77343
G1 X198.998 Y114.736 E8.84222
G1 X199.306 Y114.194 E8.86270
G1 X200.811 Y115.063 E8.91982
G1 X200.811 Y114.343 E8.94347
G1 X199.501 Y113.587 E8.99318
G1 X199.555 Y112.898 E9.01586
G1 X200.811 Y113.623 E9.06350
G1 X200.811 Y112.904 E9.08715
G1 X199.417 Y112.099 E9.14005
G1 X198.835 Y111.043 E9.17965
G1 X200.811 Y112.184 E9.25462
G1 X198.534 Y114.655 F7800.000
G1 X198.184 Y114.995 E9.27066 F1470.000
G1 X197.849 Y115.230 E9.28410
G1 X197.442 Y115.420 E9.29885
G1 X196.969 Y115.539 E9.31489
G1 X196.561 Y115.575 E9.32833
G1 X196.114 Y115.536 E9.34308
G1 X195.644 Y115.403 E9.35911
G1 X195.274 Y115.230 E9.37256
G1 X194.906 Y114.973 E9.38731
G1 X194.566 Y114.623 E9.40334
G1 X194.331 Y114.287 E9.41679
G1 X194.142 Y113.881 E9.43153
G1 X194.022 Y113.408 E9.44757
G1 X193.986 Y113.000 E9.46102
G1 X194.025 Y112.553 E9.47576
G1 X194.158 Y112.083 E9.49180
G1 X194.331 Y111.713 E9.50524
G1 X194.589 Y111.345 E9.51999
G1 X194.939 Y111.005 E9.53603
G1 X195.274 Y110.770 E9.54947
G1 X195.680 Y110.580 E9.56422
G1 X196.114 Y110.464 E9.57897
G1 X196.601 Y110.428 E9.59501
G1 X197.008 Y110.464 E9.60845 F1470.000
G1 X197.442 Y110.580 E9.62320
G1 X197.849 Y110.770 E9.63795
G1 X198.216 Y111.027 E9.65269
G1 X198.534 Y111.345 E9.66744
G1 X198.791 Y111.713 E9.68219
G1 X198.981 Y112.119 E9.69694
G1 X199.097 Y112.553 E9.71169
G1 X199.136 Y113.000 E9.72644
G1 X199.097 Y113.447 E9.74119
G1 X198.981 Y113.881 E9.75593
G1 X198.791 Y114.288 E9.77068
G1 X198.577 Y114.594 E9.78297
G1 X201.237 Y114.655 F7800.000
G1 X201.237 Y124.982 E10.12230 F1470.000
G1 X201.196 Y125.610 E10.14298
G1 X201.077 Y126.210 E10.16308
G1 X200.880 Y126.789 E10.18317
G1 X200.610 Y127.337 E10.20327
G1 X200.270 Y127.846 E10.22336
G1 X199.867 Y128.306 E10.24345
G1 X199.407 Y128.709 E10.26355
G1 X198.899 Y129.049 E10.28364
G1 X198.350 Y129.319 E10.30374
G1 X197.764 Y129.518 E10.32410
G1 X197.177 Y129.635 E10.34376
G1 X196.566 Y129.676 E10.36387
G1 X195.938 Y129.633 E10.38455
G1 X195.355 Y129.517 E10.40409
G1 X194.772 Y129.320 E10.42430
G1 X194.224 Y129.050 E10.44440
G1 X193.715 Y128.710 E10.46450
G1 X193.255 Y128.307 E10.48460
G1 X192.852 Y127.847 E10.50469
G1 X192.512 Y127.338 E10.52479
G1 X192.242 Y126.790 E10.54489
G1 X192.045 Y126.211 E10.56496
G1 X191.926 Y125.610 E10.58509
G1 X191.885 Y124.989 E10.60554
G1 X191.885 Y110.014 E11.09761
G1 X191.912 Y109.709 E11.10767
G1 X191.987 Y109.427 E11.11726
G1 X192.111 Y109.162 E11.12686
G1 X192.278 Y108.923 E11.13645
G1 X192.485 Y108.717 E11.14605
G1 X192.724 Y108.549 E11.15564
G1 X192.988 Y108.426 E11.16523
G1 X193.270 Y108.350 E11.17483
G1 X193.575 Y108.324 E11.18489
G1 X199.547 Y108.324 E11.38111
G1 X199.852 Y108.350 E11.39117
G1 X200.134 Y108.426 E11.40077 F1470.000
G1 X200.399 Y108.549 E11.41036
G1 X200.638 Y108.717 E11.41996
G1 X200.844 Y108.923 E11.42955
G1 X201.012 Y109.162 E11.43914
G1 X201.135 Y109.427 E11.44874
G1 X201.211 Y109.709 E11.45833
G1 X201.237 Y110.014 E11.46839
G1 X201.237 Y114.580 E11.61843
G1 F1200.000 E10.61843
G92 E0
G1 X208.823 Y127.005 F7800.000
G1 E1.00000 F1200.000
G1 X212.694 Y129.240 E1.14688 F2100.000
G1 X213.688 Y129.094 E1.17988
G1 X208.452 Y126.071 E1.37854
G1 X208.332 Y125.281 E1.40478
G1 X214.432 Y128.803 E1.63624
G1 X215.045 Y128.438 E1.65970
G1 X208.311 Y124.550 E1.91520
G1 X208.311 Y123.830 E1.93885
G1 X215.555 Y128.012 E2.21368
G1 X215.968 Y127.531 E2.23451
G1 X208.311 Y123.111 E2.52501
G1 X208.311 Y122.391 E2.54866
G1 X216.290 Y126.997 E2.85138
G1 X216.552 Y126.429 E2.87194
G1 X208.311 Y121.671 E3.18462
G1 X208.311 Y120.951 E3.20827
G1 X216.722 Y125.807 E3.52739
G1 X216.800 Y125.133 E3.54971
G1 X208.311 Y120.232 E3.87179
G1 X208.311 Y119.512 E3.89544
G1 X216.811 Y124.419 E4.21794
G1 X216.811 Y123.699 E4.24159
G1 X208.311 Y118.792 E4.56408
G1 X208.311 Y118.073 E4.58773
G1 X216.811 Y122.980 E4.91022
G1 X216.811 Y122.260 E4.93387
G1 X208.311 Y117.353 E5.25637
G1 X208.311 Y116.633 E5.28002
G1 X216.811 Y121.540 E5.60251
G1 X216.811 Y120.821 E5.62616
G1 X208.311 Y115.913 E5.94865
G1 X208.311 Y115.194 E5.97230
G1 X216.811 Y120.101 E6.29480
G1 X216.811 Y119.381 E6.31844
G1 X208.311 Y114.474 E6.64094
G1 X208.311 Y113.754 E6.66459
G1 X210.201 Y114.845 E6.73628
G1 X209.686 Y113.828 E6.77375
G1 X208.311 Y113.034 E6.82590
G1 X208.311 Y112.315 E6.84955
G1 X209.561 Y113.036 E6.89697
G1 X209.636 Y112.360 E6.91934
G1 X208.311 Y111.595 E6.96959
G1 X208.311 Y110.875 E6.99324
G1 X209.840 Y111.758 E7.05122
G1 X210.155 Y111.220 E7.07170
G1 X208.311 Y110.156 E7.14167
G1 X208.431 Y109.505 E7.16341
G1 X210.583 Y110.747 E7.24508
G1 X211.152 Y110.356 E7.26777
G1 X208.814 Y109.006 E7.35647
G1 X209.617 Y108.750 E7.38416
G1 X211.920 Y110.080 E7.47153
G1 X213.119 Y110.052 E7.51093
G1 X210.864 Y108.750 E7.59650
G1 X212.110 Y108.750 E7.63746
G1 X216.811 Y111.464 E7.81581
G1 X216.811 Y110.744 E7.83946
G1 X213.357 Y108.750 E7.97051
G1 X214.604 Y108.750 E8.01148
G1 X216.810 Y110.024 E8.09520
G1 X216.366 Y109.048 E8.13045
G1 X215.983 Y108.827 E8.14496
G1 X216.811 Y112.184 F7800.000
G1 X214.835 Y111.043 E8.21993 F2100.000
G1 X215.417 Y112.099 E8.25953
G1 X216.811 Y112.904 E8.31243
G1 X216.811 Y113.623 E8.33608
G1 X215.555 Y112.898 E8.38372
G1 X215.501 Y113.587 E8.40640
G1 X216.811 Y114.343 E8.45611
G1 X216.811 Y115.063 E8.47976
G1 X215.306 Y114.194 E8.53688
G1 X214.998 Y114.736 E8.55736
G1 X216.811 Y115.782 E8.62615
G1 X216.811 Y116.502 E8.64980
G1 X214.579 Y115.213 E8.73450
G1 X214.030 Y115.616 E8.75688
G1 X216.811 Y117.222 E8.86240
G1 X216.811 Y117.942 E8.88605
G1 X213.282 Y115.904 E9.01996
G1 X212.143 Y115.967 E9.05742
G1 X216.811 Y118.661 E9.23452
G1 X210.712 Y128.815 F7800.000
G1 X210.182 Y128.509 E9.25462 F2100.000
G1 X214.981 Y113.881 F7800.000
G1 X214.791 Y114.288 E9.26937 F1470.000
G1 X214.534 Y114.655 E9.28412
G1 X214.216 Y114.973 E9.29887
G1 X213.849 Y115.230 E9.31362
G1 X213.442 Y115.420 E9.32837
G1 X212.969 Y115.539 E9.34440
G1 X212.561 Y115.575 E9.35785
G1 X212.114 Y115.536 E9.37260
G1 X211.681 Y115.420 E9.38734
G1 X211.274 Y115.230 E9.40209
G1 X210.906 Y114.973 E9.41684
G1 X210.589 Y114.655 E9.43159
G1 X210.331 Y114.287 E9.44634
G1 X210.142 Y113.881 E9.46109
G1 X210.025 Y113.447 E9.47584
G1 X209.986 Y113.000 E9.49059
G1 X210.025 Y112.553 E9.50534
G1 X210.141 Y112.119 E9.52008
G1 X210.331 Y111.713 E9.53483
G1 X210.589 Y111.345 E9.54958
G1 X210.906 Y111.027 E9.56433
G1 X211.274 Y110.770 E9.57908
G1 X211.680 Y110.580 E9.59383
G1 X212.114 Y110.464 E9.60858
G1 X212.601 Y110.428 E9.62462
G1 X213.008 Y110.464 E9.63806 F1470.000
G1 X213.442 Y110.580 E9.65280
G1 X213.849 Y110.770 E9.66755
G1 X214.216 Y111.027 E9.68230
G1 X214.534 Y111.345 E9.69705
G1 X214.791 Y111.713 E9.71180
G1 X214.981 Y112.119 E9.72655
G1 X215.097 Y112.553 E9.74130
G1 X215.136 Y113.000 E9.75605
G1 X215.097 Y113.447 E9.77080
G1 X215.000 Y113.808 E9.78308
G1 X217.237 Y113.881 F7800.000
G1 X217.237 Y124.982 E10.14786 F1470.000
G1 X217.196 Y125.610 E10.16854
G1 X217.077 Y126.210 E10.18863
G1 X216.880 Y126.789 E10.20873
G1 X216.610 Y127.337 E10.22882
G1 X216.270 Y127.846 E10.24892
G1 X215.867 Y128.306 E10.26901
G1 X215.407 Y128.709 E10.28911
G1 X214.899 Y129.049 E10.30920
G1 X214.350 Y129.319 E10.32930
G1 X213.764 Y129.518 E10.34965
G1 X213.177 Y129.635 E10.36932
G1 X212.566 Y129.676 E10.38943
G1 X211.938 Y129.633 E10.41011
G1 X211.355 Y129.517 E10.42965
G1 X210.772 Y129.320 E10.44986
G1 X210.224 Y129.050 E10.46996
G1 X209.715 Y128.710 E10.49006
G1 X209.255 Y128.307 E10.51016
G1 X208.852 Y127.847 E10.53025
G1 X208.512 Y127.338 E10.55035
G1 X208.242 Y126.790 E10.57045
G1 X208.045 Y126.211 E10.59052
G1 X207.926 Y125.610 E10.61065
G1 X207.885 Y124.989 E10.63110
G1 X207.885 Y110.014 E11.12317
G1 X207.912 Y109.709 E11.13323
G1 X207.987 Y109.427 E11.14282
G1 X208.111 Y109.162 E11.15242
G1 X208.278 Y108.923 E11.16201
G1 X208.485 Y108.717 E11.17161
G1 X208.724 Y108.549 E11.18120
G1 X208.988 Y108.426 E11.19079
G1 X209.270 Y108.350 E11.20039
G1 X209.575 Y108.324 E11.21045
G1 X215.547 Y108.324 E11.40667
G1 X215.852 Y108.350 E11.41673
G1 X216.134 Y108.426 E11.42633 F1470.000
G1 X216.399 Y108.549 E11.43592
G1 X216.638 Y108.717 E11.44551
G1 X216.844 Y108.923 E11.45511
G1 X217.012 Y109.162 E11.46470
G1 X217.135 Y109.427 E11.47430
G1 X217.211 Y109.709 E11.48389
G1 X217.237 Y110.014 E11.49395
G1 X217.237 Y113.806 E11.61854
G1 F1200.000 E10.61854
G92 E0
G1 X224.823 Y127.005 F7800.000
G1 E1.00000 F1200.000
G1 X228.694 Y129.240 E1.14688 F2100.000
G1 X229.688 Y129.094 E1.17988
G1 X224.452 Y126.071 E1.37854
G1 X224.332 Y125.281 E1.40478
G1 X230.432 Y128.803 E1.63624
G1 X231.045 Y128.438 E1.65970
G1 X224.311 Y124.550 E1.91520
G1 X224.311 Y123.830 E1.93885
G1 X231.555 Y128.012 E2.21368
G1 X231.968 Y127.531 E2.23451
