; generated by Slic3r 1.1.4 on 2014-07-17 at 18:13:58

; perimeters extrusion width = 0.50mm
; infill extrusion width = 0.60mm
; solid infill extrusion width = 0.60mm
; top infill extrusion width = 0.43mm

G21 ; set units to millimeters
G28 ; home all axes
G90 ; use absolute coordinates
G92 E0
M82 ; use absolute distances for extrusion
M204 S2000
G1 F1500.000 E-1.50000
G92 E0
G1 Z0.350 F9600.000
G1 X93.656 Y105.168 F9600.000
G1 E1.50000 F1500.000
G1 X113.525 Y89.474 E2.22852 F2700.000
G1 X115.606 Y88.337 E2.29675
G1 X117.912 Y87.951 E2.36405
G1 X166.083 Y87.951 E3.75008
G1 X168.421 Y88.348 E3.81831
G1 X170.496 Y89.495 E3.88653
G1 X171.412 Y90.370 E3.92300
G1 X191.417 Y113.254 E4.79755
G1 X192.656 Y115.275 E4.86577
G1 X193.166 Y117.912 E4.94306
G1 X193.166 Y185.734 E6.89449
G1 X192.769 Y188.071 E6.96272
G1 X191.622 Y190.147 E7.03095
G1 X189.854 Y191.727 E7.09918
G1 X187.663 Y192.634 E7.16741
G1 X186.088 Y192.812 E7.21303
G1 X98.044 Y192.812 E9.74634
G1 X95.706 Y192.415 E9.81457
G1 X93.631 Y191.268 E9.88280
G1 X92.050 Y189.500 E9.95102
G1 X91.143 Y187.309 E10.01925
G1 X90.965 Y185.734 E10.06488
G1 X90.965 Y110.723 E12.22317
G1 X91.362 Y108.385 E12.29140
G1 X92.509 Y106.310 E12.35962
G1 X93.603 Y105.221 E12.40403
G1 X93.990 Y105.592 F9600.000
G1 X113.859 Y89.898 E13.13255 F2700.000
G1 X115.866 Y88.818 E13.19811
G1 X117.912 Y88.490 E13.25775
G1 X166.083 Y88.490 E14.64377
G1 X168.327 Y88.887 E14.70933
G1 X171.006 Y90.725 E14.80284
G1 X191.011 Y113.609 E15.67738
G1 X192.189 Y115.559 E15.74294
G1 X192.627 Y117.912 E15.81182
G1 X192.627 Y185.734 E17.76325
G1 X192.230 Y187.977 E17.82881
G1 X191.087 Y189.948 E17.89437
G1 X189.338 Y191.408 E17.95993
G1 X186.088 Y192.273 E18.05670
G1 X98.044 Y192.273 E20.59000
G1 X95.800 Y191.876 E20.65556
G1 X93.829 Y190.733 E20.72112
G1 X92.369 Y188.984 E20.78668
G1 X91.504 Y185.734 E20.88345
G1 X91.504 Y110.723 E23.04174
G1 X91.901 Y108.480 E23.10730
G1 X93.044 Y106.508 E23.17286
G1 X93.936 Y105.644 E23.20861
G1 F1500.000 E21.70861
G92 E0
G1 X163.495 Y181.995 F9600.000
G1 E1.50000 F1500.000
G1 X162.911 Y182.443 E1.52119 F4500.000
G1 X162.230 Y182.725 E1.54238
G1 X161.553 Y182.814 E1.56202
G1 X153.447 Y182.814 E1.79528
G1 X152.770 Y182.725 E1.81493
G1 X152.089 Y182.443 E1.83612
G1 X151.505 Y181.995 E1.85731
G1 X151.057 Y181.411 E1.87850
G1 X150.775 Y180.730 E1.89969
G1 X150.679 Y180.000 E1.92088
G1 X150.775 Y179.270 E1.94208
G1 X151.057 Y178.589 E1.96327
G1 X151.505 Y178.005 E1.98446
G1 X152.089 Y177.557 E2.00565
G1 X152.770 Y177.275 E2.02684
G1 X153.447 Y177.186 E2.04648
G1 X161.553 Y177.186 E2.27974
G1 X162.230 Y177.275 E2.29939
G1 X162.911 Y177.557 E2.32058
G1 X163.495 Y178.005 E2.34177
G1 X163.943 Y178.589 E2.36296
G1 X164.225 Y179.270 E2.38415
G1 X164.321 Y180.000 E2.40534
G1 X164.225 Y180.730 E2.42654
G1 X163.943 Y181.411 E2.44773
G1 X163.541 Y181.935 E2.46676
G1 X163.110 Y181.610 F9600.000
G1 X162.639 Y181.972 E2.48387 F3375.000
G1 X162.089 Y182.200 E2.50097
G1 X161.518 Y182.275 E2.51756
G1 X153.482 Y182.275 E2.74878
G1 X152.911 Y182.200 E2.76536
G1 X152.361 Y181.972 E2.78247
G1 X151.890 Y181.610 E2.79957
G1 X151.528 Y181.139 E2.81668
G1 X151.300 Y180.589 E2.83379
G1 X151.223 Y180.000 E2.85089
G1 X151.300 Y179.411 E2.86800
G1 X151.528 Y178.861 E2.88511
G1 X151.860 Y178.428 E2.90082
G1 X152.361 Y178.028 E2.91927
G1 X152.911 Y177.800 E2.93638
G1 X153.482 Y177.725 E2.95296
G1 X161.518 Y177.725 E3.18418
G1 X162.089 Y177.800 E3.20077
G1 X162.639 Y178.028 E3.21787
G1 X163.110 Y178.390 E3.23498
G1 X163.472 Y178.861 E3.25209
G1 X163.700 Y179.411 E3.26919
G1 X163.777 Y180.000 E3.28630
G1 X163.700 Y180.589 E3.30340
G1 X163.472 Y181.139 E3.32051
G1 X163.156 Y181.551 E3.33546
G1 X163.219 Y182.099 F9600.000
G1 F1500.000 E1.83546
G92 E0
G1 X173.840 Y177.297 F9600.000
G1 E1.50000 F1500.000
G1 X173.606 Y176.392 E1.52689 F4500.000
G1 X173.609 Y175.572 E1.55049
G1 X173.810 Y174.777 E1.57410
G1 X174.232 Y173.991 E1.59977
G1 X174.307 Y173.910 E1.60295
G1 X174.820 Y173.364 E1.62450
G1 X175.563 Y172.901 E1.64970
G1 X176.359 Y172.640 E1.67380
G1 X177.130 Y172.591 E1.69602
G1 X177.240 Y172.591 E1.69919
G1 X178.063 Y172.750 E1.72331
G1 X178.816 Y173.104 E1.74727
G1 X179.463 Y173.633 E1.77131
G1 X180.016 Y174.397 E1.79845
G1 X180.317 Y175.178 E1.82251
G1 X180.408 Y175.899 E1.84345
G1 X180.419 Y176.000 E1.84636
G1 X180.313 Y176.851 E1.87104
G1 X179.973 Y177.682 E1.89688
G1 X179.551 Y178.262 E1.91751
G1 X179.424 Y178.399 E1.92289
G1 X178.871 Y178.857 E1.94356
G1 X178.777 Y178.915 E1.94671
G1 X178.020 Y179.261 E1.97067
G1 X177.307 Y179.397 E1.99154
G1 X177.198 Y179.413 E1.99472
G1 X176.372 Y179.361 E2.01854
G1 X176.266 Y179.330 E2.02172
G1 X175.574 Y179.105 E2.04266
G1 X174.784 Y178.599 E2.06965
G1 X174.232 Y178.004 E2.09301
G1 X173.876 Y177.363 E2.11410
G1 X174.332 Y177.073 F9600.000
G1 X174.145 Y176.347 E2.13568 F3375.000
G1 X174.146 Y175.640 E2.15603
G1 X174.321 Y174.954 E2.17639
G1 X174.701 Y174.278 E2.19869
G1 X175.166 Y173.783 E2.21826
G1 X175.782 Y173.395 E2.23920
G1 X176.461 Y173.174 E2.25974
G1 X177.148 Y173.130 E2.27954
G1 X177.891 Y173.265 E2.30128
G1 X178.536 Y173.568 E2.32177
G1 X179.086 Y174.021 E2.34228
G1 X179.528 Y174.631 E2.36397
G1 X179.788 Y175.295 E2.38448
G1 X179.872 Y175.961 E2.40381
G1 X179.787 Y176.716 E2.42566
G1 X179.512 Y177.399 E2.44685
G1 X179.120 Y177.939 E2.46606
G1 X178.521 Y178.440 E2.48852
G1 X177.875 Y178.739 E2.50899
G1 X177.216 Y178.865 E2.52829
G1 X176.425 Y178.815 E2.55112
G1 X175.786 Y178.607 E2.57043
G1 X175.153 Y178.203 E2.59205
G1 X174.672 Y177.689 E2.61231
G1 X174.369 Y177.139 E2.63038
G1 X173.841 Y176.980 F9600.000
G1 F1500.000 E1.13038
G92 E0
G1 X162.911 Y151.443 F9600.000
G1 E1.50000 F1500.000
G1 X162.230 Y151.725 E1.52119 F4500.000
G1 X161.553 Y151.814 E1.54083
G1 X153.447 Y151.814 E1.77409
G1 X152.770 Y151.725 E1.79373
G1 X152.089 Y151.443 E1.81493
G1 X151.505 Y150.995 E1.83612
G1 X151.057 Y150.411 E1.85731
G1 X150.775 Y149.730 E1.87850
G1 X150.679 Y149.000 E1.89969
G1 X150.775 Y148.270 E1.92089
G1 X151.057 Y147.589 E1.94208
G1 X151.505 Y147.005 E1.96327
G1 X152.089 Y146.557 E1.98446
G1 X152.770 Y146.275 E2.00565
G1 X153.447 Y146.186 E2.02529
G1 X161.553 Y146.186 E2.25855
G1 X162.230 Y146.275 E2.27820
G1 X162.911 Y146.557 E2.29939
G1 X163.495 Y147.005 E2.32058
G1 X163.943 Y147.589 E2.34177
G1 X164.225 Y148.270 E2.36296
G1 X164.321 Y149.000 E2.38415
G1 X164.225 Y149.730 E2.40534
G1 X163.943 Y150.411 E2.42654
G1 X163.495 Y150.995 E2.44773
G1 X162.970 Y151.398 E2.46676
G1 X162.639 Y150.972 F9600.000
G1 X162.089 Y151.200 E2.48387 F3375.000
G1 X161.518 Y151.275 E2.50045
G1 X153.482 Y151.275 E2.73167
G1 X152.911 Y151.200 E2.74826
G1 X152.361 Y150.972 E2.76536
G1 X151.890 Y150.610 E2.78247
G1 X151.528 Y150.139 E2.79957
G1 X151.294 Y149.541 E2.81803
G1 X151.223 Y149.000 E2.83374
G1 X151.300 Y148.411 E2.85085
G1 X151.528 Y147.861 E2.86795
G1 X151.890 Y147.390 E2.88506
G1 X152.361 Y147.028 E2.90217
G1 X152.911 Y146.800 E2.91927
G1 X153.482 Y146.725 E2.93586
G1 X161.518 Y146.725 E3.16708
G1 X162.089 Y146.800 E3.18366
G1 X162.639 Y147.028 E3.20077
G1 X163.110 Y147.390 E3.21787
G1 X163.472 Y147.861 E3.23498
G1 X163.700 Y148.411 E3.25209
G1 X163.777 Y149.000 E3.26919
G1 X163.700 Y149.589 E3.28630
G1 X163.472 Y150.139 E3.30341
G1 X163.110 Y150.610 E3.32051
G1 X162.698 Y150.927 E3.33546
G1 X162.617 Y151.472 F9600.000
G1 F1500.000 E1.83546
G92 E0
G1 X156.644 Y155.694 F9600.000
G1 E1.50000 F1500.000
G1 X157.176 Y156.380 E1.52497 F4500.000
G1 X157.664 Y157.098 E1.54994
G1 X158.106 Y157.845 E1.57491
G1 X158.480 Y158.578 E1.59860
G1 X158.845 Y159.414 E1.62485
G1 X159.139 Y160.231 E1.64982
G1 X159.381 Y161.064 E1.67479
G1 X159.570 Y161.911 E1.69977
G1 X159.706 Y162.768 E1.72474
G1 X159.787 Y163.633 E1.74971
G1 X159.815 Y164.500 E1.77468
G1 X159.789 Y165.323 E1.79837
G1 X159.706 Y166.231 E1.82462
G1 X159.570 Y167.089 E1.84959
G1 X159.381 Y167.936 E1.87456
G1 X159.139 Y168.769 E1.89954
G1 X158.860 Y169.544 E1.92322
G1 X158.500 Y170.382 E1.94947
G1 X158.106 Y171.155 E1.97445
G1 X157.664 Y171.902 E1.99941
G1 X157.176 Y172.620 E2.02439
G1 X156.672 Y173.271 E2.04807
G1 X156.071 Y173.957 E2.07432
G1 X155.457 Y174.571 E2.09930
G1 X154.806 Y175.144 E2.12427
G1 X154.120 Y175.676 E2.14924
G1 X153.402 Y176.164 E2.17421
G1 X152.655 Y176.606 E2.19918
G1 X151.882 Y177.000 E2.22415
G1 X151.044 Y177.360 E2.25040
G1 X150.269 Y177.639 E2.27409
G1 X149.436 Y177.881 E2.29906
G1 X148.589 Y178.070 E2.32403
G1 X147.732 Y178.206 E2.34900
G1 X146.867 Y178.287 E2.37398
G1 X146.013 Y178.314 E2.39858
G1 X137.987 Y178.314 E2.62950
G1 X137.133 Y178.287 E2.65411
G1 X136.269 Y178.206 E2.67908
G1 X135.455 Y178.077 E2.70276
G1 X134.564 Y177.881 E2.72902
G1 X133.731 Y177.638 E2.75399
G1 X132.956 Y177.360 E2.77767
G1 X132.118 Y177.000 E2.80393
G1 X131.345 Y176.606 E2.82890
G1 X130.636 Y176.187 E2.85259
G1 X129.880 Y175.676 E2.87884
G1 X129.161 Y175.115 E2.90509
G1 X128.543 Y174.570 E2.92878
G1 X127.930 Y173.957 E2.95375
G1 X127.356 Y173.306 E2.97872
G1 X126.824 Y172.620 E3.00369
G1 X126.313 Y171.864 E3.02994
G1 X125.894 Y171.155 E3.05363
G1 X125.500 Y170.382 E3.07860
G1 X125.155 Y169.586 E3.10357
G1 X124.861 Y168.769 E3.12854
G1 X124.619 Y167.936 E3.15351
G1 X124.430 Y167.089 E3.17848
G1 X124.294 Y166.231 E3.20346
G1 X124.213 Y165.367 E3.22843
G1 X124.185 Y164.500 E3.25340
G1 X124.213 Y163.633 E3.27837
G1 X124.294 Y162.768 E3.30334
G1 X124.430 Y161.911 E3.32831
G1 X124.619 Y161.064 E3.35329
G1 X124.861 Y160.231 E3.37825
G1 X125.155 Y159.414 E3.40323
G1 X125.520 Y158.578 E3.42948
G1 X125.894 Y157.845 E3.45317
G1 X126.336 Y157.098 E3.47814
G1 X126.824 Y156.380 E3.50311
G1 X127.328 Y155.729 E3.52679
G1 X127.930 Y155.043 E3.55305
G1 X128.543 Y154.430 E3.57802
G1 X129.194 Y153.856 E3.60299
G1 X129.880 Y153.324 E3.62796
G1 X130.598 Y152.836 E3.65293
G1 X131.345 Y152.394 E3.67790
G1 X132.118 Y152.000 E3.70287
G1 X132.956 Y151.640 E3.72913
G1 X133.731 Y151.361 E3.75281
G1 X134.564 Y151.119 E3.77778
G1 X135.411 Y150.930 E3.80275
G1 X136.269 Y150.794 E3.82773
G1 X137.133 Y150.713 E3.85270
G1 X137.987 Y150.686 E3.87730
G1 X146.013 Y150.686 E4.10822
G1 X146.867 Y150.713 E4.13283
G1 X147.731 Y150.794 E4.15780
G1 X148.589 Y150.930 E4.18277
G1 X149.436 Y151.119 E4.20774
G1 X150.269 Y151.362 E4.23271
G1 X151.086 Y151.655 E4.25768
G1 X151.882 Y152.000 E4.28265
G1 X152.655 Y152.394 E4.30762
G1 X153.402 Y152.836 E4.33260
G1 X154.120 Y153.324 E4.35757
G1 X154.806 Y153.856 E4.38254
G1 X155.457 Y154.430 E4.40751
G1 X156.071 Y155.043 E4.43248
G1 X156.595 Y155.638 E4.45529
G1 X156.229 Y156.038 F9600.000
G1 X156.740 Y156.697 E4.47929 F3375.000
G1 X157.209 Y157.387 E4.50328
G1 X157.633 Y158.105 E4.52728
G1 X157.999 Y158.823 E4.55048
G1 X158.343 Y159.613 E4.57527
G1 X158.625 Y160.398 E4.59926
G1 X158.858 Y161.199 E4.62326
G1 X159.040 Y162.012 E4.64726
G1 X159.170 Y162.836 E4.67125
G1 X159.249 Y163.666 E4.69525
G1 X159.275 Y164.500 E4.71924
G1 X159.250 Y165.306 E4.74244
G1 X159.170 Y166.164 E4.76724
G1 X159.040 Y166.988 E4.79123
G1 X158.858 Y167.801 E4.81523
G1 X158.625 Y168.602 E4.83922
G1 X158.352 Y169.361 E4.86242
G1 X158.012 Y170.152 E4.88721
G1 X157.633 Y170.895 E4.91121
G1 X157.209 Y171.613 E4.93520
G1 X156.740 Y172.303 E4.95920
G1 X156.246 Y172.940 E4.98240
G1 X155.677 Y173.587 E5.00719
G1 X155.087 Y174.177 E5.03119
G1 X154.462 Y174.729 E5.05518
G1 X153.803 Y175.240 E5.07918
G1 X153.113 Y175.709 E5.10317
G1 X152.395 Y176.133 E5.12717
G1 X151.652 Y176.512 E5.15117
G1 X150.861 Y176.852 E5.17596
G1 X150.102 Y177.125 E5.19916
G1 X149.301 Y177.358 E5.22315
G1 X148.488 Y177.540 E5.24715
G1 X147.664 Y177.670 E5.27114
G1 X146.834 Y177.749 E5.29514
G1 X146.004 Y177.775 E5.31901
G1 X137.996 Y177.775 E5.54944
G1 X137.166 Y177.749 E5.57332
G1 X136.336 Y177.670 E5.59731
G1 X135.512 Y177.540 E5.62131
G1 X134.726 Y177.364 E5.64451
G1 X133.898 Y177.125 E5.66930
G1 X133.113 Y176.843 E5.69329
G1 X132.348 Y176.512 E5.71729
G1 X131.605 Y176.133 E5.74129
G1 X130.887 Y175.709 E5.76528
G1 X130.197 Y175.240 E5.78928
G1 X129.538 Y174.729 E5.81327
G1 X128.913 Y174.177 E5.83727
G1 X128.323 Y173.587 E5.86127
G1 X127.771 Y172.962 E5.88526
G1 X127.260 Y172.303 E5.90926
G1 X126.791 Y171.613 E5.93325
G1 X126.367 Y170.895 E5.95725
G1 X125.988 Y170.152 E5.98124
G1 X125.657 Y169.387 E6.00524
G1 X125.367 Y168.576 E6.03003
G1 X125.142 Y167.801 E6.05323
G1 X124.960 Y166.988 E6.07722
G1 X124.830 Y166.164 E6.10122
G1 X124.751 Y165.334 E6.12522
G1 X124.725 Y164.500 E6.14921
G1 X124.751 Y163.666 E6.17321
G1 X124.830 Y162.836 E6.19721
G1 X124.960 Y162.012 E6.22120
G1 X125.142 Y161.199 E6.24520
G1 X125.375 Y160.398 E6.26919
G1 X125.657 Y159.613 E6.29319
G1 X126.001 Y158.823 E6.31798
G1 X126.367 Y158.105 E6.34118
G1 X126.791 Y157.387 E6.36517
G1 X127.260 Y156.697 E6.38917
G1 X127.771 Y156.038 E6.41317
G1 X128.323 Y155.413 E6.43716
G1 X128.913 Y154.823 E6.46116
G1 X129.560 Y154.254 E6.48595
G1 X130.197 Y153.760 E6.50915
G1 X130.887 Y153.291 E6.53314
G1 X131.605 Y152.867 E6.55714
G1 X132.348 Y152.488 E6.58114
G1 X133.139 Y152.148 E6.60593
G1 X133.898 Y151.875 E6.62912
G1 X134.699 Y151.642 E6.65312
G1 X135.512 Y151.460 E6.67712
G1 X136.336 Y151.330 E6.70111
G1 X137.166 Y151.251 E6.72511
G1 X137.996 Y151.225 E6.74898
G1 X146.004 Y151.225 E6.97941
G1 X146.834 Y151.251 E7.00329
G1 X147.664 Y151.330 E7.02728
G1 X148.488 Y151.460 E7.05128
G1 X149.301 Y151.642 E7.07527
G1 X150.102 Y151.875 E7.09927
G1 X150.887 Y152.157 E7.12327
G1 X151.652 Y152.488 E7.14726
G1 X152.395 Y152.867 E7.17126
G1 X153.113 Y153.291 E7.19525
G1 X153.803 Y153.760 E7.21925
G1 X154.462 Y154.271 E7.24324
G1 X155.087 Y154.823 E7.26724
G1 X155.677 Y155.413 E7.29124
G1 X156.179 Y155.982 E7.31307
G1 X156.723 Y155.960 F9600.000
G1 F1500.000 E5.81307
G92 E0
G1 X133.225 Y149.730 F9600.000
G1 E1.50000 F1500.000
G1 X132.943 Y150.411 E1.52119 F4500.000
G1 X132.495 Y150.995 E1.54238
G1 X131.911 Y151.443 E1.56357
G1 X131.230 Y151.725 E1.58477
G1 X130.553 Y151.814 E1.60441
G1 X122.447 Y151.814 E1.83767
G1 X121.770 Y151.725 E1.85731
G1 X121.089 Y151.443 E1.87850
G1 X120.505 Y150.995 E1.89969
G1 X120.057 Y150.411 E1.92088
G1 X119.775 Y149.730 E1.94207
G1 X119.679 Y149.000 E1.96326
G1 X119.775 Y148.270 E1.98446
G1 X120.057 Y147.589 E2.00565
G1 X120.505 Y147.005 E2.02684
G1 X121.089 Y146.557 E2.04803
G1 X121.770 Y146.275 E2.06922
G1 X122.447 Y146.186 E2.08887
G1 X130.553 Y146.186 E2.32213
G1 X131.230 Y146.275 E2.34177
G1 X131.911 Y146.557 E2.36296
G1 X132.495 Y147.005 E2.38415
G1 X132.943 Y147.589 E2.40534
G1 X133.225 Y148.270 E2.42653
G1 X133.321 Y149.000 E2.44773
G1 X133.235 Y149.656 E2.46676
G1 X132.700 Y149.589 F9600.000
G1 X132.472 Y150.139 E2.48387 F3375.000
G1 X132.110 Y150.610 E2.50097
G1 X131.639 Y150.972 E2.51808
G1 X131.089 Y151.200 E2.53518
G1 X130.518 Y151.275 E2.55177
G1 X122.482 Y151.275 E2.78299
G1 X121.911 Y151.200 E2.79957
G1 X121.361 Y150.972 E2.81668
G1 X120.890 Y150.610 E2.83379
G1 X120.528 Y150.139 E2.85089
G1 X120.300 Y149.589 E2.86800
G1 X120.223 Y149.000 E2.88510
G1 X120.294 Y148.459 E2.90082
G1 X120.528 Y147.861 E2.91927
G1 X120.890 Y147.390 E2.93638
G1 X121.361 Y147.028 E2.95348
G1 X121.911 Y146.800 E2.97059
G1 X122.482 Y146.725 E2.98717
G1 X130.518 Y146.725 E3.21840
G1 X131.089 Y146.800 E3.23498
G1 X131.639 Y147.028 E3.25209
G1 X132.110 Y147.390 E3.26919
G1 X132.472 Y147.861 E3.28630
G1 X132.700 Y148.411 E3.30340
G1 X132.777 Y149.000 E3.32051
G1 X132.710 Y149.515 E3.33546
G1 X133.038 Y149.958 F9600.000
G1 F1500.000 E1.83546
G92 E0
G1 X109.962 Y164.302 F9600.000
G1 E1.50000 F1500.000
G1 X110.016 Y164.398 E1.50316 F4500.000
G1 X110.317 Y165.177 E1.52721
G1 X110.419 Y166.000 E1.55106
G1 X110.313 Y166.851 E1.57574
G1 X109.973 Y167.682 E1.60158
G1 X109.497 Y168.334 E1.62480
G1 X108.871 Y168.857 E1.64828
G1 X108.020 Y169.261 E1.67537
G1 X107.198 Y169.413 E1.69941
G1 X106.372 Y169.361 E1.72323
G1 X105.574 Y169.105 E1.74736
G1 X105.477 Y169.053 E1.75051
G1 X104.784 Y168.599 E1.77435
G1 X104.232 Y168.004 E1.79772
G1 X103.840 Y167.297 E1.82097
G1 X103.624 Y166.500 E1.84474
G1 X103.606 Y166.392 E1.84788
G1 X103.609 Y165.572 E1.87146
G1 X103.810 Y164.777 E1.89508
G1 X103.854 Y164.677 E1.89821
