; generated by Slic3r 1.1.4 on 2014-07-14 at 16:45:00

; perimeters extrusion width = 0.50mm
; infill extrusion width = 0.60mm
; solid infill extrusion width = 0.60mm
; top infill extrusion width = 0.43mm

G21 ; set units to millimeters
G28 ; home all axes
G90 ; use absolute coordinates
G92 E0
M82 ; use absolute distances for extrusion
M204 S2000
G1 F1500.000 E-1.50000
G92 E0
G1 Z0.350 F9600.000
G1 X93.656 Y129.668 F9600.000
G1 E1.50000 F1500.000
G1 X113.525 Y113.974 E2.22852 F2700.000
G1 X115.606 Y112.837 E2.29675
G1 X117.912 Y112.451 E2.36405
G1 X166.083 Y112.451 E3.75008
G1 X168.421 Y112.848 E3.81831
G1 X170.496 Y113.995 E3.88653
G1 X171.412 Y114.870 E3.92300
G1 X191.417 Y137.754 E4.79755
G1 X192.656 Y139.775 E4.86577
G1 X193.166 Y142.412 E4.94306
G1 X193.166 Y161.234 E5.48461
G1 X192.769 Y163.571 E5.55283
G1 X191.622 Y165.647 E5.62106
G1 X189.854 Y167.227 E5.68929
G1 X187.663 Y168.134 E5.75752
G1 X186.088 Y168.312 E5.80314
G1 X98.044 Y168.312 E8.33645
G1 X95.706 Y167.915 E8.40468
G1 X93.631 Y166.768 E8.47291
G1 X92.050 Y165.000 E8.54114
G1 X91.143 Y162.809 E8.60936
G1 X90.965 Y161.234 E8.65499
G1 X90.965 Y135.223 E9.40339
G1 X91.362 Y132.885 E9.47162
G1 X92.509 Y130.810 E9.53985
G1 X93.603 Y129.721 E9.58425
G1 X93.990 Y130.092 F9600.000
G1 X113.859 Y114.398 E10.31277 F2700.000
G1 X115.866 Y113.318 E10.37833
G1 X117.912 Y112.990 E10.43797
G1 X166.083 Y112.990 E11.82400
G1 X168.327 Y113.387 E11.88956
G1 X171.006 Y115.225 E11.98306
G1 X191.011 Y138.109 E12.85761
G1 X192.189 Y140.059 E12.92317
G1 X192.627 Y142.412 E12.99205
G1 X192.627 Y161.234 E13.53359
G1 X192.230 Y163.477 E13.59915
G1 X191.087 Y165.448 E13.66471
G1 X189.338 Y166.908 E13.73027
G1 X186.088 Y167.773 E13.82703
G1 X98.044 Y167.773 E16.36034
G1 X95.800 Y167.376 E16.42590
G1 X93.829 Y166.233 E16.49146
G1 X92.369 Y164.484 E16.55702
G1 X91.504 Y161.234 E16.65379
G1 X91.504 Y135.223 E17.40219
G1 X91.901 Y132.980 E17.46775
G1 X93.044 Y131.008 E17.53331
G1 X93.936 Y130.144 E17.56906
G1 F1500.000 E16.06906
G92 E0
G1 X162.911 Y157.943 F9600.000
G1 E1.50000 F1500.000
G1 X162.230 Y158.225 E1.52119 F4500.000
G1 X161.553 Y158.314 E1.54083
G1 X153.447 Y158.314 E1.77409
G1 X152.770 Y158.225 E1.79373
G1 X152.089 Y157.943 E1.81493
G1 X151.505 Y157.495 E1.83612
G1 X151.057 Y156.911 E1.85731
G1 X150.775 Y156.230 E1.87850
G1 X150.679 Y155.500 E1.89969
G1 X150.775 Y154.770 E1.92088
G1 X151.057 Y154.089 E1.94208
G1 X151.505 Y153.505 E1.96327
G1 X152.089 Y153.057 E1.98446
G1 X152.770 Y152.775 E2.00565
G1 X153.447 Y152.686 E2.02529
G1 X161.553 Y152.686 E2.25855
G1 X162.230 Y152.775 E2.27819
G1 X162.911 Y153.057 E2.29939
G1 X163.495 Y153.505 E2.32058
G1 X163.943 Y154.089 E2.34177
G1 X164.225 Y154.770 E2.36296
G1 X164.321 Y155.500 E2.38415
G1 X164.225 Y156.230 E2.40534
G1 X163.943 Y156.911 E2.42654
G1 X163.495 Y157.495 E2.44773
G1 X162.970 Y157.898 E2.46676
G1 X162.639 Y157.472 F9600.000
G1 X162.089 Y157.700 E2.48387 F3375.000
G1 X161.518 Y157.775 E2.50045
G1 X153.482 Y157.775 E2.73167
G1 X152.911 Y157.700 E2.74826
G1 X152.361 Y157.472 E2.76536
G1 X151.890 Y157.110 E2.78247
G1 X151.528 Y156.639 E2.79957
G1 X151.300 Y156.089 E2.81668
G1 X151.223 Y155.500 E2.83379
G1 X151.300 Y154.911 E2.85089
G1 X151.528 Y154.361 E2.86800
G1 X151.860 Y153.928 E2.88371
G1 X152.361 Y153.528 E2.90217
G1 X152.911 Y153.300 E2.91927
G1 X153.482 Y153.225 E2.93586
G1 X161.518 Y153.225 E3.16708
G1 X162.089 Y153.300 E3.18366
G1 X162.639 Y153.528 E3.20077
G1 X163.110 Y153.890 E3.21787
G1 X163.472 Y154.361 E3.23498
G1 X163.700 Y154.911 E3.25209
G1 X163.777 Y155.500 E3.26919
G1 X163.700 Y156.089 E3.28630
G1 X163.472 Y156.639 E3.30341
G1 X163.110 Y157.110 E3.32051
G1 X162.698 Y157.427 E3.33546
G1 X162.617 Y157.972 F9600.000
G1 F1500.000 E1.83546
G92 E0
G1 X173.840 Y152.797 F9600.000
G1 E1.50000 F1500.000
G1 X173.606 Y151.892 E1.52689 F4500.000
G1 X173.609 Y151.072 E1.55049
G1 X173.810 Y150.277 E1.57410
G1 X174.232 Y149.491 E1.59977
G1 X174.307 Y149.410 E1.60295
G1 X174.820 Y148.864 E1.62450
G1 X175.563 Y148.401 E1.64970
G1 X176.359 Y148.140 E1.67380
G1 X177.130 Y148.091 E1.69602
G1 X177.240 Y148.091 E1.69919
G1 X178.063 Y148.250 E1.72331
G1 X178.816 Y148.604 E1.74727
G1 X179.463 Y149.133 E1.77131
G1 X180.016 Y149.897 E1.79845
G1 X180.317 Y150.678 E1.82251
G1 X180.408 Y151.399 E1.84345
G1 X180.419 Y151.500 E1.84636
G1 X180.313 Y152.351 E1.87104
G1 X179.973 Y153.182 E1.89688
G1 X179.551 Y153.762 E1.91751
G1 X179.424 Y153.899 E1.92289
G1 X178.871 Y154.357 E1.94356
G1 X178.777 Y154.415 E1.94671
G1 X178.020 Y154.761 E1.97067
G1 X177.307 Y154.897 E1.99154
G1 X177.198 Y154.913 E1.99472
G1 X176.372 Y154.861 E2.01854
G1 X176.266 Y154.830 E2.02172
G1 X175.574 Y154.605 E2.04266
G1 X174.784 Y154.099 E2.06965
G1 X174.232 Y153.504 E2.09301
G1 X173.876 Y152.863 E2.11410
G1 X174.332 Y152.573 F9600.000
G1 X174.145 Y151.847 E2.13568 F3375.000
G1 X174.146 Y151.140 E2.15603
G1 X174.321 Y150.454 E2.17639
G1 X174.701 Y149.778 E2.19869
G1 X175.166 Y149.283 E2.21826
G1 X175.782 Y148.895 E2.23920
G1 X176.461 Y148.674 E2.25974
G1 X177.148 Y148.630 E2.27954
G1 X177.891 Y148.765 E2.30128
G1 X178.536 Y149.068 E2.32177
G1 X179.086 Y149.521 E2.34228
G1 X179.528 Y150.131 E2.36397
G1 X179.788 Y150.795 E2.38448
G1 X179.872 Y151.461 E2.40381
G1 X179.787 Y152.216 E2.42566
G1 X179.512 Y152.899 E2.44685
G1 X179.120 Y153.439 E2.46606
G1 X178.521 Y153.940 E2.48852
G1 X177.875 Y154.239 E2.50899
G1 X177.216 Y154.365 E2.52829
G1 X176.425 Y154.315 E2.55112
G1 X175.786 Y154.107 E2.57043
G1 X175.153 Y153.703 E2.59205
G1 X174.672 Y153.189 E2.61231
G1 X174.369 Y152.639 E2.63038
G1 X173.841 Y152.480 F9600.000
G1 F1500.000 E1.13038
G92 E0
G1 X162.911 Y126.943 F9600.000
G1 E1.50000 F1500.000
G1 X162.230 Y127.225 E1.52119 F4500.000
G1 X161.553 Y127.314 E1.54083
G1 X153.447 Y127.314 E1.77409
G1 X152.770 Y127.225 E1.79373
G1 X152.089 Y126.943 E1.81493
G1 X151.505 Y126.495 E1.83612
G1 X151.057 Y125.911 E1.85731
G1 X150.775 Y125.230 E1.87850
G1 X150.679 Y124.500 E1.89969
G1 X150.775 Y123.770 E1.92089
G1 X151.057 Y123.089 E1.94208
G1 X151.505 Y122.505 E1.96326
G1 X152.090 Y122.057 E1.98447
G1 X152.770 Y121.775 E2.00565
G1 X153.447 Y121.686 E2.02530
G1 X161.553 Y121.686 E2.25855
G1 X162.230 Y121.775 E2.27818
G1 X162.911 Y122.057 E2.29939
G1 X163.495 Y122.505 E2.32058
G1 X163.943 Y123.089 E2.34176
G1 X164.225 Y123.770 E2.36296
G1 X164.321 Y124.500 E2.38415
G1 X164.225 Y125.230 E2.40534
G1 X163.943 Y125.911 E2.42654
G1 X163.495 Y126.495 E2.44773
G1 X162.970 Y126.898 E2.46676
G1 X162.639 Y126.472 F9600.000
G1 X162.089 Y126.700 E2.48387 F3375.000
G1 X161.518 Y126.775 E2.50045
G1 X153.482 Y126.775 E2.73167
G1 X152.911 Y126.700 E2.74826
G1 X152.361 Y126.472 E2.76536
G1 X151.860 Y126.072 E2.78382
G1 X151.528 Y125.639 E2.79953
G1 X151.300 Y125.089 E2.81664
G1 X151.223 Y124.500 E2.83374
G1 X151.300 Y123.911 E2.85085
G1 X151.528 Y123.361 E2.86795
G1 X151.890 Y122.890 E2.88506
G1 X152.361 Y122.528 E2.90217
G1 X152.911 Y122.300 E2.91927
G1 X153.482 Y122.225 E2.93586
G1 X161.518 Y122.225 E3.16708
G1 X162.089 Y122.300 E3.18366
G1 X162.639 Y122.528 E3.20077
G1 X163.110 Y122.890 E3.21787
G1 X163.472 Y123.361 E3.23498
G1 X163.700 Y123.911 E3.25209
G1 X163.777 Y124.500 E3.26919
G1 X163.700 Y125.089 E3.28630
G1 X163.472 Y125.639 E3.30341
G1 X163.110 Y126.110 E3.32051
G1 X162.698 Y126.427 E3.33546
G1 X162.617 Y126.972 F9600.000
G1 F1500.000 E1.83546
G92 E0
G1 X156.644 Y131.194 F9600.000
G1 E1.50000 F1500.000
G1 X157.176 Y131.880 E1.52497 F4500.000
G1 X157.664 Y132.598 E1.54994
G1 X158.106 Y133.345 E1.57491
G1 X158.480 Y134.078 E1.59860
G1 X158.845 Y134.914 E1.62485
G1 X159.139 Y135.731 E1.64982
G1 X159.381 Y136.564 E1.67479
G1 X159.570 Y137.411 E1.69977
G1 X159.706 Y138.268 E1.72474
G1 X159.787 Y139.133 E1.74971
G1 X159.815 Y140.000 E1.77468
G1 X159.789 Y140.823 E1.79837
G1 X159.706 Y141.731 E1.82462
G1 X159.570 Y142.589 E1.84959
G1 X159.381 Y143.436 E1.87456
G1 X159.139 Y144.269 E1.89954
G1 X158.860 Y145.044 E1.92322
G1 X158.500 Y145.882 E1.94947
G1 X158.106 Y146.655 E1.97445
G1 X157.664 Y147.402 E1.99941
G1 X157.176 Y148.120 E2.02439
G1 X156.672 Y148.771 E2.04807
G1 X156.071 Y149.457 E2.07432
G1 X155.457 Y150.071 E2.09930
G1 X154.806 Y150.644 E2.12427
G1 X154.120 Y151.176 E2.14924
G1 X153.402 Y151.664 E2.17421
G1 X152.655 Y152.106 E2.19918
G1 X151.882 Y152.500 E2.22415
G1 X151.044 Y152.860 E2.25040
G1 X150.269 Y153.139 E2.27409
G1 X149.436 Y153.381 E2.29906
G1 X148.589 Y153.570 E2.32403
G1 X147.732 Y153.706 E2.34900
G1 X146.867 Y153.787 E2.37398
G1 X146.013 Y153.814 E2.39858
G1 X137.987 Y153.814 E2.62950
G1 X137.133 Y153.787 E2.65411
G1 X136.269 Y153.706 E2.67908
G1 X135.455 Y153.577 E2.70276
G1 X134.564 Y153.381 E2.72902
G1 X133.731 Y153.138 E2.75399
G1 X132.956 Y152.860 E2.77767
G1 X132.118 Y152.500 E2.80393
G1 X131.345 Y152.106 E2.82890
G1 X130.636 Y151.687 E2.85259
G1 X129.880 Y151.176 E2.87884
G1 X129.161 Y150.615 E2.90509
G1 X128.543 Y150.070 E2.92878
G1 X127.930 Y149.457 E2.95375
G1 X127.356 Y148.806 E2.97872
G1 X126.824 Y148.120 E3.00369
G1 X126.313 Y147.364 E3.02994
G1 X125.894 Y146.655 E3.05363
G1 X125.500 Y145.882 E3.07860
G1 X125.155 Y145.086 E3.10357
G1 X124.861 Y144.269 E3.12854
G1 X124.619 Y143.436 E3.15351
G1 X124.430 Y142.589 E3.17848
G1 X124.294 Y141.731 E3.20346
G1 X124.213 Y140.867 E3.22843
G1 X124.185 Y140.000 E3.25340
G1 X124.213 Y139.133 E3.27837
G1 X124.294 Y138.268 E3.30334
G1 X124.430 Y137.411 E3.32831
G1 X124.619 Y136.564 E3.35329
G1 X124.861 Y135.731 E3.37825
G1 X125.155 Y134.914 E3.40323
G1 X125.520 Y134.078 E3.42948
G1 X125.894 Y133.345 E3.45317
G1 X126.336 Y132.598 E3.47814
G1 X126.824 Y131.880 E3.50311
G1 X127.356 Y131.194 E3.52808
G1 X127.930 Y130.543 E3.55305
G1 X128.543 Y129.930 E3.57802
G1 X129.229 Y129.328 E3.60427
G1 X129.880 Y128.824 E3.62796
G1 X130.598 Y128.336 E3.65293
G1 X131.345 Y127.894 E3.67790
G1 X132.118 Y127.500 E3.70287
G1 X132.956 Y127.140 E3.72913
G1 X133.731 Y126.861 E3.75281
G1 X134.564 Y126.619 E3.77778
G1 X135.411 Y126.430 E3.80275
G1 X136.269 Y126.294 E3.82773
G1 X137.133 Y126.213 E3.85270
G1 X137.987 Y126.186 E3.87730
G1 X146.013 Y126.186 E4.10822
G1 X146.867 Y126.213 E4.13283
G1 X147.731 Y126.294 E4.15780
G1 X148.589 Y126.430 E4.18277
G1 X149.436 Y126.619 E4.20774
G1 X150.269 Y126.862 E4.23271
G1 X151.086 Y127.155 E4.25768
G1 X151.882 Y127.500 E4.28265
G1 X152.655 Y127.894 E4.30762
G1 X153.402 Y128.336 E4.33260
G1 X154.083 Y128.799 E4.35628
G1 X154.806 Y129.356 E4.38253
G1 X155.457 Y129.929 E4.40750
G1 X156.071 Y130.543 E4.43248
G1 X156.595 Y131.138 E4.45529
G1 X156.229 Y131.538 F9600.000
G1 X156.740 Y132.197 E4.47928 F3375.000
G1 X157.209 Y132.887 E4.50328
G1 X157.633 Y133.605 E4.52728
G1 X157.999 Y134.323 E4.55048
G1 X158.343 Y135.113 E4.57527
G1 X158.625 Y135.898 E4.59926
G1 X158.858 Y136.699 E4.62326
G1 X159.040 Y137.512 E4.64725
G1 X159.170 Y138.336 E4.67125
G1 X159.249 Y139.166 E4.69525
G1 X159.275 Y140.000 E4.71924
G1 X159.250 Y140.806 E4.74244
G1 X159.170 Y141.664 E4.76723
G1 X159.040 Y142.488 E4.79123
G1 X158.858 Y143.301 E4.81522
G1 X158.625 Y144.102 E4.83922
G1 X158.352 Y144.861 E4.86242
G1 X158.012 Y145.652 E4.88721
G1 X157.633 Y146.395 E4.91121
G1 X157.209 Y147.113 E4.93520
G1 X156.740 Y147.803 E4.95920
G1 X156.246 Y148.440 E4.98240
G1 X155.677 Y149.087 E5.00719
G1 X155.087 Y149.677 E5.03118
G1 X154.462 Y150.229 E5.05518
G1 X153.803 Y150.740 E5.07917
G1 X153.113 Y151.209 E5.10317
G1 X152.395 Y151.633 E5.12717
G1 X151.652 Y152.012 E5.15116
G1 X150.861 Y152.352 E5.17595
G1 X150.102 Y152.625 E5.19915
G1 X149.301 Y152.858 E5.22315
G1 X148.488 Y153.040 E5.24714
G1 X147.664 Y153.170 E5.27114
G1 X146.834 Y153.249 E5.29514
G1 X146.004 Y153.275 E5.31901
G1 X137.996 Y153.275 E5.54944
G1 X137.166 Y153.249 E5.57331
G1 X136.336 Y153.170 E5.59731
G1 X135.512 Y153.040 E5.62131
G1 X134.726 Y152.864 E5.64450
G1 X133.898 Y152.625 E5.66930
G1 X133.113 Y152.343 E5.69329
G1 X132.348 Y152.012 E5.71729
G1 X131.605 Y151.633 E5.74128
G1 X130.887 Y151.209 E5.76528
G1 X130.197 Y150.740 E5.78927
G1 X129.538 Y150.229 E5.81327
G1 X128.913 Y149.677 E5.83727
G1 X128.323 Y149.087 E5.86126
G1 X127.771 Y148.462 E5.88526
G1 X127.260 Y147.803 E5.90925
G1 X126.791 Y147.113 E5.93325
G1 X126.367 Y146.395 E5.95725
G1 X125.988 Y145.652 E5.98124
G1 X125.657 Y144.887 E6.00524
G1 X125.367 Y144.076 E6.03003
G1 X125.142 Y143.301 E6.05323
G1 X124.960 Y142.488 E6.07722
G1 X124.830 Y141.664 E6.10122
G1 X124.751 Y140.834 E6.12521
G1 X124.725 Y140.000 E6.14921
G1 X124.751 Y139.166 E6.17321
G1 X124.830 Y138.336 E6.19720
G1 X124.960 Y137.512 E6.22120
G1 X125.142 Y136.699 E6.24520
G1 X125.375 Y135.898 E6.26919
G1 X125.657 Y135.113 E6.29319
G1 X126.001 Y134.323 E6.31798
G1 X126.367 Y133.605 E6.34118
G1 X126.791 Y132.887 E6.36517
G1 X127.260 Y132.197 E6.38917
G1 X127.771 Y131.538 E6.41316
G1 X128.323 Y130.913 E6.43716
G1 X128.913 Y130.323 E6.46116
G1 X129.560 Y129.754 E6.48595
G1 X130.197 Y129.260 E6.50915
G1 X130.887 Y128.791 E6.53314
G1 X131.605 Y128.367 E6.55714
G1 X132.348 Y127.988 E6.58113
G1 X133.139 Y127.648 E6.60592
G1 X133.898 Y127.375 E6.62912
G1 X134.699 Y127.142 E6.65312
G1 X135.512 Y126.960 E6.67711
G1 X136.336 Y126.830 E6.70111
G1 X137.166 Y126.751 E6.72511
G1 X137.996 Y126.725 E6.74898
G1 X146.004 Y126.725 E6.97941
G1 X146.834 Y126.751 E7.00328
G1 X147.664 Y126.830 E7.02728
G1 X148.488 Y126.960 E7.05128
G1 X149.301 Y127.142 E7.07527
G1 X150.102 Y127.375 E7.09927
G1 X150.887 Y127.657 E7.12326
G1 X151.652 Y127.988 E7.14726
G1 X152.395 Y128.367 E7.17125
G1 X153.113 Y128.791 E7.19525
G1 X153.780 Y129.245 E7.21845
G1 X154.462 Y129.771 E7.24324
G1 X155.087 Y130.323 E7.26724
G1 X155.677 Y130.913 E7.29123
G1 X156.179 Y131.482 E7.31307
G1 X156.723 Y131.460 F9600.000
G1 F1500.000 E5.81307
G92 E0
G1 X133.225 Y125.230 F9600.000
G1 E1.50000 F1500.000
G1 X132.943 Y125.911 E1.52119 F4500.000
G1 X132.495 Y126.495 E1.54238
G1 X131.911 Y126.943 E1.56357
G1 X131.230 Y127.225 E1.58477
G1 X130.553 Y127.314 E1.60441
G1 X122.447 Y127.314 E1.83767
G1 X121.770 Y127.225 E1.85731
G1 X121.089 Y126.943 E1.87850
G1 X120.505 Y126.495 E1.89969
G1 X120.057 Y125.911 E1.92088
G1 X119.775 Y125.230 E1.94207
G1 X119.679 Y124.500 E1.96327
G1 X119.759 Y123.888 E1.98102
G1 X119.775 Y123.770 E1.98446
G1 X120.057 Y123.089 E2.00565
G1 X120.505 Y122.505 E2.02684
G1 X121.089 Y122.057 E2.04803
G1 X121.770 Y121.775 E2.06923
G1 X122.447 Y121.686 E2.08887
G1 X130.553 Y121.686 E2.32213
G1 X131.230 Y121.775 E2.34176
G1 X131.911 Y122.057 E2.36296
G1 X132.495 Y122.505 E2.38415
G1 X132.943 Y123.089 E2.40534
G1 X133.225 Y123.770 E2.42654
G1 X133.321 Y124.500 E2.44772
G1 X133.235 Y125.156 E2.46676
G1 X132.700 Y125.089 F9600.000
G1 X132.472 Y125.639 E2.48387 F3375.000
G1 X132.110 Y126.110 E2.50097
G1 X131.639 Y126.472 E2.51808
G1 X131.089 Y126.700 E2.53519
G1 X130.518 Y126.775 E2.55177
G1 X122.482 Y126.775 E2.78299
G1 X121.911 Y126.700 E2.79957
G1 X121.361 Y126.472 E2.81668
G1 X120.890 Y126.110 E2.83379
G1 X120.528 Y125.639 E2.85089
G1 X120.300 Y125.089 E2.86800
G1 X120.223 Y124.500 E2.88510
G1 X120.294 Y123.959 E2.90082
G1 X120.528 Y123.361 E2.91927
G1 X120.890 Y122.890 E2.93638
G1 X121.361 Y122.528 E2.95348
G1 X121.911 Y122.300 E2.97059
G1 X122.482 Y122.225 E2.98718
G1 X130.518 Y122.225 E3.21840
G1 X131.089 Y122.300 E3.23498
G1 X131.639 Y122.528 E3.25209
G1 X132.110 Y122.890 E3.26919
G1 X132.472 Y123.361 E3.28630
G1 X132.700 Y123.911 E3.30341
G1 X132.777 Y124.500 E3.32051
G1 X132.710 Y125.015 E3.33546
G1 X133.038 Y125.458 F9600.000
G1 F1500.000 E1.83546
G92 E0
G1 X109.962 Y139.802 F9600.000
G1 E1.50000 F1500.000
G1 X110.016 Y139.898 E1.50316 F4500.000
G1 X110.317 Y140.677 E1.52721
G1 X110.419 Y141.500 E1.55106
G1 X110.313 Y142.351 E1.57574
G1 X109.973 Y143.182 E1.60158
G1 X109.497 Y143.834 E1.62480
G1 X108.871 Y144.357 E1.64828
G1 X108.020 Y144.761 E1.67537
G1 X107.198 Y144.913 E1.69941
G1 X106.372 Y144.861 E1.72323
G1 X105.574 Y144.605 E1.74736
G1 X105.477 Y144.553 E1.75051
G1 X104.784 Y144.099 E1.77435
G1 X104.232 Y143.504 E1.79772
G1 X103.840 Y142.797 E1.82097
G1 X103.624 Y142.000 E1.84474
G1 X103.606 Y141.892 E1.84788
G1 X103.609 Y141.072 E1.87146
G1 X103.810 Y140.277 E1.89508
