;Generated by Cura LulzBot Edition GCodeWriter Version: 3.6.23
;FLAVOR:Marlin
;TIME:1017
;Filament used: 0.371572m
;Layer height: 0.25
;Generated with Cura_SteamEngine 3.6.23
M82 ;absolute extrusion mode
;This G-Code has been generated specifically for the LulzBot TAZ 5 with standard extruder
M75			 ; start GLCD timer
M140 S60.0    ; start bed heating up
G90                      ; absolute positioning
M107                     ; disable fans
M82                      ; set extruder to absolute mode
G28 X0 Y0                ; home X and Y
G28 Z0                   ; home Z
G1 Z15.0 F175 ; move extruder up
M117 Heating...                     ; progress indicator message on LCD
M109 R210  ; wait for extruder to reach printing temp
M190 R60.0    ; wait for bed to reach printing temp
G92 E0                   ; set extruder position to 0
G1 F200 E0               ; prime the nozzle with filament
G92 E0                   ; re-set extruder position to 0
G1 F175       ; set travel speed
M203 X192 Y208 Z3        ; set limits on travel speed
M117 TAZ 5 Printing...   ; progress indicator message on LCD

M221 S100 T0
G92 E0
G1 F600 E-1
;LAYER_COUNT:26
;LAYER:0
M107
G0 F2625 X118.401 Y120.591 Z0.425
;TYPE:SKIRT
G1 F600 E0
G1 F900 X118.93 Y120.149 E0.02296
G1 X119.374 Y119.83 E0.04117
G1 X119.67 Y119.667 E0.05243
G1 X120.417 Y119.297 E0.0802
G1 X120.923 Y119.09 E0.09841
G1 X121.423 Y118.965 E0.11558
G1 X122.169 Y118.832 E0.14082
G1 X122.829 Y118.774 E0.16289
G1 X167.471 Y118.797 E1.64993
G1 X168.017 Y118.837 E1.66816
G1 X168.409 Y118.917 E1.68149
G1 X168.969 Y119.062 E1.70076
G1 X169.487 Y119.237 E1.71897
G1 X169.832 Y119.404 E1.73174
G1 X170.6 Y119.825 E1.76092
G1 X171.059 Y120.122 E1.77913
G1 X171.477 Y120.49 E1.79768
G1 X172.112 Y121.139 E1.82792
G1 X172.466 Y121.558 E1.84619
G1 X172.77 Y122.053 E1.86554
G1 X173.171 Y122.836 E1.89485
G1 X173.384 Y123.34 E1.91307
G1 X173.541 Y123.986 E1.93522
G1 X173.701 Y125.047 E1.97096
G1 X173.743 Y125.607 E1.98967
G1 X173.739 Y149.453 E2.78398
G1 X173.682 Y150.102 E2.80569
G1 X173.486 Y151.215 E2.84333
G1 X173.352 Y151.746 E2.86157
G1 X173.051 Y152.421 E2.88619
G1 X172.597 Y153.218 E2.91675
G1 X172.293 Y153.673 E2.93497
G1 X171.896 Y154.105 E2.95452
G1 X171.25 Y154.707 E2.98393
G1 X170.823 Y155.05 E3.00218
G1 X170.347 Y155.329 E3.02055
G1 X169.57 Y155.711 E3.04939
G1 X169.063 Y155.916 E3.06761
G1 X168.748 Y156.003 E3.0785
G1 X168.238 Y156.119 E3.09592
G1 X167.697 Y156.201 E3.11415
G1 X167.407 Y156.212 E3.12381
G1 X122.777 Y156.229 E4.61045
G1 X122.232 Y156.189 E4.62866
G1 X121.866 Y156.117 E4.64108
G1 X120.874 Y155.869 E4.67514
G1 X120.355 Y155.698 E4.69335
G1 X119.754 Y155.384 E4.71593
G1 X118.988 Y154.891 E4.74628
G1 X118.551 Y154.562 E4.7645
G1 X118.173 Y154.181 E4.78238
G1 X117.682 Y153.609 E4.80749
G1 X117.356 Y153.168 E4.82575
G1 X117.167 Y152.83 E4.83865
G1 X116.797 Y152.083 E4.86642
G1 X116.59 Y151.577 E4.88463
G1 X116.466 Y151.079 E4.90173
G1 X116.333 Y150.335 E4.9269
G1 X116.274 Y149.677 E4.94891
G1 X116.264 Y125.348 E5.75932
G1 X116.336 Y124.613 E5.78392
G1 X116.506 Y123.76 E5.81289
G1 X116.652 Y123.232 E5.83114
G1 X116.978 Y122.548 E5.85638
G1 X117.599 Y121.524 E5.89627
G1 X117.916 Y121.078 E5.9145
G1 X118.401 Y120.591 E5.93739
G0 F2625 X118.721 Y120.975
G1 F900 X119.25 Y120.533 E5.96035
G1 X119.666 Y120.238 E5.97734
G1 X119.891 Y120.115 E5.98588
G1 X120.638 Y119.745 E6.01365
G1 X121.111 Y119.555 E6.03063
G1 X121.511 Y119.457 E6.04435
G1 X122.257 Y119.324 E6.06959
G1 X122.829 Y119.274 E6.08872
G1 X167.471 Y119.297 E7.57576
G1 X167.979 Y119.337 E7.59273
G1 X168.284 Y119.401 E7.60311
G1 X168.844 Y119.546 E7.62238
G1 X169.325 Y119.712 E7.63933
G1 X169.591 Y119.842 E7.64919
G1 X170.359 Y120.263 E7.67837
G1 X170.785 Y120.542 E7.69533
G1 X171.12 Y120.84 E7.71026
G1 X171.755 Y121.489 E7.74051
G1 X172.082 Y121.88 E7.75749
G1 X172.325 Y122.281 E7.77311
G1 X172.726 Y123.064 E7.80241
G1 X172.922 Y123.534 E7.81937
G1 X173.047 Y124.06 E7.83738
G1 X173.207 Y125.121 E7.87312
G1 X173.243 Y125.607 E7.88936
G1 X173.239 Y149.453 E8.68368
G1 X173.19 Y150.016 E8.7025
G1 X172.994 Y151.129 E8.74015
G1 X172.866 Y151.622 E8.75711
G1 X172.617 Y152.174 E8.77728
G1 X172.163 Y152.971 E8.80784
G1 X171.877 Y153.392 E8.82479
G1 X171.555 Y153.74 E8.84058
G1 X170.909 Y154.342 E8.87
G1 X170.51 Y154.659 E8.88697
G1 X170.127 Y154.881 E8.90172
G1 X169.35 Y155.263 E8.93056
G1 X168.637 Y155.515 E8.95575
G1 X168.127 Y155.631 E8.97317
G1 X167.407 Y155.712 E8.99731
G1 X122.777 Y155.729 E10.48395
G1 X122.269 Y155.689 E10.50092
G1 X121.988 Y155.632 E10.51047
G1 X120.996 Y155.384 E10.54453
G1 X120.513 Y155.222 E10.5615
G1 X120.025 Y154.964 E10.57989
G1 X119.259 Y154.471 E10.61023
G1 X118.854 Y154.162 E10.6272
G1 X118.552 Y153.855 E10.64155
G1 X118.061 Y153.283 E10.66666
G1 X117.76 Y152.871 E10.68365
G1 X117.615 Y152.609 E10.69363
G1 X117.245 Y151.862 E10.7214
G1 X117.055 Y151.389 E10.73838
G1 X116.958 Y150.991 E10.75202
G1 X116.825 Y150.247 E10.7772
G1 X116.774 Y149.676 E10.79629
G1 X116.764 Y125.347 E11.6067
G1 X116.827 Y124.711 E11.62799
G1 X116.997 Y123.858 E11.65696
G1 X117.135 Y123.367 E11.67395
G1 X117.405 Y122.808 E11.69463
G1 X118.026 Y121.784 E11.73452
G1 X118.324 Y121.37 E11.75151
G1 X118.721 Y120.975 E11.77017
G1 F600 E10.77017
;MESH:
G0 F2625 X120.626 Y122.759
G0 X120.658 Y122.789
G0 X126.488 Y128.25
G0 X126.52 Y128.28
G0 X127.725 Y129.409
G0 X128.957 Y130.162
G0 X128.776 Y130.541
G0 X128.704 Y130.472
;TYPE:WALL-INNER
G1 F600 E11.77017
G1 F900 X128.841 Y130.296 E11.7776
G1 X128.86 Y130.266 E11.77878
G1 X128.932 Y130.15 E11.78333
G1 X128.951 Y130.12 E11.78451
G1 X128.974 Y130.176
G1 X128.994 Y130.215
G1 X129.037 Y130.295 E11.7851
G1 X129.101 Y130.415 E11.78752
G1 X129.251 Y130.638 E11.79647
G1 X129.309 Y130.71 E11.79955
G1 X129.251 Y130.71
G1 X129.101 Y130.71 E11.80061
G1 X128.841 Y130.71 E11.80585
G1 X128.704 Y130.71 E11.80853
G1 X128.552 Y130.71 E11.81201
G1 X128.459 Y130.71 E11.8151
G1 X128.552 Y130.629 E11.81611
G1 X128.704 Y130.472 E11.8195
G0 F2625 X128.776 Y130.541
G0 X131.121 Y131.265
G0 X131.799 Y131.265
G0 X132.296 Y131.619
G0 X133.903 Y130.467
G0 X133.819 Y130.415
G1 F900 X133.864 Y130.329 E11.82274
G1 X133.916 Y130.232 E11.8264
G1 X133.966 Y130.353 E11.82749
G1 X133.982 Y130.39
G1 X134.015 Y130.452 E11.82813
G1 X134.132 Y130.671 E11.8343
G1 X134.309 Y130.937 E11.84495
G1 X134.539 Y131.21 E11.85684
G1 X134.309 Y131.21 E11.85803
G1 X133.5 Y131.21 E11.88498
G1 X133.306 Y131.21 E11.89144
G1 X133.097 Y131.21 E11.8984
G1 X133.306 Y131.04 E11.90113
G1 X133.5 Y130.846 E11.90691
G1 X133.669 Y130.638 E11.91524
G1 X133.798 Y130.446 E11.92076
G1 X133.819 Y130.415
G0 F2625 X133.903 Y130.467
G0 X136.648 Y135.334
G0 X136.642 Y137.538
G0 X138.458 Y138.132
G0 X138.378 Y138.192
G1 F900 X138.208 Y138.01 E11.92905
G1 X138.378 Y138.01 E11.92947
G1 X138.667 Y138.01 E11.9391
G1 X139.581 Y138.01 E11.96954
G1 X139.582 Y138.01 E11.96958
G1 X139.936 Y138.01 E11.98137
G1 X139.817 Y138.344 E11.98835
G1 X139.582 Y138.997 E12.01147
G1 X139.448 Y139.27 E12.0216
G1 X139.341 Y139.491 E12.02978
G1 X139.297 Y139.581 E12.03311
G1 X139.14 Y139.392 E12.0374
G1 X139.009 Y139.185 E12.04358
G1 X138.533 Y138.436 E12.07314
G1 X138.378 Y138.192 E12.08009
G0 F2625 X138.458 Y138.132
G0 X140.483 Y137.85
G0 X141.017 Y136.416
G0 X141.577 Y135.447
G0 X142.033 Y135.211
G0 X149.63 Y138.96
G0 X150.164 Y139.028
G0 X150.941 Y138.873
G0 X151.185 Y138.022
G0 X150.374 Y137.445
G0 X150.418 Y137.534
G1 F900 X150.32 Y137.582 E12.08373
G1 X150.252 Y137.589 E12.086
G1 X150.166 Y137.598 E12.08888
G1 X150.086 Y137.591 E12.09156
G1 X150.03 Y137.571 E12.09354
G1 X149.994 Y137.524 E12.09551
G1 X149.973 Y137.465 E12.0976
G1 X149.961 Y137.405 E12.09964
G1 X149.958 Y137.311 E12.10277
G1 X149.967 Y137.232 E12.10542
G1 X150.002 Y137.145 E12.10854
G1 X150.029 Y137.117 E12.10984
G1 X150.099 Y137.092 E12.11231
G1 X150.201 Y137.092 E12.11571
G1 X150.299 Y137.109 E12.11895
G1 X150.468 Y137.17 E12.1246
G1 X150.767 Y137.278 E12.13431
G1 X150.767 Y137.364 E12.13718
G1 X150.49 Y137.499 E12.14183
G1 X150.418 Y137.534 E12.14274
G0 F2625 X150.374 Y137.445
G0 X150.939 Y136.837
G0 X151.146 Y135.94
G0 X150.939 Y135.341
G0 X149.526 Y127.682
G0 X149.599 Y127.75
G1 F900 X149.699 Y129.175 E12.19032
G1 X149.774 Y130.254 E12.22635
G1 X149.233 Y129.317 E12.24482
G1 X147.458 Y126.243 E12.36306
G1 X142.542 Y126.243 E12.52682
G1 X140.579 Y129.644 E12.65762
G1 X140.54 Y129.711 E12.6602
G1 X140.389 Y129.972 E12.67025
G1 X140.234 Y130.241 E12.68059
G1 X140.084 Y130.5 E12.69056
G1 X140.119 Y130.56 E12.69287
G1 X140.724 Y131.608 E12.73318
G1 X141.003 Y132.091 E12.75176
G1 X142.36 Y134.443 E12.84221
G1 X142.384 Y134.484 E12.84379
G1 X142.542 Y134.757 E12.8543
G1 X142.824 Y134.757 E12.86369
G1 X142.96 Y134.757 E12.86822
G1 X147.458 Y134.757 E13.01805
G1 X149.397 Y131.4 E13.14719
G1 X149.805 Y130.693 E13.17438
G1 X149.861 Y131.508 E13.18857
G1 X150.03 Y133.922 E13.26918
G1 X152.03 Y133.922 E13.3358
G1 X152.567 Y132.407 E13.38934
G1 X152.797 Y131.755 E13.41237
G1 X153.036 Y132.404 E13.42457
G1 X153.595 Y133.922 E13.47845
G1 X155.594 Y133.922 E13.54504
G1 X155.689 Y132.4 E13.59583
G1 X155.733 Y131.685 E13.6197
G1 X156.142 Y132.273 E13.63228
G1 X157.179 Y133.762 E13.69273
G1 X158.98 Y133.762 E13.75272
G1 X158.98 Y130.946 E13.84652
G1 X159.612 Y130.946 E13.86757
G1 X159.612 Y128.966 E13.93353
G1 X158.98 Y128.966 E13.95458
G1 X158.98 Y127.75 E13.99508
G1 X156.904 Y127.75 E14.06424
G1 X156.904 Y128.966 E14.10474
G1 X156.168 Y128.966 E14.12926
G1 X156.167 Y128.966 E14.12929
G1 X155.902 Y128.966 E14.13812
G1 X155.918 Y128.701 E14.14374
G1 X155.962 Y128.015 E14.16664
G1 X155.978 Y127.75 E14.17548
G1 X155.713 Y127.75 E14.1811
G1 X155.712 Y127.75 E14.18113
G1 X153.881 Y127.75 E14.24212
G1 X153.879 Y127.802 E14.24385
G1 X153.827 Y128.709 E14.27412
G1 X153.526 Y127.879 E14.28484
G1 X153.49 Y127.782 E14.28829
G1 X151.97 Y127.782 E14.33892
G1 X151.951 Y127.839 E14.34092
G1 X151.73 Y128.489 E14.36379
G1 X151.688 Y127.799 E14.37029
G1 X151.685 Y127.75 E14.37193
G1 X149.599 Y127.75 E14.44141
G0 F2625 X149.526 Y127.682
G0 X159.008 Y127.722
G0 X159.64 Y128.938
G0 X160.135 Y140.545
G0 X160.054 Y140.488
G1 F900 X159.935 Y140.154 E14.45322
G1 X158.178 Y135.25 E14.62675
G1 X156.573 Y135.25 E14.68021
G1 X156.541 Y135.348 E14.68364
G1 X156.237 Y136.278 E14.71623
G1 X156.237 Y135.25 E14.72801
G1 X152.723 Y135.248 E14.84506
G1 X152.467 Y135.208 E14.85369
G1 X152.189 Y135.198 E14.86296
G1 X151.915 Y135.226 E14.87213
G1 X151.636 Y135.306 E14.8818
G1 X151.391 Y135.438 E14.89107
G1 X151.313 Y135.499 E14.89437
G1 X150.986 Y135.358 E14.90623
G1 X150.807 Y135.3 E14.9125
G1 X150.604 Y135.251 E14.91946
G1 X150.385 Y135.218 E14.92683
G1 X150.206 Y135.203 E14.93282
G1 X149.857 Y135.205 E14.94444
G1 X149.638 Y135.232 E14.95179
G1 X149.437 Y135.279 E14.95867
G1 X149.249 Y135.339 E14.96524
G1 X149.063 Y135.42 E14.972
G1 X148.886 Y135.519 E14.97875
G1 X148.724 Y135.635 E14.98539
G1 X148.574 Y135.766 E14.99203
G1 X148.437 Y135.914 E14.99874
G1 X148.318 Y136.073 E15.00536
G1 X148.215 Y136.244 E15.01201
G1 X148.131 Y136.424 E15.01863
G1 X148.063 Y136.611 E15.02525
G1 X148.011 Y136.809 E15.03207
G1 X147.979 Y137.008 E15.03879
G1 X147.963 Y137.189 E15.04484
G1 X147.962 Y137.209 E15.04551
G1 X147.962 Y137.424 E15.05267
G1 X147.981 Y137.632 E15.05963
G1 X147.996 Y137.722 E15.06266
G1 X148.016 Y137.836 E15.06652
G1 X148.069 Y138.034 E15.07335
G1 X147.956 Y137.882 E15.07368
G1 X147.854 Y137.746 E15.07573
G1 X147.759 Y137.666 E15.07721
G1 X147.653 Y137.576 E15.07952
G1 X147.638 Y137.564 E15.08016
G1 X147.332 Y137.305 E15.09351
G1 X146.59 Y137.246 E15.11831
G1 X146.017 Y137.613 E15.14097
G1 X145.553 Y138.218 E15.16637
G1 X145.053 Y139.049 E15.19867
G1 X145.03 Y139.087 E15.20015
G1 X144.734 Y139.51 E15.21735
G1 X144.624 Y139.284 E15.21954
G1 X144.605 Y139.244 E15.22095
G1 X144.474 Y138.976 E15.23089
G1 X143.96 Y137.554 E15.28126
G1 X143.457 Y136.207 E15.32915
G1 X142.891 Y135.217 E15.36714
G1 X142.824 Y135.099 E15.37064
G1 X142.462 Y134.911 E15.37881
G1 X142.031 Y134.687 E15.38959
G1 X141.989 Y134.709 E15.39107
G1 X141.242 Y135.099 E15.41914
G1 X141.02 Y135.486 E15.434
G1 X140.601 Y136.216 E15.46204
G1 X140.55 Y136.353 E15.46691
G1 X140.55 Y136.216 E15.46707
G1 X140.55 Y135.374 E15.48296
G1 X140.55 Y132.268 E15.58642
G1 X140.55 Y131.71 E15.59965
G1 X139.342 Y131.71 E15.63989
G1 X139.103 Y131.71 E15.64785
G1 X138.857 Y131.71 E15.65604
G1 X138.708 Y131.71 E15.66101
G1 X138.857 Y131.611 E15.66223
G1 X139.103 Y131.408 E15.66753
G1 X139.272 Y131.239 E15.67404
G1 X139.328 Y131.183 E15.67668
G1 X139.531 Y130.937 E15.6873
G1 X139.67 Y130.729 E15.69563
G1 X139.708 Y130.671 E15.69794
G1 X139.858 Y130.39 E15.70855
G1 X139.981 Y130.095 E15.71449
G1 X140.074 Y129.79 E15.72196
G1 X140.136 Y129.477 E15.73085
G1 X140.143 Y129.4 E15.73334
G1 X140.167 Y129.159 E15.74141
G1 X140.167 Y128.841 E15.752
G1 X140.136 Y128.523 E15.76264
G1 X140.074 Y128.21 E15.77327
G1 X139.981 Y127.905 E15.78389
G1 X139.858 Y127.61 E15.79454
G1 X139.708 Y127.329 E15.80515
G1 X139.531 Y127.063 E15.81579
G1 X139.328 Y126.817 E15.82642
G1 X139.103 Y126.592 E15.83702
G1 X138.857 Y126.389 E15.84764
G1 X138.591 Y126.212 E15.85828
G1 X138.31 Y126.062 E15.86889
G1 X138.015 Y125.939 E15.87954
G1 X137.71 Y125.846 E15.89016
G1 X137.397 Y125.784 E15.90079
G1 X137.079 Y125.753 E15.91143
G1 X136.761 Y125.753 E15.92203
G1 X136.443 Y125.784 E15.93267
G1 X136.129 Y125.846 E15.94333
G1 X135.825 Y125.939 E15.95392
G1 X135.53 Y126.062 E15.96457
G1 X135.249 Y126.212 E15.97518
G1 X134.983 Y126.389 E15.98582
G1 X134.737 Y126.592 E15.99644
G1 X134.512 Y126.817 E16.00704
G1 X134.309 Y127.063 E16.01767
G1 X134.145 Y127.309 E16.02751
G1 X134.132 Y127.329 E16.02831
G1 X134.016 Y127.547 E16.03653
G1 X133.982 Y127.61 E16.03892
G1 X133.967 Y127.646 E16.04022
G1 X133.916 Y127.768 E16.04462
G1 X133.866 Y127.673 E16.04495
G1 X133.819 Y127.585 E16.04569
G1 X133.799 Y127.555
G1 X133.669 Y127.362 E16.05125
G1 X133.654 Y127.344 E16.05203
G1 X133.5 Y127.154 E16.06018
G1 X133.306 Y126.96 E16.06932
G1 X133.098 Y126.791 E16.07824
G1 X132.875 Y126.641 E16.0872
G1 X132.636 Y126.514 E16.09621
G1 X132.387 Y126.41 E16.1052
G1 X132.128 Y126.331 E16.11422
G1 X131.864 Y126.279 E16.12318
G1 X131.596 Y126.252 E16.13216
G1 X131.324 Y126.252 E16.14122
G1 X131.056 Y126.279 E16.15019
G1 X130.792 Y126.331 E16.15915
G1 X130.533 Y126.41 E16.16817
G1 X130.284 Y126.514 E16.17716
G1 X130.045 Y126.641 E16.18618
G1 X129.822 Y126.791 E16.19513
G1 X129.614 Y126.96 E16.20406
G1 X129.42 Y127.154 E16.21319
G1 X129.251 Y127.362 E16.22212
G1 X129.103 Y127.581 E16.23093
G1 X129.101 Y127.585 E16.23107
G1 X129.054 Y127.674 E16.23443
G1 X129.017 Y127.743 E16.23704
G1 X128.974 Y127.824 E16.24009
G1 X128.95 Y127.881 E16.24215
G1 X128.932 Y127.849
G1 X128.902 Y127.797 E16.24232
G1 X128.868 Y127.748 E16.24261
G1 X128.775 Y127.615 E16.24584
G1 X128.629 Y127.448 E16.25216
G1 X128.626 Y127.445 E16.2523
G1 X128.472 Y127.296 E16.25944
G1 X128.296 Y127.159 E16.26687
G1 X128.109 Y127.042 E16.27422
G1 X127.913 Y126.942 E16.28155
G1 X127.707 Y126.864 E16.28888
G1 X127.495 Y126.804 E16.29622
G1 X127.276 Y126.766 E16.30363
G1 X127.056 Y126.75 E16.31097
G1 X126.834 Y126.755 E16.31837
G1 X126.615 Y126.782 E16.32572
G1 X126.398 Y126.831 E16.33313
G1 X126.19 Y126.901 E16.34044
G1 X125.988 Y126.988 E16.34777
G1 X125.797 Y127.098 E16.35511
G1 X125.615 Y127.225 E16.3625
G1 X125.448 Y127.371 E16.36989
G1 X125.296 Y127.528 E16.37717
G1 X125.159 Y127.704 E16.3846
G1 X125.042 Y127.891 E16.39195
G1 X124.942 Y128.087 E16.39928
G1 X124.864 Y128.293 E16.40662
