;Generated by Cura LulzBot Edition GCodeWriter Version: 3.6.20
;FLAVOR:Marlin
;TIME:3323
;Filament used: 1.01835m
;Layer height: 0.25
;Generated with Cura_SteamEngine 3.6.20
M82 ;absolute extrusion mode
;This G-Code has been generated specifically for the LulzBot TAZ 5 with standard extruder
M75			 ; start GLCD timer
M140 S60.0    ; start bed heating up
G90                      ; absolute positioning
M107                     ; disable fans
M82                      ; set extruder to absolute mode
G28 X0 Y0                ; home X and Y
G28 Z0                   ; home Z
G1 Z15.0 F175 ; move extruder up
M117 Heating...                     ; progress indicator message on LCD
M109 R210  ; wait for extruder to reach printing temp
M190 R60.0    ; wait for bed to reach printing temp
G92 E0                   ; set extruder position to 0
G1 F200 E0               ; prime the nozzle with filament
G92 E0                   ; re-set extruder position to 0
G1 F175       ; set travel speed
M203 X192 Y208 Z3        ; set limits on travel speed
M117 TAZ 5 Printing...   ; progress indicator message on LCD

M221 S100 T0
G92 E0
G1 F600 E-1.75
;LAYER_COUNT:94
;LAYER:0
M107
G0 F2625 X107.18 Y100.043 Z0.425
;TYPE:SKIRT
G1 F600 E0
G1 F900 X107.54 Y99.683 E0.01696
G1 X107.952 Y99.383 E0.03394
G1 X108.408 Y99.15 E0.05099
G1 X112.541 Y97.438 E0.20001
G1 X130.731 Y89.902 E0.85587
G1 X130.789 Y89.879 E0.85794
G1 X137.113 Y87.4 E1.08421
G1 X143.71 Y84.532 E1.32382
G1 X144.192 Y84.367 E1.34079
G1 X144.694 Y84.278 E1.35777
G1 X145.203 Y84.269 E1.37473
G1 X145.708 Y84.34 E1.39172
G1 X146.247 Y84.509 E1.41054
G1 X158.933 Y89.75 E1.86775
G1 X158.937 Y89.752 E1.8679
G1 X181.592 Y99.151 E2.68492
G1 X182.046 Y99.383 E2.7019
G1 X182.458 Y99.682 E2.71886
G1 X182.819 Y100.043 E2.73586
G1 X183.118 Y100.455 E2.75282
G1 X183.35 Y100.909 E2.7698
G1 X197.986 Y136.238 E4.04361
G1 X198.143 Y136.723 E4.06059
G1 X198.223 Y137.226 E4.07756
G1 X198.223 Y137.735 E4.09452
G1 X198.144 Y138.239 E4.11151
G1 X197.986 Y138.725 E4.12853
G1 X183.351 Y174.09 E5.40344
G1 X183.12 Y174.544 E5.42041
G1 X182.821 Y174.956 E5.43736
G1 X182.461 Y175.317 E5.45435
G1 X182.049 Y175.617 E5.47132
G1 X181.592 Y175.85 E5.48841
G1 X146.262 Y190.486 E6.76225
G1 X145.777 Y190.643 E6.77923
G1 X145.274 Y190.723 E6.7962
G1 X144.765 Y190.723 E6.81315
G1 X144.261 Y190.644 E6.83015
G1 X143.775 Y190.486 E6.84717
G1 X108.41 Y175.851 E8.12208
G1 X107.956 Y175.62 E8.13904
G1 X107.544 Y175.321 E8.156
G1 X107.183 Y174.961 E8.17298
G1 X106.883 Y174.549 E8.18996
G1 X106.65 Y174.092 E8.20705
G1 X92.008 Y138.744 E9.48152
G1 X91.851 Y138.259 E9.4985
G1 X91.771 Y137.756 E9.51547
G1 X91.771 Y137.246 E9.53245
G1 X91.85 Y136.743 E9.54942
G1 X92.008 Y136.256 E9.56647
G1 X106.649 Y100.909 E10.8409
G1 X106.881 Y100.455 E10.85788
G1 X107.18 Y100.043 E10.87484
G1 F600 E9.12484
;MESH:
G0 F2625 X113.888 Y100.536
G0 X115.286 Y100.806
G0 X117.756 Y103.309
G0 X118.808 Y104.076
G0 X119.729 Y104.129
G0 X151.628 Y95.529
G0 X150.499 Y99.725
G0 X153.082 Y100.929
G0 X153.043 Y101.02
;TYPE:WALL-INNER
G1 F600 E10.87484
G1 F900 X152.313 Y100.717 E10.90117
G1 X153.124 Y99.75 E10.94321
G1 X153.043 Y101.02 E10.9856
G0 F2625 X153.082 Y100.929
G0 X150.499 Y99.725
G0 X153.409 Y96.318
G0 X155.279 Y97.091
G0 X155.29 Y97.14
G0 X155.25 Y97.038
G1 F900 X155.352 Y97.081 E10.98928
G1 X155.228 Y97.093 E10.98984
G1 X155.228 Y97.076
G1 X155.231 Y97.03
G1 X155.25 Y97.038
G0 F2625 X155.29 Y97.14
G0 X155.279 Y97.091
G0 X153.409 Y96.318
G0 X145 Y97.648
G0 X116.821 Y109.321
G0 X105.148 Y137.5
G0 X115.844 Y165.716
G0 X116.797 Y167.738
G0 X117.948 Y169.656
G0 X119.288 Y171.463
G0 X120.78 Y173.111
G0 X122.437 Y174.612
G0 X124.233 Y175.946
G0 X126.162 Y177.102
G0 X128.184 Y178.056
G0 X130.279 Y178.807
G0 X132.463 Y179.353
G0 X134.673 Y179.681
G0 X136.9 Y179.79
G0 X139.127 Y179.681
G0 X141.337 Y179.353
G0 X143.521 Y178.807
G0 X145.616 Y178.056
G0 X173.179 Y165.679
G0 X184.852 Y137.5
G0 X173.179 Y109.321
G0 X158.407 Y98.928
G0 X160.938 Y99.484
G0 X162.577 Y95.623
G0 X179.753 Y102.747
G0 X181.024 Y107.494
G0 X180.581 Y107.24
G0 X179.223 Y107.44
G0 X178.324 Y107.658
G1 F900 X177.892 Y107.247 E11.00971
G1 X177.802 Y107.12 E11.01489
G1 X177.707 Y106.926 E11.02209
G1 X177.666 Y106.777 E11.02723
G1 X177.661 Y106.696 E11.02994
G1 X177.673 Y106.601 E11.03313
G1 X177.735 Y106.48 E11.03766
G1 X177.827 Y106.387 E11.04201
G1 X177.965 Y106.302 E11.04741
G1 X178.115 Y106.249 E11.05271
G1 X178.162 Y106.24 E11.05431
G1 X178.259 Y106.234 E11.05754
G1 X178.364 Y106.25 E11.06108
G1 X178.463 Y106.302 E11.06481
G1 X178.538 Y106.374 E11.06827
G1 X178.624 Y106.498 E11.0733
G1 X178.681 Y106.636 E11.07827
G1 X178.732 Y106.824 E11.08476
G1 X178.747 Y106.945 E11.08882
G1 X178.77 Y107.458 E11.10592
G1 X178.779 Y107.664 E11.11279
G1 X178.473 Y107.8 E11.12395
G1 X178.324 Y107.658 E11.12974
G0 F2625 X180.451 Y107.758
G0 X180.836 Y107.985
G0 X181.129 Y108.379
G0 X181.316 Y108.884
G0 X181.376 Y109.324
G0 X180.426 Y109.671
G0 X179.841 Y109.56
G0 X179.93 Y109.605
G1 F900 X179.107 Y109.971 E11.15975
G1 X179.064 Y109.875 E11.16325
G1 X179.887 Y109.509 E11.16952
G1 X179.908 Y109.5 E11.17029
G1 X179.93 Y109.605 E11.17216
G0 F2625 X179.841 Y109.56
G0 X180.569 Y109.83
G0 X181.513 Y109.417
G0 X181.997 Y110.51
G0 X179.876 Y112.748
G0 X177.474 Y113.829
G0 X179.959 Y120.128
G0 X179.977 Y120.03
G1 F900 X180.238 Y119.77 E11.18443
G1 X180.277 Y119.731 E11.18626
G1 X180.491 Y119.518 E11.19632
G1 X180.73 Y119.281 E11.20753
G1 X180.53 Y119.556 E11.20824
G1 X180.67 Y119.823 E11.21467
G1 X181.553 Y121.5 E11.27781
G1 X180.53 Y123.444 E11.35098
G1 X181.078 Y124.199 E11.38206
G1 X183.244 Y123.827 E11.45526
G1 X184.571 Y125.188 E11.51858
G1 X181.818 Y128.977 E11.67459
G1 X181.811 Y128.987 E11.675
G1 X182.044 Y129.511 E11.6941
G1 X183.81 Y133.478 E11.83874
G1 X188.699 Y133.991 E12.00249
G1 X191.007 Y130.813 E12.13332
G1 X191.269 Y130.453 E12.14816
G1 X191.439 Y130.865 E12.15652
G1 X194.188 Y137.5 E12.39575
G1 X179.781 Y172.281 E13.64978
G1 X145 Y186.688 E14.90381
G1 X111.986 Y173.012 E16.09414
G1 X111.429 Y172.782 E16.11421
G1 X111.986 Y172.552 E16.125
G1 X114.956 Y171.321 E16.23209
G1 X114.957 Y171.32 E16.23214
G1 X115.187 Y171.226 E16.24042
G1 X115.092 Y170.996 E16.24577
G1 X112.317 Y164.297 E16.4873
G1 X107.703 Y166.208 E16.65365
G1 X95.812 Y137.5 E17.68871
G1 X110.219 Y102.719 E18.94274
G1 X111.246 Y102.294 E18.97977
G1 X111.707 Y102.709 E19.00043
G1 X112.498 Y103.29 E19.03312
G1 X112.647 Y103.389 E19.03908
G1 X113.149 Y103.668 E19.05821
G1 X113.805 Y103.859 E19.08097
G1 X114.508 Y103.61 E19.10581
G1 X114.881 Y103.041 E19.12847
G1 X115.06 Y102.293 E19.15409
G1 X115.179 Y101.335 E19.18625
G1 X115.186 Y101.279 E19.18813
G1 X115.281 Y100.788 E19.20479
G1 X115.466 Y100.943 E19.20671
G1 X115.509 Y100.979 E19.20847
G1 X115.734 Y101.168 E19.21826
G1 X116.704 Y102.179 E19.26493
G1 X117.788 Y103.284 E19.31649
G1 X118.82 Y104.04 E19.3591
G1 X119.713 Y104.094 E19.38891
G1 X120.265 Y103.396 E19.41855
G1 X120.398 Y102.115 E19.46145
G1 X120.309 Y100.681 E19.50931
G1 X120.197 Y99.172 E19.55971
G1 X120.208 Y98.859 E19.57014
G1 X120.216 Y98.612 E19.57837
G1 X120.218 Y98.577 E19.57954
G1 X120.29 Y98.547 E19.58214
G1 X120.439 Y98.62 E19.58554
G1 X120.644 Y98.756 E19.59175
G1 X121.624 Y99.406 E19.63092
G1 X122.541 Y99.795 E19.6641
G1 X123.227 Y99.726 E19.68707
G1 X123.752 Y99.278 E19.71006
G1 X124.046 Y98.404 E19.74077
G1 X124.179 Y97.315 E19.77732
G1 X124.255 Y96.905 E19.79121
G1 X125.53 Y96.377 E19.83718
G1 X125.625 Y96.379 E19.84034
G1 X128.217 Y96.777 E19.92769
G1 X129.388 Y96.806 E19.96671
G1 X129.556 Y96.781 E19.97237
G1 X130.09 Y96.646 E19.99072
G1 X130.647 Y96.251 E20.01346
G1 X131.122 Y95.319 E20.04831
G1 X131.28 Y94.385 E20.07986
G1 X131.33 Y93.974 E20.09365
G1 X131.918 Y93.731 E20.11485
G1 X132.855 Y94.309 E20.15152
G1 X133.347 Y94.528 E20.16946
G1 X134.125 Y94.667 E20.19578
G1 X134.882 Y94.601 E20.22109
G1 X136.132 Y94.247 E20.26437
G1 X137.188 Y93.805 E20.3025
G1 X138.179 Y93.278 E20.33989
G1 X139.165 Y92.624 E20.3793
G1 X140.068 Y91.879 E20.4183
G1 X141.737 Y90.174 E20.49777
G1 X142.323 Y89.422 E20.52953
G1 X145 Y88.312 E20.62606
G1 X153.036 Y91.641 E20.91581
G1 X153.037 Y91.642 E20.91585
G1 X153.268 Y91.737 E20.92417
G1 X153.17 Y91.968 E20.92956
G1 X151.665 Y95.515 E21.0579
G1 X153.065 Y96.111 E21.10859
G1 X153.192 Y96.165 E21.11318
G1 X153.477 Y96.287 E21.12351
G1 X153.418 Y96.356
G1 X153.328 Y96.461 E21.12736
G1 X150.369 Y99.912 E21.27878
G1 X145 Y97.688 E21.47236
G1 X116.849 Y109.349 E22.48735
G1 X105.188 Y137.5 E23.50234
G1 X114.289 Y159.473 E24.29456
G1 X114.396 Y160.339 E24.32363
G1 X114.587 Y161.438 E24.36079
G1 X114.831 Y162.528 E24.39799
G1 X115.129 Y163.604 E24.43518
G1 X115.48 Y164.665 E24.47241
G1 X115.882 Y165.706 E24.50958
G1 X116.334 Y166.727 E24.54678
G1 X116.836 Y167.725 E24.58399
G1 X117.387 Y168.696 E24.62118
G1 X117.984 Y169.639 E24.65835
G1 X118.626 Y170.552 E24.69553
G1 X119.314 Y171.433 E24.73277
G1 X120.043 Y172.278 E24.76994
G1 X120.813 Y173.087 E24.80715
G1 X121.622 Y173.857 E24.84435
G1 X122.467 Y174.586 E24.88152
G1 X123.348 Y175.274 E24.91876
G1 X124.26 Y175.916 E24.95591
G1 X125.204 Y176.514 E24.99313
G1 X126.175 Y177.064 E25.03031
G1 X127.173 Y177.566 E25.06752
G1 X128.194 Y178.018 E25.10471
G1 X129.235 Y178.42 E25.14188
G1 X130.296 Y178.771 E25.17911
G1 X131.372 Y179.069 E25.2163
G1 X132.462 Y179.313 E25.25351
G1 X133.562 Y179.504 E25.2907
G1 X134.671 Y179.641 E25.32792
G1 X135.784 Y179.723 E25.36509
G1 X136.9 Y179.75 E25.40228
G1 X138.016 Y179.723 E25.43946
G1 X139.129 Y179.641 E25.47664
G1 X140.238 Y179.504 E25.51386
G1 X141.338 Y179.313 E25.55105
G1 X142.428 Y179.069 E25.58826
G1 X143.504 Y178.771 E25.62545
G1 X144.565 Y178.42 E25.66267
G1 X145.606 Y178.018 E25.69985
G1 X146.627 Y177.566 E25.73704
G1 X147.625 Y177.064 E25.77425
G1 X148.596 Y176.514 E25.81143
G1 X149.54 Y175.916 E25.84865
G1 X150.452 Y175.274 E25.8858
G1 X151.053 Y174.805 E25.91119
G1 X173.151 Y165.651 E26.70794
G1 X184.812 Y137.5 E27.72293
G1 X181.582 Y129.703 E28.00405
G1 X181.363 Y129.173 E28.02287
G1 X181.359 Y129.161 E28.02329
G1 X173.151 Y109.349 E28.73763
G1 X156.657 Y102.516 E29.33233
G1 X156.464 Y102.437 E29.33928
G1 X156.23 Y102.34 E29.34772
G1 X156.053 Y102.266 E29.35411
G1 X156.266 Y102.249 E29.35528
G1 X156.579 Y102.157 E29.36067
G1 X156.763 Y102.059 E29.36637
G1 X156.863 Y102.006 E29.37014
G1 X157.1 Y101.804 E29.38051
G1 X157.288 Y101.571 E29.39048
G1 X157.424 Y101.312 E29.40023
G1 X157.503 Y101.073 E29.40861
G1 X157.543 Y100.827 E29.41691
G1 X157.543 Y100.577 E29.42524
G1 X157.533 Y100.518 E29.42724
G1 X157.622 Y100.47 E29.4306
G1 X157.851 Y100.286 E29.44039
G1 X158.049 Y100.056 E29.4505
G1 X158.194 Y99.805 E29.46015
G1 X158.265 Y99.637 E29.46623
G1 X158.317 Y99.467 E29.47215
G1 X158.352 Y99.292 E29.4781
G1 X158.369 Y99.114 E29.48405
G1 X158.368 Y98.934 E29.49005
G1 X158.359 Y98.862 E29.49246
G1 X158.346 Y98.739 E29.49658
G1 X158.262 Y98.426 E29.50738
G1 X158.202 Y98.292 E29.51227
G1 X158.3 Y98.333 E29.51228
G1 X158.484 Y98.411 E29.51664
G1 X158.598 Y98.459 E29.52025
G1 X160.695 Y99.35 E29.59614
G1 X160.925 Y99.447 E29.60446
G1 X161.022 Y99.217 E29.60982
G1 X162.562 Y95.586 E29.7412
G1 X179.781 Y102.719 E30.36204
G1 X181.86 Y107.743 E30.54315
G1 X181.897 Y107.834 E30.54643
G1 X181.965 Y107.998 E30.55234
G1 X182.091 Y108.301 E30.56327
G1 X182.213 Y108.596 E30.57391
G1 X182.24 Y108.659 E30.57619
G1 X183.034 Y110.577 E30.64534
G1 X183.13 Y110.808 E30.65367
G1 X183.952 Y112.791 E30.72517
G1 X184.292 Y113.611 E30.75474
G1 X184.965 Y115.236 E30.81333
G1 X185.952 Y117.616 E30.89916
G1 X186.005 Y117.746 E30.90383
G1 X186.205 Y118.229 E30.92125
G1 X186.964 Y120.06 E30.98727
G1 X187.218 Y120.673 E31.00937
G1 X186.623 Y120.38 E31.02113
G1 X185.979 Y120.062 E31.04505
G1 X185.738 Y118.404 E31.10086
G1 X185.664 Y117.887 E31.116
G1 X185.53 Y117.844 E31.12013
G1 X184.777 Y117.6 E31.14649
G1 X183.244 Y119.173 E31.21966
G1 X181.669 Y118.902 E31.27289
G1 X181.192 Y118.821 E31.28901
G1 X181.535 Y118.48 E31.29795
G1 X184.672 Y115.357 E31.4454
G1 X183.959 Y113.75 E31.48504
G1 X181.269 Y113.976 E31.57496
G1 X183.597 Y112.939 E31.65986
G1 X182.724 Y110.976 E31.71876
G1 X180.375 Y112.021 E31.8044
G1 X180.251 Y112.076 E31.80892
G1 X180.19 Y112.103 E31.81114
G1 X180.131 Y112.13 E31.8133
G1 X180.081 Y112.03 E31.81702
G1 X180.075 Y111.99 E31.81733
G1 X180.11 Y111.925 E31.81803
G1 X180.161 Y111.874 E31.81861
G1 X180.277 Y111.801 E31.82074
G1 X182.62 Y110.748 E31.86264
G1 X181.778 Y108.85 E31.92808
G1 X181.767 Y108.78 E31.9304
G1 X181.673 Y108.474 E31.94036
G1 X181.543 Y108.174 E31.95025
G1 X181.454 Y108.016 E31.95591
G1 X181.398 Y107.935 E31.95911
G1 X181.317 Y107.821 E31.96377
G1 X181.152 Y107.648 E31.97174
G1 X181.006 Y107.529 E31.97801
G1 X180.801 Y107.404 E31.98601
G1 X180.722 Y107.372 E31.98885
G1 X180.71 Y106.745 E32.00974
G1 X180.682 Y106.514 E32.01749
G1 X180.631 Y106.271 E32.02576
G1 X180.558 Y106.009 E32.03482
G1 X180.475 Y105.776 E32.04306
G1 X180.358 Y105.51 E32.05274
G1 X180.235 Y105.282 E32.06137
G1 X180.032 Y104.987 E32.07329
G1 X179.84 Y104.772 E32.0829
G1 X179.661 Y104.608 E32.09098
G1 X179.421 Y104.431 E32.10092
G1 X179.201 Y104.308 E32.10931
G1 X178.989 Y104.215 E32.11702
G1 X178.763 Y104.145 E32.1249
G1 X178.523 Y104.097 E32.13306
G1 X178.256 Y104.076 E32.14198
G1 X178.019 Y104.081 E32.14987
G1 X177.817 Y104.105 E32.15665
G1 X177.576 Y104.154 E32.16484
G1 X177.25 Y104.26 E32.17626
G1 X177.014 Y104.365 E32.18487
G1 X176.794 Y104.489 E32.19328
G1 X176.643 Y104.594 E32.1994
G1 X176.608 Y104.618 E32.20082
G1 X176.59 Y104.63 E32.20154
G1 X176.478 Y104.726 E32.20645
G1 X176.4 Y104.792 E32.20986
G1 X176.284 Y104.915 E32.21549
G1 X176.303 Y104.779 E32.21566
G1 X176.331 Y104.591 E32.21877
G1 X176.336 Y104.561
G1 X176.34 Y104.468 E32.22008
G1 X176.351 Y104.245 E32.22606
G1 X176.349 Y104.202 E32.22744
G1 X176.334 Y103.925 E32.23668
G1 X176.284 Y103.608 E32.24737
G1 X176.205 Y103.301 E32.25793
G1 X176.096 Y103.001 E32.26856
G1 X175.958 Y102.713 E32.2792
G1 X175.793 Y102.441 E32.2898
G1 X175.602 Y102.186 E32.30041
G1 X175.386 Y101.95 E32.31106
G1 X175.149 Y101.738 E32.32166
G1 X174.892 Y101.548 E32.3323
G1 X174.618 Y101.386 E32.34291
G1 X174.327 Y101.25 E32.35361
G1 X174.026 Y101.145 E32.36422
G1 X173.716 Y101.069 E32.37486
G1 X173.4 Y101.025 E32.38548
G1 X173.081 Y101.01 E32.39612
G1 X172.763 Y101.028 E32.40673
G1 X172.449 Y101.077 E32.41732
G1 X172.139 Y101.156 E32.42797
G1 X171.84 Y101.265 E32.43857
G1 X171.552 Y101.403 E32.44921
G1 X171.3 Y101.556 E32.45903
G1 X171.28 Y101.568 E32.45981
G1 X171.081 Y101.716 E32.46807
G1 X171.023 Y101.76 E32.4705
G1 X170.996 Y101.785 E32.47172
G1 X170.899 Y101.874 E32.47611
G1 X170.894 Y101.767 E32.47644
G1 X170.888 Y101.669 E32.47718
G1 X170.883 Y101.632
G1 X170.846 Y101.402 E32.48273
G1 X170.84 Y101.379 E32.48352
G1 X170.779 Y101.142 E32.49167
G1 X170.688 Y100.888 E32.50066
G1 X170.57 Y100.641 E32.50978
G1 X170.43 Y100.414 E32.51866
G1 X170.27 Y100.198 E32.52762
G1 X170.086 Y99.998 E32.53667
G1 X169.886 Y99.819 E32.54561
G1 X169.668 Y99.658 E32.55464
G1 X169.435 Y99.521 E32.56364
G1 X169.19 Y99.406 E32.57266
G1 X168.936 Y99.317 E32.58162
G1 X168.672 Y99.252 E32.59068
G1 X168.406 Y99.216 E32.59962
G1 X168.138 Y99.203 E32.60856
G1 X167.868 Y99.218 E32.61756
G1 X167.601 Y99.258 E32.62656
G1 X167.34 Y99.326 E32.63554
G1 X167.085 Y99.417 E32.64456
G1 X166.841 Y99.535 E32.65359
G1 X166.64 Y99.657 E32.66142
G1 X166.611 Y99.675 E32.66256
G1 X166.514 Y99.747 E32.66658
G1 X166.448 Y99.796 E32.66932
G1 X166.394 Y99.837 E32.67158
G1 X166.35 Y99.877 E32.67356
G1 X166.346 Y99.845
G1 X166.328 Y99.715 E32.67559
G1 X166.314 Y99.617 E32.67734
G1 X166.259 Y99.405 E32.6831
G1 X166.248 Y99.372 E32.68426
G1 X166.185 Y99.196 E32.69049
G1 X166.088 Y98.998 E32.69783
G1 X165.975 Y98.809 E32.70517
G1 X165.841 Y98.63 E32.71262
G1 X165.692 Y98.47 E32.7199
G1 X165.53 Y98.322 E32.72721
G1 X165.349 Y98.19 E32.73467
G1 X165.16 Y98.078 E32.74199
G1 X164.961 Y97.985 E32.74931
G1 X164.751 Y97.911 E32.75672
G1 X164.537 Y97.858 E32.76407
G1 X164.316 Y97.827 E32.7715
G1 X164.096 Y97.818 E32.77884
