;Generated by Cura LulzBot Edition GCodeWriter Version: 3.6.23
;FLAVOR:Marlin
;TIME:548
;Filament used: 0.218877m
;Layer height: 0.25
;Generated with Cura_SteamEngine 3.6.23
M82 ;absolute extrusion mode
;This G-Code has been generated specifically for the LulzBot TAZ 5 with standard extruder
M75			 ; start GLCD timer
M140 S60.0    ; start bed heating up
G90                      ; absolute positioning
M107                     ; disable fans
M82                      ; set extruder to absolute mode
G28 X0 Y0                ; home X and Y
G28 Z0                   ; home Z
G1 Z15.0 F175 ; move extruder up
M117 Heating...                     ; progress indicator message on LCD
M109 R200  ; wait for extruder to reach printing temp
M190 R60.0    ; wait for bed to reach printing temp
G92 E0                   ; set extruder position to 0
G1 F200 E0               ; prime the nozzle with filament
G92 E0                   ; re-set extruder position to 0
G1 F175       ; set travel speed
M203 X192 Y208 Z3        ; set limits on travel speed
M117 TAZ 5 Printing...   ; progress indicator message on LCD

M221 S100 T0
G92 E0
G1 F600 E-1
;LAYER_COUNT:2
;LAYER:0
M107
G0 F2625 X20.556 Y15.614 Z0.425
;TYPE:SKIRT
G1 F600 E0
G1 F900 X20.924 Y15.261 E0.01699
G1 X21.382 Y14.947 E0.03548
G1 X23.482 Y13.756 E0.1159
G1 X23.943 Y13.54 E0.13286
G1 X24.433 Y13.399 E0.14984
G1 X24.801 Y13.345 E0.16223
G1 X27.495 Y13.109 E0.25232
G1 X28.231 Y13.129 E0.27684
G1 X30.654 Y13.469 E0.35834
G1 X30.949 Y13.524 E0.36834
G1 X32.651 Y13.926 E0.42659
G1 X32.866 Y13.985 E0.43402
G1 X35.348 Y14.754 E0.52057
G1 X35.713 Y14.891 E0.53356
G1 X44.102 Y18.642 E0.83966
G1 X44.387 Y18.787 E0.85031
G1 X55.154 Y24.939 E1.26338
G1 X55.322 Y25.042 E1.26995
G1 X66.462 Y32.337 E1.71351
G1 X66.566 Y32.407 E1.71768
G1 X78.171 Y40.66 E2.19204
G1 X78.24 Y40.711 E2.19489
G1 X86.218 Y46.709 E2.52737
G1 X90.771 Y49.772 E2.71016
G1 X95.468 Y52.558 E2.89207
G1 X100.317 Y55.076 E3.07407
G1 X105.322 Y57.324 E3.25684
G1 X110.43 Y59.281 E3.43905
G1 X115.638 Y60.945 E3.62117
G1 X120.991 Y62.328 E3.80533
G1 X123.602 Y62.883 E3.89425
G1 X129.007 Y63.799 E4.07686
G1 X134.452 Y64.406 E4.25936
G1 X139.912 Y64.705 E4.4415
G1 X145.395 Y64.694 E4.62414
G1 X150.851 Y64.375 E4.8062
G1 X156.281 Y63.747 E4.98828
G1 X161.687 Y62.81 E5.17104
G1 X164.356 Y62.229 E5.26202
G1 X166.979 Y61.583 E5.35201
G1 X172.265 Y60.035 E5.53548
G1 X177.406 Y58.208 E5.71722
G1 X182.463 Y56.082 E5.89995
G1 X187.371 Y53.684 E6.08191
G1 X192.164 Y50.997 E6.26495
G1 X196.765 Y48.064 E6.4467
G1 X201.202 Y44.868 E6.62885
G1 X214.085 Y34.36 E7.18263
G1 X214.181 Y34.284 E7.18671
G1 X226.219 Y25.198 E7.6891
G1 X226.376 Y25.087 E7.6955
G1 X236.562 Y18.305 E8.10313
G1 X236.788 Y18.167 E8.11195
G1 X245.509 Y13.336 E8.44404
G1 X245.928 Y13.141 E8.45944
G1 X254.034 Y10.057 E8.74833
G1 X254.674 Y9.886 E8.7704
G1 X258.296 Y9.304 E8.8926
G1 X258.865 Y9.263 E8.9116
G1 X262.15 Y9.317 E9.02104
G1 X262.658 Y9.366 E9.03804
G1 X263.154 Y9.494 E9.0551
G1 X266.091 Y10.504 E9.15856
G1 X266.558 Y10.707 E9.17552
G1 X266.999 Y10.989 E9.19296
G1 X269.184 Y12.648 E9.28434
G1 X269.565 Y12.987 E9.30133
G1 X269.994 Y13.544 E9.32475
G1 X271.505 Y16.021 E9.4214
G1 X271.735 Y16.475 E9.43835
G1 X271.931 Y17.148 E9.4617
G1 X272.446 Y20.066 E9.5604
G1 X272.494 Y20.573 E9.57737
G1 X272.487 Y20.858 E9.58686
G1 X272.26 Y24.098 E9.69505
G1 X272.14 Y24.773 E9.71789
G1 X271.12 Y28.304 E9.84032
G1 X270.914 Y28.837 E9.85935
G1 X267.013 Y36.764 E10.15365
G1 X266.805 Y37.125 E10.16752
G1 X261.295 Y45.432 E10.49957
G1 X261.167 Y45.612 E10.50693
G1 X253.768 Y55.272 E10.91225
G1 X253.694 Y55.366 E10.91623
G1 X244.794 Y66.139 E11.38171
G1 X244.762 Y66.176 E11.38334
G1 X239.809 Y71.992 E11.6378
G1 X236.328 Y76.314 E11.82266
G1 X233.147 Y80.756 E12.00465
G1 X230.224 Y85.37 E12.18659
G1 X227.557 Y90.157 E12.36913
G1 X225.169 Y95.078 E12.55133
G1 X223.061 Y100.133 E12.73376
G1 X221.244 Y105.295 E12.91605
G1 X219.711 Y110.587 E13.09958
G1 X219.074 Y113.198 E13.1891
G1 X218 Y118.575 E13.37175
G1 X217.235 Y123.984 E13.55372
G1 X216.774 Y129.452 E13.73651
G1 X216.625 Y134.914 E13.91852
G1 X216.785 Y140.395 E14.10117
G1 X217.252 Y145.838 E14.28314
G1 X218.028 Y151.251 E14.4653
G1 X219.111 Y156.626 E14.64794
G1 X219.755 Y159.25 E14.73794
G1 X221.295 Y164.528 E14.92108
G1 X223.122 Y169.691 E15.10351
G1 X225.236 Y174.733 E15.28563
G1 X227.635 Y179.659 E15.46814
G1 X230.306 Y184.434 E15.65039
G1 X233.25 Y189.062 E15.8331
G1 X234.797 Y191.278 E15.92312
G1 X249.425 Y210.419 E16.72559
G1 X249.472 Y210.482 E16.72821
G1 X257.066 Y220.935 E17.15858
G1 X257.143 Y221.045 E17.16306
G1 X263.677 Y230.869 E17.55607
G1 X263.795 Y231.06 E17.56355
G1 X269.15 Y240.46 E17.92391
G1 X269.353 Y240.885 E17.9396
G1 X272.325 Y248.482 E18.21133
G1 X272.482 Y249.015 E18.22984
G1 X273.172 Y252.391 E18.34462
G1 X273.238 Y253.04 E18.36635
G1 X273.24 Y256.063 E18.46705
G1 X273.2 Y256.571 E18.48402
G1 X273.104 Y256.995 E18.4985
G1 X272.288 Y259.727 E18.59348
G1 X272.104 Y260.202 E18.61045
G1 X271.756 Y260.771 E18.63267
G1 X270.121 Y262.909 E18.72232
G1 X269.78 Y263.288 E18.7393
G1 X269.385 Y263.61 E18.75628
G1 X269.149 Y263.758 E18.76556
G1 X267.026 Y264.969 E18.84697
G1 X266.565 Y265.186 E18.86395
G1 X266.076 Y265.328 E18.88091
G1 X265.812 Y265.372 E18.88982
G1 X263.101 Y265.705 E18.98081
G1 X262.592 Y265.727 E18.99778
G1 X262.32 Y265.706 E19.00686
G1 X259.536 Y265.374 E19.10026
G1 X259.007 Y265.266 E19.11824
G1 X255.688 Y264.293 E19.23345
G1 X255.254 Y264.131 E19.24888
G1 X247.471 Y260.584 E19.53379
G1 X247.169 Y260.427 E19.54513
G1 X238.689 Y255.429 E19.87301
G1 X238.513 Y255.318 E19.87994
G1 X228.25 Y248.348 E20.29319
G1 X228.112 Y248.248 E20.29887
G1 X215.931 Y239.008 E20.80815
G1 X215.849 Y238.944 E20.81162
G1 X203.726 Y229.119 E21.33141
G1 X199.286 Y225.902 E21.51405
G1 X194.678 Y222.944 E21.69644
G1 X189.916 Y220.256 E21.87859
G1 X185.005 Y217.84 E22.0609
G1 X179.916 Y215.682 E22.24503
G1 X177.431 Y214.753 E22.3334
G1 X172.202 Y213.044 E22.51665
G1 X166.889 Y211.634 E22.69976
G1 X164.228 Y211.046 E22.79053
G1 X161.572 Y210.541 E22.88059
G1 X156.146 Y209.742 E23.06328
G1 X150.684 Y209.251 E23.24596
G1 X145.223 Y209.07 E23.42796
G1 X139.76 Y209.199 E23.60999
G1 X134.291 Y209.637 E23.79275
G1 X128.878 Y210.381 E23.97475
G1 X123.462 Y211.441 E24.15858
G1 X120.892 Y212.057 E24.24661
G1 X115.586 Y213.571 E24.43041
G1 X110.408 Y215.371 E24.61302
G1 X105.36 Y217.454 E24.79492
G1 X100.414 Y219.829 E24.97769
G1 X95.622 Y222.474 E25.16001
G1 X90.98 Y225.389 E25.3426
G1 X88.754 Y226.923 E25.43265
G1 X85.654 Y229.218 E25.56113
G1 X73.615 Y238.472 E26.06693
G1 X73.53 Y238.535 E26.07046
G1 X62.502 Y246.454 E26.5227
G1 X62.38 Y246.537 E26.52762
G1 X51.376 Y253.703 E26.96504
G1 X51.226 Y253.795 E26.9709
G1 X41.518 Y259.397 E27.34425
G1 X41.294 Y259.515 E27.35269
G1 X34.019 Y262.987 E27.6212
G1 X33.754 Y263.099 E27.63079
G1 X30.982 Y264.132 E27.72933
G1 X30.705 Y264.222 E27.73903
G1 X29.071 Y264.669 E27.79546
G1 X28.83 Y264.725 E27.8037
G1 X26.839 Y265.11 E27.87125
G1 X26.142 Y265.168 E27.89455
G1 X23.779 Y265.11 E27.97328
G1 X23.272 Y265.058 E27.99026
G1 X22.78 Y264.927 E28.00722
G1 X22.349 Y264.739 E28.02288
G1 X20.387 Y263.71 E28.09668
G1 X19.956 Y263.439 E28.11364
G1 X19.573 Y263.104 E28.13059
G1 X19.129 Y262.536 E28.1546
G1 X17.758 Y260.309 E28.24172
G1 X17.526 Y259.855 E28.2587
G1 X17.332 Y259.204 E28.28133
G1 X16.817 Y256.459 E28.37436
G1 X16.762 Y255.953 E28.39131
G1 X16.769 Y255.628 E28.40214
G1 X16.999 Y252.415 E28.50944
G1 X17.077 Y251.905 E28.52663
G1 X17.764 Y248.975 E28.62687
G1 X17.778 Y248.918 E28.62883
G1 X17.934 Y248.303 E28.64996
G1 X18.067 Y247.893 E28.66432
G1 X21.262 Y239.918 E28.9505
G1 X21.352 Y239.715 E28.95789
G1 X22.004 Y238.363 E29.00789
G1 X22.08 Y238.214 E29.01346
G1 X26.939 Y229.339 E29.3505
G1 X27.051 Y229.15 E29.35782
G1 X34.535 Y217.439 E29.82077
G1 X34.644 Y217.28 E29.82719
G1 X43.13 Y205.589 E30.3084
G1 X43.2 Y205.496 E30.31228
G1 X51.769 Y194.537 E30.77567
G1 X55.529 Y189.397 E30.98781
G1 X58.474 Y184.808 E31.16944
G1 X61.168 Y180.037 E31.35195
G1 X63.587 Y175.122 E31.53442
G1 X65.719 Y170.092 E31.7164
G1 X67.568 Y164.935 E31.89889
G1 X69.123 Y159.679 E32.08147
G1 X69.786 Y157.029 E32.17247
G1 X70.887 Y151.677 E32.35448
G1 X71.684 Y146.269 E32.53656
G1 X72.175 Y140.808 E32.71921
G1 X72.357 Y135.344 E32.90131
G1 X72.228 Y129.88 E33.08337
G1 X71.791 Y124.414 E33.26603
G1 X71.047 Y119 E33.44807
G1 X69.992 Y113.608 E33.63108
G1 X69.365 Y110.991 E33.72072
G1 X67.858 Y105.709 E33.90369
G1 X66.061 Y100.538 E34.08604
G1 X63.972 Y95.473 E34.26854
G1 X61.598 Y90.528 E34.45126
G1 X58.967 Y85.76 E34.63266
G1 X56.046 Y81.111 E34.81555
G1 X52.886 Y76.66 E34.99738
G1 X45.107 Y66.982 E35.41099
G1 X45.07 Y66.935 E35.41298
G1 X37.042 Y56.561 E35.84993
G1 X36.978 Y56.476 E35.85347
G1 X29.102 Y45.577 E36.3014
G1 X28.992 Y45.415 E36.30792
G1 X23.539 Y36.824 E36.64687
G1 X23.375 Y36.532 E36.65802
G1 X19.926 Y29.615 E36.91549
G1 X19.747 Y29.18 E36.93115
G1 X18.706 Y26.015 E37.04214
G1 X18.576 Y25.464 E37.061
G1 X18.168 Y22.636 E37.15617
G1 X18.135 Y22.128 E37.17313
G1 X18.166 Y21.724 E37.18663
G1 X18.504 Y19.295 E37.26832
G1 X18.614 Y18.797 E37.28531
G1 X18.8 Y18.323 E37.30227
G1 X18.987 Y17.989 E37.31502
G1 X20.249 Y16.02 E37.39292
G1 X20.556 Y15.614 E37.40988
G1 F600 E36.40988
;MESH:
G0 F2625 X22.446 Y17.432
G0 X22.478 Y17.462
G0 X24.932 Y19.82
G0 X24.963 Y19.85
G0 X24.99 Y19.876
G0 X24.35 Y19.18
G0 X108.486 Y125.657
G0 X110.77 Y127.69
G0 X114.145 Y131.401
G0 X115.042 Y132.983
G0 X115.391 Y134.394
G0 X115.292 Y134.387
;TYPE:WALL-OUTER
G1 F600 E37.40988
G1 F900 X115.005 Y132.997 E37.45716
G1 X114.113 Y131.424 E37.51739
G1 X110.742 Y127.718 E37.68427
G1 X105.674 Y123.107 E37.9125
G1 X99.151 Y117.56 E38.19773
G1 X91.636 Y111.023 E38.52951
G1 X83.497 Y103.575 E38.897
G1 X83.488 Y103.567 E38.89741
G1 X74.996 Y95.136 E39.29601
G1 X74.985 Y95.123 E39.29658
G1 X66.67 Y85.724 E39.71459
G1 X66.663 Y85.716 E39.71495
G1 X57.435 Y74.486 E40.19912
G1 X48.551 Y63.43 E40.67156
G1 X40.472 Y53.005 E41.11089
G1 X40.465 Y52.997 E41.11125
G1 X33.47 Y43.312 E41.5092
G1 X33.461 Y43.299 E41.50973
G1 X27.95 Y34.749 E41.84857
G1 X27.942 Y34.738 E41.84902
G1 X27.931 Y34.715 E41.84987
G1 X24.367 Y27.588 E42.11531
G1 X24.355 Y27.565 E42.11617
G1 X24.348 Y27.543 E42.11694
G1 X23.361 Y24.642 E42.21901
G1 X23.348 Y24.606 E42.22029
G1 X23.344 Y24.578 E42.22123
G1 X22.992 Y22.172 E42.30223
G1 X22.984 Y22.122 E42.30391
G1 X22.991 Y22.07 E42.30566
G1 X23.233 Y20.318 E42.36458
G1 X23.244 Y20.24 E42.3672
G1 X23.286 Y20.174 E42.3698
G1 X24.038 Y18.983 E42.41672
G1 X24.091 Y18.9 E42.42
G1 X24.178 Y18.855 E42.42327
G1 X25.484 Y18.17 E42.47239
G1 X25.549 Y18.136 E42.47483
G1 X25.622 Y18.13 E42.47727
G1 X27.651 Y17.951 E42.54512
G1 X27.694 Y17.947 E42.54656
G1 X27.736 Y17.953 E42.54798
G1 X30.477 Y18.361 E42.64029
G1 X30.502 Y18.365 E42.64113
G1 X30.528 Y18.373 E42.64203
G1 X33.94 Y19.413 E42.76085
G1 X33.962 Y19.42 E42.76162
G1 X33.983 Y19.429 E42.76238
G1 X42.143 Y23.105 E43.0605
G1 X42.163 Y23.114 E43.06123
G1 X42.175 Y23.12 E43.06168
G1 X51.989 Y28.743 E43.43844
G1 X52.002 Y28.751 E43.43895
G1 X62.955 Y35.859 E43.87389
G1 X74.663 Y44.177 E44.3523
G1 X86.753 Y53.283 E44.85647
G1 X86.762 Y53.29 E44.85685
G1 X98.741 Y62.856 E45.36749
G1 X98.749 Y62.863 E45.36785
G1 X106.662 Y69.684 E45.71584
G1 X114.35 Y76.739 E46.06342
G1 X121.576 Y83.732 E46.39838
G1 X128.163 Y90.144 E46.70459
G1 X134 Y95.805 E46.97544
G1 X138.843 Y100.305 E47.19565
G1 X142.628 Y103.241 E47.35522
G1 X144.058 Y104.089 E47.4106
G1 X145.307 Y104.376 E47.45329
G1 X146.613 Y104.037 E47.49823
G1 X148.045 Y103.137 E47.55457
G1 X152.005 Y99.857 E47.72585
G1 X157.136 Y94.899 E47.96352
G1 X163.371 Y88.552 E48.25989
G1 X170.53 Y81.112 E48.60382
G1 X178.496 Y72.977 E48.98308
G1 X187.096 Y64.495 E49.38544
G1 X196.279 Y56.006 E49.80201
G1 X207.11 Y46.496 E50.28213
G1 X218.009 Y37.495 E50.75298
G1 X218.018 Y37.488 E50.75336
G1 X228.625 Y29.407 E51.19754
G1 X228.639 Y29.396 E51.19813
G1 X238.68 Y22.686 E51.60041
G1 X238.694 Y22.677 E51.60097
G1 X238.707 Y22.67 E51.60146
G1 X247.781 Y17.677 E51.94645
G1 X247.806 Y17.663 E51.94741
G1 X247.825 Y17.656 E51.94808
G1 X255.598 Y14.662 E52.22555
G1 X255.632 Y14.649 E52.22676
G1 X255.67 Y14.643 E52.22804
G1 X258.866 Y14.121 E52.33591
G1 X258.898 Y14.115 E52.337
G1 X258.926 Y14.115 E52.33793
G1 X261.676 Y14.115 E52.42953
G1 X261.73 Y14.115 E52.43133
G1 X261.783 Y14.131 E52.43317
G1 X264.099 Y14.844 E52.51389
G1 X264.165 Y14.865 E52.5162
G1 X264.217 Y14.906 E52.51841
G1 X265.952 Y16.281 E52.59215
G1 X266.005 Y16.323 E52.5944
G1 X266.039 Y16.38 E52.59661
G1 X267.173 Y18.287 E52.67052
G1 X267.206 Y18.343 E52.67268
G1 X267.218 Y18.402 E52.67469
G1 X267.691 Y20.715 E52.75333
G1 X267.703 Y20.77 E52.75521
G1 X267.697 Y20.827 E52.75711
G1 X267.404 Y23.579 E52.8493
G1 X267.4 Y23.613 E52.85044
G1 X267.392 Y23.642 E52.85145
G1 X266.464 Y26.834 E52.96217
G1 X266.454 Y26.866 E52.96329
G1 X266.44 Y26.894 E52.96433
G1 X262.701 Y34.428 E53.2445
G1 X262.692 Y34.445 E53.24514
G1 X262.678 Y34.466 E53.24598
G1 X256.879 Y43.247 E53.59651
G1 X256.87 Y43.261 E53.59706
G1 X249.351 Y52.956 E54.00575
G1 X240.749 Y63.387 E54.45612
G1 X231.466 Y74.212 E54.93113
G1 X221.956 Y85.381 E55.41977
G1 X213.818 Y94.603 E55.82946
G1 X205.848 Y103.313 E56.22273
G1 X198.28 Y111.222 E56.58736
G1 X191.405 Y118.265 E56.91521
G1 X185.57 Y124.327 E57.19548
G1 X181.006 Y129.288 E57.42003
G1 X178.01 Y132.961 E57.57792
G1 X177.214 Y134.286 E57.62941
G1 X176.886 Y135.412 E57.66847
G1 X177.263 Y136.731 E57.71417
G1 X178.328 Y138.113 E57.77229
G1 X179.91 Y139.978 E57.85375
G1 X182.012 Y142.192 E57.95544
G1 X184.581 Y144.761 E58.07646
G1 X187.556 Y147.677 E58.21523
G1 X194.604 Y154.492 E58.5418
G1 X202.625 Y162.453 E58.91824
G1 X211.284 Y171.337 E59.33149
G1 X220.062 Y181.029 E59.76706
G1 X220.07 Y181.039 E59.76749
G1 X228.555 Y191.296 E60.2109
G1 X237.444 Y202.76 E60.69412
G1 X245.867 Y213.87 E61.15853
G1 X253.549 Y224.414 E61.59309
G1 X253.558 Y224.426 E61.59359
G1 X259.982 Y234.116 E61.98085
G1 X259.988 Y234.125 E61.98121
G1 X259.995 Y234.138 E61.98171
G1 X264.82 Y242.748 E62.31047
G1 X264.831 Y242.768 E62.31123
G1 X264.839 Y242.79 E62.31201
G1 X267.775 Y250.097 E62.57432
G1 X267.79 Y250.134 E62.57565
G1 X267.796 Y250.165 E62.57671
G1 X268.378 Y253.19 E62.67932
G1 X268.384 Y253.221 E62.68037
G1 X268.384 Y253.259 E62.68164
G1 X268.384 Y255.837 E62.76751
G1 X268.384 Y255.889 E62.76924
G1 X268.37 Y255.938 E62.77094
G1 X267.775 Y258.021 E62.8431
G1 X267.755 Y258.09 E62.84549
G1 X267.712 Y258.146 E62.84784
G1 X266.446 Y259.772 E62.91649
G1 X266.399 Y259.832 E62.91903
G1 X266.333 Y259.868 E62.92153
G1 X264.986 Y260.603 E62.97265
G1 X264.925 Y260.637 E62.97497
G1 X264.856 Y260.645 E62.97729
G1 X262.942 Y260.884 E63.04154
G1 X262.896 Y260.89 E63.04308
G1 X262.848 Y260.884 E63.04469
G1 X260.275 Y260.533 E63.13119
G1 X260.242 Y260.528 E63.13231
G1 X260.22 Y260.522 E63.13307
G1 X257.148 Y259.595 E63.23995
G1 X257.13 Y259.589 E63.24059
G1 X257.105 Y259.578 E63.2415
G1 X249.574 Y256.189 E63.51659
G1 X249.551 Y256.178 E63.51743
G1 X249.539 Y256.171 E63.5179
G1 X240.578 Y250.888 E63.8644
G1 X240.564 Y250.878 E63.86498
G1 X230.472 Y243.943 E64.27287
G1 X230.459 Y243.934 E64.27339
G1 X219.564 Y235.68 E64.7287
G1 X208.202 Y226.388 E65.21762
G1 X196.624 Y216.362 E65.72779
G1 X188.759 Y209.018 E66.08623
G1 X180.621 Y201.114 E66.46413
G1 X172.487 Y193.097 E66.84456
G1 X164.811 Y185.425 E67.20606
G1 X157.835 Y178.566 E67.53194
G1 X151.781 Y173.087 E67.80393
G1 X149.289 Y170.99 E67.91242
