;Generated by Cura LulzBot Edition GCodeWriter Version: 3.6.8
;FLAVOR:Marlin
;TIME:5802
;Filament used: 5.26393m
;Layer height: 0.38
;Generated with Cura_SteamEngine 3.6.8
M82 ;absolute extrusion mode
M221 S100
;This G-Code has been generated specifically for the LulzBot Mini 2 with SE 0.5mm Tool Head
M73 P0                  ; clear GLCD progress bar
M75 					; Start GLCD Print Timer
G26 					; clear potential 'probe fail' condition
M107 					; disable fans
M420 S0                 ; disable leveling matrix
G90 					; absolute positioning
M82 					; set extruder to absolute mode
G92 E0 					; set extruder position to 0
M140 S115 	; start bed heating up
G28                       ; Home Axis
G0 X160 F9999             ; Move toolhead to the right
G0 Z5 F6000               ; Move to bottom of printer
G91                       ; Set relative motion mode
M211 S0		  	  ; Turn off soft endstops
M400                      ; Finish moves
G0 Z-15 F500              ; Skip steppers against lower Z mounts
G90                       ; Return to absolute mode
M400                      ; Finish moves
M211 S1			  ; Turn soft endstops back on
M400                      ; Finish moves
G28                       ; Rehome
M140 S112 	; start bed heating up
G0 X0 Y187 Z156 F200 			; move away from endstops
M117 Mini 2 Wiping...			; progress indicator message on LCD
M109 R170 	; soften filament before retraction
G1 E-15 F75 				; retract filament
M109 R170 	; wait for extruder to reach wiping temp
G1 X45 Y176 F11520 			; move above wiper pad
G1 Z0 F1200 				; push nozzle into wiper
G1 X45 Y178 Z-.5 F4000		; wiping
G1 X55 Y176 Z-.5 F4000		; wiping
G1 X45 Y177 Z0 F4000		; wiping
G1 X55 Y176 F4000		; wiping
G1 X45 Y178 F4000		; wiping
G1 X55 Y176 F4000		; wiping
G1 X45 Y178 F4000		; wiping
G1 X55 Y176 F4000		; wiping
G1 X60 Y178 F4000		; wiping
G1 X80 Y176 F4000		; wiping
G1 X60 Y178 F4000		; wiping
G1 X80 Y176 F4000		; wiping
G1 X60 Y178 F4000		; wiping
G1 X90 Y176 F4000		; wiping
G1 X80 Y178 F4000		; wiping
G1 X100 Y176 F4000		; wiping
G1 X80 Y178 F4000		; wiping
G1 X100 Y176 F4000		; wiping
G1 X80 Y178 F4000		; wiping
G1 X100 Y176 F4000		; wiping
G1 X110 Y178 F4000		; wiping
G1 X100 Y176 F4000		; wiping
G1 X110 Y178 F4000		; wiping
G1 X100 Y176 F4000		; wiping
G1 X110 Y178 F4000		; wiping
G1 X115 Y176 Z-0.5 F1000	; wiping
G1 Z10					; raise extruder
G28 X0 Y0				; home X and Y
M109 R170	; wait for extruder to reach probe temp
M204 S300				; set probing acceleration
G29					; start auto-leveling sequence
M420 S1                     ; enable leveling matrix
M425 Z			     		; use measured Z backlash for compensation
M425 Z F0		     		; turn off measured Z backlash compensation. (if activated in the quality settings, this command will automatically be ignored)
M204 S2000				; restore standard acceleration
G1 X5 Y15 Z10 F5000			; move up off last probe point
G4 S1					; pause
M400					; wait for moves to finish
M117 Heating...				; progress indicator message on LCD
M109 R245	; wait for extruder to reach initial printing temp
M190 S112 ; wait for bed to reach printing temp
G1 Z2 E0 F75				; prime tiny bit of filment into the nozzle
M117 Mini 2 Printing...		; progress indicator message on LCD

G92 E0
G1 F600 E-1
;LAYER_COUNT:132
;LAYER:0
M107
G0 F2625 X39.292 Y56.253 Z0.425
;TYPE:SKIRT
G1 F600 E0
G1 F900 X39.833 Y55.897 E0.02157
G1 X40.186 Y55.712 E0.03485
G1 X40.753 Y55.442 E0.05577
G1 X41.354 Y55.2 E0.07735
G1 X41.752 Y55.085 E0.09115
G1 X42.303 Y54.949 E0.11005
G1 X42.94 Y54.833 E0.13162
G1 X43.551 Y54.796 E0.15201
G1 X63.38 Y54.76 E0.81252
G1 X64.128 Y54.812 E0.8375
G1 X70.998 Y55.788 E1.06864
G1 X76.338 Y56.232 E1.24713
G1 X81.679 Y56.373 E1.4251
G1 X87.057 Y56.21 E1.60433
G1 X92.373 Y55.748 E1.78207
G1 X98.778 Y54.819 E1.99766
G1 X99.537 Y54.765 E2.02301
G1 X118.387 Y54.788 E2.65091
G1 X119.034 Y54.829 E2.6725
G1 X119.955 Y55.029 E2.7039
G1 X120.951 Y55.342 E2.73867
G1 X121.556 Y55.574 E2.76026
G1 X122.127 Y55.879 E2.78182
G1 X122.572 Y56.185 E2.79981
G1 X123.4 Y56.82 E2.83457
G1 X123.889 Y57.245 E2.85615
G1 X124.404 Y57.835 E2.88224
G1 X124.747 Y58.292 E2.90127
G1 X125.103 Y58.833 E2.92284
G1 X125.288 Y59.186 E2.93612
G1 X125.558 Y59.753 E2.95704
G1 X125.8 Y60.354 E2.97862
G1 X125.914 Y60.748 E2.99228
G1 X126.05 Y61.297 E3.01112
G1 X126.167 Y61.934 E3.03269
G1 X126.204 Y62.554 E3.05338
G1 X126.239 Y98.002 E4.23417
G1 X126.208 Y98.576 E4.25332
G1 X126.142 Y99.181 E4.27359
G1 X126.032 Y99.82 E4.29519
G1 X125.944 Y100.146 E4.30644
G1 X125.786 Y100.663 E4.32444
G1 X125.559 Y101.27 E4.34603
G1 X125.327 Y101.728 E4.36313
G1 X124.943 Y102.402 E4.38897
G1 X124.588 Y102.944 E4.41055
G1 X124.258 Y103.343 E4.4278
G1 X123.891 Y103.745 E4.44593
G1 X123.426 Y104.195 E4.46749
G1 X123.165 Y104.404 E4.47863
G1 X122.708 Y104.747 E4.49766
G1 X122.167 Y105.103 E4.51923
G1 X121.814 Y105.288 E4.53251
G1 X121.247 Y105.558 E4.55343
G1 X120.646 Y105.8 E4.57501
G1 X120.248 Y105.915 E4.58881
G1 X119.697 Y106.051 E4.60771
G1 X119.06 Y106.167 E4.62928
G1 X118.441 Y106.204 E4.64994
G1 X43.995 Y106.239 E7.12976
G1 X43.424 Y106.208 E7.14881
G1 X42.819 Y106.142 E7.16908
G1 X42.18 Y106.032 E7.19068
G1 X41.84 Y105.94 E7.20241
G1 X41.315 Y105.778 E7.22071
G1 X40.709 Y105.549 E7.24229
G1 X40.375 Y105.384 E7.2547
G1 X39.825 Y105.088 E7.27551
G1 X39.275 Y104.746 E7.29708
G1 X38.927 Y104.477 E7.31173
G1 X38.472 Y104.093 E7.33156
G1 X38.004 Y103.646 E7.35312
G1 X37.509 Y103.021 E7.37968
G1 X36.929 Y102.163 E7.41418
G1 X36.6 Y101.605 E7.43575
G1 X36.342 Y101.011 E7.45733
G1 X36.192 Y100.525 E7.47427
G1 X35.936 Y99.525 E7.50865
G1 X35.814 Y98.889 E7.53023
G1 X35.772 Y98.22 E7.55255
G1 X35.79 Y62.606 E8.73887
G1 X35.83 Y61.96 E8.76043
G1 X36.034 Y61.028 E8.79221
G1 X36.346 Y60.04 E8.82672
G1 X36.578 Y59.436 E8.84827
G1 X36.884 Y58.864 E8.86988
G1 X37.187 Y58.424 E8.88768
G1 X37.821 Y57.598 E8.92236
G1 X38.247 Y57.11 E8.94394
G1 X38.835 Y56.596 E8.96996
G1 X39.292 Y56.253 E8.98899
G1 F600 E7.98899
;MESH:
G0 F2625 X96.329 Y61.511
G0 X97.632 Y62.105
G0 X111.826 Y95.383
G0 X112.403 Y96.091
G0 X113.171 Y96.571
G0 X114.053 Y96.782
G0 X114.965 Y96.697
G0 X115.789 Y96.328
G0 X116.454 Y95.709
G0 X116.887 Y94.912
G0 X117.008 Y94.188
G0 X119.732 Y62.758
;TYPE:WALL-INNER
G1 F600 E8.98899
G1 F900 X119.747 Y62.924 E8.99454
G1 X119.747 Y98.076 E10.16547
G1 X119.732 Y98.242 E10.17102
G1 X119.701 Y98.406 E10.17658
G1 X119.659 Y98.552 E10.18164
G1 X119.601 Y98.702 E10.187
G1 X119.524 Y98.857 E10.19276
G1 X119.443 Y98.987 E10.19786
G1 X119.346 Y99.116 E10.20324
G1 X119.236 Y99.236 E10.20866
G1 X119.116 Y99.346 E10.21409
G1 X118.987 Y99.443 E10.21946
G1 X118.857 Y99.524 E10.22456
G1 X118.702 Y99.601 E10.23033
G1 X118.552 Y99.659 E10.23569
G1 X118.406 Y99.701 E10.24075
G1 X118.242 Y99.732 E10.24631
G1 X118.076 Y99.747 E10.25186
G1 X43.924 Y99.747 E12.72189
G1 X43.758 Y99.732 E12.72744
G1 X43.594 Y99.701 E12.733
G1 X43.448 Y99.659 E12.73806
G1 X43.298 Y99.601 E12.74342
G1 X43.143 Y99.524 E12.74918
G1 X43.013 Y99.443 E12.75429
G1 X42.884 Y99.346 E12.75966
G1 X42.764 Y99.236 E12.76508
G1 X42.654 Y99.116 E12.77051
G1 X42.557 Y98.987 E12.77588
G1 X42.476 Y98.857 E12.78098
G1 X42.399 Y98.702 E12.78675
G1 X42.341 Y98.552 E12.79211
G1 X42.299 Y98.406 E12.79717
G1 X42.268 Y98.242 E12.80273
G1 X42.253 Y98.076 E12.80828
G1 X42.253 Y62.924 E13.97921
G1 X42.268 Y62.758 E13.98476
G1 X42.299 Y62.594 E13.99032
G1 X42.341 Y62.448 E13.99538
G1 X42.403 Y62.29 E14.00103
G1 X42.476 Y62.143 E14.0065
G1 X42.561 Y62.007 E14.01184
G1 X42.654 Y61.884 E14.01698
G1 X42.764 Y61.764 E14.0224
G1 X42.889 Y61.65 E14.02803
G1 X43.011 Y61.558 E14.03312
G1 X43.143 Y61.476 E14.0383
G1 X43.298 Y61.399 E14.04407
G1 X43.448 Y61.341 E14.04942
G1 X43.587 Y61.301 E14.05424
G1 X43.763 Y61.269 E14.0602
G1 X43.929 Y61.253 E14.06576
G1 X45.7 Y61.251 E14.12475
G1 X45.95 Y61.251 E14.13308
G1 X45.95 Y61.501 E14.13846
G1 X45.95 Y63.524 E14.20585
G1 X45.798 Y63.59 E14.21137
G1 X45.486 Y63.768 E14.22334
G1 X45.197 Y63.978 E14.23524
G1 X44.932 Y64.22 E14.24719
G1 X44.697 Y64.487 E14.25904
G1 X44.491 Y64.779 E14.27094
G1 X44.318 Y65.094 E14.28291
G1 X44.18 Y65.429 E14.29498
G1 X44.083 Y65.77 E14.30679
G1 X44.021 Y66.12 E14.31863
G1 X44.001 Y66.465 E14.33014
G1 X44.006 Y66.704 E14.3381
G1 X44.045 Y67.055 E14.34987
G1 X44.127 Y67.404 E14.36181
G1 X44.244 Y67.742 E14.37372
G1 X44.4 Y68.064 E14.38564
G1 X44.588 Y68.367 E14.39752
G1 X44.809 Y68.646 E14.40938
G1 X45.06 Y68.903 E14.42134
G1 X45.338 Y69.129 E14.43328
G1 X45.634 Y69.322 E14.44505
G1 X45.95 Y69.482 E14.45685
G1 X45.95 Y91.024 E15.17442
G1 X45.813 Y91.082 E15.17937
G1 X45.502 Y91.257 E15.19126
G1 X45.215 Y91.464 E15.20305
G1 X44.953 Y91.7 E15.21479
G1 X44.717 Y91.961 E15.22652
G1 X44.511 Y92.25 E15.23834
G1 X44.338 Y92.556 E15.25005
G1 X44.197 Y92.883 E15.26191
G1 X44.094 Y93.224 E15.27377
G1 X44.029 Y93.568 E15.28544
G1 X44.001 Y93.916 E15.29707
G1 X44.008 Y94.272 E15.30893
G1 X44.059 Y94.63 E15.32097
G1 X44.146 Y94.973 E15.33276
G1 X44.27 Y95.303 E15.3445
G1 X44.429 Y95.618 E15.35626
G1 X44.62 Y95.912 E15.36793
G1 X44.846 Y96.192 E15.37992
G1 X45.101 Y96.439 E15.39175
G1 X45.372 Y96.654 E15.40327
G1 X45.676 Y96.847 E15.41526
G1 X45.999 Y97 E15.42717
G1 X46.329 Y97.117 E15.43883
G1 X46.673 Y97.199 E15.45061
G1 X47.02 Y97.242 E15.46226
G1 X47.374 Y97.249 E15.47405
G1 X47.73 Y97.216 E15.48596
G1 X48.078 Y97.144 E15.4978
G1 X48.415 Y97.037 E15.50958
G1 X48.737 Y96.891 E15.52135
G1 X49.044 Y96.712 E15.53319
G1 X49.327 Y96.5 E15.54497
G1 X49.587 Y96.261 E15.55673
G1 X49.819 Y95.992 E15.56857
G1 X50.019 Y95.702 E15.5803
G1 X50.187 Y95.393 E15.59202
G1 X50.322 Y95.063 E15.60389
G1 X50.419 Y94.725 E15.61561
G1 X50.481 Y94.373 E15.62751
G1 X50.499 Y94.036 E15.63875
G1 X50.494 Y93.796 E15.64675
G1 X50.455 Y93.445 E15.65851
G1 X50.373 Y93.096 E15.67046
G1 X50.256 Y92.758 E15.68237
G1 X50.1 Y92.436 E15.69429
G1 X49.912 Y92.133 E15.70617
G1 X49.691 Y91.854 E15.71802
G1 X49.44 Y91.597 E15.72999
G1 X49.162 Y91.371 E15.74192
G1 X48.866 Y91.178 E15.75369
G1 X48.55 Y91.019 E15.76548
G1 X48.55 Y69.476 E16.48308
G1 X48.702 Y69.41 E16.4886
G1 X49.014 Y69.232 E16.50057
G1 X49.303 Y69.022 E16.51247
G1 X49.568 Y68.78 E16.52442
G1 X49.803 Y68.513 E16.53627
G1 X50.009 Y68.221 E16.54817
G1 X50.182 Y67.906 E16.56014
G1 X50.32 Y67.571 E16.57221
G1 X50.417 Y67.23 E16.58402
G1 X50.479 Y66.88 E16.59586
G1 X50.499 Y66.535 E16.60737
G1 X50.494 Y66.296 E16.61534
G1 X50.455 Y65.945 E16.6271
G1 X50.373 Y65.596 E16.63904
G1 X50.256 Y65.258 E16.65096
G1 X50.1 Y64.936 E16.66288
G1 X49.912 Y64.633 E16.67475
G1 X49.691 Y64.354 E16.68661
G1 X49.44 Y64.097 E16.69858
G1 X49.162 Y63.871 E16.71051
G1 X48.866 Y63.678 E16.72228
G1 X48.55 Y63.519 E16.73406
G1 X48.55 Y61.5 E16.80132
G1 X48.55 Y61.25 E16.80965
G1 X48.8 Y61.25 E16.81503
G1 X63.428 Y61.252 E17.3023
G1 X63.612 Y61.27 E17.30846
G1 X63.755 Y61.297 E17.3133
G1 X63.917 Y61.343 E17.31891
G1 X64.073 Y61.404 E17.32449
G1 X64.225 Y61.48 E17.33015
G1 X64.34 Y61.553 E17.33469
G1 X64.491 Y61.668 E17.34101
G1 X64.602 Y61.771 E17.34606
G1 X64.713 Y61.894 E17.35158
G1 X64.806 Y62.019 E17.35677
G1 X64.906 Y62.185 E17.36322
G1 X68.899 Y70.515 E17.67093
G1 X69.103 Y70.861 E17.68431
G1 X69.343 Y71.183 E17.69768
G1 X69.607 Y71.478 E17.71087
G1 X69.899 Y71.748 E17.72412
G1 X70.214 Y71.991 E17.73737
G1 X70.552 Y72.203 E17.75066
G1 X70.908 Y72.382 E17.76393
G1 X71.28 Y72.527 E17.77723
G1 X71.661 Y72.637 E17.79044
G1 X72.053 Y72.711 E17.80373
G1 X72.448 Y72.747 E17.81694
G1 X90.609 Y72.75 E18.42189
G1 X90.953 Y72.732 E18.43337
G1 X91.323 Y72.685 E18.44579
G1 X91.687 Y72.601 E18.45824
G1 X92.043 Y72.49 E18.47066
G1 X92.39 Y72.342 E18.48322
G1 X92.716 Y72.169 E18.49552
G1 X93.03 Y71.969 E18.50792
G1 X93.325 Y71.738 E18.5204
G1 X93.6 Y71.484 E18.53287
G1 X93.85 Y71.206 E18.54532
G1 X94.074 Y70.909 E18.55771
G1 X94.267 Y70.602 E18.56979
G1 X94.368 Y70.412 E18.57696
G1 X98.073 Y62.3 E18.87402
G1 X98.156 Y62.14 E18.88003
G1 X98.247 Y61.995 E18.88573
G1 X98.333 Y61.884 E18.89041
G1 X98.452 Y61.754 E18.89628
G1 X98.536 Y61.675 E18.90012
G1 X98.674 Y61.57 E18.9059
G1 X98.807 Y61.484 E18.91117
G1 X98.93 Y61.42 E18.91579
G1 X99.083 Y61.355 E18.92133
G1 X99.222 Y61.312 E18.92617
G1 X99.376 Y61.278 E18.93143
G1 X99.601 Y61.253 E18.93897
G1 X112.7 Y61.25 E19.3753
G1 X112.95 Y61.25 E19.38363
G1 X112.95 Y61.5 E19.38902
G1 X112.95 Y63.524 E19.45644
G1 X112.798 Y63.59 E19.46196
G1 X112.486 Y63.768 E19.47392
G1 X112.197 Y63.978 E19.48582
G1 X111.932 Y64.22 E19.49778
G1 X111.697 Y64.487 E19.50962
G1 X111.491 Y64.779 E19.52153
G1 X111.318 Y65.094 E19.5335
G1 X111.18 Y65.429 E19.54557
G1 X111.083 Y65.77 E19.55738
G1 X111.021 Y66.12 E19.56922
G1 X111.001 Y66.465 E19.58073
G1 X111.006 Y66.704 E19.58869
G1 X111.045 Y67.055 E19.60046
G1 X111.127 Y67.404 E19.6124
G1 X111.244 Y67.742 E19.62431
G1 X111.4 Y68.064 E19.63623
G1 X111.588 Y68.367 E19.64811
G1 X111.809 Y68.646 E19.65996
G1 X112.06 Y68.903 E19.67193
G1 X112.338 Y69.129 E19.68386
G1 X112.634 Y69.322 E19.69563
G1 X112.95 Y69.482 E19.70743
G1 X112.95 Y91.024 E20.425
G1 X112.813 Y91.082 E20.42996
G1 X112.502 Y91.257 E20.44185
G1 X112.215 Y91.464 E20.45363
G1 X111.953 Y91.7 E20.46538
G1 X111.717 Y91.961 E20.4771
G1 X111.511 Y92.25 E20.48892
G1 X111.338 Y92.556 E20.50063
G1 X111.197 Y92.883 E20.51249
G1 X111.094 Y93.224 E20.52436
G1 X111.029 Y93.568 E20.53602
G1 X111.001 Y93.916 E20.54765
G1 X111.008 Y94.272 E20.55951
G1 X111.059 Y94.63 E20.57156
G1 X111.146 Y94.973 E20.58335
G1 X111.27 Y95.303 E20.59509
G1 X111.429 Y95.618 E20.60684
G1 X111.62 Y95.912 E20.61852
G1 X111.846 Y96.192 E20.63051
G1 X112.101 Y96.439 E20.64233
G1 X112.372 Y96.654 E20.65385
G1 X112.676 Y96.847 E20.66585
G1 X112.999 Y97 E20.67775
G1 X113.329 Y97.117 E20.68942
G1 X113.673 Y97.199 E20.7012
G1 X114.02 Y97.242 E20.71284
G1 X114.374 Y97.249 E20.72464
G1 X114.73 Y97.216 E20.73655
G1 X115.078 Y97.144 E20.74839
G1 X115.415 Y97.037 E20.76016
G1 X115.737 Y96.891 E20.77194
G1 X116.044 Y96.712 E20.78378
G1 X116.327 Y96.5 E20.79556
G1 X116.587 Y96.261 E20.80732
G1 X116.819 Y95.992 E20.81915
G1 X117.019 Y95.702 E20.83089
G1 X117.187 Y95.393 E20.8426
G1 X117.322 Y95.063 E20.85448
G1 X117.419 Y94.725 E20.86619
G1 X117.481 Y94.373 E20.8781
G1 X117.499 Y94.036 E20.88934
G1 X117.494 Y93.796 E20.89734
G1 X117.455 Y93.445 E20.9091
G1 X117.373 Y93.096 E20.92104
G1 X117.256 Y92.758 E20.93296
G1 X117.1 Y92.436 E20.94488
G1 X116.912 Y92.133 E20.95675
G1 X116.691 Y91.854 E20.96861
G1 X116.44 Y91.597 E20.98058
G1 X116.162 Y91.371 E20.99251
G1 X115.866 Y91.178 E21.00428
G1 X115.55 Y91.019 E21.01606
G1 X115.55 Y69.476 E21.73367
G1 X115.702 Y69.41 E21.73919
G1 X116.014 Y69.232 E21.75115
G1 X116.303 Y69.022 E21.76305
G1 X116.568 Y68.78 E21.77501
G1 X116.803 Y68.513 E21.78686
G1 X117.009 Y68.221 E21.79876
G1 X117.182 Y67.906 E21.81073
G1 X117.32 Y67.571 E21.8228
G1 X117.417 Y67.23 E21.83461
G1 X117.479 Y66.88 E21.84645
G1 X117.499 Y66.535 E21.85796
G1 X117.494 Y66.296 E21.86592
G1 X117.455 Y65.945 E21.87769
G1 X117.373 Y65.596 E21.88963
G1 X117.256 Y65.258 E21.90154
G1 X117.1 Y64.936 E21.91346
G1 X116.912 Y64.633 E21.92534
G1 X116.691 Y64.354 E21.9372
G1 X116.44 Y64.097 E21.94916
G1 X116.162 Y63.871 E21.9611
G1 X115.866 Y63.678 E21.97287
G1 X115.55 Y63.519 E21.98465
G1 X115.55 Y61.5 E22.0519
G1 X115.55 Y61.25 E22.06023
G1 X115.8 Y61.25 E22.06562
G1 X118.071 Y61.253 E22.14127
G1 X118.237 Y61.269 E22.14682
G1 X118.413 Y61.301 E22.15278
G1 X118.552 Y61.341 E22.1576
G1 X118.702 Y61.399 E22.16296
G1 X118.857 Y61.476 E22.16872
G1 X118.989 Y61.558 E22.1739
G1 X119.111 Y61.65 E22.17899
G1 X119.236 Y61.764 E22.18462
G1 X119.346 Y61.884 E22.19005
G1 X119.439 Y62.007 E22.19518
G1 X119.524 Y62.143 E22.20052
G1 X119.597 Y62.29 E22.20599
G1 X119.659 Y62.448 E22.21165
G1 X119.701 Y62.594 E22.21671
G1 X119.732 Y62.758 E22.22227
G0 F2625 X120.228 Y62.695
G1 F900 X120.247 Y62.9 E22.22912
G1 X120.247 Y98.1 E23.40165
G1 X120.228 Y98.305 E23.40851
G1 X120.187 Y98.524 E23.41593
G1 X120.133 Y98.71 E23.42238
G1 X120.055 Y98.912 E23.42959
G1 X119.964 Y99.097 E23.43646
G1 X119.856 Y99.27 E23.44325
G1 X119.729 Y99.439 E23.45029
