;Generated by Cura LulzBot Edition GCodeWriter Version: 3.6.3
;FLAVOR:Marlin
;TIME:1908
;Filament used: 0.902405m
;Layer height: 0.27
;Generated with Cura_SteamEngine 3.6.3
M82 ;absolute extrusion mode
M221 S100
;This G-Code has been generated specifically for the LulzBot Mini 2 with SE 0.5mm Tool Head
M73 P0                  ; clear GLCD progress bar
M75 					; Start GLCD Print Timer
G26 					; clear potential 'probe fail' condition
M107 					; disable fans
M420 S0                 ; disable leveling matrix
G90 					; absolute positioning
M82 					; set extruder to absolute mode
G92 E0 					; set extruder position to 0
M140 S115 	; start bed heating up
G28                       ; Home Axis
G0 X160 F9999             ; Move toolhead to the right
G0 Z5 F6000               ; Move to bottom of printer
G91                       ; Set relative motion mode
M211 S0		  	  ; Turn off soft endstops
M400                      ; Finish moves
G0 Z-15 F500              ; Skip steppers against lower Z mounts
G90                       ; Return to absolute mode
M400                      ; Finish moves
M211 S1			  ; Turn soft endstops back on
M400                      ; Finish moves
G28                       ; Rehome
M117 X-Axis LeveledG0 X0 Y187 Z156 F200 			; move away from endstops
M117 Mini 2 Wiping...			; progress indicator message on LCD
M109 R170 	; soften filament before retraction
G1 E-15 F75 				; retract filament
M109 R170 	; wait for extruder to reach wiping temp
G1 X45 Y176 F11520 			; move above wiper pad
G1 Z0 F1200 				; push nozzle into wiper
G1 X45 Y178 Z-.5 F4000		; wiping
G1 X55 Y176 Z-.5 F4000		; wiping
G1 X45 Y177 Z0 F4000		; wiping
G1 X55 Y176 F4000		; wiping
G1 X45 Y178 F4000		; wiping
G1 X55 Y176 F4000		; wiping
G1 X45 Y178 F4000		; wiping
G1 X55 Y176 F4000		; wiping
G1 X60 Y178 F4000		; wiping
G1 X80 Y176 F4000		; wiping
G1 X60 Y178 F4000		; wiping
G1 X80 Y176 F4000		; wiping
G1 X60 Y178 F4000		; wiping
G1 X90 Y176 F4000		; wiping
G1 X80 Y178 F4000		; wiping
G1 X100 Y176 F4000		; wiping
G1 X80 Y178 F4000		; wiping
G1 X100 Y176 F4000		; wiping
G1 X80 Y178 F4000		; wiping
G1 X100 Y176 F4000		; wiping
G1 X110 Y178 F4000		; wiping
G1 X100 Y176 F4000		; wiping
G1 X110 Y178 F4000		; wiping
G1 X100 Y176 F4000		; wiping
G1 X110 Y178 F4000		; wiping
G1 X115 Y176 Z-0.5 F1000	; wiping
G1 Z10					; raise extruder
G28 X0 Y0				; home X and Y
M109 R170	; wait for extruder to reach probe temp
M204 S300				; set probing acceleration
G29					; start auto-leveling sequence
M420 S1                     ; enable leveling matrix
M425 Z			     		; use measured Z backlash for compensation
M425 Z F0		     		; turn off measured Z backlash compensation. (if activated in the quality settings, this command will automatically be ignored)
M204 S2000				; restore standard acceleration
G1 X5 Y15 Z10 F5000			; move up off last probe point
G4 S1					; pause
M400					; wait for moves to finish
M117 Heating...				; progress indicator message on LCD
M109 R250	; wait for extruder to reach initial printing temp
M190 S116 ; wait for bed to reach printing temp
G1 Z2 E0 F75				; prime tiny bit of filment into the nozzle
M117 Mini 2 Printing...		; progress indicator message on LCD
M83 ;relative extrusion mode
G1 F600 E-1

;LAYER:0
M425 F1.0
M107
M204 S2000
M205 X20 Y20
G0 F2250 X7.806 Y9.345 Z0.4
M204 S800
M205 X10 Y10
;TYPE:SKIRT
G1 F600 E1
G1 F900 X10.335 Y6.733 E0.14248
G1 X10.72 Y6.393 E0.02013
G1 X11.154 Y6.116 E0.02018
G1 X11.542 Y5.94 E0.0167
G1 X13.142 Y5.334 E0.06705
G1 X13.552 Y5.208 E0.01681
G1 X14.519 Y4.979 E0.03894
G1 X14.921 Y4.91 E0.01598
G1 X16.462 Y4.741 E0.06075
G1 X16.947 Y4.723 E0.01902
G1 X18.47 Y4.78 E0.05973
G1 X18.759 Y4.804 E0.01136
G1 X22.811 Y5.313 E0.16004
G1 X28.294 Y5.744 E0.21553
G1 X33.75 Y5.864 E0.21387
G1 X39.223 Y5.673 E0.21461
G1 X44.673 Y5.175 E0.21447
G1 X46.139 Y4.978 E0.05797
G1 X46.229 Y4.968 E0.00355
G1 X48.372 Y4.74 E0.08446
G1 X48.847 Y4.723 E0.01863
G1 X50.37 Y4.78 E0.05973
G1 X50.659 Y4.804 E0.01136
G1 X54.711 Y5.313 E0.16004
G1 X60.194 Y5.744 E0.21553
G1 X65.65 Y5.864 E0.21387
G1 X71.123 Y5.673 E0.21461
G1 X76.573 Y5.175 E0.21447
G1 X78.039 Y4.978 E0.05797
G1 X78.129 Y4.968 E0.00355
G1 X80.272 Y4.74 E0.08446
G1 X80.747 Y4.723 E0.01863
G1 X82.27 Y4.78 E0.05973
G1 X82.559 Y4.804 E0.01136
G1 X86.611 Y5.313 E0.16004
G1 X92.094 Y5.744 E0.21553
G1 X97.55 Y5.864 E0.21387
G1 X103.023 Y5.673 E0.21461
G1 X108.473 Y5.175 E0.21447
G1 X109.939 Y4.978 E0.05797
G1 X110.029 Y4.968 E0.00355
G1 X112.172 Y4.74 E0.08446
G1 X112.647 Y4.723 E0.01863
G1 X114.17 Y4.78 E0.05973
G1 X114.459 Y4.804 E0.01136
G1 X118.511 Y5.313 E0.16004
G1 X123.994 Y5.744 E0.21553
G1 X129.45 Y5.864 E0.21387
G1 X134.923 Y5.673 E0.21461
G1 X140.373 Y5.175 E0.21447
G1 X141.839 Y4.978 E0.05797
G1 X141.929 Y4.968 E0.00355
G1 X144.072 Y4.74 E0.08446
G1 X144.542 Y4.723 E0.01843
G1 X146.039 Y4.777 E0.0587
G1 X146.435 Y4.815 E0.01559
G1 X147.478 Y4.979 E0.04138
G1 X147.956 Y5.091 E0.01924
G1 X149.894 Y5.7 E0.07961
G1 X150.347 Y5.88 E0.0191
G1 X151.281 Y6.333 E0.04068
G1 X151.702 Y6.577 E0.01907
G1 X153.397 Y7.733 E0.0804
G1 X153.892 Y8.147 E0.02529
G1 X155.322 Y9.601 E0.07992
G1 X155.685 Y10.04 E0.02232
G1 X156.579 Y11.333 E0.0616
G1 X156.861 Y11.826 E0.02226
G1 X157.712 Y13.666 E0.07945
G1 X157.902 Y14.187 E0.02173
G1 X158.289 Y15.609 E0.05775
G1 X158.381 Y16.079 E0.01877
G1 X158.57 Y17.631 E0.06127
G1 X158.593 Y18.122 E0.01926
G1 X158.55 Y19.682 E0.06116
G1 X158.532 Y19.945 E0.01033
G1 X157.754 Y27.178 E0.28509
G1 X157.513 Y32.634 E0.21402
G1 X157.582 Y38.109 E0.21457
G1 X157.96 Y43.561 E0.21417
G1 X158.538 Y48.407 E0.19125
G1 X158.56 Y48.735 E0.01288
G1 X158.59 Y50.253 E0.0595
G1 X158.569 Y50.701 E0.01758
G1 X157.99 Y55.678 E0.19636
G1 X157.596 Y61.128 E0.21414
G1 X157.509 Y66.622 E0.21533
G1 X157.732 Y72.064 E0.21344
G1 X158.59 Y80.734 E0.34143
G1 X158.589 Y81.393 E0.02583
G1 X157.754 Y89.644 E0.325
G1 X157.513 Y95.114 E0.21457
G1 X157.582 Y100.589 E0.21457
G1 X157.96 Y106.041 E0.21417
G1 X158.538 Y110.887 E0.19125
G1 X158.56 Y111.215 E0.01288
G1 X158.59 Y112.733 E0.0595
G1 X158.569 Y113.181 E0.01758
G1 X157.99 Y118.158 E0.19636
G1 X157.596 Y123.608 E0.21414
G1 X157.509 Y129.102 E0.21533
G1 X157.732 Y134.544 E0.21344
G1 X158.59 Y143.214 E0.34143
G1 X158.588 Y143.881 E0.02614
G1 X158.378 Y145.91 E0.07994
G1 X158.272 Y146.467 E0.02222
G1 X157.852 Y147.958 E0.0607
G1 X157.719 Y148.34 E0.01585
G1 X157.325 Y149.281 E0.03998
G1 X157.106 Y149.712 E0.01895
G1 X156.05 Y151.463 E0.08013
G1 X155.667 Y151.978 E0.02515
G1 X154.319 Y153.464 E0.07862
G1 X153.971 Y153.795 E0.01882
G1 X153.161 Y154.462 E0.04112
G1 X152.899 Y154.658 E0.01282
G1 X152.057 Y155.222 E0.03972
G1 X151.777 Y155.39 E0.0128
G1 X150.847 Y155.888 E0.04134
G1 X150.549 Y156.029 E0.01292
G1 X149.584 Y156.428 E0.04092
G1 X149.123 Y156.58 E0.01902
G1 X147.17 Y157.069 E0.0789
G1 X146.699 Y157.151 E0.01874
G1 X145.672 Y157.255 E0.04045
G1 X145.262 Y157.271 E0.01608
G1 X143.7 Y157.235 E0.06123
G1 X143.351 Y157.209 E0.01371
G1 X140.107 Y156.789 E0.12819
G1 X134.641 Y156.306 E0.21504
G1 X129.184 Y156.133 E0.21396
G1 X123.711 Y156.269 E0.21455
G1 X118.234 Y156.716 E0.21535
G1 X113.836 Y157.248 E0.17361
G1 X113.362 Y157.271 E0.0186
G1 X111.8 Y157.235 E0.06123
G1 X111.451 Y157.209 E0.01371
G1 X108.207 Y156.789 E0.12819
G1 X102.741 Y156.306 E0.21504
G1 X97.284 Y156.133 E0.21396
G1 X91.811 Y156.269 E0.21455
G1 X86.334 Y156.716 E0.21535
G1 X81.936 Y157.248 E0.17361
G1 X81.462 Y157.271 E0.0186
G1 X79.9 Y157.235 E0.06123
G1 X79.551 Y157.209 E0.01371
G1 X76.307 Y156.789 E0.12819
G1 X70.841 Y156.306 E0.21504
G1 X65.384 Y156.133 E0.21396
G1 X59.911 Y156.269 E0.21455
G1 X54.434 Y156.716 E0.21535
G1 X50.036 Y157.248 E0.17361
G1 X49.562 Y157.271 E0.0186
G1 X48 Y157.235 E0.06123
G1 X47.651 Y157.209 E0.01371
G1 X44.407 Y156.789 E0.12819
G1 X38.941 Y156.306 E0.21504
G1 X33.484 Y156.133 E0.21396
G1 X28.011 Y156.269 E0.21455
G1 X22.534 Y156.716 E0.21535
G1 X18.136 Y157.248 E0.17361
G1 X17.662 Y157.271 E0.0186
G1 X16.1 Y157.235 E0.06123
G1 X15.607 Y157.187 E0.01941
G1 X14.086 Y156.922 E0.0605
G1 X13.549 Y156.781 E0.02176
G1 X11.657 Y156.111 E0.07866
G1 X11.212 Y155.915 E0.01906
G1 X10.276 Y155.419 E0.04151
G1 X9.864 Y155.161 E0.01905
G1 X8.236 Y153.964 E0.07919
G1 X7.812 Y153.592 E0.0221
G1 X6.742 Y152.48 E0.06048
G1 X6.482 Y152.175 E0.01571
G1 X5.862 Y151.351 E0.04041
G1 X5.598 Y150.94 E0.01914
G1 X4.626 Y149.15 E0.07982
G1 X4.425 Y148.706 E0.0191
G1 X4.067 Y147.726 E0.04089
G1 X3.935 Y147.261 E0.01894
G1 X3.524 Y145.278 E0.07936
G1 X3.461 Y144.797 E0.01901
G1 X3.401 Y143.76 E0.04071
G1 X3.412 Y143.232 E0.0207
G1 X4.178 Y135.75 E0.29474
G1 X4.47 Y130.291 E0.21424
G1 X4.451 Y124.816 E0.21456
G1 X4.124 Y119.355 E0.21439
G1 X3.477 Y113.749 E0.22115
G1 X3.46 Y113.559 E0.00748
G1 X3.4 Y112.513 E0.04106
G1 X3.412 Y111.985 E0.0207
G1 X4.178 Y104.508 E0.29455
G1 X4.47 Y99.051 E0.21416
G1 X4.451 Y93.576 E0.21456
G1 X4.124 Y88.114 E0.21443
G1 X3.477 Y82.51 E0.22107
G1 X3.46 Y82.32 E0.00748
G1 X3.4 Y81.273 E0.0411
G1 X3.412 Y80.745 E0.0207
G1 X4.178 Y73.268 E0.29455
G1 X4.47 Y67.811 E0.21416
G1 X4.451 Y62.336 E0.21456
G1 X4.124 Y56.874 E0.21443
G1 X3.477 Y51.27 E0.22107
G1 X3.46 Y51.08 E0.00748
G1 X3.4 Y50.033 E0.0411
G1 X3.412 Y49.505 E0.0207
G1 X4.176 Y42.06 E0.29329
G1 X4.469 Y36.601 E0.21424
G1 X4.452 Y31.126 E0.21456
G1 X4.127 Y25.66 E0.21458
G1 X3.433 Y19.492 E0.24324
G1 X3.412 Y19.147 E0.01355
G1 X3.404 Y18.1 E0.04103
G1 X3.436 Y17.614 E0.01909
G1 X3.719 Y15.599 E0.07974
G1 X3.821 Y15.127 E0.01892
G1 X4.107 Y14.153 E0.03978
G1 X4.221 Y13.828 E0.0135
G1 X4.652 Y12.778 E0.04448
G1 X4.884 Y12.319 E0.02015
G1 X5.184 Y11.901 E0.02016
G1 X5.416 Y11.652 E0.01334
G1 X7.806 Y9.345 E0.13018
M204 S2000
M205 X20 Y20
G1 F600 E-1



G92 E0
;LAYER_COUNT:6
;LAYER:0
M425 F1.0
M107
M204 S2000
M205 X20 Y20
;MESH:
G0 F2250 X135.311 Y17.327
G0 F2250 Z0.4
M204 S800
M205 X10 Y10
;TYPE:WALL-INNER
G1 F600 E1
G1 F900 X135.378 Y16.88 E0.01771
G1 X135.473 Y16.407 E0.01891
G1 X135.502 Y16.295 E0.00453
G1 X135.585 Y15.961 E0.01349
G1 X135.663 Y15.707 E0.01041
G1 X135.75 Y15.794
G1 X135.993 Y16.037 E0.0098
G1 X137.003 Y17.047 E0.05598
G1 X136.938 Y17.445 E0.0158
G1 X136.887 Y17.918 E0.01864
G1 X136.865 Y18.395 E0.01871
G1 X136.871 Y18.872 E0.01869
G1 X136.907 Y19.346 E0.01863
G1 X136.97 Y19.819 E0.0187
G1 X137.063 Y20.286 E0.01866
G1 X137.181 Y20.746 E0.01861
G1 X137.329 Y21.201 E0.01875
G1 X137.504 Y21.645 E0.0187
G1 X137.705 Y22.077 E0.01867
G1 X137.932 Y22.496 E0.01867
G1 X138.183 Y22.901 E0.01867
G1 X138.458 Y23.29 E0.01867
G1 X138.754 Y23.661 E0.0186
G1 X139.074 Y24.015 E0.0187
G1 X139.414 Y24.349 E0.01868
G1 X139.773 Y24.662 E0.01867
G1 X140.151 Y24.953 E0.01869
G1 X140.547 Y25.221 E0.01874
G1 X140.956 Y25.463 E0.01862
G1 X141.38 Y25.683 E0.01872
G1 X141.817 Y25.874 E0.01869
G1 X142.262 Y26.039 E0.0186
G1 X142.718 Y26.178 E0.01868
G1 X143.181 Y26.29 E0.01867
G1 X143.651 Y26.373 E0.0187
G1 X144.124 Y26.428 E0.01866
G1 X144.599 Y26.454 E0.01864
G1 X145.075 Y26.452 E0.01865
G1 X145.553 Y26.421 E0.01877
G1 X146.025 Y26.361 E0.01865
G1 X146.492 Y26.274 E0.01862
G1 X146.955 Y26.158 E0.01871
G1 X147.41 Y26.016 E0.01868
G1 X147.855 Y25.845 E0.01868
G1 X148.288 Y25.648 E0.01864
G1 X148.71 Y25.427 E0.01867
G1 X149.118 Y25.18 E0.01869
G1 X149.51 Y24.907 E0.01872
G1 X149.884 Y24.615 E0.01859
G1 X150.241 Y24.297 E0.01874
G1 X150.577 Y23.961 E0.01862
G1 X150.895 Y23.604 E0.01874
G1 X151.188 Y23.229 E0.01865
G1 X151.459 Y22.838 E0.01864
G1 X151.706 Y22.43 E0.01869
G1 X151.928 Y22.008 E0.01869
G1 X152.125 Y21.575 E0.01864
G1 X152.296 Y21.13 E0.01868
G1 X152.438 Y20.675 E0.01868
G1 X152.554 Y20.212 E0.01871
G1 X152.641 Y19.745 E0.01862
G1 X152.701 Y19.273 E0.01865
G1 X152.732 Y18.796 E0.01873
G1 X152.734 Y18.319 E0.01869
G1 X152.708 Y17.844 E0.01864
G1 X152.653 Y17.371 E0.01866
G1 X152.57 Y16.901 E0.0187
G1 X152.458 Y16.438 E0.01867
G1 X152.319 Y15.982 E0.01868
G1 X152.153 Y15.536 E0.01865
G1 X151.962 Y15.1 E0.01865
G1 X151.744 Y14.676 E0.01868
G1 X151.501 Y14.267 E0.01864
G1 X151.233 Y13.871 E0.01874
G1 X150.942 Y13.493 E0.01869
G1 X150.629 Y13.134 E0.01867
G1 X150.295 Y12.794 E0.01868
G1 X149.941 Y12.474 E0.0187
G1 X149.57 Y12.178 E0.0186
G1 X149.181 Y11.903 E0.01867
G1 X148.776 Y11.652 E0.01867
G1 X148.357 Y11.425 E0.01867
G1 X147.925 Y11.224 E0.01867
G1 X147.48 Y11.049 E0.01874
G1 X147.026 Y10.902 E0.0187
G1 X146.566 Y10.783 E0.01862
G1 X146.099 Y10.69 E0.01866
G1 X145.626 Y10.627 E0.0187
G1 X145.152 Y10.591 E0.01863
G1 X144.675 Y10.585 E0.01869
G1 X144.198 Y10.607 E0.01871
G1 X143.725 Y10.658 E0.01864
G1 X143.327 Y10.723 E0.0158
G1 X142.279 Y9.675 E0.05808
G1 X142.155 Y9.551 E0.00687
G1 X141.985 Y9.381 E0.00942
G1 X142.46 Y9.246 E0.01106
G1 X142.631 Y9.208 E0.00593
G1 X142.922 Y9.142 E0.01169
G1 X143.383 Y9.062 E0.01834
G1 X143.858 Y9.003 E0.01876
G1 X144.295 Y8.97 E0.01717
G1 X144.782 Y8.956 E0.01909
G1 X145.267 Y8.968 E0.01901
G1 X145.706 Y8.999 E0.01725
G1 X146.168 Y9.055 E0.01824
G1 X146.642 Y9.136 E0.01884
G1 X147.099 Y9.237 E0.01834
G1 X147.545 Y9.359 E0.01812
G1 X147.987 Y9.503 E0.01822
G1 X148.436 Y9.674 E0.01883
G1 X148.848 Y9.855 E0.01764
G1 X149.269 Y10.064 E0.01842
G1 X149.694 Y10.303 E0.01911
G1 X150.08 Y10.545 E0.01785
G1 X150.441 Y10.797 E0.01725
G1 X150.847 Y11.111 E0.02011
G1 X151.179 Y11.394 E0.0171
G1 X151.533 Y11.727 E0.01905
G1 X151.856 Y12.064 E0.01829
G1 X152.142 Y12.391 E0.01702
G1 X152.451 Y12.782 E0.01953
G1 X152.726 Y13.167 E0.01854
G1 X152.96 Y13.53 E0.01693
G1 X153.208 Y13.961 E0.01949
G1 X153.414 Y14.364 E0.01774
G1 X153.605 Y14.787 E0.01819
G1 X153.789 Y15.253 E0.01963
G1 X153.931 Y15.672 E0.01734
G1 X154.053 Y16.103 E0.01755
G1 X154.17 Y16.602 E0.02009
G1 X154.247 Y17.03 E0.01704
G1 X154.308 Y17.497 E0.01846
G1 X154.347 Y17.959 E0.01817
G1 X154.364 Y18.443 E0.01898
G1 X154.356 Y18.906 E0.01815
G1 X154.327 Y19.365 E0.01802
G1 X154.275 Y19.819 E0.01791
G1 X154.2 Y20.284 E0.01846
G1 X154.101 Y20.746 E0.01852
G1 X153.98 Y21.201 E0.01845
G1 X153.841 Y21.638 E0.01797
G1 X153.678 Y22.077 E0.01835
G1 X153.482 Y22.533 E0.01945
G1 X153.288 Y22.929 E0.01728
G1 X153.068 Y23.328 E0.01786
G1 X152.812 Y23.742 E0.01908
G1 X152.551 Y24.124 E0.01813
G1 X152.256 Y24.51 E0.01904
G1 X151.972 Y24.847 E0.01727
G1 X151.651 Y25.192 E0.01847
G1 X151.312 Y25.524 E0.01859
G1 X150.965 Y25.831 E0.01816
G1 X150.6 Y26.124 E0.01834
G1 X150.208 Y26.408 E0.01897
G1 X149.824 Y26.658 E0.01796
G1 X149.43 Y26.888 E0.01788
G1 X149.006 Y27.109 E0.01874
G1 X148.575 Y27.307 E0.01859
G1 X148.156 Y27.475 E0.01769
G1 X147.701 Y27.633 E0.01888
G1 X147.261 Y27.762 E0.01797
G1 X146.807 Y27.871 E0.0183
G1 X146.339 Y27.959 E0.01866
G1 X145.895 Y28.021 E0.01757
G1 X145.404 Y28.064 E0.01932
G1 X144.954 Y28.083 E0.01765
G1 X144.489 Y28.078 E0.01822
G1 X143.997 Y28.05 E0.01931
G1 X143.564 Y28.004 E0.01706
G1 X143.084 Y27.929 E0.01904
G1 X142.629 Y27.834 E0.01822
G1 X142.193 Y27.722 E0.01764
G1 X141.716 Y27.572 E0.0196
G1 X141.299 Y27.42 E0.01739
G1 X140.863 Y27.236 E0.01855
G1 X140.433 Y27.028 E0.01872
G1 X140.03 Y26.809 E0.01797
G1 X139.635 Y26.569 E0.01811
G1 X139.237 Y26.299 E0.01885
G1 X138.877 Y26.029 E0.01763
G1 X138.519 Y25.732 E0.01823
G1 X138.164 Y25.406 E0.01889
G1 X137.823 Y25.061 E0.01901
G1 X137.536 Y24.741 E0.01685
G1 X137.218 Y24.349 E0.01978
G1 X136.956 Y23.991 E0.01739
G1 X136.691 Y23.59 E0.01884
G1 X136.455 Y23.192 E0.01813
G1 X136.239 Y22.784 E0.01809
G1 X136.047 Y22.374 E0.01774
G1 X135.857 Y21.909 E0.01969
G1 X135.71 Y21.492 E0.01733
G1 X135.574 Y21.043 E0.01839
G1 X135.463 Y20.589 E0.01832
G1 X135.375 Y20.135 E0.01812
G1 X135.305 Y19.655 E0.01901
G1 X135.26 Y19.188 E0.01839
G1 X135.239 Y18.741 E0.01754
G1 X135.24 Y18.271 E0.01842
G1 X135.263 Y17.807 E0.01821
G1 X135.311 Y17.327 E0.0189
M204 S2000
M205 X20 Y20
G0 F2250 X134.69 Y17.265
M204 S800
M205 X10 Y10
;TYPE:WALL-OUTER
G1 F900 X134.766 Y16.757 E0.02013
G1 X134.861 Y16.284 E0.01891
G1 X134.982 Y15.801 E0.01951
G1 X135.131 Y15.31 E0.02011
G1 X135.205 Y15.105 E0.00854
G1 X135.299 Y14.841 E0.01098
G1 X135.411 Y14.573 E0.01138
G1 X135.488 Y14.65
G1 X135.686 Y14.848 E0.00833
