; generated by Slic3r 1.1.7 on 2015-01-22 at 12:32:45

; perimeters extrusion width = 0.51mm
; infill extrusion width = 0.60mm
; solid infill extrusion width = 0.50mm
; top infill extrusion width = 0.48mm

G21 ; set units to millimeters

M301 P34 I4 D113     ; set PID nozzle
M304 P162 I17 D378 ; set PID Bed

M104 S230                 ; set extruder temp for budaschnozzle
;M104 S240                 ; set extruder temp for hex_hot_end
M140 S100                 ; set bed temp for PET
;M140 S105                 ; set bed temp for PEI 

;G28                            ; home
;G1 Z5 F300                ; move bed down 5mm
;M84                            ; disable steppers
;G4 S300                     ; wait 5 mins to preheat

G28                            ; home

G90 ; use absolute coordinates
G92 E0
M82 ; use absolute distances for extrusion
M204 S2000
G1 F1500.000 E-1.50000
G92 E0
G1 Z0.350 F9600.000
G1 X119.652 Y52.360 F9600.000
G1 E1.50000 F1500.000
G1 X120.791 Y50.465 E1.56823 F1365.000
G1 X122.526 Y49.096 E1.63646
G1 X125.412 Y48.377 E1.72828
G1 X172.432 Y48.377 E3.17970
G1 X174.606 Y48.774 E3.24793
G1 X176.501 Y49.913 E3.31616 F1365.000
G1 X177.870 Y51.648 E3.38439
G1 X178.589 Y54.534 E3.47621
G1 X178.589 Y223.339 E8.68697
G1 X178.192 Y225.513 E8.75520
G1 X177.053 Y227.408 E8.82343
G1 X175.318 Y228.777 E8.89166
G1 X172.432 Y229.496 E8.98348
G1 X125.412 Y229.496 E10.43490
G1 X123.238 Y229.099 E10.50313
G1 X121.344 Y227.960 E10.57136
G1 X119.974 Y226.225 E10.63959
G1 X119.255 Y223.339 E10.73141
G1 X119.255 Y54.534 E15.94217
G1 X119.639 Y52.433 E16.00809
G1 X120.230 Y52.471 F9600.000
G1 X121.363 Y50.697 E16.07306 F1365.000
G1 X123.072 Y49.470 E16.13798
G1 X125.412 Y48.956 E16.21196
G1 X172.432 Y48.956 E17.66338
G1 X174.497 Y49.352 E17.72830
G1 X176.269 Y50.485 E17.79322 F1365.000
G1 X177.496 Y52.193 E17.85813
G1 X178.010 Y54.534 E17.93212
G1 X178.010 Y223.339 E23.14288
G1 X177.614 Y225.404 E23.20780
G1 X176.481 Y227.176 E23.27271
G1 X174.773 Y228.403 E23.33763
G1 X172.432 Y228.918 E23.41162
G1 X125.412 Y228.918 E24.86304
G1 X123.347 Y228.521 E24.92795
G1 X121.575 Y227.388 E24.99287
G1 X120.349 Y225.680 E25.05779
G1 X119.834 Y223.339 E25.13178
G1 X119.834 Y54.534 E30.34253
G1 X120.216 Y52.544 E30.40508
G1 F1500.000 E28.90508
G92 E0
G1 X162.494 Y66.477 F9600.000
G1 E1.50000 F1500.000
G1 X161.784 Y67.143 E1.53006 F1995.000
G1 X160.930 Y67.613 E1.56013
G1 X159.987 Y67.855 E1.59019
G1 X159.013 Y67.855 E1.62026
G1 X158.070 Y67.613 E1.65032
G1 X157.216 Y67.143 E1.68039
G1 X156.506 Y66.477 E1.71045
G1 X155.984 Y65.654 E1.74052
G1 X155.683 Y64.728 E1.77058
G1 X155.622 Y63.756 E1.80065
G1 X155.805 Y62.799 E1.83071
G1 X156.219 Y61.918 E1.86078
G1 X156.840 Y61.168 E1.89084
G1 X157.628 Y60.595 E1.92091
G1 X158.534 Y60.237 E1.95097
G1 X159.500 Y60.114 E1.98104
G1 X159.643 Y60.133 E1.98548
G1 X160.466 Y60.237 E2.01110 F1995.000
G1 X161.372 Y60.595 E2.04117
G1 X162.160 Y61.168 E2.07123
G1 X162.781 Y61.918 E2.10130
G1 X163.195 Y62.799 E2.13136
G1 X163.378 Y63.756 E2.16143
G1 X163.317 Y64.728 E2.19149
G1 X163.016 Y65.654 E2.22156
G1 X162.534 Y66.413 E2.24931
G1 X162.045 Y66.105 F9600.000
G1 X161.441 Y66.672 E2.27486 F1365.000
G1 X160.716 Y67.070 E2.30041
G1 X159.914 Y67.276 E2.32597
G1 X159.086 Y67.276 E2.35152
G1 X158.284 Y67.070 E2.37707
G1 X157.559 Y66.672 E2.40263
G1 X156.955 Y66.105 E2.42818
G1 X156.512 Y65.406 E2.45373
G1 X156.256 Y64.619 E2.47928
G1 X156.204 Y63.793 E2.50484
G1 X156.359 Y62.980 E2.53039
G1 X156.712 Y62.230 E2.55594
G1 X157.239 Y61.593 E2.58150
G1 X157.909 Y61.106 E2.60705
G1 X158.679 Y60.801 E2.63260
G1 X159.430 Y60.706 E2.65597
G1 X159.500 Y60.698 E2.65815 F1365.000
G1 X160.321 Y60.801 E2.68371
G1 X161.091 Y61.106 E2.70926
G1 X161.761 Y61.593 E2.73481
G1 X162.288 Y62.231 E2.76037
G1 X162.641 Y62.980 E2.78592
G1 X162.796 Y63.793 E2.81147
G1 X162.744 Y64.619 E2.83702
G1 X162.488 Y65.406 E2.86258
G1 X162.085 Y66.042 E2.88582
G1 F1500.000 E1.38582
G92 E0
G1 X159.410 Y60.638 F9600.000
G1 X138.324 Y64.613 F9600.000
G1 E1.50000 F1500.000
G1 X138.317 Y64.728 E1.50357 F1995.000
G1 X138.016 Y65.654 E1.53363
G1 X137.494 Y66.477 E1.56370
G1 X136.784 Y67.143 E1.59376
G1 X135.930 Y67.613 E1.62383
G1 X134.987 Y67.855 E1.65389
G1 X134.013 Y67.855 E1.68396
G1 X133.070 Y67.613 E1.71402
G1 X132.216 Y67.143 E1.74409
G1 X131.506 Y66.477 E1.77415
G1 X130.984 Y65.654 E1.80422
G1 X130.683 Y64.728 E1.83429
G1 X130.622 Y63.756 E1.86435
G1 X130.805 Y62.799 E1.89441
G1 X131.219 Y61.918 E1.92448
G1 X131.840 Y61.168 E1.95454
G1 X132.628 Y60.595 E1.98461
G1 X133.534 Y60.237 E2.01467
G1 X134.500 Y60.114 E2.04474
G1 X134.643 Y60.133 E2.04918
G1 X135.466 Y60.237 E2.07480 F1995.000
G1 X136.372 Y60.595 E2.10487
G1 X137.160 Y61.168 E2.13493
G1 X137.781 Y61.918 E2.16499
G1 X138.195 Y62.799 E2.19506
G1 X138.378 Y63.756 E2.22513
G1 X138.329 Y64.538 E2.24931
G1 X137.747 Y64.576 F9600.000
G1 X137.488 Y65.406 E2.27614 F1365.000
G1 X137.045 Y66.105 E2.30169
G1 X136.441 Y66.672 E2.32724
G1 X135.716 Y67.070 E2.35279
G1 X134.914 Y67.276 E2.37835
G1 X134.086 Y67.276 E2.40390
G1 X133.284 Y67.070 E2.42945
G1 X132.559 Y66.672 E2.45501
G1 X131.955 Y66.105 E2.48056
G1 X131.512 Y65.406 E2.50611
G1 X131.256 Y64.619 E2.53167
G1 X131.204 Y63.793 E2.55722
G1 X131.359 Y62.980 E2.58277
G1 X131.712 Y62.230 E2.60832
G1 X132.239 Y61.593 E2.63388
G1 X132.909 Y61.106 E2.65943
G1 X133.679 Y60.801 E2.68498
G1 X134.430 Y60.706 E2.70835
G1 X134.500 Y60.698 E2.71053 F1365.000
G1 X135.321 Y60.801 E2.73609
G1 X136.091 Y61.106 E2.76164
G1 X136.761 Y61.593 E2.78719
G1 X137.288 Y62.230 E2.81274
G1 X137.641 Y62.980 E2.83830
G1 X137.796 Y63.793 E2.86385
G1 X137.751 Y64.502 E2.88578
G1 F1500.000 E1.38578
G92 E0
G1 X134.405 Y60.640 F9600.000
G1 X145.304 Y112.988 F9600.000
G1 E1.50000 F1500.000
G1 X145.899 Y112.900 E1.51856 F1995.000
G1 X146.553 Y112.873 E1.53876
G1 X147.101 Y112.900 E1.55570 F1995.000
G1 X147.696 Y112.988 E1.57426
G1 X148.279 Y113.134 E1.59283
G1 X148.846 Y113.337 E1.61140
G1 X149.389 Y113.594 E1.62997
G1 X149.905 Y113.903 E1.64854
G1 X150.389 Y114.262 E1.66710
G1 X150.834 Y114.666 E1.68567
G1 X151.238 Y115.111 E1.70424
G1 X151.597 Y115.595 E1.72281
G1 X151.906 Y116.111 E1.74138
G1 X152.163 Y116.654 E1.75995
G1 X152.366 Y117.221 E1.77851
G1 X152.512 Y117.804 E1.79709
G1 X152.600 Y118.399 E1.81565
G1 X152.630 Y119.000 E1.83422
G1 X152.600 Y119.601 E1.85279
G1 X152.512 Y120.196 E1.87136
G1 X152.366 Y120.779 E1.88992
G1 X152.163 Y121.346 E1.90850
G1 X151.906 Y121.889 E1.92706
G1 X151.597 Y122.405 E1.94563
G1 X151.238 Y122.889 E1.96420
G1 X150.834 Y123.334 E1.98277
G1 X150.389 Y123.738 E2.00134
G1 X149.905 Y124.097 E2.01991
G1 X149.390 Y124.406 E2.03847
G1 X148.846 Y124.663 E2.05705
G1 X148.279 Y124.866 E2.07561
G1 X147.696 Y125.012 E2.09418
G1 X147.101 Y125.100 E2.11274
G1 X146.500 Y125.130 E2.13132
G1 X145.899 Y125.100 E2.14988
G1 X145.304 Y125.012 E2.16845
G1 X144.721 Y124.866 E2.18702
G1 X144.154 Y124.663 E2.20559
G1 X143.611 Y124.406 E2.22415
G1 X143.095 Y124.097 E2.24273
G1 X142.611 Y123.738 E2.26129
G1 X142.166 Y123.334 E2.27986
G1 X141.762 Y122.889 E2.29843
G1 X141.403 Y122.405 E2.31700
G1 X141.094 Y121.890 E2.33556
G1 X140.837 Y121.346 E2.35414
G1 X140.634 Y120.779 E2.37271
G1 X140.488 Y120.196 E2.39127
G1 X140.400 Y119.601 E2.40984
G1 X140.370 Y119.000 E2.42841
G1 X140.400 Y118.399 E2.44697
G1 X140.488 Y117.804 E2.46555
G1 X140.634 Y117.221 E2.48411
G1 X140.837 Y116.654 E2.50268
G1 X141.094 Y116.111 E2.52125
G1 X141.403 Y115.595 E2.53982
G1 X141.762 Y115.111 E2.55839
G1 X142.166 Y114.666 E2.57695
G1 X142.611 Y114.262 E2.59552
G1 X143.095 Y113.903 E2.61409
G1 X143.610 Y113.594 E2.63266
G1 X144.154 Y113.337 E2.65123
G1 X144.721 Y113.134 E2.66980
G1 X145.232 Y113.006 E2.68605
G1 X145.417 Y113.556 F9600.000
G1 X145.956 Y113.476 E2.70286 F1365.000
G1 X146.475 Y113.451 E2.71892
G1 X147.044 Y113.476 E2.73649 F1365.000
G1 X147.583 Y113.556 E2.75330
G1 X148.111 Y113.689 E2.77012
G1 X148.624 Y113.872 E2.78693
G1 X149.116 Y114.105 E2.80374
G1 X149.584 Y114.385 E2.82056
G1 X150.021 Y114.710 E2.83737
G1 X150.425 Y115.075 E2.85418
G1 X150.790 Y115.479 E2.87100
G1 X151.115 Y115.916 E2.88781
G1 X151.395 Y116.384 E2.90463
G1 X151.628 Y116.876 E2.92144
G1 X151.811 Y117.389 E2.93825
G1 X151.944 Y117.917 E2.95507
G1 X152.024 Y118.456 E2.97188
G1 X152.050 Y119.000 E2.98869
G1 X152.024 Y119.544 E3.00551
G1 X151.944 Y120.083 E3.02232
G1 X151.811 Y120.611 E3.03913
G1 X151.628 Y121.124 E3.05595
G1 X151.395 Y121.616 E3.07276
G1 X151.115 Y122.084 E3.08958
G1 X150.790 Y122.521 E3.10639
G1 X150.425 Y122.925 E3.12320
G1 X150.021 Y123.290 E3.14002
G1 X149.584 Y123.615 E3.15683
G1 X149.116 Y123.895 E3.17364
G1 X148.624 Y124.128 E3.19046
G1 X148.111 Y124.311 E3.20727
G1 X147.583 Y124.444 E3.22409
G1 X147.044 Y124.524 E3.24090
G1 X146.500 Y124.550 E3.25772
G1 X145.956 Y124.524 E3.27453
G1 X145.417 Y124.444 E3.29134
G1 X144.889 Y124.311 E3.30815
G1 X144.376 Y124.128 E3.32497
G1 X143.884 Y123.895 E3.34178
G1 X143.416 Y123.615 E3.35860
G1 X142.979 Y123.290 E3.37541
G1 X142.575 Y122.925 E3.39222
G1 X142.210 Y122.521 E3.40904
G1 X141.885 Y122.084 E3.42585
G1 X141.605 Y121.616 E3.44266
G1 X141.372 Y121.124 E3.45948
G1 X141.189 Y120.611 E3.47629
G1 X141.056 Y120.083 E3.49310
G1 X140.976 Y119.544 E3.50992
G1 X140.950 Y119.000 E3.52673
G1 X140.976 Y118.456 E3.54354
G1 X141.056 Y117.917 E3.56036
G1 X141.189 Y117.389 E3.57717
G1 X141.372 Y116.876 E3.59399
G1 X141.605 Y116.384 E3.61080
G1 X141.885 Y115.916 E3.62762
G1 X142.210 Y115.479 E3.64443
G1 X142.575 Y115.075 E3.66124
G1 X142.979 Y114.710 E3.67806
G1 X143.416 Y114.385 E3.69487
G1 X143.884 Y114.105 E3.71168
G1 X144.376 Y113.872 E3.72850
G1 X144.889 Y113.689 E3.74531
G1 X145.344 Y113.574 E3.75981
G1 X146.717 Y113.013 F9600.000
G1 F1500.000 E2.25981
G92 E0
G1 X146.500 Y149.121 F9600.000
G1 E1.50000 F1500.000
G1 X147.176 Y149.146 E1.52088 F1995.000
G1 X147.972 Y149.231 E1.54560 F1995.000
G1 X148.698 Y149.369 E1.56841
G1 X149.412 Y149.560 E1.59122
G1 X150.109 Y149.804 E1.61402
G1 X150.786 Y150.099 E1.63683
G1 X151.440 Y150.444 E1.65963
G1 X152.065 Y150.837 E1.68244
G1 X152.660 Y151.276 E1.70524
G1 X153.219 Y151.758 E1.72805
G1 X153.742 Y152.280 E1.75085
G1 X154.224 Y152.840 E1.77366
G1 X154.663 Y153.435 E1.79646
G1 X155.056 Y154.060 E1.81927
G1 X155.401 Y154.714 E1.84207
G1 X155.696 Y155.391 E1.86488
G1 X155.940 Y156.088 E1.88768
G1 X156.131 Y156.802 E1.91049
G1 X156.269 Y157.528 E1.93330
G1 X156.345 Y158.200 E1.95418
G1 X156.379 Y159.000 E1.97890
G1 X156.352 Y159.738 E2.00171
G1 X156.269 Y160.472 E2.02451
G1 X156.131 Y161.198 E2.04732
G1 X155.940 Y161.912 E2.07012
G1 X155.696 Y162.609 E2.09293
G1 X155.401 Y163.286 E2.11573
G1 X155.056 Y163.940 E2.13854
G1 X154.663 Y164.565 E2.16134
G1 X154.224 Y165.160 E2.18415
G1 X153.742 Y165.720 E2.20695
G1 X153.264 Y166.198 E2.22784
G1 X152.660 Y166.724 E2.25256
G1 X152.065 Y167.163 E2.27536
G1 X151.440 Y167.556 E2.29817
G1 X150.786 Y167.901 E2.32097
G1 X150.109 Y168.196 E2.34378
G1 X149.412 Y168.440 E2.36658
G1 X148.698 Y168.631 E2.38939
G1 X147.972 Y168.769 E2.41220
G1 X147.238 Y168.852 E2.43500
G1 X146.500 Y168.879 E2.45781
G1 X145.700 Y168.845 E2.48253
G1 X145.028 Y168.769 E2.50341
G1 X144.302 Y168.631 E2.52622
G1 X143.588 Y168.440 E2.54902
G1 X142.891 Y168.196 E2.57183
G1 X142.214 Y167.901 E2.59463
G1 X141.560 Y167.556 E2.61744
G1 X140.935 Y167.163 E2.64024
G1 X140.340 Y166.724 E2.66305
G1 X139.780 Y166.242 E2.68585
G1 X139.258 Y165.720 E2.70866
G1 X138.776 Y165.160 E2.73146
G1 X138.337 Y164.565 E2.75427
G1 X137.944 Y163.940 E2.77707
G1 X137.599 Y163.286 E2.79988
G1 X137.304 Y162.609 E2.82268
G1 X137.060 Y161.912 E2.84549
G1 X136.869 Y161.198 E2.86830
G1 X136.731 Y160.472 E2.89110
G1 X136.648 Y159.738 E2.91391
G1 X136.621 Y159.000 E2.93671
G1 X136.648 Y158.262 E2.95952
G1 X136.731 Y157.528 E2.98232
G1 X136.869 Y156.802 E3.00513
G1 X137.060 Y156.088 E3.02793
G1 X137.304 Y155.391 E3.05074
G1 X137.599 Y154.714 E3.07354
G1 X137.944 Y154.060 E3.09635
G1 X138.337 Y153.435 E3.11915
G1 X138.776 Y152.840 E3.14196
G1 X139.258 Y152.280 E3.16476
G1 X139.780 Y151.758 E3.18757
G1 X140.391 Y151.239 E3.21229
G1 X140.935 Y150.837 E3.23317
G1 X141.560 Y150.444 E3.25598
G1 X142.214 Y150.099 E3.27878
G1 X142.891 Y149.804 E3.30159
G1 X143.529 Y149.580 E3.32247
G1 X144.302 Y149.369 E3.34719
G1 X145.028 Y149.231 E3.37000
G1 X145.762 Y149.148 E3.39281
G1 X146.425 Y149.124 E3.41330
G1 X146.500 Y149.700 F9600.000
G1 X147.195 Y149.726 E3.43476 F1365.000
G1 X147.886 Y149.804 E3.45623
G1 X148.530 Y149.925 E3.47645
G1 X149.241 Y150.113 E3.49917
G1 X149.898 Y150.343 E3.52064
G1 X150.535 Y150.621 E3.54211
G1 X151.114 Y150.927 E3.56232
G1 X151.739 Y151.316 E3.58504
G1 X152.299 Y151.729 E3.60651
G1 X152.854 Y152.211 E3.62923
G1 X153.318 Y152.674 E3.64944
G1 X153.771 Y153.201 E3.67091
G1 X154.184 Y153.761 E3.69238
G1 X154.554 Y154.350 E3.71385
G1 X154.879 Y154.965 E3.73532
G1 X155.157 Y155.602 E3.75679
G1 X155.387 Y156.259 E3.77826
G1 X155.567 Y156.931 E3.79972
G1 X155.696 Y157.614 E3.82119
G1 X155.770 Y158.265 E3.84141
G1 X155.800 Y159.000 E3.86413
G1 X155.774 Y159.695 E3.88560
G1 X155.696 Y160.386 E3.90706
G1 X155.567 Y161.069 E3.92853
G1 X155.387 Y161.741 E3.95000
G1 X155.157 Y162.398 E3.97147
G1 X154.879 Y163.035 E3.99294
G1 X154.554 Y163.650 E4.01441
G1 X154.184 Y164.239 E4.03588
G1 X153.771 Y164.799 E4.05735
G1 X153.318 Y165.326 E4.07882
G1 X152.826 Y165.818 E4.10028
G1 X152.329 Y166.245 E4.12050
G1 X151.739 Y166.684 E4.14322
G1 X151.150 Y167.054 E4.16469
G1 X150.535 Y167.379 E4.18616
G1 X149.898 Y167.657 E4.20763
G1 X149.241 Y167.887 E4.22909
G1 X148.569 Y168.067 E4.25056
G1 X147.886 Y168.196 E4.27203
G1 X147.154 Y168.276 E4.29475
G1 X146.500 Y168.300 E4.31497
G1 X145.805 Y168.274 E4.33643
G1 X145.114 Y168.196 E4.35790
G1 X144.431 Y168.067 E4.37937
G1 X143.759 Y167.887 E4.40084
G1 X143.102 Y167.657 E4.42231
G1 X142.465 Y167.379 E4.44378
G1 X141.850 Y167.054 E4.46525
G1 X141.261 Y166.684 E4.48672
G1 X140.701 Y166.271 E4.50819
G1 X140.174 Y165.818 E4.52965
G1 X139.656 Y165.295 E4.55237
G1 X139.229 Y164.799 E4.57259
G1 X138.816 Y164.239 E4.59406
G1 X138.446 Y163.650 E4.61553
G1 X138.121 Y163.035 E4.63699
G1 X137.843 Y162.398 E4.65846
G1 X137.613 Y161.741 E4.67993
G1 X137.433 Y161.069 E4.70140
G1 X137.304 Y160.386 E4.72287
G1 X137.226 Y159.695 E4.74434
G1 X137.200 Y159.000 E4.76581
G1 X137.226 Y158.305 E4.78728
G1 X137.304 Y157.614 E4.80874
G1 X137.433 Y156.931 E4.83021
G1 X137.613 Y156.259 E4.85168
G1 X137.843 Y155.602 E4.87315
G1 X138.121 Y154.965 E4.89462
G1 X138.446 Y154.350 E4.91609
G1 X138.816 Y153.761 E4.93756
G1 X139.229 Y153.201 E4.95903
G1 X139.682 Y152.674 E4.98050
G1 X140.174 Y152.182 E5.00196
G1 X140.734 Y151.705 E5.02468
G1 X141.261 Y151.316 E5.04490
G1 X141.850 Y150.946 E5.06637
G1 X142.465 Y150.621 E5.08784
G1 X143.102 Y150.343 E5.10931
G1 X143.720 Y150.126 E5.12952
G1 X144.431 Y149.933 E5.15224
G1 X145.114 Y149.804 E5.17371
G1 X145.846 Y149.724 E5.19643
G1 X146.425 Y149.703 E5.21433 F1365.000
G1 X145.833 Y149.224 F9600.000
G1 F1500.000 E3.71433
G92 E0
G1 X158.534 Y210.237 F9600.000
G1 E1.50000 F1500.000
G1 X159.500 Y210.114 E1.53006 F1995.000
G1 X159.643 Y210.133 E1.53451
G1 X160.466 Y210.237 E1.56013 F1995.000
G1 X161.372 Y210.595 E1.59019
G1 X162.160 Y211.168 E1.62026
G1 X162.781 Y211.918 E1.65033
G1 X162.842 Y212.048 E1.65477
G1 X163.195 Y212.799 E1.68039
G1 X163.378 Y213.756 E1.71045
G1 X163.317 Y214.728 E1.74052
G1 X163.016 Y215.654 E1.77058
G1 X162.494 Y216.477 E1.80065
G1 X161.784 Y217.143 E1.83071
G1 X161.056 Y217.543 E1.85634
G1 X160.930 Y217.613 E1.86078
G1 X159.987 Y217.855 E1.89084
G1 X159.013 Y217.855 E1.92091
G1 X158.209 Y217.648 E1.94653
G1 X158.070 Y217.613 E1.95097
G1 X157.216 Y217.143 E1.98104
G1 X156.506 Y216.477 E2.01110
G1 X155.984 Y215.654 E2.04117
G1 X155.683 Y214.728 E2.07123
G1 X155.622 Y213.756 E2.10130
G1 X155.778 Y212.941 E2.12692
G1 X155.805 Y212.799 E2.13137
G1 X156.219 Y211.918 E2.16143
G1 X156.840 Y211.168 E2.19149
G1 X157.628 Y210.595 E2.22156
G1 X158.464 Y210.264 E2.24931
G1 X158.679 Y210.801 F9600.000
G1 X159.430 Y210.706 E2.27268 F1365.000
