;Generated by Cura LulzBot Edition GCodeWriter Version: 3.2.20
;FLAVOR:Marlin
;TIME:10122
;Filament used: 5.34282m
;Layer height: 0.2592
;Generated with Cura_SteamEngine 3.2.21
M82 ;absolute extrusion mode
;This G-Code has been generated specifically for the LulzBot Mini 2
M75 					; Start GLCD Print Timer
G26 					; clear potential 'probe fail' condition
G21 					; set units to Millimetres
M107 					; disable fans
G90 					; absolute positioning
M82 					; set extruder to absolute mode
G92 E0 					; set extruder position to 0
M140 S115 	; start bed heating up
G28                       ; Home Axis
G0 X160 F9999             ; Move toolhead to the right
G0 Z5 F6000               ; Move to bottom of printer
G91                       ; Set relative motion mode
M211 S0		  	  ; Turn off soft endstops
M400                      ; Finish moves
G0 Z-15 F500              ; Skip steppers against lower Z mounts
G90                       ; Return to absolute mode
M400                      ; Finish moves
M211 S1			  ; Turn soft endstops back on
M400                      ; Finish moves
G28                       ; Rehome
M117 X-Axis Leveled
G0 X0 Y187 Z156 F200 			; move away from endstops
M117 Mini 2 Wiping...			; progress indicator message on LCD
M109 R170 	; soften filament before retraction
G1 E-15 F75 				; retract filament
M109 R170 	; wait for extruder to reach wiping temp
G1 X45 Y176 F11520 			; move above wiper pad
G1 Z0 F1200 				; push nozzle into wiper
G1 X45 Y178 Z-.5 F4000		; wiping
G1 X55 Y176 Z-.5 F4000		; wiping
G1 X45 Y177 Z0 F4000		; wiping
G1 X55 Y176 F4000		; wiping
G1 X45 Y178 F4000		; wiping
G1 X55 Y176 F4000		; wiping
G1 X45 Y178 F4000		; wiping
G1 X55 Y176 F4000		; wiping
G1 X60 Y178 F4000		; wiping
G1 X80 Y176 F4000		; wiping
G1 X60 Y178 F4000		; wiping
G1 X80 Y176 F4000		; wiping
G1 X60 Y178 F4000		; wiping
G1 X90 Y176 F4000		; wiping
G1 X80 Y178 F4000		; wiping
G1 X100 Y176 F4000		; wiping
G1 X80 Y178 F4000		; wiping
G1 X100 Y176 F4000		; wiping
G1 X80 Y178 F4000		; wiping
G1 X100 Y176 F4000		; wiping
G1 X110 Y178 F4000		; wiping
G1 X100 Y176 F4000		; wiping
G1 X110 Y178 F4000		; wiping
G1 X100 Y176 F4000		; wiping
G1 X110 Y178 F4000		; wiping
G1 X115 Y176 Z-0.5 F1000	; wiping
G1 Z10					; raise extruder
G28 X0 Y0				; home X and Y
M109 R170	; wait for extruder to reach probe temp
M204 S300				; set probing acceleration
G29					; start auto-leveling sequence
M425 Z 					; enable backlash compensation
M204 S2000				; restore standard acceleration
G1 X5 Y15 Z10 F5000			; move up off last probe point
G4 S1					; pause
M400					; wait for moves to finish
M117 Heating...				; progress indicator message on LCD
M109 R250	; wait for extruder to reach printing temp
M190 S116 ; wait for bed to reach printing temp
G1 Z2 E0 F75				; prime tiny bit of filment into the nozzle
M117 Mini 2 Printing...		; progress indicator message on LCD



M221 S100
;LAYER_COUNT:171
;LAYER:0
M107
M204 S1000
M205 X10
G0 F2250 X16.245 Y54.73 Z0.42
;TYPE:SKIRT
G1 F900 X20.184 Y53.498 E0.16303
G1 X25.333 Y51.618 E0.37956
G1 X27.831 Y50.586 E0.48633
G1 X32.821 Y48.267 E0.70369
G1 X37.639 Y45.688 E0.91956
G1 X42.317 Y42.832 E1.13607
G1 X46.81 Y39.727 E1.35181
G1 X51.138 Y36.36 E1.56842
G1 X53.2 Y34.611 E1.67523
G1 X57.753 Y30.387 E1.92056
G1 X58.242 Y30.011 E1.94493
G1 X76.563 Y18.509 E2.79945
G1 X77.018 Y18.271 E2.81973
G1 X77.504 Y18.106 E2.84001
G1 X78.01 Y18.018 E2.8603
G1 X78.317 Y18.004 E2.87244
G1 X122.513 Y17.997 E4.61827
G1 X122.65 Y18 E4.62369
G1 X125.53 Y18.119 E4.73755
G1 X125.89 Y18.153 E4.75183
G1 X127.187 Y18.35 E4.80366
G1 X127.438 Y18.399 E4.81376
G1 X128.72 Y18.697 E4.86575
G1 X128.975 Y18.767 E4.8762
G1 X130.29 Y19.186 E4.93072
G1 X130.541 Y19.277 E4.94126
G1 X131.835 Y19.808 E4.99651
G1 X132.071 Y19.916 E5.00677
G1 X133.224 Y20.499 E5.0578
G1 X133.506 Y20.659 E5.07061
G1 X135.253 Y21.77 E5.15239
G1 X135.541 Y21.976 E5.16638
G1 X136.727 Y22.923 E5.22633
G1 X137.015 Y23.182 E5.24163
G1 X138.769 Y24.956 E5.34018
G1 X139.092 Y25.337 E5.35991
G1 X140.642 Y27.471 E5.4641
G1 X140.85 Y27.796 E5.47934
G1 X141.505 Y28.964 E5.53224
G1 X141.65 Y29.254 E5.54505
G1 X142.437 Y31.051 E5.62254
G1 X142.583 Y31.455 E5.63951
G1 X143.28 Y33.857 E5.73831
G1 X143.379 Y34.317 E5.7569
G1 X143.709 Y36.659 E5.85032
G1 X143.741 Y37.117 E5.86846
G1 X143.781 Y91.286 E8.00825
G1 X143.754 Y91.713 E8.02516
G1 X143.589 Y92.985 E8.07582
G1 X143.483 Y93.487 E8.09609
G1 X143.371 Y93.807 E8.10948
G1 X142.877 Y95.017 E8.16111
G1 X142.647 Y95.476 E8.18139
G1 X142.449 Y95.767 E8.19529
G1 X141.659 Y96.806 E8.24685
G1 X141.317 Y97.19 E8.26717
G1 X141.051 Y97.419 E8.28103
G1 X140.026 Y98.212 E8.33222
G1 X139.597 Y98.494 E8.3525
G1 X139.282 Y98.646 E8.36632
G1 X138.045 Y99.164 E8.4193
G1 X137.755 Y99.27 E8.43149
G1 X133.816 Y100.502 E8.59453
G1 X128.667 Y102.382 E8.81106
G1 X126.169 Y103.414 E8.91782
G1 X121.179 Y105.733 E9.13518
G1 X116.361 Y108.312 E9.35106
G1 X111.683 Y111.168 E9.56756
G1 X107.19 Y114.273 E9.78331
G1 X102.862 Y117.64 E9.99991
G1 X100.8 Y119.389 E10.10672
G1 X96.247 Y123.613 E10.35206
G1 X95.758 Y123.989 E10.37642
G1 X77.438 Y135.491 E11.23091
G1 X76.983 Y135.729 E11.25119
G1 X76.497 Y135.894 E11.27147
G1 X75.991 Y135.982 E11.29176
G1 X75.684 Y135.996 E11.3039
G1 X31.487 Y136.003 E13.04977
G1 X31.35 Y136 E13.05519
G1 X28.47 Y135.881 E13.16905
G1 X28.11 Y135.847 E13.18333
G1 X26.813 Y135.65 E13.23516
G1 X26.562 Y135.601 E13.24526
G1 X25.28 Y135.303 E13.29725
G1 X25.026 Y135.233 E13.30766
G1 X23.71 Y134.814 E13.36221
G1 X23.457 Y134.723 E13.37283
G1 X22.164 Y134.192 E13.42805
G1 X21.928 Y134.083 E13.43832
G1 X20.776 Y133.5 E13.48932
G1 X20.494 Y133.34 E13.50213
G1 X18.745 Y132.227 E13.58402
G1 X18.459 Y132.023 E13.5979
G1 X17.274 Y131.078 E13.65777
G1 X16.985 Y130.818 E13.67313
G1 X15.23 Y129.043 E13.77173
G1 X14.971 Y128.747 E13.78727
G1 X14.033 Y127.539 E13.84768
G1 X13.875 Y127.318 E13.85841
G1 X13.172 Y126.24 E13.90925
G1 X13.042 Y126.022 E13.91928
G1 X12.404 Y124.857 E13.97175
G1 X12.243 Y124.52 E13.9865
G1 X11.297 Y122.205 E14.08529
G1 X11.175 Y121.851 E14.10008
G1 X10.804 Y120.533 E14.15417
G1 X10.731 Y120.213 E14.16713
G1 X10.393 Y118.301 E14.24383
G1 X10.346 Y117.874 E14.2608
G1 X10.212 Y114.865 E14.37978
G1 X10.209 Y114.716 E14.38567
G1 X10.242 Y62.463 E16.44977
G1 X10.273 Y62.012 E16.46763
G1 X10.415 Y60.987 E16.50851
G1 X10.525 Y60.486 E16.52877
G1 X10.629 Y60.193 E16.54105
G1 X11.123 Y58.983 E16.59268
G1 X11.353 Y58.524 E16.61296
G1 X11.551 Y58.233 E16.62686
G1 X12.341 Y57.194 E16.67842
G1 X12.683 Y56.81 E16.69874
G1 X12.949 Y56.581 E16.7126
G1 X13.974 Y55.788 E16.76379
G1 X14.403 Y55.506 E16.78407
G1 X14.718 Y55.354 E16.79789
G1 X15.955 Y54.836 E16.85086
G1 X16.245 Y54.73 E16.86306
G1 F420 E15.36306
G0 F2250 X16.776 Y57.337
G0 X17.603 Y59.336
;TYPE:WALL-INNER
G1 F420 E16.86306
G1 F900 X18.607 Y59.203 E16.90307
G1 X62.221 Y59.203 E18.62592
G1 X89.719 Y99.203 E20.54335
G1 X92.509 Y99.203 E20.65357
G1 X92.509 Y120.373 E21.48983
G1 X75.324 Y131.203 E22.29223
G1 X30.568 Y131.203 E24.06019
G1 X29.282 Y131.153 E24.11103
G1 X28.064 Y131.009 E24.15948
G1 X26.902 Y130.778 E24.20627
G1 X25.716 Y130.442 E24.25497
G1 X24.588 Y130.027 E24.30245
G1 X23.464 Y129.508 E24.35135
G1 X22.423 Y128.925 E24.39848
G1 X21.39 Y128.236 E24.44753
G1 X20.449 Y127.494 E24.49487
G1 X19.55 Y126.662 E24.54326
G1 X18.718 Y125.763 E24.59164
G1 X17.968 Y124.812 E24.63949
G1 X17.304 Y123.818 E24.68671
G1 X16.69 Y122.722 E24.73633
G1 X16.191 Y121.637 E24.78351
G1 X15.774 Y120.508 E24.83105
G1 X15.432 Y119.292 E24.88095
G1 X15.203 Y118.144 E24.92719
G1 X15.06 Y116.932 E24.9754
G1 X15.009 Y115.655 E25.02588
G1 X15.009 Y62.799 E27.11381
G1 X15.141 Y61.797 E27.15373
G1 X15.484 Y60.967 E27.18921
G1 X16.047 Y60.235 E27.22569
G1 X16.769 Y59.681 E27.26164
G1 X17.603 Y59.336 E27.29729
G1 F420 E25.79729
G0 F2250 X16.776 Y57.337
G0 X16.775 Y57.337
G0 X16.787 Y57.416
G0 X19.142 Y73.029
G0 X19.154 Y73.108
G0 X19.153 Y73.097
G0 X17 Y70.944
G1 F420 E27.29729
G1 F900 X16.999 Y83.213 E27.78194
G1 X16.227 Y83.213 E27.81244
G1 X16.227 Y94.213 E28.24696
G1 X16.999 Y94.213 E28.27746
G1 X17 Y116.462 E29.15634
G1 X28.769 Y116.463 E29.62124
G1 X28.769 Y123.939 E29.91656
G1 X47.949 Y123.94 E30.67421
G1 X48.249 Y123.94 E30.68606
G1 X48.249 Y123.64 E30.69373
G1 X48.249 Y116.463 E30.97723
G1 X60.018 Y116.462 E31.44213
G1 X60.019 Y94.213 E32.32102
G1 X60.791 Y94.213 E32.35151
G1 X60.792 Y83.513 E32.77419
G1 X60.792 Y83.213 E32.78604
G1 X60.492 Y83.213 E32.7937
G1 X60.019 Y83.213 E32.81239
G1 X60.018 Y70.944 E33.29704
G1 X46.249 Y70.943 E33.84094
G1 X46.249 Y70.253 E33.8682
G1 X31.069 Y70.252 E34.46784
G1 X30.769 Y70.252 E34.47969
G1 X30.769 Y70.552 E34.48736
G1 X30.769 Y70.943 E34.5028
G1 X17 Y70.944 E35.04671
G0 F2250 X17.6 Y71.544
G1 F900 X17.599 Y83.813 E35.53136
G1 X16.827 Y83.813 E35.56186
G1 X16.827 Y93.613 E35.94898
G1 X17.599 Y93.613 E35.97947
G1 X17.6 Y115.862 E36.85836
G1 X29.369 Y115.863 E37.32326
G1 X29.369 Y123.339 E37.61858
G1 X47.349 Y123.34 E38.32882
G1 X47.649 Y123.34 E38.34068
G1 X47.649 Y123.04 E38.34834
G1 X47.649 Y115.863 E38.63185
G1 X59.418 Y115.862 E39.09675
G1 X59.419 Y93.613 E39.97563
G1 X60.191 Y93.613 E40.00613
G1 X60.192 Y84.113 E40.3814
G1 X60.192 Y83.813 E40.39325
G1 X59.892 Y83.813 E40.40091
G1 X59.419 Y83.813 E40.4196
G1 X59.418 Y71.544 E40.90425
G1 X45.649 Y71.543 E41.44815
G1 X45.649 Y70.853 E41.47541
G1 X31.669 Y70.852 E42.02765
G1 X31.369 Y70.852 E42.0395
G1 X31.369 Y71.152 E42.04716
G1 X31.369 Y71.543 E42.06261
G1 X17.6 Y71.544 E42.60651
G1 F420 E41.10651
G0 F2250 X19.153 Y73.097
G0 X19.156 Y73.102
G0 X19.115 Y73.034
G0 X12.905 Y62.858
G0 X12.863 Y62.79
G0 X12.844 Y62.759
G0 X14.409 Y62.759
G1 F420 E42.60651
G1 F900 X14.556 Y61.643 E42.65098
G1 X14.962 Y60.661 E42.69296
G1 X15.618 Y59.808 E42.73546
G1 X16.465 Y59.158 E42.77764
G1 X17.449 Y58.751 E42.8197
G1 X18.566 Y58.603 E42.86421
G1 X62.536 Y58.603 E44.60112
G1 X90.035 Y98.603 E46.51858
G1 X93.109 Y98.603 E46.64001
G1 X93.109 Y120.705 E47.51309
G1 X75.498 Y131.803 E48.33537
G1 X30.545 Y131.803 E50.11111
G1 X29.238 Y131.752 E50.16278
G1 X27.979 Y131.603 E50.21286
G1 X26.761 Y131.361 E50.26192
G1 X25.527 Y131.012 E50.31257
G1 X24.356 Y130.581 E50.36187
G1 X23.197 Y130.046 E50.41229
G1 X22.105 Y129.434 E50.46174
G1 X21.041 Y128.724 E50.51227
G1 X20.054 Y127.946 E50.56191
G1 X19.125 Y127.087 E50.61189
G1 X18.266 Y126.158 E50.66188
G1 X17.48 Y125.161 E50.71203
G1 X16.789 Y124.127 E50.76115
G1 X16.157 Y122.998 E50.81226
G1 X15.635 Y121.865 E50.86154
G1 X15.201 Y120.689 E50.91106
G1 X14.851 Y119.445 E50.96211
G1 X14.609 Y118.231 E51.01101
G1 X14.461 Y116.974 E51.061
G1 X14.409 Y115.679 E51.1122
G1 X14.409 Y62.759 E53.20265
G1 F420 E51.70265
G0 F2250 X12.844 Y62.759
G0 X12.845 Y115.715
G0 X12.899 Y117.089
G0 X13.061 Y118.467
G0 X13.333 Y119.827
G0 X13.708 Y121.162
G0 X14.189 Y122.463
G0 X14.77 Y123.723
G0 X15.447 Y124.933
G0 X16.218 Y126.087
G0 X17.076 Y127.175
G0 X18.018 Y128.194
G0 X19.037 Y129.136
G0 X20.126 Y129.995
G0 X21.28 Y130.765
G0 X22.489 Y131.442
G0 X23.749 Y132.023
G0 X25.051 Y132.504
G0 X26.386 Y132.88
G0 X27.746 Y133.151
G0 X29.123 Y133.314
G0 X30.497 Y133.367
G0 X75.95 Y133.366
G0 X94.669 Y121.567
G0 X94.662 Y97.05
G0 X90.856 Y97.043
G0 X90.351 Y98.003
;TYPE:WALL-OUTER
G1 F420 E53.20265
G1 F900 X93.709 Y98.003 E53.3353
G1 X93.709 Y121.037 E54.2452
G1 X75.672 Y132.403 E55.08736
G1 X30.521 Y132.403 E56.87092
G1 X29.196 Y132.351 E56.9233
G1 X27.892 Y132.197 E56.97517
G1 X26.62 Y131.944 E57.0264
G1 X25.338 Y131.582 E57.07903
G1 X24.119 Y131.133 E57.13034
G1 X22.935 Y130.586 E57.18186
G1 X21.787 Y129.943 E57.23384
G1 X20.692 Y129.212 E57.28585
G1 X19.659 Y128.398 E57.3378
G1 X18.7 Y127.512 E57.38937
G1 X17.814 Y126.553 E57.44095
G1 X16.992 Y125.51 E57.49341
G1 X16.274 Y124.436 E57.54444
G1 X15.624 Y123.274 E57.59704
G1 X15.079 Y122.093 E57.64842
G1 X14.628 Y120.87 E57.69991
G1 X14.27 Y119.598 E57.75211
G1 X14.015 Y118.318 E57.80366
G1 X13.862 Y117.016 E57.85545
G1 X13.809 Y115.703 E57.90736
G1 X13.809 Y62.719 E60.00034
G1 X13.971 Y61.489 E60.04935
G1 X14.44 Y60.355 E60.09782
G1 X15.188 Y59.382 E60.1463
G1 X16.161 Y58.635 E60.19476
G1 X17.295 Y58.166 E60.24323
G1 X18.525 Y58.003 E60.29225
G1 X62.851 Y58.003 E62.04322
G1 X90.351 Y98.003 E63.9607
G0 F2250 X90.601 Y98.003
G1 F420 E62.4607
G0 F2250 X90.856 Y97.043
G0 X90.836 Y97.035
G0 X90.761 Y97.008
G0 X58.705 Y85.389
G0 X58.63 Y85.362
G0 X58.639 Y85.366
G0 X59.592 Y84.413
G1 F420 E63.9607
G1 F900 X59.292 Y84.413 E63.97255
G1 X58.819 Y84.413 E63.99124
G1 X58.818 Y72.144 E64.47589
G1 X45.049 Y72.143 E65.0198
G1 X45.049 Y71.453 E65.04705
G1 X32.269 Y71.452 E65.55189
G1 X31.969 Y71.452 E65.56374
G1 X31.969 Y71.752 E65.5714
G1 X31.969 Y72.143 E65.58685
G1 X18.2 Y72.144 E66.13075
G1 X18.199 Y84.413 E66.61541
G1 X17.427 Y84.413 E66.6459
G1 X17.427 Y93.013 E66.98562
G1 X18.199 Y93.013 E67.01612
G1 X18.2 Y115.262 E67.895
G1 X29.969 Y115.263 E68.3599
G1 X29.969 Y122.739 E68.65522
G1 X46.749 Y122.74 E69.31807
G1 X47.049 Y122.74 E69.32992
G1 X47.049 Y122.44 E69.33758
G1 X47.049 Y115.263 E69.62109
G1 X58.818 Y115.262 E70.08599
G1 X58.819 Y93.013 E70.96487
G1 X59.591 Y93.013 E70.99537
G1 X59.592 Y84.713 E71.32324
G1 X59.592 Y84.413 E71.3309
G0 F2250 X59.342 Y84.413
G0 X61.061 Y84.6
;TYPE:SKIN
G1 F900 X79.353 Y84.6 E72.05347
G1 X79.503 Y84.6
G0 F2250 X78.941 Y84
G1 F900 X61.061 Y84 E72.75977
G1 X60.911 Y84
G0 F2250 X61.061 Y83.4
G1 F900 X78.528 Y83.4 E73.44976
G1 X78.678 Y83.4
G0 F2250 X78.116 Y82.8
G1 F900 X60.287 Y82.8 E74.15404
G1 X60.137 Y82.8
G0 F2250 X60.287 Y82.2
G1 F900 X77.703 Y82.2 E74.84201
G1 X77.853 Y82.2
G0 F2250 X77.291 Y81.6
G1 F900 X60.287 Y81.6 E75.5137
G1 X60.137 Y81.6
G0 F2250 X60.287 Y81
G1 F900 X76.879 Y81 E76.16912
G1 X77.029 Y81
G0 F2250 X76.466 Y80.4
G1 F900 X60.287 Y80.4 E76.80823
G1 X60.137 Y80.4
G0 F2250 X60.287 Y79.8
G1 F900 X76.054 Y79.8 E77.43106
G1 X76.204 Y79.8
G0 F2250 X75.641 Y79.2
G1 F900 X60.287 Y79.2 E78.03758
G1 X60.137 Y79.2
G0 F2250 X60.287 Y78.6
G1 F900 X75.229 Y78.6 E78.62782
G1 X75.379 Y78.6
G0 F2250 X74.816 Y78
G1 F900 X60.287 Y78 E79.20175
G1 X60.137 Y78
G0 F2250 X60.287 Y77.4
G1 F900 X74.404 Y77.4 E79.7594
G1 X74.554 Y77.4
G0 F2250 X73.991 Y76.8
G1 F900 X60.287 Y76.8 E80.30074
G1 X60.137 Y76.8
G0 F2250 X60.287 Y76.2
G1 F900 X73.579 Y76.2 E80.8258
G1 X73.729 Y76.2
G0 F2250 X73.166 Y75.6
G1 F900 X60.287 Y75.6 E81.33455
G1 X60.137 Y75.6
G0 F2250 X60.287 Y75
G1 F900 X72.754 Y75 E81.82702
G1 X72.904 Y75
G0 F2250 X72.341 Y74.4
G1 F900 X60.287 Y74.4 E82.30318
G1 X60.137 Y74.4
G0 F2250 X60.287 Y73.8
G1 F900 X71.929 Y73.8 E82.76306
G1 X72.079 Y73.8
G0 F2250 X71.517 Y73.2
G1 F900 X60.287 Y73.2 E83.20667
G1 X60.137 Y73.2
G0 F2250 X60.287 Y72.6
G1 F900 X71.104 Y72.6 E83.63397
G1 X71.254 Y72.6
G0 F2250 X70.692 Y72
G1 F900 X60.287 Y72 E84.04499
G1 X60.137 Y72
G0 F2250 X60.287 Y71.4
G1 F900 X70.279 Y71.4 E84.43969
G1 X70.429 Y71.4
G0 F2250 X69.867 Y70.8
G1 F900 X60.287 Y70.8 E84.81812
G1 X60.137 Y70.8
G0 F2250 X66.98 Y66.6
G1 F900 X15.278 Y66.6 E86.86047
G1 X15.128 Y66.6
G0 F2250 X15.278 Y66
G1 F900 X66.567 Y66 E88.88649
G1 X66.717 Y66
G0 F2250 X66.155 Y65.4
G1 F900 X15.278 Y65.4 E90.89624
G1 X15.128 Y65.4
G0 F2250 X15.278 Y64.8
G1 F900 X65.742 Y64.8 E92.88968
G1 X65.892 Y64.8
G0 F2250 X65.329 Y64.2
G1 F900 X15.278 Y64.2 E94.8668
G1 X15.128 Y64.2
G0 F2250 X15.278 Y63.6
G1 F900 X64.916 Y63.6 E96.82761
G1 X65.066 Y63.6
G0 F2250 X64.504 Y63
G1 F900 X15.278 Y63 E98.77215
G1 X15.128 Y63
G0 F2250 X15.333 Y62.4
G1 F900 X64.091 Y62.4 E100.69819
G1 X64.241 Y62.4
G0 F2250 X63.679 Y61.8
G1 F900 X15.432 Y61.8 E102.60406
G1 X15.282 Y61.8
G0 F2250 X15.68 Y61.2
G1 F900 X63.266 Y61.2 E104.48381
G1 X63.416 Y61.2
G0 F2250 X62.854 Y60.6
G1 F900 X16.107 Y60.6 E106.33041
G1 X15.957 Y60.6
G0 F2250 X16.797 Y60
G1 F900 X62.441 Y60 E108.13345
G1 X62.591 Y60
G0 F2250 X67.392 Y67.2
G1 F900 X15.278 Y67.2 E110.19207
G1 X15.128 Y67.2
G0 F2250 X15.278 Y67.8
G1 F900 X67.804 Y67.8 E112.26696
G1 X67.954 Y67.8
G0 F2250 X68.217 Y68.4
G1 F900 X15.278 Y68.4 E114.35816
G1 X15.128 Y68.4
G0 F2250 X15.278 Y69
G1 F900 X68.629 Y69 E116.46564
G1 X68.779 Y69
