; generated by Slic3r 1.1.7 on 2015-06-26 at 09:46:07

; perimeters extrusion width = 0.50mm
; infill extrusion width = 0.60mm
; solid infill extrusion width = 0.60mm
; top infill extrusion width = 0.43mm

G21 ; set units to millimeters
G21                                      ; metric values
G90                                      ; absolute positioning
M82                                      ; set extruder to absolute mode
M107                                    ; start with the fan off
G92 E0                                 ; set extruder position to 0
M140 S110                           ; get bed heating up
G28                                      ; home all
M109 S150                           ; set to cleaning temp and wait
G1 Z150 E-30 F75                ; suck up XXmm of filament
M109 S170                           ; heat up rest of way
G1 X45 Y174 F11520           ; move behind scraper
G1 Z0  F1200                       ; CRITICAL: set Z to height of top of scraper
G1 X45 Y174 Z-.5 F4000      ; wiping ; plunge into wipe pad
G1 X55 Y172 Z-.5 F4000      ; wiping
G1 X45 Y174 Z0 F4000        ; wiping
G1 X55 Y172 F4000             ; wiping
G1 X45 Y174 F4000             ; wiping
G1 X55 Y172 F4000             ; wiping
G1 X45 Y174 F4000             ; wiping
G1 X55 Y172 F4000             ; wiping
G1 X60 Y174 F4000             ; wiping
G1 X80 Y172 F4000             ; wiping
G1 X60 Y174 F4000             ; wiping
G1 X80 Y172 F4000             ; wiping
G1 X60 Y174 F4000             ; wiping
G1 X90 Y172 F4000             ; wiping
G1 X80 Y174 F4000             ; wiping
G1 X100 Y172 F4000           ; wiping
G1 X80 Y174 F4000             ; wiping
G1 X100 Y172 F4000           ; wiping
G1 X80 Y174 F4000             ; wiping
G1 X100 Y172 F4000           ; wiping
G1 X110 Y174 F4000           ; wiping
G1 X100 Y172 F4000           ; wiping
G1 X110 Y174 F4000           ; wiping
G1 X100 Y172 F4000           ; wiping
G1 X110 Y174 F4000           ; wiping
G1 X115 Y172 Z-0.5 F1000  ; wipe slower and bury noz in cleanish area
G1 Z10                                 ; raise z
G28 X0 Y0                            ; home x and y
M109 S170                           ; set to probing temp
M204 S300                           ; set accel for probing
G29                                      ; Probe
M204 S2000                         ; set accel back to normal
G1 X5 Y15 Z10 F5000          ; get out the way
M400                                    ; clear buffer
G4 S1                                   ; pause
M109 S250                           ; set extruder temp and wait
G4 S25                                 ; wait for bed to temp up
G1 Z2 E0 F75                       ; extrude filament back into nozzle
M140 S110                           ; get bed temping up during first layer
G90 ; use absolute coordinates
G92 E0
M82 ; use absolute distances for extrusion
M204 S2000
G1 F600.000 E-1.00000
G92 E0
G1 Z0.350 F9600.000
G1 X35.074 Y40.122 F9600.000
G1 E1.00000 F600.000
G1 X49.861 Y27.195 E1.64741 F1500.000
G1 X51.770 Y26.054 E1.72074
G1 X53.965 Y25.654 E1.79428
G1 X73.536 Y25.700 E2.43944
G1 X107.975 Y29.876 E3.58299 F1500.000
G1 X110.100 Y30.533 E3.65632
G1 X112.118 Y32.201 E3.74260
G1 X127.812 Y52.070 E4.57723
G1 X128.857 Y54.033 E4.65056
G1 X129.154 Y55.935 E4.71400
G1 X129.154 Y104.105 E6.30188
G1 X128.757 Y106.294 E6.37521
G1 X127.023 Y108.800 E6.47568
G1 X104.139 Y128.805 E7.47759
G1 X102.230 Y129.946 E7.55092
G1 X100.035 Y130.346 E7.62446
G1 X80.464 Y130.300 E8.26962
G1 X46.025 Y126.124 E9.41317
G1 X43.900 Y125.467 E9.48650
G1 X41.882 Y123.799 E9.57278
G1 X26.188 Y103.930 E10.40741
G1 X25.143 Y101.967 E10.48074
G1 X24.846 Y100.065 E10.54418
G1 X24.846 Y51.895 E12.13206
G1 X25.243 Y49.706 E12.20539
G1 X26.977 Y47.200 E12.30586
G1 X35.018 Y40.171 E12.65789
G1 X35.481 Y40.587 F9600.000
G1 X50.267 Y27.661 E13.30530 F1500.000
G1 X52.089 Y26.595 E13.37487
G1 X53.965 Y26.272 E13.43761
G1 X73.462 Y26.313 E14.08032
G1 X107.901 Y30.489 E15.22387 F1500.000
G1 X109.911 Y31.132 E15.29344
G1 X111.633 Y32.584 E15.36768
G1 X127.327 Y52.453 E16.20231
G1 X128.301 Y54.325 E16.27188
G1 X128.536 Y55.935 E16.32551
G1 X128.536 Y104.105 E17.91339
G1 X128.140 Y106.178 E17.98296
G1 X126.616 Y108.335 E18.07001
G1 X103.733 Y128.339 E19.07193
G1 X101.911 Y129.405 E19.14150
G1 X100.035 Y129.728 E19.20424
G1 X80.538 Y129.687 E19.84695
G1 X46.099 Y125.511 E20.99049
G1 X44.089 Y124.868 E21.06007
G1 X42.367 Y123.416 E21.13431
G1 X26.673 Y103.547 E21.96893
G1 X25.699 Y101.675 E22.03851
G1 X25.464 Y100.065 E22.09213
G1 X25.464 Y51.895 E23.68002
G1 X25.860 Y49.822 E23.74959
G1 X27.384 Y47.665 E23.83664
G1 X35.424 Y40.636 E24.18867
G1 F600.000 E23.18867
G92 E0
G1 X103.878 Y47.006 F9600.000
G1 E1.00000 F600.000
G1 X103.407 Y47.576 E1.02435 F1500.000
G1 X102.716 Y48.092 E1.05281
G1 X102.606 Y48.154 E1.05696
G1 X101.918 Y48.427 E1.08135
G1 X101.798 Y48.465 E1.08551
G1 X100.948 Y48.570 E1.11375
G1 X100.064 Y48.461 E1.14310
G1 X99.198 Y48.105 E1.17398
G1 X98.526 Y47.614 E1.20140
G1 X97.986 Y46.968 E1.22916
G1 X97.607 Y46.195 E1.25754
G1 X97.563 Y46.077 E1.26170
G1 X97.406 Y45.226 E1.29021
G1 X97.459 Y44.372 E1.31841
G1 X97.724 Y43.546 E1.34703
G1 X98.176 Y42.816 E1.37532
G1 X98.255 Y42.719 E1.37944
G1 X98.869 Y42.149 E1.40705
G1 X99.597 Y41.745 E1.43452
G1 X100.545 Y41.500 E1.46678
G1 X101.392 Y41.503 E1.49470
G1 X102.213 Y41.711 E1.52264 F1500.000
G1 X103.033 Y42.149 E1.55327
G1 X103.684 Y42.760 E1.58269
G1 X104.165 Y43.533 E1.61271
G1 X104.435 Y44.357 E1.64131
G1 X104.486 Y45.274 E1.67158
G1 X104.320 Y46.126 E1.70020
G1 X103.923 Y46.947 E1.73024
G1 X103.394 Y46.623 F9600.000
G1 X102.963 Y47.143 E1.75252 F1500.000
G1 X102.338 Y47.596 E1.77794
G1 X101.664 Y47.860 E1.80182
G1 X100.948 Y47.949 E1.82560
G1 X100.219 Y47.858 E1.84981
G1 X99.522 Y47.577 E1.87457
G1 X98.947 Y47.158 E1.89805
G1 X98.489 Y46.608 E1.92164
G1 X98.160 Y45.911 E1.94703
G1 X98.026 Y45.199 E1.97090
G1 X98.072 Y44.479 E1.99468
G1 X98.294 Y43.789 E2.01860
G1 X98.708 Y43.141 E2.04394
G1 X99.230 Y42.654 E2.06747
G1 X99.854 Y42.309 E2.09097
G1 X100.596 Y42.118 E2.11625
G1 X101.314 Y42.119 E2.13992 F1500.000
G1 X102.010 Y42.296 E2.16359
G1 X102.668 Y42.653 E2.18825
G1 X103.204 Y43.156 E2.21249
G1 X103.599 Y43.784 E2.23693
G1 X103.824 Y44.474 E2.26085
G1 X103.868 Y45.217 E2.28539
G1 X103.731 Y45.930 E2.30931
G1 X103.434 Y46.560 E2.33227
G1 F600.000 E1.33227
G92 E0
G1 X100.483 Y41.631 F9600.000
G1 X114.711 Y69.381 F9600.000
G1 E1.00000 F600.000
G1 X115.093 Y69.249 E1.01330 F1500.000
G1 X115.005 Y68.584 E1.03541
G1 X115.005 Y60.461 E1.30320
G1 X115.097 Y59.759 E1.32654
G1 X115.392 Y59.047 E1.35193
G1 X115.861 Y58.436 E1.37732
G1 X116.472 Y57.967 E1.40271
G1 X117.058 Y57.724 E1.42362
G1 X117.184 Y57.672 E1.42811
G1 X117.948 Y57.571 E1.45350
G1 X118.712 Y57.672 E1.47890
G1 X119.423 Y57.967 E1.50429
G1 X120.034 Y58.436 E1.52968
G1 X120.503 Y59.047 E1.55508
G1 X120.798 Y59.759 E1.58047
G1 X120.891 Y60.461 E1.60381
G1 X120.891 Y68.584 E1.87160
G1 X120.798 Y69.286 E1.89494
G1 X120.503 Y69.998 E1.92033
G1 X120.034 Y70.609 E1.94572
G1 X119.423 Y71.078 E1.97112
G1 X118.712 Y71.373 E1.99651
G1 X117.948 Y71.473 E2.02190
G1 X117.184 Y71.373 E2.04730
G1 X116.472 Y71.078 E2.07269
G1 X115.861 Y70.609 E2.09808
G1 X115.636 Y70.316 E2.11028
G1 X115.259 Y70.537 E2.12468
G1 X115.412 Y70.890 E2.13734
G1 X115.709 Y71.714 E2.16622
G1 X115.953 Y72.555 E2.19509
G1 X116.144 Y73.410 E2.22396
G1 X116.281 Y74.275 E2.25284
G1 X116.364 Y75.147 E2.28171
G1 X116.391 Y76.008 E2.31010
G1 X116.391 Y84.037 E2.57478
G1 X116.364 Y84.898 E2.60317
G1 X116.281 Y85.770 E2.63204
G1 X116.144 Y86.635 E2.66092
G1 X115.953 Y87.490 E2.68979
G1 X115.709 Y88.331 E2.71867
G1 X115.412 Y89.155 E2.74754
G1 X115.259 Y89.508 E2.76020
G1 X115.636 Y89.729 E2.77461
G1 X115.861 Y89.436 E2.78680
G1 X116.472 Y88.967 E2.81219
G1 X117.184 Y88.672 E2.83759
G1 X117.948 Y88.571 E2.86298
G1 X118.712 Y88.672 E2.88837
G1 X119.423 Y88.967 E2.91377
G1 X120.034 Y89.436 E2.93916
G1 X120.503 Y90.047 E2.96455
G1 X120.798 Y90.759 E2.98995
G1 X120.891 Y91.461 E3.01328
G1 X120.891 Y99.584 E3.28107
G1 X120.798 Y100.286 E3.30441
G1 X120.503 Y100.998 E3.32980
G1 X120.034 Y101.609 E3.35520
G1 X119.423 Y102.078 E3.38059
G1 X118.712 Y102.373 E3.40598
G1 X117.948 Y102.473 E3.43138
G1 X117.184 Y102.373 E3.45677
G1 X116.472 Y102.078 E3.48217
G1 X115.969 Y101.692 E3.50307
G1 X115.861 Y101.609 E3.50756
G1 X115.392 Y100.998 E3.53295
G1 X115.097 Y100.286 E3.55834
G1 X115.005 Y99.584 E3.58169
G1 X115.005 Y91.460 E3.84947
G1 X115.093 Y90.796 E3.87158
G1 X114.711 Y90.664 E3.88488
G1 X114.220 Y91.494 E3.91666
G1 X113.728 Y92.218 E3.94553
G1 X113.191 Y92.910 E3.97441
G1 X112.612 Y93.567 E4.00328
G1 X111.993 Y94.187 E4.03215
G1 X111.336 Y94.766 E4.06103
G1 X110.643 Y95.303 E4.08990
G1 X109.919 Y95.795 E4.11878
G1 X109.165 Y96.241 E4.14765
G1 X108.385 Y96.639 E4.17653
G1 X107.581 Y96.987 E4.20540
G1 X106.756 Y97.283 E4.23427
G1 X105.915 Y97.528 E4.26315
G1 X105.060 Y97.719 E4.29202
G1 X104.195 Y97.856 E4.32090
G1 X103.323 Y97.938 E4.34977
G1 X102.448 Y97.966 E4.37864
G1 X101.572 Y97.938 E4.40752
G1 X100.700 Y97.856 E4.43639
G1 X99.835 Y97.719 E4.46527
G1 X98.980 Y97.528 E4.49414
G1 X98.139 Y97.283 E4.52302
G1 X97.315 Y96.987 E4.55189
G1 X96.511 Y96.639 E4.58076
G1 X95.730 Y96.241 E4.60964
G1 X94.977 Y95.795 E4.63851
G1 X94.252 Y95.303 E4.66739
G1 X93.560 Y94.766 E4.69626
G1 X92.903 Y94.187 E4.72513
G1 X92.283 Y93.567 E4.75401
G1 X91.704 Y92.910 E4.78288
G1 X91.167 Y92.218 E4.81176
G1 X90.675 Y91.494 E4.84063
G1 X90.184 Y90.664 E4.87241
G1 X89.803 Y90.796 E4.88571
G1 X89.891 Y91.461 E4.90782
G1 X89.891 Y99.584 E5.17560
G1 X89.798 Y100.286 E5.19895
G1 X89.503 Y100.998 E5.22434
G1 X89.034 Y101.609 E5.24973
G1 X88.423 Y102.078 E5.27512
G1 X87.712 Y102.373 E5.30052
G1 X86.948 Y102.473 E5.32591
G1 X86.184 Y102.373 E5.35131
G1 X85.472 Y102.078 E5.37670
G1 X84.861 Y101.609 E5.40209
G1 X84.392 Y100.998 E5.42749
G1 X84.097 Y100.286 E5.45288
G1 X84.005 Y99.584 E5.47622
G1 X84.005 Y91.461 E5.74401
G1 X84.097 Y90.759 E5.76734
G1 X84.392 Y90.047 E5.79274
G1 X84.861 Y89.436 E5.81813
G1 X85.472 Y88.967 E5.84352
G1 X86.184 Y88.672 E5.86892
G1 X86.948 Y88.571 E5.89431
G1 X87.712 Y88.672 E5.91971
G1 X88.423 Y88.967 E5.94510
G1 X89.034 Y89.436 E5.97049
G1 X89.260 Y89.729 E5.98269
G1 X89.636 Y89.508 E5.99709
G1 X89.484 Y89.155 E6.00975
G1 X89.187 Y88.331 E6.03862
G1 X88.943 Y87.490 E6.06749
G1 X88.751 Y86.635 E6.09637
G1 X88.614 Y85.770 E6.12524
G1 X88.532 Y84.898 E6.15412
G1 X88.505 Y84.037 E6.18250
G1 X88.505 Y76.008 E6.44719
G1 X88.532 Y75.147 E6.47558
G1 X88.614 Y74.275 E6.50445
G1 X88.751 Y73.410 E6.53333
G1 X88.943 Y72.555 E6.56220
G1 X89.187 Y71.714 E6.59108
G1 X89.484 Y70.889 E6.61995
G1 X89.636 Y70.537 E6.63261
G1 X89.260 Y70.316 E6.64701
G1 X89.034 Y70.609 E6.65921
G1 X88.423 Y71.078 E6.68460
G1 X87.712 Y71.373 E6.71000
G1 X86.948 Y71.473 E6.73539
G1 X86.184 Y71.373 E6.76078
G1 X85.472 Y71.078 E6.78618
G1 X84.861 Y70.609 E6.81157
G1 X84.392 Y69.998 E6.83696
G1 X84.097 Y69.286 E6.86235
G1 X84.005 Y68.584 E6.88570
G1 X84.005 Y60.460 E7.15348
G1 X84.097 Y59.759 E7.17682
G1 X84.392 Y59.047 E7.20222
G1 X84.861 Y58.436 E7.22761
G1 X85.472 Y57.967 E7.25300
G1 X86.184 Y57.672 E7.27839
G1 X86.948 Y57.571 E7.30379
G1 X87.712 Y57.672 E7.32918
G1 X88.423 Y57.967 E7.35458
G1 X89.034 Y58.436 E7.37997
G1 X89.503 Y59.047 E7.40536
G1 X89.798 Y59.759 E7.43075
G1 X89.891 Y60.461 E7.45410
G1 X89.891 Y68.584 E7.72188
G1 X89.803 Y69.249 E7.74399
G1 X90.184 Y69.381 E7.75729
G1 X90.675 Y68.551 E7.78907
G1 X91.167 Y67.827 E7.81794
G1 X91.704 Y67.135 E7.84681
G1 X92.284 Y66.478 E7.87569
G1 X92.903 Y65.858 E7.90456
G1 X93.560 Y65.279 E7.93344
G1 X94.252 Y64.742 E7.96231
G1 X94.977 Y64.250 E7.99119
G1 X95.731 Y63.804 E8.02006
G1 X96.511 Y63.406 E8.04893
G1 X97.315 Y63.058 E8.07781
G1 X98.139 Y62.762 E8.10668
G1 X98.980 Y62.517 E8.13556
G1 X99.835 Y62.326 E8.16443
G1 X100.700 Y62.189 E8.19331
G1 X101.572 Y62.107 E8.22218
G1 X102.448 Y62.079 E8.25105
G1 X103.323 Y62.107 E8.27993
G1 X104.195 Y62.189 E8.30880
G1 X105.060 Y62.326 E8.33768
G1 X105.915 Y62.517 E8.36655
G1 X106.756 Y62.762 E8.39543
G1 X107.581 Y63.058 E8.42430
G1 X108.385 Y63.406 E8.45317
G1 X109.165 Y63.804 E8.48205
G1 X109.919 Y64.250 E8.51092
G1 X110.643 Y64.742 E8.53980
G1 X111.336 Y65.279 E8.56867
G1 X111.993 Y65.858 E8.59754
G1 X112.612 Y66.478 E8.62642
G1 X113.191 Y67.135 E8.65529
G1 X113.728 Y67.827 E8.68417
G1 X114.220 Y68.551 E8.71304
G1 X114.673 Y69.316 E8.74234
G1 X115.699 Y69.125 F9600.000
G1 X115.623 Y68.544 E8.76167 F1500.000
G1 X115.623 Y60.501 E9.02678
G1 X115.699 Y59.920 E9.04611
G1 X115.932 Y59.358 E9.06614
G1 X116.302 Y58.876 E9.08617
G1 X116.784 Y58.506 E9.10620
G1 X117.345 Y58.274 E9.12623
G1 X117.893 Y58.202 E9.14445
G1 X117.948 Y58.195 E9.14626 F1500.000
G1 X118.550 Y58.274 E9.16629
G1 X119.112 Y58.506 E9.18633
G1 X119.594 Y58.876 E9.20636
G1 X119.964 Y59.358 E9.22639
G1 X120.196 Y59.920 E9.24642
G1 X120.273 Y60.501 E9.26574
G1 X120.273 Y68.544 E9.53086
G1 X120.196 Y69.125 E9.55018
G1 X119.964 Y69.686 E9.57021
G1 X119.594 Y70.168 E9.59024
G1 X119.112 Y70.538 E9.61028
G1 X118.550 Y70.771 E9.63031
G1 X117.948 Y70.850 E9.65034
G1 X117.345 Y70.771 E9.67037
G1 X116.784 Y70.538 E9.69040
G1 X116.302 Y70.168 E9.71043
G1 X115.932 Y69.686 E9.73046
G1 X115.728 Y69.194 E9.74802
G1 F600.000 E8.74802
G92 E0
G1 X117.942 Y58.228 F9600.000
G1 X89.273 Y68.544 F9600.000
G1 E1.00000 F600.000
G1 X89.196 Y69.125 E1.01932 F1500.000
G1 X88.964 Y69.686 E1.03936
G1 X88.594 Y70.168 E1.05939
G1 X88.112 Y70.538 E1.07942
G1 X87.550 Y70.771 E1.09945
G1 X86.948 Y70.850 E1.11948
G1 X86.345 Y70.771 E1.13951
G1 X85.784 Y70.538 E1.15954
G1 X85.302 Y70.168 E1.17957
G1 X84.932 Y69.686 E1.19961
G1 X84.699 Y69.125 E1.21964
G1 X84.623 Y68.544 E1.23896
G1 X84.623 Y60.501 E1.50408
G1 X84.699 Y59.920 E1.52340
G1 X84.932 Y59.358 E1.54343
G1 X85.302 Y58.876 E1.56346
G1 X85.784 Y58.506 E1.58349
G1 X86.345 Y58.274 E1.60352
G1 X86.893 Y58.202 E1.62174
G1 X86.948 Y58.195 E1.62355 F1500.000
G1 X87.550 Y58.274 E1.64359
G1 X88.112 Y58.506 E1.66362
G1 X88.594 Y58.876 E1.68365
G1 X88.964 Y59.358 E1.70368
G1 X89.196 Y59.920 E1.72371
G1 X89.273 Y60.501 E1.74304
G1 X89.273 Y68.469 E2.00568
G1 F600.000 E1.00568
G92 E0
G1 X86.947 Y58.211 F9600.000
G1 X90.847 Y69.475 F9600.000
G1 E1.00000 F600.000
G1 X91.197 Y68.882 E1.02268 F1500.000
G1 X91.667 Y68.190 E1.05027
G1 X92.181 Y67.529 E1.07786
G1 X92.734 Y66.901 E1.10546
G1 X93.326 Y66.309 E1.13305
G1 X93.954 Y65.755 E1.16065
G1 X94.615 Y65.242 E1.18824
G1 X95.308 Y64.772 E1.21584
G1 X96.028 Y64.345 E1.24343
G1 X96.774 Y63.965 E1.27102
G1 X97.542 Y63.633 E1.29862
G1 X98.330 Y63.349 E1.32621
G1 X99.134 Y63.116 E1.35381
G1 X99.951 Y62.933 E1.38140
G1 X100.778 Y62.802 E1.40900
G1 X101.640 Y62.723 E1.43755
G1 X102.448 Y62.697 E1.46418 F1500.000
G1 X103.284 Y62.724 E1.49178
G1 X104.118 Y62.802 E1.51937
G1 X104.973 Y62.940 E1.54793
G1 X105.762 Y63.116 E1.57456
G1 X106.565 Y63.349 E1.60215
G1 X107.353 Y63.633 E1.62975
G1 X108.121 Y63.965 E1.65734
G1 X108.867 Y64.345 E1.68493
G1 X109.588 Y64.772 E1.71253
G1 X110.280 Y65.242 E1.74012
G1 X110.942 Y65.755 E1.76772
G1 X111.569 Y66.309 E1.79531
G1 X112.161 Y66.901 E1.82291
G1 X112.715 Y67.529 E1.85050
G1 X113.228 Y68.190 E1.87809
G1 X113.699 Y68.882 E1.90569
G1 X114.125 Y69.603 E1.93328
G1 X114.505 Y70.349 E1.96088
G1 X114.837 Y71.117 E1.98847
G1 X115.121 Y71.905 E2.01607
G1 X115.354 Y72.709 E2.04366
G1 X115.537 Y73.526 E2.07125
G1 X115.668 Y74.352 E2.09885
G1 X115.747 Y75.186 E2.12644
G1 X115.773 Y76.017 E2.15387
G1 X115.773 Y84.027 E2.41791
G1 X115.747 Y84.859 E2.44534
G1 X115.668 Y85.692 E2.47293
G1 X115.537 Y86.519 E2.50053
G1 X115.354 Y87.336 E2.52812
G1 X115.121 Y88.140 E2.55572
G1 X114.837 Y88.928 E2.58331
G1 X114.505 Y89.696 E2.61091
G1 X114.125 Y90.442 E2.63850
G1 X113.699 Y91.162 E2.66609
G1 X113.228 Y91.855 E2.69369
G1 X112.715 Y92.516 E2.72128
G1 X112.161 Y93.144 E2.74888
G1 X111.569 Y93.736 E2.77647
G1 X110.942 Y94.290 E2.80407
G1 X110.280 Y94.803 E2.83166
G1 X109.588 Y95.273 E2.85925
G1 X108.867 Y95.699 E2.88685
