; generated by Slic3r 1.1.7 on 2015-06-26 at 17:50:50

; perimeters extrusion width = 0.50mm
; infill extrusion width = 0.60mm
; solid infill extrusion width = 0.60mm
; top infill extrusion width = 0.43mm

G21 ; set units to millimeters
G21                                      ; metric values
G90                                      ; absolute positioning
M82                                      ; set extruder to absolute mode
M107                                    ; start with the fan off
G92 E0                                 ; set extruder position to 0
M140 S110                           ; get bed heating up
G28                                      ; home all
M109 S150                           ; set to cleaning temp and wait
G1 Z150 E-30 F75                ; suck up XXmm of filament
M109 S170                           ; heat up rest of way
G1 X45 Y174 F11520           ; move behind scraper
G1 Z0  F1200                       ; CRITICAL: set Z to height of top of scraper
G1 X45 Y174 Z-.5 F4000      ; wiping ; plunge into wipe pad
G1 X55 Y172 Z-.5 F4000      ; wiping
G1 X45 Y174 Z0 F4000        ; wiping
G1 X55 Y172 F4000             ; wiping
G1 X45 Y174 F4000             ; wiping
G1 X55 Y172 F4000             ; wiping
G1 X45 Y174 F4000             ; wiping
G1 X55 Y172 F4000             ; wiping
G1 X60 Y174 F4000             ; wiping
G1 X80 Y172 F4000             ; wiping
G1 X60 Y174 F4000             ; wiping
G1 X80 Y172 F4000             ; wiping
G1 X60 Y174 F4000             ; wiping
G1 X90 Y172 F4000             ; wiping
G1 X80 Y174 F4000             ; wiping
G1 X100 Y172 F4000           ; wiping
G1 X80 Y174 F4000             ; wiping
G1 X100 Y172 F4000           ; wiping
G1 X80 Y174 F4000             ; wiping
G1 X100 Y172 F4000           ; wiping
G1 X110 Y174 F4000           ; wiping
G1 X100 Y172 F4000           ; wiping
G1 X110 Y174 F4000           ; wiping
G1 X100 Y172 F4000           ; wiping
G1 X110 Y174 F4000           ; wiping
G1 X115 Y172 Z-0.5 F1000  ; wipe slower and bury noz in cleanish area
G1 Z10                                 ; raise z
G28 X0 Y0                            ; home x and y
M109 S170                           ; set to probing temp
M204 S300                           ; set accel for probing
G29                                      ; Probe
M204 S2000                         ; set accel back to normal
G1 X5 Y15 Z10 F5000          ; get out the way
M400                                    ; clear buffer
G4 S1                                   ; pause
M109 S250                           ; set extruder temp and wait
G4 S25                                 ; wait for bed to temp up
G1 Z2 E0 F75                       ; extrude filament back into nozzle
M140 S110                           ; get bed temping up during first layer
G90 ; use absolute coordinates
G92 E0
M82 ; use absolute distances for extrusion
M204 S2000
G1 F600.000 E-1.00000
G92 E0
G1 Z0.350 F9600.000
G1 X38.776 Y22.332 F9600.000
G1 E1.00000 F600.000
G1 X39.362 Y21.314 E1.03872 F1500.000
G1 X40.798 Y19.616 E1.11205
G1 X42.739 Y18.529 E1.18538
G1 X44.765 Y18.191 E1.25309
G1 X104.384 Y18.191 E3.21833
G1 X106.572 Y18.588 E3.29166
G1 X108.483 Y19.728 E3.36498 F1500.000
G1 X109.961 Y21.638 E3.44461
G1 X119.875 Y41.466 E4.17536
G1 X120.533 Y44.255 E4.26981
G1 X120.533 Y122.782 E6.85839
G1 X119.701 Y125.895 E6.96458
G1 X114.638 Y134.686 E7.29899
G1 X113.202 Y136.384 E7.37232
G1 X111.261 Y137.471 E7.44565
G1 X109.234 Y137.809 E7.51336
G1 X49.616 Y137.809 E9.47860
G1 X47.428 Y137.412 E9.55193
G1 X45.517 Y136.272 E9.62526
G1 X44.039 Y134.362 E9.70488
G1 X34.125 Y114.534 E10.43563
G1 X33.467 Y111.745 E10.53009
G1 X33.467 Y33.218 E13.11866
G1 X34.299 Y30.105 E13.22485
G1 X38.738 Y22.397 E13.51807
G1 X39.311 Y22.641 F9600.000
G1 X39.897 Y21.623 E13.55679 F1500.000
G1 X41.275 Y20.024 E13.62636
G1 X43.146 Y19.047 E13.69593
G1 X44.765 Y18.809 E13.74989
G1 X104.384 Y18.809 E15.71512
G1 X106.456 Y19.205 E15.78469
G1 X108.237 Y20.338 E15.85426 F1500.000
G1 X109.408 Y21.914 E15.91898
G1 X119.322 Y41.742 E16.64974
G1 X119.915 Y44.255 E16.73484
G1 X119.915 Y122.782 E19.32341
G1 X119.166 Y125.586 E19.41908
G1 X114.103 Y134.377 E19.75349
G1 X112.725 Y135.976 E19.82306
G1 X110.854 Y136.953 E19.89263
G1 X109.234 Y137.191 E19.94659
G1 X49.616 Y137.191 E21.91182
G1 X47.544 Y136.795 E21.98139
G1 X45.763 Y135.662 E22.05097
G1 X44.592 Y134.086 E22.11569
G1 X34.678 Y114.258 E22.84644
G1 X34.085 Y111.745 E22.93154
G1 X34.085 Y33.218 E25.52011
G1 X34.834 Y30.414 E25.61578
G1 X39.274 Y22.706 E25.90900
G1 F600.000 E24.90900
G92 E0
G1 X91.907 Y91.101 F9600.000
G1 E1.00000 F600.000
G1 X108.292 Y91.101 E1.54011 F1500.000
G1 X108.292 Y92.765 E1.59497
G1 X89.796 Y92.765 E2.20465
G1 X80.242 Y73.657 E2.90886
G1 X80.242 Y71.101 E2.99313
G1 X91.907 Y71.101 E3.37764
G1 X91.907 Y91.026 E4.03444
G1 X92.525 Y90.483 F9600.000
G1 X108.909 Y90.483 E4.57455 F1500.000
G1 X108.909 Y93.383 E4.67014
G1 X89.415 Y93.383 E5.31277
G1 X79.625 Y73.803 E6.03438
G1 X79.625 Y70.483 E6.14382
G1 X92.525 Y70.483 E6.56906
G1 X92.525 Y90.408 E7.22586
G1 X92.525 Y90.983 F9600.000
G1 F600.000 E6.22586
G92 E0
G1 X90.028 Y92.272 F9600.000
G1 E1.00000 F600.000
G1 X90.093 Y92.337 E1.00302 F1500.000
G1 X90.979 Y92.337 E1.03223
G1 X89.142 Y90.500 E1.11787
G1 X88.256 Y88.728 F9600.000
G1 X91.170 Y91.642 E1.25371 F1500.000
G1 X91.432 Y91.017 E1.27602
G1 X87.370 Y86.955 E1.46539
G1 X86.484 Y85.183 F9600.000
G1 X91.479 Y90.178 E1.69825 F1500.000
G1 X91.479 Y89.292 E1.72746
G1 X85.598 Y83.411 E2.00164
G1 X84.711 Y81.638 F9600.000
G1 X91.479 Y88.406 E2.31713 F1500.000
G1 X91.479 Y87.520 E2.34634
G1 X83.825 Y79.866 E2.70314
G1 X82.939 Y78.094 F9600.000
G1 X91.479 Y86.633 E3.10124 F1500.000
G1 X91.479 Y85.747 E3.13046
G1 X82.053 Y76.321 E3.56988
G1 X81.167 Y74.549 F9600.000
G1 X91.479 Y84.861 E4.05061 F1500.000
G1 X91.479 Y83.975 E4.07982
G1 X80.670 Y73.166 E4.58370
G1 X80.670 Y72.280 E4.61291
G1 X91.479 Y83.089 E5.11678
G1 X91.479 Y82.203 E5.14599
G1 X80.805 Y71.529 E5.64360
G1 X81.691 Y71.529 E5.67281
G1 X91.479 Y81.316 E6.12910
G1 X91.479 Y80.430 E6.15831
G1 X82.577 Y71.529 E6.57329
G1 X83.463 Y71.529 E6.60250
G1 X91.479 Y79.544 E6.97617
G1 X91.479 Y78.658 E7.00538
G1 X84.350 Y71.529 E7.33774
G1 X85.236 Y71.529 E7.36695
G1 X91.479 Y77.772 E7.65799
G1 X91.479 Y76.886 E7.68721
G1 X86.122 Y71.529 E7.93694
G1 X87.008 Y71.529 E7.96615
G1 X91.479 Y75.999 E8.17457
G1 X91.479 Y75.113 E8.20379
G1 X87.894 Y71.529 E8.37090
G1 X88.780 Y71.529 E8.40011
G1 X91.479 Y74.227 E8.52591
G1 X91.479 Y73.341 E8.55512
G1 X89.667 Y71.529 E8.63961
G1 X90.553 Y71.529 E8.66882
G1 X91.479 Y72.455 E8.71199
G1 X91.479 Y71.569 E8.74121
G1 X91.439 Y71.529 E8.74307
G1 F600.000 E7.74307
G92 E0
G1 X91.598 Y91.933 F9600.000
G1 E1.00000 F600.000
G1 X107.983 Y91.933 E1.49044 F1500.000
G1 F600.000 E0.49044
G92 E0
G1 X91.907 Y54.160 F9600.000
G1 E1.00000 F600.000
G1 X108.292 Y54.160 E1.54011 F1500.000
G1 X108.292 Y55.825 E1.59497
G1 X89.796 Y55.825 E2.20465
G1 X80.242 Y36.717 E2.90886
G1 X80.242 Y34.160 E2.99313
G1 X91.907 Y34.160 E3.37764
G1 X91.907 Y54.085 E4.03444
G1 X92.525 Y53.543 F9600.000
G1 X108.909 Y53.543 E4.57455 F1500.000
G1 X108.909 Y56.443 E4.67014
G1 X89.415 Y56.443 E5.31277
G1 X79.625 Y36.863 E6.03438
G1 X79.625 Y33.543 E6.14382
G1 X92.525 Y33.543 E6.56906
G1 X92.525 Y53.468 E7.22586
G1 X92.525 Y54.043 F9600.000
G1 F600.000 E6.22586
G92 E0
G1 X90.028 Y55.332 F9600.000
G1 E1.00000 F600.000
G1 X90.093 Y55.397 E1.00302 F1500.000
G1 X90.979 Y55.397 E1.03223
G1 X89.142 Y53.560 E1.11787
G1 X88.256 Y51.787 F9600.000
G1 X91.170 Y54.701 E1.25371 F1500.000
G1 X91.432 Y54.077 E1.27602
G1 X87.370 Y50.015 E1.46539
G1 X86.484 Y48.243 F9600.000
G1 X91.479 Y53.238 E1.69825 F1500.000
G1 X91.479 Y52.352 E1.72746
G1 X85.598 Y46.470 E2.00164
G1 X84.711 Y44.698 F9600.000
G1 X91.479 Y51.466 E2.31713 F1500.000
G1 X91.479 Y50.579 E2.34634
G1 X83.825 Y42.926 E2.70314
G1 X82.939 Y41.153 F9600.000
G1 X91.479 Y49.693 E3.10124 F1500.000
G1 X91.479 Y48.807 E3.13046
G1 X82.053 Y39.381 E3.56988
G1 X81.167 Y37.609 F9600.000
G1 X91.479 Y47.921 E4.05061 F1500.000
G1 X91.479 Y47.035 E4.07982
G1 X80.670 Y36.226 E4.58370
G1 X80.670 Y35.340 E4.61291
G1 X91.479 Y46.148 E5.11678
G1 X91.479 Y45.262 E5.14599
G1 X80.805 Y34.588 E5.64360
G1 X81.691 Y34.588 E5.67281
G1 X91.479 Y44.376 E6.12910
G1 X91.479 Y43.490 E6.15831
G1 X82.577 Y34.588 E6.57329
G1 X83.463 Y34.588 E6.60250
G1 X91.479 Y42.604 E6.97617
G1 X91.479 Y41.718 E7.00538
G1 X84.350 Y34.588 E7.33774
G1 X85.236 Y34.588 E7.36695
G1 X91.479 Y40.831 E7.65799
G1 X91.479 Y39.945 E7.68721
G1 X86.122 Y34.588 E7.93694
G1 X87.008 Y34.588 E7.96615
G1 X91.479 Y39.059 E8.17457
G1 X91.479 Y38.173 E8.20379
G1 X87.894 Y34.588 E8.37090
G1 X88.780 Y34.588 E8.40011
G1 X91.479 Y37.287 E8.52591
G1 X91.479 Y36.401 E8.55512
G1 X89.667 Y34.588 E8.63961
G1 X90.553 Y34.588 E8.66882
G1 X91.479 Y35.514 E8.71199
G1 X91.479 Y34.628 E8.74121
G1 X91.439 Y34.588 E8.74307
G1 F600.000 E7.74307
G92 E0
G1 X91.598 Y54.993 F9600.000
G1 E1.00000 F600.000
G1 X107.983 Y54.993 E1.49044 F1500.000
G1 F600.000 E0.49044
G92 E0
G1 X52.310 Y54.160 F9600.000
G1 E1.00000 F600.000
G1 X68.694 Y54.160 E1.54011 F1500.000
G1 X68.694 Y55.825 E1.59497
G1 X50.199 Y55.825 E2.20465
G1 X40.645 Y36.717 E2.90886
G1 X40.645 Y34.160 E2.99313
G1 X52.310 Y34.160 E3.37764
G1 X52.310 Y54.085 E4.03444
G1 X52.927 Y53.543 F9600.000
G1 X69.312 Y53.543 E4.57455 F1500.000
G1 X69.312 Y56.443 E4.67014
G1 X49.817 Y56.443 E5.31277
G1 X40.027 Y36.863 E6.03438
G1 X40.027 Y33.543 E6.14382
G1 X52.927 Y33.543 E6.56906
G1 X52.927 Y53.468 E7.22586
G1 X52.927 Y54.043 F9600.000
G1 F600.000 E6.22586
G92 E0
G1 X50.431 Y55.332 F9600.000
G1 E1.00000 F600.000
G1 X50.496 Y55.397 E1.00302 F1500.000
G1 X51.382 Y55.397 E1.03223
G1 X49.545 Y53.560 E1.11787
G1 X48.659 Y51.787 F9600.000
G1 X51.573 Y54.701 E1.25371 F1500.000
G1 X51.835 Y54.077 E1.27602
G1 X47.773 Y50.015 E1.46539
G1 X46.887 Y48.243 F9600.000
G1 X51.882 Y53.238 E1.69825 F1500.000
G1 X51.882 Y52.352 E1.72746
G1 X46.000 Y46.470 E2.00164
G1 X45.114 Y44.698 F9600.000
G1 X51.882 Y51.466 E2.31713 F1500.000
G1 X51.882 Y50.579 E2.34634
G1 X44.228 Y42.926 E2.70314
G1 X43.342 Y41.153 F9600.000
G1 X51.882 Y49.693 E3.10124 F1500.000
G1 X51.882 Y48.807 E3.13046
G1 X42.456 Y39.381 E3.56988
G1 X41.570 Y37.609 F9600.000
G1 X51.882 Y47.921 E4.05061 F1500.000
G1 X51.882 Y47.035 E4.07982
G1 X41.073 Y36.226 E4.58370
G1 X41.073 Y35.340 E4.61291
G1 X51.882 Y46.148 E5.11678
G1 X51.882 Y45.262 E5.14599
G1 X41.208 Y34.588 E5.64360
G1 X42.094 Y34.588 E5.67281
G1 X51.882 Y44.376 E6.12910
G1 X51.882 Y43.490 E6.15831
G1 X42.980 Y34.588 E6.57329
G1 X43.866 Y34.588 E6.60250
G1 X51.882 Y42.604 E6.97617
G1 X51.882 Y41.718 E7.00538
G1 X44.752 Y34.588 E7.33774
G1 X45.639 Y34.588 E7.36695
G1 X51.882 Y40.831 E7.65799
G1 X51.882 Y39.945 E7.68721
G1 X46.525 Y34.588 E7.93694
G1 X47.411 Y34.588 E7.96615
G1 X51.882 Y39.059 E8.17457
G1 X51.882 Y38.173 E8.20379
G1 X48.297 Y34.588 E8.37090
G1 X49.183 Y34.588 E8.40011
G1 X51.882 Y37.287 E8.52591
G1 X51.882 Y36.401 E8.55512
G1 X50.069 Y34.588 E8.63961
G1 X50.956 Y34.588 E8.66882
G1 X51.882 Y35.514 E8.71199
G1 X51.882 Y34.628 E8.74121
G1 X51.842 Y34.588 E8.74307
G1 F600.000 E7.74307
G92 E0
G1 X52.001 Y54.993 F9600.000
G1 E1.00000 F600.000
G1 X68.386 Y54.993 E1.49044 F1500.000
G1 F600.000 E0.49044
G92 E0
G1 X52.310 Y91.101 F9600.000
G1 E1.00000 F600.000
G1 X68.694 Y91.101 E1.54011 F1500.000
G1 X68.694 Y92.765 E1.59497
G1 X50.199 Y92.765 E2.20465
G1 X40.645 Y73.657 E2.90886
G1 X40.645 Y71.101 E2.99313
G1 X52.310 Y71.101 E3.37764
G1 X52.310 Y91.026 E4.03444
G1 X52.927 Y90.483 F9600.000
G1 X69.312 Y90.483 E4.57455 F1500.000
G1 X69.312 Y93.383 E4.67014
G1 X49.817 Y93.383 E5.31277
G1 X40.027 Y73.803 E6.03438
G1 X40.027 Y70.483 E6.14382
G1 X52.927 Y70.483 E6.56906
G1 X52.927 Y90.408 E7.22586
G1 X52.927 Y90.983 F9600.000
G1 F600.000 E6.22586
G92 E0
G1 X50.431 Y92.272 F9600.000
G1 E1.00000 F600.000
G1 X50.496 Y92.337 E1.00302 F1500.000
G1 X51.382 Y92.337 E1.03223
G1 X49.545 Y90.500 E1.11787
G1 X48.659 Y88.728 F9600.000
G1 X51.573 Y91.642 E1.25371 F1500.000
G1 X51.835 Y91.017 E1.27602
G1 X47.773 Y86.955 E1.46539
G1 X46.887 Y85.183 F9600.000
G1 X51.882 Y90.178 E1.69825 F1500.000
G1 X51.882 Y89.292 E1.72746
G1 X46.000 Y83.411 E2.00164
G1 X45.114 Y81.638 F9600.000
G1 X51.882 Y88.406 E2.31713 F1500.000
G1 X51.882 Y87.520 E2.34634
G1 X44.228 Y79.866 E2.70314
G1 X43.342 Y78.094 F9600.000
G1 X51.882 Y86.633 E3.10124 F1500.000
G1 X51.882 Y85.747 E3.13046
G1 X42.456 Y76.321 E3.56988
G1 X41.570 Y74.549 F9600.000
G1 X51.882 Y84.861 E4.05061 F1500.000
G1 X51.882 Y83.975 E4.07982
G1 X41.073 Y73.166 E4.58370
G1 X41.073 Y72.280 E4.61291
G1 X51.882 Y83.089 E5.11678
G1 X51.882 Y82.203 E5.14599
G1 X41.208 Y71.529 E5.64360
G1 X42.094 Y71.529 E5.67281
G1 X51.882 Y81.316 E6.12910
G1 X51.882 Y80.430 E6.15831
G1 X42.980 Y71.529 E6.57329
G1 X43.866 Y71.529 E6.60250
G1 X51.882 Y79.544 E6.97617
G1 X51.882 Y78.658 E7.00538
G1 X44.752 Y71.529 E7.33774
G1 X45.639 Y71.529 E7.36695
G1 X51.882 Y77.772 E7.65799
G1 X51.882 Y76.886 E7.68721
G1 X46.525 Y71.529 E7.93694
G1 X47.411 Y71.529 E7.96615
G1 X51.882 Y75.999 E8.17457
G1 X51.882 Y75.113 E8.20379
G1 X48.297 Y71.529 E8.37090
G1 X49.183 Y71.529 E8.40011
G1 X51.882 Y74.227 E8.52591
G1 X51.882 Y73.341 E8.55512
G1 X50.069 Y71.529 E8.63961
G1 X50.956 Y71.529 E8.66882
G1 X51.882 Y72.455 E8.71199
G1 X51.882 Y71.569 E8.74121
G1 X51.842 Y71.529 E8.74307
G1 F600.000 E7.74307
G92 E0
G1 X52.001 Y91.933 F9600.000
G1 E1.00000 F600.000
G1 X68.386 Y91.933 E1.49044 F1500.000
G1 F600.000 E0.49044
G92 E0
G1 X52.310 Y128.966 F9600.000
G1 E1.00000 F600.000
G1 X68.694 Y128.966 E1.54011 F1500.000
G1 X68.694 Y130.631 E1.59497
G1 X50.199 Y130.631 E2.20465
G1 X40.645 Y111.523 E2.90886
G1 X40.645 Y108.966 E2.99313
G1 X52.310 Y108.966 E3.37764
G1 X52.310 Y128.891 E4.03444
G1 X52.927 Y128.349 F9600.000
G1 X69.312 Y128.349 E4.57455 F1500.000
G1 X69.312 Y131.249 E4.67014
G1 X49.817 Y131.249 E5.31277
G1 X40.027 Y111.669 E6.03438
G1 X40.027 Y108.349 E6.14382
G1 X52.927 Y108.349 E6.56906
G1 X52.927 Y128.274 E7.22586
G1 X52.927 Y128.849 F9600.000
G1 F600.000 E6.22586
G92 E0
G1 X50.431 Y130.138 F9600.000
G1 E1.00000 F600.000
G1 X50.496 Y130.203 E1.00302 F1500.000
G1 X51.382 Y130.203 E1.03223
G1 X49.545 Y128.366 E1.11787
G1 X48.659 Y126.593 F9600.000
G1 X51.573 Y129.507 E1.25371 F1500.000
G1 X51.835 Y128.883 E1.27602
G1 X47.773 Y124.821 E1.46539
G1 X46.887 Y123.049 F9600.000
G1 X51.882 Y128.044 E1.69825 F1500.000
G1 X51.882 Y127.158 E1.72746
G1 X46.000 Y121.276 E2.00164
G1 X45.114 Y119.504 F9600.000
G1 X51.882 Y126.272 E2.31713 F1500.000
G1 X51.882 Y125.385 E2.34634
G1 X44.228 Y117.732 E2.70314
G1 X43.342 Y115.959 F9600.000
G1 X51.882 Y124.499 E3.10124 F1500.000
G1 X51.882 Y123.613 E3.13046
G1 X42.456 Y114.187 E3.56988
G1 X41.570 Y112.415 F9600.000
G1 X51.882 Y122.727 E4.05061 F1500.000
G1 X51.882 Y121.841 E4.07982
G1 X41.073 Y111.032 E4.58370
G1 X41.073 Y110.146 E4.61291
G1 X51.882 Y120.954 E5.11678
G1 X51.882 Y120.068 E5.14599
G1 X41.208 Y109.394 E5.64360
G1 X42.094 Y109.394 E5.67281
G1 X51.882 Y119.182 E6.12910
G1 X51.882 Y118.296 E6.15831
G1 X42.980 Y109.394 E6.57329
G1 X43.866 Y109.394 E6.60250
G1 X51.882 Y117.410 E6.97617
G1 X51.882 Y116.524 E7.00538
G1 X44.752 Y109.394 E7.33774
G1 X45.639 Y109.394 E7.36695
G1 X51.882 Y115.637 E7.65799
G1 X51.882 Y114.751 E7.68721
G1 X46.525 Y109.394 E7.93694
G1 X47.411 Y109.394 E7.96615
G1 X51.882 Y113.865 E8.17457
G1 X51.882 Y112.979 E8.20379
G1 X48.297 Y109.394 E8.37090
G1 X49.183 Y109.394 E8.40011
G1 X51.882 Y112.093 E8.52591
G1 X51.882 Y111.207 E8.55512
G1 X50.069 Y109.394 E8.63961
G1 X50.956 Y109.394 E8.66882
G1 X51.882 Y110.320 E8.71199
G1 X51.882 Y109.434 E8.74121
G1 X51.842 Y109.394 E8.74307
G1 F600.000 E7.74307
G92 E0
G1 X52.001 Y129.799 F9600.000
G1 E1.00000 F600.000
G1 X68.386 Y129.799 E1.49044 F1500.000
G1 F600.000 E0.49044
G92 E0
G1 X91.907 Y128.966 F9600.000
G1 E1.00000 F600.000
G1 X108.292 Y128.966 E1.54011 F1500.000
G1 X108.292 Y130.631 E1.59497
G1 X89.796 Y130.631 E2.20465
