; generated by Slic3r 1.1.4 on 2014-07-17 at 17:46:57

; perimeters extrusion width = 0.46mm
; infill extrusion width = 0.61mm
; solid infill extrusion width = 0.50mm
; top infill extrusion width = 0.45mm

G21 ; set units to millimeters
G28 ; home all axes
G90 ; use absolute coordinates
G92 E0
M82 ; use absolute distances for extrusion
M204 S800
G1 F1200.000 E-0.70000
G92 E0
G1 Z0.400 F9000.000
G1 X167.366 Y151.015 F9000.000
G1 E0.70000 F1200.000
G1 X169.131 Y149.452 E0.77189 F2700.000
G1 X171.316 Y148.564 E0.84378
G1 X172.822 Y148.400 E0.88999
G1 X261.178 Y148.400 E3.58386
G1 X263.502 Y148.797 E3.65576
G1 X265.562 Y149.943 E3.72765
G1 X267.125 Y151.709 E3.79954
G1 X268.014 Y153.893 E3.87143
G1 X268.178 Y155.400 E3.91764
G1 X268.178 Y257.848 E7.04119
G1 X267.780 Y260.172 E7.11309
G1 X266.634 Y262.233 E7.18498
G1 X264.869 Y263.796 E7.25687
G1 X262.684 Y264.684 E7.32876
G1 X261.178 Y264.848 E7.37497
G1 X172.822 Y264.848 E10.06884
G1 X170.498 Y264.451 E10.14073
G1 X168.438 Y263.304 E10.21263
G1 X166.875 Y261.539 E10.28452
G1 X165.986 Y259.355 E10.35641
G1 X165.822 Y257.848 E10.40262
G1 X165.822 Y155.400 E13.52617
G1 X166.220 Y153.075 E13.59806
G1 X167.329 Y151.080 E13.66767
G1 X167.862 Y151.200 F9000.000
G1 X169.610 Y149.749 E13.73693 F2700.000
G1 X172.822 Y148.900 E13.83824
G1 X261.178 Y148.900 E16.53212
G1 X263.414 Y149.297 E16.60137
G1 X265.378 Y150.439 E16.67063
G1 X266.828 Y152.187 E16.73989
G1 X267.678 Y155.400 E16.84121
G1 X267.678 Y257.848 E19.96476
G1 X267.281 Y260.085 E20.03402
G1 X266.138 Y262.048 E20.10327
G1 X264.390 Y263.499 E20.17253
G1 X261.178 Y264.348 E20.27385
G1 X172.822 Y264.348 E22.96772
G1 X170.586 Y263.951 E23.03698
G1 X168.622 Y262.809 E23.10624
G1 X167.172 Y261.061 E23.17549
G1 X166.322 Y257.848 E23.27681
G1 X166.322 Y155.400 E26.40036
G1 X166.719 Y153.163 E26.46962
G1 X167.824 Y151.264 E26.53659
G1 F1200.000 E25.83659
G92 E0
G1 X227.569 Y218.553 F9000.000
G1 E0.70000 F1200.000
G1 X227.005 Y219.146 E0.72496 F4050.000
G1 X226.407 Y219.526 E0.74655
G1 X226.311 Y219.580 E0.74992
G1 X225.531 Y219.827 E0.77488
G1 X224.713 Y219.872 E0.79984
G1 X224.018 Y219.739 E0.82142
G1 X223.911 Y219.711 E0.82480
G1 X223.174 Y219.355 E0.84975
G1 X222.549 Y218.826 E0.87470
G1 X222.133 Y218.253 E0.89629
G1 X222.077 Y218.158 E0.89966
G1 X221.786 Y217.394 E0.92460
G1 X221.692 Y216.628 E0.94813
G1 X221.786 Y215.862 E0.97166
G1 X222.115 Y215.027 E0.99903
G1 X222.595 Y214.379 E1.02362
G1 X223.134 Y213.933 E1.04493
G1 X223.222 Y213.868 E1.04828
G1 X223.924 Y213.539 E1.07192
G1 X224.695 Y213.386 E1.09588
G1 X224.803 Y213.381 E1.09919
G1 X225.587 Y213.439 E1.12313
G1 X226.342 Y213.687 E1.14737
G1 X227.004 Y214.107 E1.17128
G1 X227.551 Y214.683 E1.19549
G1 X227.984 Y215.470 E1.22288
G1 X228.176 Y216.245 E1.24721
G1 X228.172 Y217.049 E1.27174
G1 X227.967 Y217.837 E1.29656
G1 X227.607 Y218.488 E1.31924
G1 X227.167 Y218.250 F9000.000
G1 X226.693 Y218.752 E1.34031 F3150.000
G1 X226.150 Y219.097 E1.35992
G1 X225.450 Y219.332 E1.38241
G1 X224.761 Y219.372 E1.40348
G1 X224.129 Y219.251 E1.42309
G1 X223.459 Y218.942 E1.44558
G1 X222.929 Y218.498 E1.46664
G1 X222.551 Y217.978 E1.48626
G1 X222.277 Y217.293 E1.50875
G1 X222.194 Y216.628 E1.52918
G1 X222.277 Y215.960 E1.54970
G1 X222.543 Y215.288 E1.57174
G1 X222.949 Y214.735 E1.59266
G1 X223.442 Y214.327 E1.61217
G1 X224.089 Y214.013 E1.63410
G1 X224.799 Y213.882 E1.65611
G1 X225.473 Y213.928 E1.67671
G1 X226.121 Y214.140 E1.69750
G1 X226.693 Y214.503 E1.71815
G1 X227.160 Y214.997 E1.73889
G1 X227.509 Y215.631 E1.76096
G1 X227.676 Y216.293 E1.78176
G1 X227.674 Y216.978 E1.80265
G1 X227.502 Y217.645 E1.82367
G1 X227.205 Y218.185 E1.84245
G1 X227.350 Y218.715 F9000.000
G1 F1200.000 E1.14245
G92 E0
G1 X212.172 Y217.049 F9000.000
G1 E0.70000 F1200.000
G1 X211.967 Y217.837 E0.72482 F4050.000
G1 X211.626 Y218.458 E0.74642
G1 X211.569 Y218.553 E0.74979
G1 X211.005 Y219.146 E0.77475
G1 X210.311 Y219.580 E0.79971
G1 X209.637 Y219.799 E0.82130
G1 X209.531 Y219.827 E0.82467
G1 X208.713 Y219.872 E0.84963
G1 X207.911 Y219.711 E0.87458
G1 X207.270 Y219.409 E0.89617
G1 X207.174 Y219.355 E0.89954
G1 X206.549 Y218.826 E0.92449
G1 X206.077 Y218.158 E0.94944
G1 X205.816 Y217.500 E0.97102
G1 X205.786 Y217.394 E0.97439
G1 X205.692 Y216.628 E0.99793
G1 X205.786 Y215.862 E1.02145
G1 X206.066 Y215.124 E1.04553
G1 X206.115 Y215.027 E1.04883
G1 X206.595 Y214.379 E1.07343
G1 X207.222 Y213.868 E1.09808
G1 X207.924 Y213.539 E1.12173
G1 X208.695 Y213.386 E1.14569
G1 X208.803 Y213.381 E1.14900
G1 X209.587 Y213.439 E1.17294
G1 X210.342 Y213.687 E1.19717
G1 X211.004 Y214.107 E1.22109
G1 X211.551 Y214.683 E1.24529
G1 X211.984 Y215.470 E1.27269
G1 X212.176 Y216.245 E1.29701
G1 X212.175 Y216.974 E1.31926
G1 X211.674 Y216.978 F9000.000
G1 X211.502 Y217.645 E1.34028 F3150.000
G1 X211.192 Y218.209 E1.35990
G1 X210.693 Y218.752 E1.38238
G1 X210.108 Y219.121 E1.40345
G1 X209.496 Y219.319 E1.42307
G1 X208.761 Y219.372 E1.44555
G1 X208.083 Y219.239 E1.46662
G1 X207.500 Y218.965 E1.48623
G1 X206.929 Y218.498 E1.50872
G1 X206.527 Y217.937 E1.52978
G1 X206.290 Y217.339 E1.54940
G1 X206.194 Y216.628 E1.57126
G1 X206.277 Y215.960 E1.59178
G1 X206.522 Y215.329 E1.61244
G1 X206.949 Y214.735 E1.63473
G1 X207.480 Y214.299 E1.65566
G1 X208.055 Y214.028 E1.67506
G1 X208.799 Y213.882 E1.69817
G1 X209.473 Y213.928 E1.71878
G1 X210.077 Y214.124 E1.73813
G1 X210.725 Y214.534 E1.76152
G1 X211.160 Y214.997 E1.78090
G1 X211.509 Y215.631 E1.80296
G1 X211.676 Y216.293 E1.82376
G1 X211.676 Y216.903 E1.84236
G1 X212.059 Y217.297 F9000.000
G1 F1200.000 E1.14236
G92 E0
G1 X205.024 Y210.750 F9000.000
G1 E0.70000 F1200.000
G1 X228.976 Y210.750 E1.43027 F4050.000
G1 X228.976 Y229.798 E2.01102
G1 X205.024 Y229.798 E2.74128
G1 X205.024 Y210.825 E3.31975
G1 X204.524 Y210.250 F9000.000
G1 X229.476 Y210.250 E4.08050 F3150.000
G1 X229.476 Y230.298 E4.69174
G1 X204.524 Y230.298 E5.45250
G1 X204.524 Y210.325 E6.06145
G1 X204.957 Y210.500 F9000.000
G1 X207.819 Y211.092 F9000.000
G1 X209.910 Y213.184 E6.15163 F4500.000
G1 X209.067 Y213.057 E6.17762
G1 X207.102 Y211.092 E6.26233
G1 X206.386 Y211.092 E6.28417
G1 X208.391 Y213.097 E6.37061
G1 X207.797 Y213.220 E6.38909
G1 X205.669 Y211.092 E6.48083
G1 X205.367 Y211.506 E6.49645
G1 X207.309 Y213.449 E6.58022
G1 X206.863 Y213.719 E6.59612
G1 X205.367 Y212.222 E6.66064
G1 X205.367 Y212.939 E6.68248
G1 X206.468 Y214.040 E6.72998
G1 X206.135 Y214.424 E6.74546
G1 X205.367 Y213.655 E6.77861
G1 X205.367 Y214.372 E6.80045
G1 X205.830 Y214.835 E6.82044
G1 X205.367 Y215.088 E6.83655
G1 X205.618 Y215.339 E6.84738
G1 X205.367 Y217.953 F9000.000
G1 X205.864 Y218.451 E6.86883 F4500.000
G1 X205.367 Y218.670 E6.88541
G1 X216.152 Y229.455 E7.35046
G1 X216.869 Y229.455 E7.37231
G1 X207.125 Y219.711 E7.79244
G1 X208.260 Y220.130 F9000.000
G1 X217.585 Y229.455 E8.19452 F4500.000
G1 X218.301 Y229.455 E8.21636
G1 X209.047 Y220.201 E8.61539
G1 X209.697 Y220.134 E8.63529
G1 X219.018 Y229.455 E9.03720
G1 X219.734 Y229.455 E9.05905
G1 X210.241 Y219.962 E9.46838
G1 X210.722 Y219.727 E9.48472
G1 X220.450 Y229.455 E9.90418
G1 X221.167 Y229.455 E9.92602
G1 X211.163 Y219.452 E10.35737
G1 X211.525 Y219.097 E10.37281
G1 X221.883 Y229.455 E10.81946
G1 X222.600 Y229.455 E10.84130
G1 X211.866 Y218.722 E11.30409
G1 X212.122 Y218.262 E11.32015
G1 X223.316 Y229.455 E11.80280
G1 X224.032 Y229.455 E11.82464
G1 X212.342 Y217.765 E12.32870
G1 X212.488 Y217.195 E12.34664
G1 X224.749 Y229.455 E12.87529
G1 X225.465 Y229.455 E12.89713
G1 X212.517 Y216.507 E13.45542
G1 X212.383 Y215.657 E13.48167
G1 X226.181 Y229.455 E14.07664
G1 X226.898 Y229.455 E14.09848
G1 X208.535 Y211.092 E14.89026
G1 X209.251 Y211.092 E14.91210
G1 X227.614 Y229.455 E15.70387
G1 X228.331 Y229.455 E15.72571
G1 X209.968 Y211.092 E16.51748
G1 X210.684 Y211.092 E16.53932
G1 X228.633 Y229.042 E17.31326
G1 X228.633 Y228.325 E17.33511
G1 X211.400 Y211.092 E18.07816
G1 X212.117 Y211.092 E18.10000
G1 X228.633 Y227.609 E18.81216
G1 X228.633 Y226.893 E18.83400
G1 X212.833 Y211.092 E19.51528
G1 X213.550 Y211.092 E19.53712
G1 X228.633 Y226.176 E20.18751
G1 X228.633 Y225.460 E20.20935
G1 X214.266 Y211.092 E20.82885
G1 X214.982 Y211.092 E20.85069
G1 X221.488 Y217.598 E21.13120
G1 X221.363 Y216.757 E21.15713
G1 X215.699 Y211.092 E21.40136
G1 X216.415 Y211.092 E21.42320
G1 X221.413 Y216.090 E21.63869
G1 X221.552 Y215.513 E21.65680
G1 X217.131 Y211.092 E21.84740
G1 X217.848 Y211.092 E21.86924
G1 X221.749 Y214.994 E22.03745
G1 X222.033 Y214.562 E22.05321
G1 X218.564 Y211.092 E22.20280
G1 X219.281 Y211.092 E22.22464
G1 X222.338 Y214.150 E22.35648
G1 X222.731 Y213.826 E22.37199
G1 X219.997 Y211.092 E22.48987
G1 X220.713 Y211.092 E22.51171
G1 X223.146 Y213.525 E22.61661
G1 X223.634 Y213.297 E22.63303
G1 X221.430 Y211.092 E22.72806
G1 X222.146 Y211.092 E22.74991
G1 X224.190 Y213.137 E22.83805
G1 X224.808 Y213.038 E22.85713
G1 X222.862 Y211.092 E22.94102
G1 X223.579 Y211.092 E22.96286
G1 X225.581 Y213.095 E23.04921
G1 X226.732 Y213.530 F9000.000
G1 X224.295 Y211.092 E23.15429 F4500.000
G1 X225.012 Y211.092 E23.17614
G1 X228.633 Y214.714 E23.33230
G1 X228.633 Y213.998 E23.35415
G1 X225.728 Y211.092 E23.47943
G1 X226.444 Y211.092 E23.50127
G1 X228.633 Y213.282 E23.59566
G1 X228.633 Y212.565 E23.61750
G1 X227.161 Y211.092 E23.68100
G1 X227.877 Y211.092 E23.70284
G1 X228.633 Y211.849 E23.73546
G1 X228.633 Y211.132 E23.75730
G1 X228.593 Y211.092 E23.75902
G1 X228.023 Y214.820 F9000.000
G1 X228.485 Y215.282 E23.77895 F4500.000
G1 X228.293 Y217.956 F9000.000
G1 X228.633 Y218.296 E23.79364 F4500.000
G1 X228.633 Y219.013 E23.81548
G1 X228.037 Y218.416 E23.84121
G1 X227.757 Y218.852 E23.85702
G1 X228.633 Y219.729 E23.89482
G1 X228.633 Y220.445 E23.91666
G1 X227.408 Y219.220 E23.96951
G1 X227.015 Y219.544 E23.98502
G1 X228.633 Y221.162 E24.05478
G1 X228.633 Y221.878 E24.07663
G1 X226.575 Y219.819 E24.16539
G1 X226.059 Y220.020 E24.18227
G1 X228.633 Y222.594 E24.29330
G1 X228.633 Y223.311 E24.31514
G1 X225.495 Y220.173 E24.45044
G1 X224.821 Y220.214 E24.47105
G1 X228.633 Y224.027 E24.63545
G1 X228.633 Y224.744 E24.65729
G1 X223.960 Y220.070 E24.85880
G1 X205.367 Y219.386 F9000.000
G1 X215.436 Y229.455 E25.29296 F4500.000
G1 X214.719 Y229.455 E25.31481
G1 X205.367 Y220.102 E25.71808
G1 X205.367 Y220.819 E25.73992
G1 X214.003 Y229.455 E26.11231
G1 X213.287 Y229.455 E26.13415
G1 X205.367 Y221.535 E26.47565
G1 X205.367 Y222.252 E26.49750
G1 X212.570 Y229.455 E26.80811
G1 X211.854 Y229.455 E26.82995
G1 X205.367 Y222.968 E27.10967
G1 X205.367 Y223.684 E27.13151
G1 X211.138 Y229.455 E27.38035
G1 X210.421 Y229.455 E27.40219
G1 X205.367 Y224.401 E27.62013
G1 X205.367 Y225.117 E27.64197
G1 X209.705 Y229.455 E27.82903
G1 X208.988 Y229.455 E27.85087
G1 X205.367 Y225.833 E28.00704
G1 X205.367 Y226.550 E28.02888
G1 X208.272 Y229.455 E28.15416
G1 X207.556 Y229.455 E28.17600
G1 X205.367 Y227.266 E28.27039
G1 X205.367 Y227.983 E28.29224
G1 X206.839 Y229.455 E28.35574
G1 X206.123 Y229.455 E28.37758
G1 X205.367 Y228.699 E28.41019
G1 X205.367 Y229.415 E28.43203
G1 X205.407 Y229.455 E28.43376
G1 X228.507 Y217.627 F9000.000
G1 X228.573 Y217.090 E28.44378 F1800.000
G1 X228.576 Y216.221 E28.45988
G1 X228.507 Y215.625 E28.47099
G1 F1200.000 E27.77099
G92 E0
G1 X221.814 Y243.060 F9000.000
G1 E0.70000 F1200.000
G1 X222.115 Y242.327 E0.72418 F4050.000
G1 X222.525 Y241.763 E0.74543
G1 X222.595 Y241.679 E0.74878
G1 X223.222 Y241.168 E0.77343
G1 X223.924 Y240.839 E0.79708
G1 X224.695 Y240.686 E0.82104
G1 X225.587 Y240.739 E0.84827
G1 X226.342 Y240.988 E0.87250
G1 X227.004 Y241.408 E0.89641
G1 X227.551 Y241.983 E0.92062
G1 X227.612 Y242.071 E0.92389
G1 X227.984 Y242.771 E0.94804
G1 X228.176 Y243.545 E0.97236
G1 X228.172 Y244.349 E0.99689
G1 X227.997 Y245.031 E1.01834
G1 X227.967 Y245.137 E1.02171
G1 X227.569 Y245.853 E1.04668
G1 X227.005 Y246.446 E1.07164
G1 X226.311 Y246.881 E1.09660
G1 X225.531 Y247.128 E1.12156
G1 X224.824 Y247.172 E1.14315
G1 X224.713 Y247.172 E1.14652
G1 X223.911 Y247.011 E1.17147
G1 X223.174 Y246.655 E1.19643
G1 X222.628 Y246.204 E1.21802
G1 X222.549 Y246.126 E1.22139
G1 X222.077 Y245.459 E1.24633
G1 X221.786 Y244.694 E1.27127
G1 X221.700 Y244.015 E1.29215
G1 X221.701 Y243.835 E1.29764
G1 X221.794 Y243.133 E1.31923
G1 X222.288 Y243.220 F9000.000
G1 X222.543 Y242.588 E1.33999 F3150.000
G1 X222.919 Y242.071 E1.35948
G1 X223.480 Y241.599 E1.38182
G1 X224.089 Y241.313 E1.40235
G1 X224.753 Y241.184 E1.42299
G1 X225.473 Y241.228 E1.44497
G1 X226.121 Y241.440 E1.46575
G1 X226.693 Y241.803 E1.48641
G1 X227.160 Y242.297 E1.50715
G1 X227.509 Y242.931 E1.52921
G1 X227.676 Y243.593 E1.55001
G1 X227.674 Y244.278 E1.57090
G1 X227.502 Y244.945 E1.59192
G1 X227.192 Y245.509 E1.61154
G1 X226.693 Y246.052 E1.63403
G1 X226.108 Y246.421 E1.65509
G1 X225.496 Y246.620 E1.67471
G1 X224.761 Y246.672 E1.69720
G1 X224.083 Y246.539 E1.71826
G1 X223.500 Y246.265 E1.73788
G1 X222.929 Y245.799 E1.76037
G1 X222.527 Y245.237 E1.78143
G1 X222.277 Y244.593 E1.80249
G1 X222.194 Y243.928 E1.82291
G1 X222.273 Y243.293 E1.84244
G1 X221.948 Y242.853 F9000.000
G1 X212.176 Y243.545 F9000.000
G1 X212.172 Y244.349 E1.86697 F4050.000
G1 X211.997 Y245.031 E1.88841
G1 X211.967 Y245.137 E1.89179
G1 X211.569 Y245.853 E1.91676
G1 X211.005 Y246.446 E1.94172
G1 X210.407 Y246.826 E1.96331
G1 X210.311 Y246.881 E1.96668
G1 X209.531 Y247.128 E1.99164
G1 X208.713 Y247.172 E2.01660
G1 X208.018 Y247.039 E2.03818
G1 X207.911 Y247.011 E2.04155
G1 X207.174 Y246.655 E2.06651
G1 X206.549 Y246.126 E2.09146
G1 X206.133 Y245.553 E2.11305
G1 X206.077 Y245.459 E2.11641
G1 X205.786 Y244.694 E2.14136
G1 X205.692 Y243.928 E2.16489
G1 X205.786 Y243.162 E2.18841
G1 X206.115 Y242.327 E2.21578
G1 X206.595 Y241.679 E2.24038
G1 X207.134 Y241.233 E2.26169
G1 X207.222 Y241.168 E2.26504
G1 X207.924 Y240.839 E2.28868
G1 X208.023 Y240.814 E2.29180
G1 X208.695 Y240.686 E2.31265
G1 X209.587 Y240.739 E2.33988
G1 X210.342 Y240.988 E2.36411
G1 X211.004 Y241.408 E2.38802
G1 X211.551 Y241.983 E2.41223
G1 X211.612 Y242.071 E2.41549
G1 X211.984 Y242.771 E2.43964
G1 X212.162 Y243.471 E2.46168
G1 X211.676 Y243.593 F9000.000
G1 X211.674 Y244.278 E2.48258 F3150.000
G1 X211.515 Y244.900 E2.50214
G1 X211.167 Y245.550 E2.52463
G1 X210.693 Y246.052 E2.54570
G1 X210.150 Y246.397 E2.56531
G1 X209.450 Y246.632 E2.58780
G1 X208.761 Y246.672 E2.60886
G1 X208.129 Y246.552 E2.62848
G1 X207.459 Y246.242 E2.65097
G1 X206.929 Y245.799 E2.67203
G1 X206.551 Y245.278 E2.69165
G1 X206.277 Y244.593 E2.71414
G1 X206.194 Y243.928 E2.73456
G1 X206.277 Y243.261 E2.75508
G1 X206.543 Y242.588 E2.77713
G1 X206.949 Y242.035 E2.79805
G1 X207.442 Y241.627 E2.81756
G1 X208.130 Y241.303 E2.84075
G1 X208.753 Y241.184 E2.86010
G1 X209.431 Y241.222 E2.88078
G1 X210.121 Y241.440 E2.90285
G1 X210.693 Y241.803 E2.92351
G1 X211.160 Y242.297 E2.94425
G1 X211.509 Y242.931 E2.96631
G1 X211.660 Y243.520 E2.98483
G1 X212.128 Y243.807 F9000.000
G1 F1200.000 E2.28483
G92 E0
G1 X205.024 Y238.050 F9000.000
G1 E0.70000 F1200.000
G1 X228.976 Y238.050 E1.43027 F4050.000
G1 X228.976 Y257.098 E2.01102
G1 X205.024 Y257.098 E2.74128
G1 X205.024 Y238.125 E3.31975
G1 X204.524 Y237.550 F9000.000
G1 X229.476 Y237.550 E4.08050 F3150.000
G1 X229.476 Y257.598 E4.69174
G1 X204.524 Y257.598 E5.45250
G1 X204.524 Y237.625 E6.06145
G1 X204.957 Y237.800 F9000.000
G1 X207.819 Y238.393 F9000.000
G1 X209.910 Y240.484 E6.15163 F4500.000
G1 X209.067 Y240.357 E6.17762
G1 X207.102 Y238.393 E6.26233
G1 X206.386 Y238.393 E6.28417
G1 X208.391 Y240.397 E6.37061
G1 X207.797 Y240.520 E6.38909
G1 X205.669 Y238.393 E6.48083
G1 X205.367 Y238.806 E6.49645
G1 X207.309 Y240.749 E6.58022
G1 X206.863 Y241.019 E6.59612
G1 X205.367 Y239.523 E6.66064
G1 X205.367 Y240.239 E6.68248
G1 X206.468 Y241.340 E6.72998
G1 X206.135 Y241.724 E6.74546
G1 X205.367 Y240.955 E6.77861
G1 X205.367 Y241.672 E6.80045
G1 X205.830 Y242.135 E6.82044
G1 X205.367 Y242.388 E6.83655
G1 X205.618 Y242.639 E6.84738
G1 X205.367 Y245.254 F9000.000
G1 X205.864 Y245.751 E6.86883 F4500.000
G1 X205.367 Y245.970 E6.88541
G1 X216.152 Y256.755 E7.35046
G1 X216.869 Y256.755 E7.37231
G1 X207.125 Y247.012 E7.79244
