; generated by Slic3r 1.1.4 on 2014-07-17 at 17:46:57

; perimeters extrusion width = 0.46mm
; infill extrusion width = 0.61mm
; solid infill extrusion width = 0.50mm
; top infill extrusion width = 0.45mm

G21 ; set units to millimeters
G28 ; home all axes
G90 ; use absolute coordinates
G92 E0
M82 ; use absolute distances for extrusion
M204 S800
G1 F1200.000 E-0.70000
G92 E0
G1 Z0.400 F9000.000
G1 X23.366 Y15.015 F9000.000
G1 E0.70000 F1200.000
G1 X25.131 Y13.452 E0.77189 F2700.000
G1 X27.316 Y12.564 E0.84378
G1 X28.822 Y12.400 E0.88999
G1 X117.178 Y12.400 E3.58386
G1 X119.502 Y12.797 E3.65576
G1 X121.562 Y13.943 E3.72765
G1 X123.125 Y15.709 E3.79954
G1 X124.014 Y17.893 E3.87143
G1 X124.178 Y19.400 E3.91764
G1 X124.178 Y121.848 E7.04119
G1 X123.780 Y124.172 E7.11309
G1 X122.634 Y126.233 E7.18498
G1 X120.869 Y127.796 E7.25687
G1 X118.684 Y128.684 E7.32876
G1 X117.178 Y128.848 E7.37497
G1 X28.822 Y128.848 E10.06884
G1 X26.498 Y128.451 E10.14073
G1 X24.438 Y127.304 E10.21263
G1 X22.875 Y125.539 E10.28452
G1 X21.986 Y123.355 E10.35641
G1 X21.822 Y121.848 E10.40262
G1 X21.822 Y19.400 E13.52617
G1 X22.220 Y17.075 E13.59806
G1 X23.329 Y15.080 E13.66767
G1 X23.862 Y15.200 F9000.000
G1 X25.610 Y13.749 E13.73693 F2700.000
G1 X28.822 Y12.900 E13.83824
G1 X117.178 Y12.900 E16.53212
G1 X119.414 Y13.297 E16.60137
G1 X121.378 Y14.439 E16.67063
G1 X122.828 Y16.187 E16.73989
G1 X123.678 Y19.400 E16.84121
G1 X123.678 Y121.848 E19.96476
G1 X123.281 Y124.085 E20.03402
G1 X122.138 Y126.048 E20.10327
G1 X120.390 Y127.499 E20.17253
G1 X117.178 Y128.348 E20.27385
G1 X28.822 Y128.348 E22.96772
G1 X26.586 Y127.951 E23.03698
G1 X24.622 Y126.809 E23.10624
G1 X23.172 Y125.061 E23.17549
G1 X22.322 Y121.848 E23.27681
G1 X22.322 Y19.400 E26.40036
G1 X22.719 Y17.163 E26.46962
G1 X23.824 Y15.264 E26.53659
G1 F1200.000 E25.83659
G92 E0
G1 X83.569 Y82.553 F9000.000
G1 E0.70000 F1200.000
G1 X83.005 Y83.146 E0.72496 F4050.000
G1 X82.407 Y83.526 E0.74655
G1 X82.311 Y83.580 E0.74992
G1 X81.531 Y83.827 E0.77488
G1 X80.713 Y83.872 E0.79984
G1 X80.018 Y83.739 E0.82142
G1 X79.911 Y83.711 E0.82480
G1 X79.174 Y83.355 E0.84975
G1 X78.549 Y82.826 E0.87470
G1 X78.133 Y82.253 E0.89629
G1 X78.077 Y82.158 E0.89966
G1 X77.786 Y81.394 E0.92460
G1 X77.692 Y80.628 E0.94813
G1 X77.786 Y79.862 E0.97166
G1 X78.115 Y79.027 E0.99903
G1 X78.595 Y78.379 E1.02362
G1 X79.134 Y77.933 E1.04493
G1 X79.222 Y77.868 E1.04828
G1 X79.924 Y77.539 E1.07192
G1 X80.695 Y77.386 E1.09588
G1 X80.803 Y77.381 E1.09919
G1 X81.587 Y77.439 E1.12313
G1 X82.342 Y77.687 E1.14737
G1 X83.004 Y78.107 E1.17128
G1 X83.551 Y78.683 E1.19549
G1 X83.984 Y79.470 E1.22288
G1 X84.176 Y80.245 E1.24721
G1 X84.172 Y81.049 E1.27174
G1 X83.967 Y81.837 E1.29656
G1 X83.607 Y82.488 E1.31924
G1 X83.167 Y82.250 F9000.000
G1 X82.693 Y82.752 E1.34031 F3150.000
G1 X82.150 Y83.097 E1.35992
G1 X81.450 Y83.332 E1.38241
G1 X80.761 Y83.372 E1.40348
G1 X80.129 Y83.251 E1.42309
G1 X79.459 Y82.942 E1.44558
G1 X78.929 Y82.498 E1.46664
G1 X78.551 Y81.978 E1.48626
G1 X78.277 Y81.293 E1.50875
G1 X78.194 Y80.628 E1.52918
G1 X78.277 Y79.960 E1.54970
G1 X78.543 Y79.288 E1.57174
G1 X78.949 Y78.735 E1.59266
G1 X79.442 Y78.327 E1.61217
G1 X80.089 Y78.013 E1.63410
G1 X80.799 Y77.882 E1.65611
G1 X81.473 Y77.928 E1.67671
G1 X82.121 Y78.140 E1.69750
G1 X82.693 Y78.503 E1.71815
G1 X83.160 Y78.997 E1.73889
G1 X83.509 Y79.631 E1.76096
G1 X83.676 Y80.293 E1.78176
G1 X83.674 Y80.978 E1.80265
G1 X83.502 Y81.645 E1.82367
G1 X83.205 Y82.185 E1.84245
G1 X83.350 Y82.715 F9000.000
G1 F1200.000 E1.14245
G92 E0
G1 X68.172 Y81.049 F9000.000
G1 E0.70000 F1200.000
G1 X67.967 Y81.837 E0.72482 F4050.000
G1 X67.626 Y82.458 E0.74642
G1 X67.569 Y82.553 E0.74979
G1 X67.005 Y83.146 E0.77475
G1 X66.311 Y83.580 E0.79971
G1 X65.637 Y83.799 E0.82130
G1 X65.531 Y83.827 E0.82467
G1 X64.713 Y83.872 E0.84963
G1 X63.911 Y83.711 E0.87458
G1 X63.270 Y83.409 E0.89617
G1 X63.174 Y83.355 E0.89954
G1 X62.549 Y82.826 E0.92449
G1 X62.077 Y82.158 E0.94944
G1 X61.816 Y81.500 E0.97102
G1 X61.786 Y81.394 E0.97439
G1 X61.692 Y80.628 E0.99793
G1 X61.786 Y79.862 E1.02145
G1 X62.066 Y79.124 E1.04553
G1 X62.115 Y79.027 E1.04883
G1 X62.595 Y78.379 E1.07343
G1 X63.222 Y77.868 E1.09808
G1 X63.924 Y77.539 E1.12173
G1 X64.695 Y77.386 E1.14569
G1 X64.803 Y77.381 E1.14900
G1 X65.587 Y77.439 E1.17294
G1 X66.342 Y77.687 E1.19717
G1 X67.004 Y78.107 E1.22109
G1 X67.551 Y78.683 E1.24529
G1 X67.984 Y79.470 E1.27269
G1 X68.176 Y80.245 E1.29701
G1 X68.175 Y80.974 E1.31926
G1 X67.674 Y80.978 F9000.000
G1 X67.502 Y81.645 E1.34028 F3150.000
G1 X67.192 Y82.209 E1.35990
G1 X66.693 Y82.752 E1.38238
G1 X66.108 Y83.121 E1.40345
G1 X65.496 Y83.319 E1.42307
G1 X64.761 Y83.372 E1.44555
G1 X64.083 Y83.239 E1.46662
G1 X63.500 Y82.965 E1.48623
G1 X62.929 Y82.498 E1.50872
G1 X62.527 Y81.937 E1.52978
G1 X62.290 Y81.339 E1.54940
G1 X62.194 Y80.628 E1.57126
G1 X62.277 Y79.960 E1.59178
G1 X62.522 Y79.329 E1.61244
G1 X62.949 Y78.735 E1.63473
G1 X63.480 Y78.299 E1.65566
G1 X64.055 Y78.028 E1.67506
G1 X64.799 Y77.882 E1.69817
G1 X65.473 Y77.928 E1.71878
G1 X66.077 Y78.124 E1.73813
G1 X66.725 Y78.534 E1.76152
G1 X67.160 Y78.997 E1.78090
G1 X67.509 Y79.631 E1.80296
G1 X67.676 Y80.293 E1.82376
G1 X67.676 Y80.903 E1.84236
G1 X68.059 Y81.297 F9000.000
G1 F1200.000 E1.14236
G92 E0
G1 X61.024 Y74.750 F9000.000
G1 E0.70000 F1200.000
G1 X84.976 Y74.750 E1.43027 F4050.000
G1 X84.976 Y93.798 E2.01102
G1 X61.024 Y93.798 E2.74128
G1 X61.024 Y74.825 E3.31975
G1 X60.524 Y74.250 F9000.000
G1 X85.476 Y74.250 E4.08050 F3150.000
G1 X85.476 Y94.298 E4.69174
G1 X60.524 Y94.298 E5.45250
G1 X60.524 Y74.325 E6.06145
G1 X60.957 Y74.500 F9000.000
G1 X63.819 Y75.092 F9000.000
G1 X65.910 Y77.184 E6.15163 F4500.000
G1 X65.067 Y77.057 E6.17762
G1 X63.102 Y75.092 E6.26233
G1 X62.386 Y75.092 E6.28417
G1 X64.391 Y77.097 E6.37061
G1 X63.797 Y77.220 E6.38909
G1 X61.669 Y75.092 E6.48083
G1 X61.367 Y75.506 E6.49645
G1 X63.309 Y77.449 E6.58022
G1 X62.863 Y77.719 E6.59612
G1 X61.367 Y76.222 E6.66064
G1 X61.367 Y76.939 E6.68248
G1 X62.468 Y78.040 E6.72998
G1 X62.135 Y78.424 E6.74546
G1 X61.367 Y77.655 E6.77861
G1 X61.367 Y78.372 E6.80045
G1 X61.830 Y78.835 E6.82044
G1 X61.367 Y79.088 E6.83655
G1 X61.618 Y79.339 E6.84738
G1 X61.367 Y81.953 F9000.000
G1 X61.864 Y82.451 E6.86883 F4500.000
G1 X61.367 Y82.670 E6.88541
G1 X72.152 Y93.455 E7.35046
G1 X72.869 Y93.455 E7.37231
G1 X63.125 Y83.711 E7.79244
G1 X64.260 Y84.130 F9000.000
G1 X73.585 Y93.455 E8.19452 F4500.000
G1 X74.301 Y93.455 E8.21636
G1 X65.047 Y84.201 E8.61539
G1 X65.697 Y84.134 E8.63529
G1 X75.018 Y93.455 E9.03720
G1 X75.734 Y93.455 E9.05905
G1 X66.241 Y83.962 E9.46838
G1 X66.722 Y83.727 E9.48472
G1 X76.450 Y93.455 E9.90418
G1 X77.167 Y93.455 E9.92602
G1 X67.163 Y83.452 E10.35737
G1 X67.525 Y83.097 E10.37281
G1 X77.883 Y93.455 E10.81946
G1 X78.600 Y93.455 E10.84130
G1 X67.866 Y82.722 E11.30409
G1 X68.122 Y82.262 E11.32015
G1 X79.316 Y93.455 E11.80280
G1 X80.032 Y93.455 E11.82464
G1 X68.342 Y81.765 E12.32870
G1 X68.488 Y81.195 E12.34664
G1 X80.749 Y93.455 E12.87529
G1 X81.465 Y93.455 E12.89713
G1 X68.517 Y80.507 E13.45542
G1 X68.383 Y79.657 E13.48167
G1 X82.181 Y93.455 E14.07664
G1 X82.898 Y93.455 E14.09848
G1 X64.535 Y75.092 E14.89026
G1 X65.251 Y75.092 E14.91210
G1 X83.614 Y93.455 E15.70387
G1 X84.331 Y93.455 E15.72571
G1 X65.968 Y75.092 E16.51748
G1 X66.684 Y75.092 E16.53932
G1 X84.633 Y93.042 E17.31326
G1 X84.633 Y92.325 E17.33511
G1 X67.400 Y75.092 E18.07816
G1 X68.117 Y75.092 E18.10000
G1 X84.633 Y91.609 E18.81216
G1 X84.633 Y90.893 E18.83400
G1 X68.833 Y75.092 E19.51528
G1 X69.550 Y75.092 E19.53712
G1 X84.633 Y90.176 E20.18751
G1 X84.633 Y89.460 E20.20935
G1 X70.266 Y75.092 E20.82885
G1 X70.982 Y75.092 E20.85069
G1 X77.488 Y81.598 E21.13120
G1 X77.363 Y80.757 E21.15713
G1 X71.699 Y75.092 E21.40136
G1 X72.415 Y75.092 E21.42320
G1 X77.413 Y80.090 E21.63869
G1 X77.552 Y79.513 E21.65680
G1 X73.131 Y75.092 E21.84740
G1 X73.848 Y75.092 E21.86924
G1 X77.749 Y78.994 E22.03745
G1 X78.033 Y78.562 E22.05321
G1 X74.564 Y75.092 E22.20280
G1 X75.281 Y75.092 E22.22464
G1 X78.338 Y78.150 E22.35648
G1 X78.731 Y77.826 E22.37199
G1 X75.997 Y75.092 E22.48987
G1 X76.713 Y75.092 E22.51171
G1 X79.146 Y77.525 E22.61661
G1 X79.634 Y77.297 E22.63303
G1 X77.430 Y75.092 E22.72806
G1 X78.146 Y75.092 E22.74991
G1 X80.190 Y77.137 E22.83805
G1 X80.808 Y77.038 E22.85713
G1 X78.862 Y75.092 E22.94102
G1 X79.579 Y75.092 E22.96286
G1 X81.581 Y77.095 E23.04921
G1 X82.732 Y77.530 F9000.000
G1 X80.295 Y75.092 E23.15429 F4500.000
G1 X81.012 Y75.092 E23.17614
G1 X84.633 Y78.714 E23.33230
G1 X84.633 Y77.998 E23.35415
G1 X81.728 Y75.092 E23.47943
G1 X82.444 Y75.092 E23.50127
G1 X84.633 Y77.282 E23.59566
G1 X84.633 Y76.565 E23.61750
G1 X83.161 Y75.092 E23.68100
G1 X83.877 Y75.092 E23.70284
G1 X84.633 Y75.849 E23.73546
G1 X84.633 Y75.132 E23.75730
G1 X84.593 Y75.092 E23.75902
G1 X84.023 Y78.820 F9000.000
G1 X84.485 Y79.282 E23.77895 F4500.000
G1 X84.293 Y81.956 F9000.000
G1 X84.633 Y82.296 E23.79364 F4500.000
G1 X84.633 Y83.013 E23.81548
G1 X84.037 Y82.416 E23.84121
G1 X83.757 Y82.852 E23.85702
G1 X84.633 Y83.729 E23.89482
G1 X84.633 Y84.445 E23.91666
G1 X83.408 Y83.220 E23.96951
G1 X83.015 Y83.544 E23.98502
G1 X84.633 Y85.162 E24.05478
G1 X84.633 Y85.878 E24.07663
G1 X82.575 Y83.819 E24.16539
G1 X82.059 Y84.020 E24.18227
G1 X84.633 Y86.594 E24.29330
G1 X84.633 Y87.311 E24.31514
G1 X81.495 Y84.173 E24.45044
G1 X80.821 Y84.214 E24.47105
G1 X84.633 Y88.027 E24.63545
G1 X84.633 Y88.744 E24.65729
G1 X79.960 Y84.070 E24.85880
G1 X61.367 Y83.386 F9000.000
G1 X71.436 Y93.455 E25.29296 F4500.000
G1 X70.719 Y93.455 E25.31481
G1 X61.367 Y84.102 E25.71808
G1 X61.367 Y84.819 E25.73992
G1 X70.003 Y93.455 E26.11231
G1 X69.287 Y93.455 E26.13415
G1 X61.367 Y85.535 E26.47565
G1 X61.367 Y86.252 E26.49750
G1 X68.570 Y93.455 E26.80811
G1 X67.854 Y93.455 E26.82995
G1 X61.367 Y86.968 E27.10967
G1 X61.367 Y87.684 E27.13151
G1 X67.138 Y93.455 E27.38035
G1 X66.421 Y93.455 E27.40219
G1 X61.367 Y88.401 E27.62013
G1 X61.367 Y89.117 E27.64197
G1 X65.705 Y93.455 E27.82903
G1 X64.988 Y93.455 E27.85087
G1 X61.367 Y89.833 E28.00704
G1 X61.367 Y90.550 E28.02888
G1 X64.272 Y93.455 E28.15416
G1 X63.556 Y93.455 E28.17600
G1 X61.367 Y91.266 E28.27039
G1 X61.367 Y91.983 E28.29224
G1 X62.839 Y93.455 E28.35574
G1 X62.123 Y93.455 E28.37758
G1 X61.367 Y92.699 E28.41019
G1 X61.367 Y93.415 E28.43203
G1 X61.407 Y93.455 E28.43376
G1 X84.507 Y81.627 F9000.000
G1 X84.573 Y81.090 E28.44378 F1800.000
G1 X84.576 Y80.221 E28.45988
G1 X84.507 Y79.625 E28.47099
G1 F1200.000 E27.77099
G92 E0
G1 X77.814 Y107.060 F9000.000
G1 E0.70000 F1200.000
G1 X78.115 Y106.327 E0.72418 F4050.000
G1 X78.525 Y105.763 E0.74543
G1 X78.595 Y105.679 E0.74878
G1 X79.222 Y105.168 E0.77343
G1 X79.924 Y104.839 E0.79708
G1 X80.695 Y104.686 E0.82104
G1 X81.587 Y104.739 E0.84827
G1 X82.342 Y104.988 E0.87250
G1 X83.004 Y105.408 E0.89641
G1 X83.551 Y105.983 E0.92062
G1 X83.612 Y106.071 E0.92389
G1 X83.984 Y106.771 E0.94804
G1 X84.176 Y107.545 E0.97236
G1 X84.172 Y108.349 E0.99689
G1 X83.997 Y109.031 E1.01834
G1 X83.967 Y109.137 E1.02171
G1 X83.569 Y109.853 E1.04668
G1 X83.005 Y110.446 E1.07164
G1 X82.311 Y110.881 E1.09660
G1 X81.531 Y111.128 E1.12156
G1 X80.824 Y111.172 E1.14315
G1 X80.713 Y111.172 E1.14652
G1 X79.911 Y111.011 E1.17147
G1 X79.174 Y110.655 E1.19643
G1 X78.628 Y110.204 E1.21802
G1 X78.549 Y110.126 E1.22139
G1 X78.077 Y109.459 E1.24633
G1 X77.786 Y108.694 E1.27127
G1 X77.700 Y108.015 E1.29215
G1 X77.701 Y107.835 E1.29764
G1 X77.794 Y107.133 E1.31923
G1 X78.288 Y107.220 F9000.000
G1 X78.543 Y106.588 E1.33999 F3150.000
G1 X78.919 Y106.071 E1.35948
G1 X79.480 Y105.599 E1.38182
G1 X80.089 Y105.313 E1.40235
G1 X80.753 Y105.184 E1.42299
G1 X81.473 Y105.228 E1.44497
G1 X82.121 Y105.440 E1.46575
G1 X82.693 Y105.803 E1.48641
G1 X83.160 Y106.297 E1.50715
G1 X83.509 Y106.931 E1.52921
G1 X83.676 Y107.593 E1.55001
G1 X83.674 Y108.278 E1.57090
G1 X83.502 Y108.945 E1.59192
G1 X83.192 Y109.509 E1.61154
G1 X82.693 Y110.052 E1.63403
G1 X82.108 Y110.421 E1.65509
G1 X81.496 Y110.620 E1.67471
G1 X80.761 Y110.672 E1.69720
G1 X80.083 Y110.539 E1.71826
G1 X79.500 Y110.265 E1.73788
G1 X78.929 Y109.799 E1.76037
G1 X78.527 Y109.237 E1.78143
G1 X78.277 Y108.593 E1.80249
G1 X78.194 Y107.928 E1.82291
G1 X78.273 Y107.293 E1.84244
G1 X77.948 Y106.853 F9000.000
G1 X68.176 Y107.545 F9000.000
G1 X68.172 Y108.349 E1.86697 F4050.000
G1 X67.997 Y109.031 E1.88841
G1 X67.967 Y109.137 E1.89179
G1 X67.569 Y109.853 E1.91676
G1 X67.005 Y110.446 E1.94172
G1 X66.407 Y110.826 E1.96331
G1 X66.311 Y110.881 E1.96668
G1 X65.531 Y111.128 E1.99164
G1 X64.713 Y111.172 E2.01660
G1 X64.018 Y111.039 E2.03818
G1 X63.911 Y111.011 E2.04155
G1 X63.174 Y110.655 E2.06651
G1 X62.549 Y110.126 E2.09146
G1 X62.133 Y109.553 E2.11305
G1 X62.077 Y109.459 E2.11641
G1 X61.786 Y108.694 E2.14136
G1 X61.692 Y107.928 E2.16489
G1 X61.786 Y107.162 E2.18841
G1 X62.115 Y106.327 E2.21578
G1 X62.595 Y105.679 E2.24038
G1 X63.134 Y105.233 E2.26169
G1 X63.222 Y105.168 E2.26504
G1 X63.924 Y104.839 E2.28868
G1 X64.023 Y104.814 E2.29180
G1 X64.695 Y104.686 E2.31265
G1 X65.587 Y104.739 E2.33988
G1 X66.342 Y104.988 E2.36411
G1 X67.004 Y105.408 E2.38802
G1 X67.551 Y105.983 E2.41223
G1 X67.612 Y106.071 E2.41549
G1 X67.984 Y106.771 E2.43964
G1 X68.162 Y107.471 E2.46168
G1 X67.676 Y107.593 F9000.000
G1 X67.674 Y108.278 E2.48258 F3150.000
G1 X67.515 Y108.900 E2.50214
G1 X67.167 Y109.550 E2.52463
G1 X66.693 Y110.052 E2.54570
G1 X66.150 Y110.397 E2.56531
G1 X65.450 Y110.632 E2.58780
G1 X64.761 Y110.672 E2.60886
G1 X64.129 Y110.552 E2.62848
G1 X63.459 Y110.242 E2.65097
G1 X62.929 Y109.799 E2.67203
G1 X62.551 Y109.278 E2.69165
G1 X62.277 Y108.593 E2.71414
G1 X62.194 Y107.928 E2.73456
G1 X62.277 Y107.261 E2.75508
G1 X62.543 Y106.588 E2.77713
G1 X62.949 Y106.035 E2.79805
G1 X63.442 Y105.627 E2.81756
G1 X64.130 Y105.303 E2.84075
G1 X64.753 Y105.184 E2.86010
G1 X65.431 Y105.222 E2.88078
G1 X66.121 Y105.440 E2.90285
G1 X66.693 Y105.803 E2.92351
G1 X67.160 Y106.297 E2.94425
G1 X67.509 Y106.931 E2.96631
G1 X67.660 Y107.520 E2.98483
G1 X68.128 Y107.807 F9000.000
G1 F1200.000 E2.28483
G92 E0
G1 X61.024 Y102.050 F9000.000
G1 E0.70000 F1200.000
G1 X84.976 Y102.050 E1.43027 F4050.000
G1 X84.976 Y121.098 E2.01102
G1 X61.024 Y121.098 E2.74128
G1 X61.024 Y102.125 E3.31975
G1 X60.524 Y101.550 F9000.000
G1 X85.476 Y101.550 E4.08050 F3150.000
G1 X85.476 Y121.598 E4.69174
G1 X60.524 Y121.598 E5.45250
G1 X60.524 Y101.625 E6.06145
G1 X60.957 Y101.800 F9000.000
G1 X63.819 Y102.393 F9000.000
G1 X65.910 Y104.484 E6.15163 F4500.000
G1 X65.067 Y104.357 E6.17762
G1 X63.102 Y102.393 E6.26233
G1 X62.386 Y102.393 E6.28417
G1 X64.391 Y104.397 E6.37061
G1 X63.797 Y104.520 E6.38909
G1 X61.669 Y102.393 E6.48083
G1 X61.367 Y102.806 E6.49645
G1 X63.309 Y104.749 E6.58022
G1 X62.863 Y105.019 E6.59612
G1 X61.367 Y103.523 E6.66064
G1 X61.367 Y104.239 E6.68248
G1 X62.468 Y105.340 E6.72998
G1 X62.135 Y105.724 E6.74546
G1 X61.367 Y104.955 E6.77861
G1 X61.367 Y105.672 E6.80045
G1 X61.830 Y106.135 E6.82044
G1 X61.367 Y106.388 E6.83655
G1 X61.618 Y106.639 E6.84738
G1 X61.367 Y109.254 F9000.000
G1 X61.864 Y109.751 E6.86883 F4500.000
G1 X61.367 Y109.970 E6.88541
G1 X72.152 Y120.755 E7.35046
G1 X72.869 Y120.755 E7.37231
G1 X63.125 Y111.012 E7.79244
G1 X64.260 Y111.430 F9000.000
G1 X73.585 Y120.755 E8.19452 F4500.000
G1 X74.301 Y120.755 E8.21636
G1 X65.047 Y111.501 E8.61539
G1 X65.697 Y111.434 E8.63529
G1 X75.018 Y120.755 E9.03720
G1 X75.734 Y120.755 E9.05905
G1 X66.241 Y111.262 E9.46838
G1 X66.722 Y111.027 E9.48472
G1 X76.450 Y120.755 E9.90418
G1 X77.167 Y120.755 E9.92602
G1 X67.163 Y110.752 E10.35737
G1 X67.525 Y110.397 E10.37281
G1 X77.883 Y120.755 E10.81946
G1 X78.600 Y120.755 E10.84130
G1 X67.866 Y110.022 E11.30409
G1 X68.122 Y109.562 E11.32015
G1 X79.316 Y120.755 E11.80280
G1 X80.032 Y120.755 E11.82464
G1 X68.342 Y109.065 E12.32870
G1 X68.488 Y108.495 E12.34664
G1 X80.749 Y120.755 E12.87529
G1 X81.465 Y120.755 E12.89713
G1 X68.517 Y107.808 E13.45542
G1 X68.383 Y106.957 E13.48167
G1 X82.181 Y120.755 E14.07664
G1 X82.898 Y120.755 E14.09848
