; generated by Slic3r 1.1.7 on 2015-03-05 at 09:44:37

; perimeters extrusion width = 0.50mm
; infill extrusion width = 0.55mm
; solid infill extrusion width = 0.45mm
; top infill extrusion width = 0.45mm

G21 ; set units to millimeters

M301 P34 I4 D113     ; set PID nozzle
M304 P162 I17 D378 ; set PID Bed

;M104 S230                 ; set extruder temp for budaschnozzle
M104 S245                 ; set extruder temp for hex_hot_end
;M140 S95                   ; set bed temp for PET
M140 S105                 ; set bed temp for PEI (reminder ~G1 Z2 ~ M140 S(@-10 degree change) ;if -m is present in file name)

G28                            ; home
G1 Z5 F300                ; move bed down 5mm
M84                            ; disable steppers
G4 S300                     ; wait 5 mins to preheat

G28                            ; home

G90 ; use absolute coordinates
G92 E0
M82 ; use absolute distances for extrusion
M204 S800
G1 F1200.000 E-1.00000
G92 E0
G1 Z0.350 F7800.000
G1 X106.931 Y83.572 F7800.000
G1 E1.00000 F1200.000
G1 X107.635 Y82.732 E1.03601 F1260.000
G1 X108.713 Y81.787 E1.08313
G1 X109.939 Y81.044 E1.13024
G1 X110.247 Y80.901 E1.14138
G1 X111.276 Y80.525 E1.17739
G1 X112.683 Y80.246 E1.22451
G1 X113.408 Y80.194 E1.24840
G1 X129.561 Y79.768 E1.77936
G1 X167.718 Y79.770 E3.03315
G1 X184.982 Y80.216 E3.60062 F1260.000
G1 X185.321 Y80.246 E3.61180
G1 X186.399 Y80.435 E3.64777
G1 X186.726 Y80.523 E3.65890
G1 X187.756 Y80.897 E3.69492
G1 X189.013 Y81.587 E3.74203
G1 X189.291 Y81.782 E3.75317
G1 X190.131 Y82.485 E3.78918
G1 X191.076 Y83.564 E3.83630
G1 X191.270 Y83.841 E3.84742
G1 X191.819 Y84.790 E3.88344
G1 X191.962 Y85.098 E3.89460
G1 X192.338 Y86.127 E3.93059
G1 X192.425 Y86.454 E3.94173
G1 X192.616 Y87.533 E3.97773
G1 X192.671 Y88.424 E4.00705
G1 X192.667 Y186.775 E7.23879
G1 X192.573 Y188.050 E7.28079
G1 X192.504 Y188.468 E7.29471
G1 X192.281 Y189.507 E7.32961
G1 X192.162 Y189.898 E7.34305
G1 X191.799 Y190.914 E7.37850
G1 X191.636 Y191.271 E7.39139
G1 X191.135 Y192.244 E7.42737
G1 X190.935 Y192.563 E7.43972
G1 X190.301 Y193.474 E7.47620
G1 X190.071 Y193.752 E7.48806
G1 X189.312 Y194.585 E7.52508
G1 X188.186 Y195.554 E7.57390
G1 X187.917 Y195.744 E7.58472
G1 X186.940 Y196.367 E7.62279
G1 X185.599 Y197.007 E7.67162
G1 X184.186 Y197.465 E7.72045
G1 X182.734 Y197.731 E7.76895
G1 X182.471 Y197.754 E7.77761
G1 X181.605 Y197.806 E7.80610
G1 X164.571 Y198.232 E8.36600
G1 X132.406 Y198.229 E9.42292
G1 X116.137 Y197.793 E9.95771
G1 X114.900 Y197.680 E9.99851
G1 X113.450 Y197.362 E10.04730
G1 X112.051 Y196.854 E10.09620
G1 X110.734 Y196.167 E10.14501
G1 X109.515 Y195.309 E10.19399
G1 X108.425 Y194.301 E10.24279
G1 X107.409 Y193.058 E10.29554
G1 X106.685 Y191.894 E10.34060
G1 X106.044 Y190.466 E10.39201
G1 X105.626 Y189.058 E10.44027
G1 X105.398 Y187.637 E10.48758
G1 X105.341 Y186.579 E10.52239
G1 X105.330 Y115.997 E12.84163
G1 X105.365 Y87.881 E13.76551
G1 X105.395 Y87.542 E13.77669
G1 X105.584 Y86.464 E13.81266
G1 X106.046 Y85.106 E13.85978
G1 X106.736 Y83.850 E13.90689
G1 X106.888 Y83.633 E13.91556
G1 X107.435 Y83.925 F7800.000
G1 X108.070 Y83.167 E13.94805 F1260.000
G1 X109.066 Y82.292 E13.99164
G1 X110.200 Y81.602 E14.03522
G1 X110.507 Y81.459 E14.04636
G1 X111.436 Y81.120 E14.07885
G1 X112.736 Y80.860 E14.12244
G1 X113.424 Y80.810 E14.14510
G1 X129.561 Y80.384 E14.67553
G1 X167.702 Y80.386 E15.92880
G1 X184.928 Y80.829 E16.49502 F1260.000
G1 X185.267 Y80.859 E16.50619
G1 X186.240 Y81.030 E16.53864
G1 X186.567 Y81.117 E16.54977
G1 X187.496 Y81.455 E16.58226
G1 X188.660 Y82.092 E16.62585
G1 X188.938 Y82.286 E16.63699
G1 X189.695 Y82.921 E16.66947
G1 X190.571 Y83.917 E16.71306
G1 X190.765 Y84.195 E16.72419
G1 X191.261 Y85.050 E16.75668
G1 X191.404 Y85.358 E16.76784
G1 X191.743 Y86.286 E16.80030
G1 X191.830 Y86.614 E16.81144
G1 X192.003 Y87.587 E16.84392
G1 X192.055 Y88.424 E16.87147
G1 X192.052 Y186.756 E20.10256
G1 X191.962 Y187.969 E20.14253
G1 X191.900 Y188.347 E20.15513
G1 X191.687 Y189.345 E20.18866
G1 X191.579 Y189.699 E20.20081
G1 X191.231 Y190.674 E20.23483
G1 X190.604 Y191.931 E20.28099
G1 X189.818 Y193.094 E20.32711
G1 X188.884 Y194.143 E20.37327
G1 X188.654 Y194.355 E20.38354
G1 X187.820 Y195.059 E20.41940
G1 X186.644 Y195.827 E20.46557
G1 X185.377 Y196.433 E20.51170
G1 X184.042 Y196.866 E20.55782
G1 X183.802 Y196.919 E20.56590
G1 X182.671 Y197.119 E20.60363
G1 X181.590 Y197.190 E20.63924
G1 X164.571 Y197.616 E21.19863
G1 X132.422 Y197.614 E22.25501
G1 X116.177 Y197.179 E22.78901
G1 X115.002 Y197.073 E22.82777
G1 X113.631 Y196.774 E22.87387
G1 X112.309 Y196.295 E22.92007
G1 X111.065 Y195.648 E22.96617
G1 X109.912 Y194.838 E23.01244
G1 X108.881 Y193.887 E23.05854
G1 X107.921 Y192.716 E23.10831
G1 X107.234 Y191.615 E23.15094
G1 X106.627 Y190.268 E23.19949
G1 X106.230 Y188.938 E23.24510
G1 X106.012 Y187.596 E23.28977
G1 X105.957 Y186.579 E23.32326
G1 X105.945 Y115.998 E25.64249
G1 X105.979 Y87.934 E26.56461
G1 X106.008 Y87.596 E26.57579
G1 X106.179 Y86.623 E26.60823
G1 X106.604 Y85.366 E26.65183
G1 X107.241 Y84.203 E26.69541
G1 X107.392 Y83.987 E26.70408
G1 F1200.000 E25.70408
G92 E0
G1 X151.983 Y142.827 F7800.000
G1 E1.00000 F1200.000
G1 X152.366 Y143.048 E1.01451 F2100.000
G1 X152.810 Y144.024 E1.04976
G1 X150.604 Y142.750 E1.13348
G1 X149.357 Y142.750 E1.17444
G1 X152.811 Y144.744 E1.30550
G1 X152.811 Y145.464 E1.32915
G1 X148.110 Y142.750 E1.50750
G1 X146.864 Y142.750 E1.54846
G1 X149.119 Y144.052 E1.63402
G1 X147.920 Y144.080 E1.67342
G1 X145.617 Y142.750 E1.76080
G1 X144.814 Y143.006 E1.78849
G1 X147.152 Y144.356 E1.87719
G1 X146.583 Y144.747 E1.89988
G1 X144.431 Y143.505 E1.98155
G1 X144.311 Y144.156 E2.00329
G1 X146.155 Y145.220 E2.07325
G1 X145.840 Y145.758 E2.09374
G1 X144.311 Y144.875 E2.15172
G1 X144.311 Y145.595 E2.17537
G1 X145.636 Y146.360 E2.22561
G1 X145.561 Y147.036 E2.24799
G1 X144.311 Y146.315 E2.29541
G1 X144.311 Y147.034 E2.31906
G1 X145.686 Y147.828 E2.37121
G1 X146.201 Y148.845 E2.40867
G1 X144.311 Y147.754 E2.48037
G1 X144.311 Y148.474 E2.50402
G1 X152.811 Y153.381 E2.82651
G1 X152.811 Y154.101 E2.85016
G1 X144.311 Y149.194 E3.17266
G1 X144.311 Y149.913 E3.19631
G1 X152.811 Y154.821 E3.51880
G1 X152.811 Y155.540 E3.54245
G1 X144.311 Y150.633 E3.86494
G1 X144.311 Y151.353 E3.88859
G1 X152.811 Y156.260 E4.21108
G1 X152.811 Y156.980 E4.23473
G1 X144.311 Y152.073 E4.55723
G1 X144.311 Y152.792 E4.58088
G1 X152.811 Y157.699 E4.90337
G1 X152.811 Y158.419 E4.92702
G1 X144.311 Y153.512 E5.24951
G1 X144.311 Y154.232 E5.27316
G1 X152.800 Y159.133 E5.59525
G1 X152.722 Y159.807 E5.61756
G1 X144.311 Y154.951 E5.93669
G1 X144.311 Y155.671 E5.96034
G1 X152.552 Y160.429 E6.27302
G1 X152.290 Y160.997 E6.29358
G1 X144.311 Y156.391 E6.59630
G1 X144.311 Y157.111 E6.61995
G1 X151.968 Y161.531 E6.91044
G1 X151.555 Y162.012 E6.93128
G1 X144.311 Y157.830 E7.20611
G1 X144.311 Y158.550 E7.22976
G1 X151.045 Y162.438 E7.48526
G1 X150.432 Y162.803 E7.50872
G1 X144.332 Y159.281 E7.74018
G1 X144.452 Y160.071 E7.76642
G1 X149.688 Y163.094 E7.96508
G1 X148.694 Y163.240 E7.99807
G1 X144.823 Y161.005 E8.14496
G1 X146.182 Y162.509 F7800.000
G1 X146.712 Y162.815 E8.16506 F2100.000
G1 X152.811 Y152.661 F7800.000
G1 X148.143 Y149.967 E8.34216 F2100.000
G1 X149.282 Y149.904 E8.37962
G1 X152.811 Y151.942 E8.51353
G1 X152.811 Y151.222 E8.53718
G1 X150.030 Y149.616 E8.64270
G1 X150.579 Y149.213 E8.66508
G1 X152.811 Y150.502 E8.74978
G1 X152.811 Y149.782 E8.77343
G1 X150.998 Y148.736 E8.84222
G1 X151.306 Y148.194 E8.86270
G1 X152.811 Y149.063 E8.91982
G1 X152.811 Y148.343 E8.94347
G1 X151.501 Y147.587 E8.99318
G1 X151.555 Y146.898 E9.01586
G1 X152.811 Y147.623 E9.06350
G1 X152.811 Y146.904 E9.08715
G1 X151.417 Y146.099 E9.14005
G1 X150.835 Y145.043 E9.17965
G1 X152.811 Y146.184 E9.25462
G1 X150.534 Y148.655 F7800.000
G1 X150.184 Y148.995 E9.27066 F1470.000
G1 X149.849 Y149.230 E9.28410
G1 X149.442 Y149.420 E9.29885
G1 X148.969 Y149.539 E9.31489
G1 X148.561 Y149.575 E9.32833
G1 X148.114 Y149.536 E9.34308
G1 X147.644 Y149.403 E9.35911
G1 X147.274 Y149.230 E9.37256
G1 X146.906 Y148.973 E9.38731
G1 X146.566 Y148.623 E9.40334
G1 X146.331 Y148.287 E9.41679
G1 X146.142 Y147.881 E9.43153
G1 X146.022 Y147.408 E9.44757
G1 X145.986 Y147.000 E9.46102
G1 X146.025 Y146.553 E9.47576
G1 X146.158 Y146.083 E9.49180
G1 X146.331 Y145.713 E9.50524
G1 X146.589 Y145.345 E9.51999
G1 X146.939 Y145.005 E9.53603
G1 X147.274 Y144.770 E9.54947
G1 X147.680 Y144.580 E9.56422
G1 X148.114 Y144.464 E9.57897
G1 X148.601 Y144.428 E9.59501
G1 X149.008 Y144.464 E9.60845 F1470.000
G1 X149.442 Y144.580 E9.62320
G1 X149.849 Y144.770 E9.63795
G1 X150.216 Y145.027 E9.65269
G1 X150.534 Y145.345 E9.66744
G1 X150.791 Y145.713 E9.68219
G1 X150.981 Y146.119 E9.69694
G1 X151.097 Y146.553 E9.71169
G1 X151.136 Y147.000 E9.72644
G1 X151.097 Y147.447 E9.74119
G1 X150.981 Y147.881 E9.75593
G1 X150.791 Y148.288 E9.77068
G1 X150.577 Y148.594 E9.78297
G1 X153.237 Y148.655 F7800.000
G1 X153.237 Y158.982 E10.12230 F1470.000
G1 X153.196 Y159.610 E10.14298
G1 X153.077 Y160.210 E10.16308
G1 X152.880 Y160.789 E10.18317
G1 X152.610 Y161.337 E10.20327
G1 X152.270 Y161.846 E10.22336
G1 X151.867 Y162.306 E10.24345
G1 X151.407 Y162.709 E10.26355
G1 X150.899 Y163.049 E10.28364
G1 X150.350 Y163.319 E10.30374
G1 X149.764 Y163.518 E10.32410
G1 X149.177 Y163.635 E10.34376
G1 X148.566 Y163.676 E10.36387
G1 X147.938 Y163.633 E10.38455
G1 X147.355 Y163.517 E10.40409
G1 X146.772 Y163.320 E10.42430
G1 X146.224 Y163.050 E10.44440
G1 X145.715 Y162.710 E10.46450
G1 X145.255 Y162.307 E10.48460
G1 X144.852 Y161.847 E10.50469
G1 X144.512 Y161.338 E10.52479
G1 X144.242 Y160.790 E10.54489
G1 X144.045 Y160.211 E10.56496
G1 X143.926 Y159.610 E10.58509
G1 X143.885 Y158.989 E10.60554
G1 X143.885 Y144.014 E11.09761
G1 X143.912 Y143.709 E11.10767
G1 X143.987 Y143.427 E11.11726
G1 X144.111 Y143.162 E11.12686
G1 X144.278 Y142.923 E11.13645
G1 X144.485 Y142.717 E11.14605
G1 X144.724 Y142.549 E11.15564
G1 X144.988 Y142.426 E11.16523
G1 X145.270 Y142.350 E11.17483
G1 X145.575 Y142.324 E11.18489
G1 X151.547 Y142.324 E11.38111
G1 X151.852 Y142.350 E11.39117
G1 X152.134 Y142.426 E11.40077 F1470.000
G1 X152.399 Y142.549 E11.41036
G1 X152.638 Y142.717 E11.41996
G1 X152.844 Y142.923 E11.42955
G1 X153.012 Y143.162 E11.43914
G1 X153.135 Y143.427 E11.44874
G1 X153.211 Y143.709 E11.45833
G1 X153.237 Y144.014 E11.46839
G1 X153.237 Y148.580 E11.61843
G1 F1200.000 E10.61843
G92 E0
G1 X160.823 Y161.005 F7800.000
G1 E1.00000 F1200.000
G1 X164.694 Y163.240 E1.14688 F2100.000
G1 X165.688 Y163.094 E1.17988
G1 X160.452 Y160.071 E1.37854
G1 X160.332 Y159.281 E1.40478
G1 X166.432 Y162.803 E1.63624
G1 X167.045 Y162.438 E1.65970
G1 X160.311 Y158.550 E1.91520
G1 X160.311 Y157.830 E1.93885
G1 X167.555 Y162.012 E2.21368
G1 X167.968 Y161.531 E2.23451
G1 X160.311 Y157.111 E2.52501
G1 X160.311 Y156.391 E2.54866
G1 X168.290 Y160.997 E2.85138
G1 X168.552 Y160.429 E2.87194
G1 X160.311 Y155.671 E3.18462
G1 X160.311 Y154.951 E3.20827
G1 X168.722 Y159.807 E3.52739
G1 X168.800 Y159.133 E3.54971
G1 X160.311 Y154.232 E3.87179
G1 X160.311 Y153.512 E3.89544
G1 X168.811 Y158.419 E4.21794
G1 X168.811 Y157.699 E4.24159
G1 X160.311 Y152.792 E4.56408
G1 X160.311 Y152.073 E4.58773
G1 X168.811 Y156.980 E4.91022
G1 X168.811 Y156.260 E4.93387
G1 X160.311 Y151.353 E5.25637
G1 X160.311 Y150.633 E5.28002
G1 X168.811 Y155.540 E5.60251
G1 X168.811 Y154.821 E5.62616
G1 X160.311 Y149.913 E5.94865
G1 X160.311 Y149.194 E5.97230
G1 X168.811 Y154.101 E6.29480
G1 X168.811 Y153.381 E6.31844
G1 X160.311 Y148.474 E6.64094
G1 X160.311 Y147.754 E6.66459
G1 X162.201 Y148.845 E6.73628
G1 X161.686 Y147.828 E6.77375
G1 X160.311 Y147.034 E6.82590
G1 X160.311 Y146.315 E6.84955
G1 X161.561 Y147.036 E6.89697
G1 X161.636 Y146.360 E6.91934
G1 X160.311 Y145.595 E6.96959
G1 X160.311 Y144.875 E6.99324
G1 X161.840 Y145.758 E7.05122
G1 X162.155 Y145.220 E7.07170
G1 X160.311 Y144.156 E7.14167
G1 X160.431 Y143.505 E7.16341
G1 X162.583 Y144.747 E7.24508
G1 X163.152 Y144.356 E7.26777
G1 X160.814 Y143.006 E7.35647
G1 X161.617 Y142.750 E7.38416
G1 X163.920 Y144.080 E7.47153
G1 X165.119 Y144.052 E7.51093
G1 X162.864 Y142.750 E7.59650
G1 X164.110 Y142.750 E7.63746
G1 X168.811 Y145.464 E7.81581
G1 X168.811 Y144.744 E7.83946
G1 X165.357 Y142.750 E7.97051
G1 X166.604 Y142.750 E8.01148
G1 X168.810 Y144.024 E8.09520
G1 X168.366 Y143.048 E8.13045
G1 X167.983 Y142.827 E8.14496
G1 X168.811 Y146.184 F7800.000
G1 X166.835 Y145.043 E8.21993 F2100.000
G1 X167.417 Y146.099 E8.25953
G1 X168.811 Y146.904 E8.31243
G1 X168.811 Y147.623 E8.33608
G1 X167.555 Y146.898 E8.38372
G1 X167.501 Y147.587 E8.40640
G1 X168.811 Y148.343 E8.45611
G1 X168.811 Y149.063 E8.47976
G1 X167.306 Y148.194 E8.53688
G1 X166.998 Y148.736 E8.55736
G1 X168.811 Y149.782 E8.62615
G1 X168.811 Y150.502 E8.64980
G1 X166.579 Y149.213 E8.73450
G1 X166.030 Y149.616 E8.75688
G1 X168.811 Y151.222 E8.86240
G1 X168.811 Y151.942 E8.88605
G1 X165.282 Y149.904 E9.01996
G1 X164.143 Y149.967 E9.05742
G1 X168.811 Y152.661 E9.23452
G1 X162.712 Y162.815 F7800.000
G1 X162.182 Y162.509 E9.25462 F2100.000
G1 X166.981 Y147.881 F7800.000
G1 X166.791 Y148.288 E9.26937 F1470.000
G1 X166.534 Y148.655 E9.28412
G1 X166.216 Y148.973 E9.29887
G1 X165.849 Y149.230 E9.31362
G1 X165.442 Y149.420 E9.32837
G1 X164.969 Y149.539 E9.34440
G1 X164.561 Y149.575 E9.35785
G1 X164.114 Y149.536 E9.37260
G1 X163.681 Y149.420 E9.38734
G1 X163.274 Y149.230 E9.40209
G1 X162.906 Y148.973 E9.41684
G1 X162.589 Y148.655 E9.43159
G1 X162.331 Y148.287 E9.44634
G1 X162.142 Y147.881 E9.46109
G1 X162.025 Y147.447 E9.47584
G1 X161.986 Y147.000 E9.49059
G1 X162.025 Y146.553 E9.50534
G1 X162.141 Y146.119 E9.52008
G1 X162.331 Y145.713 E9.53483
G1 X162.589 Y145.345 E9.54958
G1 X162.906 Y145.027 E9.56433
G1 X163.274 Y144.770 E9.57908
G1 X163.680 Y144.580 E9.59383
G1 X164.114 Y144.464 E9.60858
G1 X164.601 Y144.428 E9.62462
G1 X165.008 Y144.464 E9.63806 F1470.000
G1 X165.442 Y144.580 E9.65280
G1 X165.849 Y144.770 E9.66755
G1 X166.216 Y145.027 E9.68230
G1 X166.534 Y145.345 E9.69705
G1 X166.791 Y145.713 E9.71180
G1 X166.981 Y146.119 E9.72655
G1 X167.097 Y146.553 E9.74130
G1 X167.136 Y147.000 E9.75605
G1 X167.097 Y147.447 E9.77080
G1 X167.000 Y147.808 E9.78308
G1 X169.237 Y147.881 F7800.000
G1 X169.237 Y158.982 E10.14786 F1470.000
G1 X169.196 Y159.610 E10.16854
G1 X169.077 Y160.210 E10.18863
G1 X168.880 Y160.789 E10.20873
G1 X168.610 Y161.337 E10.22882
G1 X168.270 Y161.846 E10.24892
G1 X167.867 Y162.306 E10.26901
G1 X167.407 Y162.709 E10.28911
G1 X166.899 Y163.049 E10.30920
G1 X166.350 Y163.319 E10.32930
G1 X165.764 Y163.518 E10.34965
G1 X165.177 Y163.635 E10.36932
G1 X164.566 Y163.676 E10.38943
G1 X163.938 Y163.633 E10.41011
G1 X163.355 Y163.517 E10.42965
G1 X162.772 Y163.320 E10.44986
G1 X162.224 Y163.050 E10.46996
G1 X161.715 Y162.710 E10.49006
G1 X161.255 Y162.307 E10.51016
G1 X160.852 Y161.847 E10.53025
G1 X160.512 Y161.338 E10.55035
G1 X160.242 Y160.790 E10.57045
G1 X160.045 Y160.211 E10.59052
G1 X159.926 Y159.610 E10.61065
G1 X159.885 Y158.989 E10.63110
G1 X159.885 Y144.014 E11.12317
G1 X159.912 Y143.709 E11.13323
G1 X159.987 Y143.427 E11.14282
G1 X160.111 Y143.162 E11.15242
G1 X160.278 Y142.923 E11.16201
G1 X160.485 Y142.717 E11.17161
G1 X160.724 Y142.549 E11.18120
G1 X160.988 Y142.426 E11.19079
G1 X161.270 Y142.350 E11.20039
G1 X161.575 Y142.324 E11.21045
G1 X167.547 Y142.324 E11.40667
G1 X167.852 Y142.350 E11.41673
G1 X168.134 Y142.426 E11.42633 F1470.000
G1 X168.399 Y142.549 E11.43592
G1 X168.638 Y142.717 E11.44551
G1 X168.844 Y142.923 E11.45511
G1 X169.012 Y143.162 E11.46470
G1 X169.135 Y143.427 E11.47430
G1 X169.211 Y143.709 E11.48389
G1 X169.237 Y144.014 E11.49395
G1 X169.237 Y147.806 E11.61854
G1 F1200.000 E10.61854
G92 E0
G1 X176.823 Y161.005 F7800.000
G1 E1.00000 F1200.000
G1 X180.694 Y163.240 E1.14688 F2100.000
G1 X181.688 Y163.094 E1.17988
G1 X176.452 Y160.071 E1.37854
G1 X176.332 Y159.281 E1.40478
G1 X182.432 Y162.803 E1.63624
G1 X183.045 Y162.438 E1.65970
G1 X176.311 Y158.550 E1.91520
G1 X176.311 Y157.830 E1.93885
G1 X183.555 Y162.012 E2.21368
G1 X183.968 Y161.531 E2.23451
