; generated by Slic3r 1.1.7 on 2015-03-05 at 09:44:37

; perimeters extrusion width = 0.50mm
; infill extrusion width = 0.55mm
; solid infill extrusion width = 0.45mm
; top infill extrusion width = 0.45mm

G21 ; set units to millimeters

M301 P34 I4 D113     ; set PID nozzle
M304 P162 I17 D378 ; set PID Bed

;M104 S230                 ; set extruder temp for budaschnozzle
M104 S245                 ; set extruder temp for hex_hot_end
;M140 S95                   ; set bed temp for PET
M140 S105                 ; set bed temp for PEI (reminder ~G1 Z2 ~ M140 S(@-10 degree change) ;if -m is present in file name)

G28                            ; home
G1 Z5 F300                ; move bed down 5mm
M84                            ; disable steppers
G4 S300                     ; wait 5 mins to preheat

G28                            ; home

G90 ; use absolute coordinates
G92 E0
M82 ; use absolute distances for extrusion
M204 S800
G1 F1200.000 E-1.00000
G92 E0
G1 Z0.350 F7800.000
G1 X58.931 Y117.572 F7800.000
G1 E1.00000 F1200.000
G1 X59.635 Y116.732 E1.03601 F1260.000
G1 X60.713 Y115.787 E1.08313
G1 X61.939 Y115.044 E1.13024
G1 X62.247 Y114.901 E1.14138
G1 X63.276 Y114.525 E1.17739
G1 X64.683 Y114.246 E1.22451
G1 X65.408 Y114.194 E1.24840
G1 X81.561 Y113.768 E1.77936
G1 X119.718 Y113.770 E3.03315
G1 X136.982 Y114.216 E3.60062 F1260.000
G1 X137.321 Y114.246 E3.61180
G1 X138.399 Y114.435 E3.64777
G1 X138.726 Y114.523 E3.65890
G1 X139.756 Y114.897 E3.69492
G1 X141.013 Y115.587 E3.74203
G1 X141.291 Y115.782 E3.75317
G1 X142.131 Y116.485 E3.78918
G1 X143.076 Y117.564 E3.83630
G1 X143.270 Y117.841 E3.84742
G1 X143.819 Y118.790 E3.88344
G1 X143.962 Y119.098 E3.89460
G1 X144.338 Y120.127 E3.93059
G1 X144.425 Y120.454 E3.94173
G1 X144.616 Y121.533 E3.97773
G1 X144.671 Y122.424 E4.00705
G1 X144.667 Y220.775 E7.23879
G1 X144.573 Y222.050 E7.28079
G1 X144.504 Y222.468 E7.29471
G1 X144.281 Y223.507 E7.32961
G1 X144.162 Y223.898 E7.34305
G1 X143.799 Y224.914 E7.37850
G1 X143.636 Y225.271 E7.39139
G1 X143.135 Y226.244 E7.42737
G1 X142.935 Y226.563 E7.43972
G1 X142.301 Y227.474 E7.47620
G1 X142.071 Y227.752 E7.48806
G1 X141.312 Y228.585 E7.52508
G1 X140.186 Y229.554 E7.57390
G1 X139.917 Y229.744 E7.58472
G1 X138.940 Y230.367 E7.62279
G1 X137.599 Y231.007 E7.67162
G1 X136.186 Y231.465 E7.72045
G1 X134.734 Y231.731 E7.76895
G1 X134.471 Y231.754 E7.77761
G1 X133.605 Y231.806 E7.80610
G1 X116.571 Y232.232 E8.36600
G1 X84.406 Y232.229 E9.42292
G1 X68.137 Y231.793 E9.95771
G1 X66.900 Y231.680 E9.99851
G1 X65.450 Y231.362 E10.04730
G1 X64.051 Y230.854 E10.09620
G1 X62.734 Y230.167 E10.14501
G1 X61.515 Y229.309 E10.19399
G1 X60.425 Y228.301 E10.24279
G1 X59.409 Y227.058 E10.29554
G1 X58.685 Y225.894 E10.34060
G1 X58.044 Y224.466 E10.39201
G1 X57.626 Y223.058 E10.44027
G1 X57.398 Y221.637 E10.48758
G1 X57.341 Y220.579 E10.52239
G1 X57.330 Y149.997 E12.84163
G1 X57.365 Y121.881 E13.76551
G1 X57.395 Y121.542 E13.77669
G1 X57.584 Y120.464 E13.81266
G1 X58.046 Y119.106 E13.85978
G1 X58.736 Y117.850 E13.90689
G1 X58.888 Y117.633 E13.91556
G1 X59.435 Y117.925 F7800.000
G1 X60.070 Y117.167 E13.94805 F1260.000
G1 X61.066 Y116.292 E13.99164
G1 X62.200 Y115.602 E14.03522
G1 X62.507 Y115.459 E14.04636
G1 X63.436 Y115.120 E14.07885
G1 X64.736 Y114.860 E14.12244
G1 X65.424 Y114.810 E14.14510
G1 X81.561 Y114.384 E14.67553
G1 X119.702 Y114.386 E15.92880
G1 X136.928 Y114.829 E16.49502 F1260.000
G1 X137.267 Y114.859 E16.50619
G1 X138.240 Y115.030 E16.53864
G1 X138.567 Y115.117 E16.54977
G1 X139.496 Y115.455 E16.58226
G1 X140.660 Y116.092 E16.62585
G1 X140.938 Y116.286 E16.63699
G1 X141.695 Y116.921 E16.66947
G1 X142.571 Y117.917 E16.71306
G1 X142.765 Y118.195 E16.72419
G1 X143.261 Y119.050 E16.75668
G1 X143.404 Y119.358 E16.76784
G1 X143.743 Y120.286 E16.80030
G1 X143.830 Y120.614 E16.81144
G1 X144.003 Y121.587 E16.84392
G1 X144.055 Y122.424 E16.87147
G1 X144.052 Y220.756 E20.10256
G1 X143.962 Y221.969 E20.14253
G1 X143.900 Y222.347 E20.15513
G1 X143.687 Y223.345 E20.18866
G1 X143.579 Y223.699 E20.20081
G1 X143.231 Y224.674 E20.23483
G1 X142.604 Y225.931 E20.28099
G1 X141.818 Y227.094 E20.32711
G1 X140.884 Y228.143 E20.37327
G1 X140.654 Y228.355 E20.38354
G1 X139.820 Y229.059 E20.41940
G1 X138.644 Y229.827 E20.46557
G1 X137.377 Y230.433 E20.51170
G1 X136.042 Y230.866 E20.55782
G1 X135.802 Y230.919 E20.56590
G1 X134.671 Y231.119 E20.60363
G1 X133.590 Y231.190 E20.63924
G1 X116.571 Y231.616 E21.19863
G1 X84.422 Y231.614 E22.25501
G1 X68.177 Y231.179 E22.78901
G1 X67.002 Y231.073 E22.82777
G1 X65.631 Y230.774 E22.87387
G1 X64.309 Y230.295 E22.92007
G1 X63.065 Y229.648 E22.96617
G1 X61.912 Y228.838 E23.01244
G1 X60.881 Y227.887 E23.05854
G1 X59.921 Y226.716 E23.10831
G1 X59.234 Y225.615 E23.15094
G1 X58.627 Y224.268 E23.19949
G1 X58.230 Y222.938 E23.24510
G1 X58.012 Y221.596 E23.28977
G1 X57.957 Y220.579 E23.32326
G1 X57.945 Y149.998 E25.64249
G1 X57.979 Y121.934 E26.56461
G1 X58.008 Y121.596 E26.57579
G1 X58.179 Y120.623 E26.60823
G1 X58.604 Y119.366 E26.65183
G1 X59.241 Y118.203 E26.69541
G1 X59.392 Y117.987 E26.70408
G1 F1200.000 E25.70408
G92 E0
G1 X103.983 Y176.827 F7800.000
G1 E1.00000 F1200.000
G1 X104.366 Y177.048 E1.01451 F2100.000
G1 X104.810 Y178.024 E1.04976
G1 X102.604 Y176.750 E1.13348
G1 X101.357 Y176.750 E1.17444
G1 X104.811 Y178.744 E1.30550
G1 X104.811 Y179.464 E1.32915
G1 X100.110 Y176.750 E1.50750
G1 X98.864 Y176.750 E1.54846
G1 X101.119 Y178.052 E1.63402
G1 X99.920 Y178.080 E1.67342
G1 X97.617 Y176.750 E1.76080
G1 X96.814 Y177.006 E1.78849
G1 X99.152 Y178.356 E1.87719
G1 X98.583 Y178.747 E1.89988
G1 X96.431 Y177.505 E1.98155
G1 X96.311 Y178.156 E2.00329
G1 X98.155 Y179.220 E2.07325
G1 X97.840 Y179.758 E2.09374
G1 X96.311 Y178.875 E2.15172
G1 X96.311 Y179.595 E2.17537
G1 X97.636 Y180.360 E2.22561
G1 X97.561 Y181.036 E2.24799
G1 X96.311 Y180.315 E2.29541
G1 X96.311 Y181.034 E2.31906
G1 X97.686 Y181.828 E2.37121
G1 X98.201 Y182.845 E2.40867
G1 X96.311 Y181.754 E2.48037
G1 X96.311 Y182.474 E2.50402
G1 X104.811 Y187.381 E2.82651
G1 X104.811 Y188.101 E2.85016
G1 X96.311 Y183.194 E3.17266
G1 X96.311 Y183.913 E3.19631
G1 X104.811 Y188.821 E3.51880
G1 X104.811 Y189.540 E3.54245
G1 X96.311 Y184.633 E3.86494
G1 X96.311 Y185.353 E3.88859
G1 X104.811 Y190.260 E4.21108
G1 X104.811 Y190.980 E4.23473
G1 X96.311 Y186.073 E4.55723
G1 X96.311 Y186.792 E4.58088
G1 X104.811 Y191.699 E4.90337
G1 X104.811 Y192.419 E4.92702
G1 X96.311 Y187.512 E5.24951
G1 X96.311 Y188.232 E5.27316
G1 X104.800 Y193.133 E5.59525
G1 X104.722 Y193.807 E5.61756
G1 X96.311 Y188.951 E5.93669
G1 X96.311 Y189.671 E5.96034
G1 X104.552 Y194.429 E6.27302
G1 X104.290 Y194.997 E6.29358
G1 X96.311 Y190.391 E6.59630
G1 X96.311 Y191.111 E6.61995
G1 X103.968 Y195.531 E6.91044
G1 X103.555 Y196.012 E6.93128
G1 X96.311 Y191.830 E7.20611
G1 X96.311 Y192.550 E7.22976
G1 X103.045 Y196.438 E7.48526
G1 X102.432 Y196.803 E7.50872
G1 X96.332 Y193.281 E7.74018
G1 X96.452 Y194.071 E7.76642
G1 X101.688 Y197.094 E7.96508
G1 X100.694 Y197.240 E7.99807
G1 X96.823 Y195.005 E8.14496
G1 X98.182 Y196.509 F7800.000
G1 X98.712 Y196.815 E8.16506 F2100.000
G1 X104.811 Y186.661 F7800.000
G1 X100.143 Y183.967 E8.34216 F2100.000
G1 X101.282 Y183.904 E8.37962
G1 X104.811 Y185.942 E8.51353
G1 X104.811 Y185.222 E8.53718
G1 X102.030 Y183.616 E8.64270
G1 X102.579 Y183.213 E8.66508
G1 X104.811 Y184.502 E8.74978
G1 X104.811 Y183.782 E8.77343
G1 X102.998 Y182.736 E8.84222
G1 X103.306 Y182.194 E8.86270
G1 X104.811 Y183.063 E8.91982
G1 X104.811 Y182.343 E8.94347
G1 X103.501 Y181.587 E8.99318
G1 X103.555 Y180.898 E9.01586
G1 X104.811 Y181.623 E9.06350
G1 X104.811 Y180.904 E9.08715
G1 X103.417 Y180.099 E9.14005
G1 X102.835 Y179.043 E9.17965
G1 X104.811 Y180.184 E9.25462
G1 X102.534 Y182.655 F7800.000
G1 X102.184 Y182.995 E9.27066 F1470.000
G1 X101.849 Y183.230 E9.28410
G1 X101.442 Y183.420 E9.29885
G1 X100.969 Y183.539 E9.31489
G1 X100.561 Y183.575 E9.32833
G1 X100.114 Y183.536 E9.34308
G1 X99.644 Y183.403 E9.35911
G1 X99.274 Y183.230 E9.37256
G1 X98.906 Y182.973 E9.38731
G1 X98.566 Y182.623 E9.40334
G1 X98.331 Y182.287 E9.41679
G1 X98.142 Y181.881 E9.43153
G1 X98.022 Y181.408 E9.44757
G1 X97.986 Y181.000 E9.46102
G1 X98.025 Y180.553 E9.47576
G1 X98.158 Y180.083 E9.49180
G1 X98.331 Y179.713 E9.50524
G1 X98.589 Y179.345 E9.51999
G1 X98.939 Y179.005 E9.53603
G1 X99.274 Y178.770 E9.54947
G1 X99.680 Y178.580 E9.56422
G1 X100.114 Y178.464 E9.57897
G1 X100.601 Y178.428 E9.59501
G1 X101.008 Y178.464 E9.60845 F1470.000
G1 X101.442 Y178.580 E9.62320
G1 X101.849 Y178.770 E9.63795
G1 X102.216 Y179.027 E9.65269
G1 X102.534 Y179.345 E9.66744
G1 X102.791 Y179.713 E9.68219
G1 X102.981 Y180.119 E9.69694
G1 X103.097 Y180.553 E9.71169
G1 X103.136 Y181.000 E9.72644
G1 X103.097 Y181.447 E9.74119
G1 X102.981 Y181.881 E9.75593
G1 X102.791 Y182.288 E9.77068
G1 X102.577 Y182.594 E9.78297
G1 X105.237 Y182.655 F7800.000
G1 X105.237 Y192.982 E10.12230 F1470.000
G1 X105.196 Y193.610 E10.14298
G1 X105.077 Y194.210 E10.16308
G1 X104.880 Y194.789 E10.18317
G1 X104.610 Y195.337 E10.20327
G1 X104.270 Y195.846 E10.22336
G1 X103.867 Y196.306 E10.24345
G1 X103.407 Y196.709 E10.26355
G1 X102.899 Y197.049 E10.28364
G1 X102.350 Y197.319 E10.30374
G1 X101.764 Y197.518 E10.32410
G1 X101.177 Y197.635 E10.34376
G1 X100.566 Y197.676 E10.36387
G1 X99.938 Y197.633 E10.38455
G1 X99.355 Y197.517 E10.40409
G1 X98.772 Y197.320 E10.42430
G1 X98.224 Y197.050 E10.44440
G1 X97.715 Y196.710 E10.46450
G1 X97.255 Y196.307 E10.48460
G1 X96.852 Y195.847 E10.50469
G1 X96.512 Y195.338 E10.52479
G1 X96.242 Y194.790 E10.54489
G1 X96.045 Y194.211 E10.56496
G1 X95.926 Y193.610 E10.58509
G1 X95.885 Y192.989 E10.60554
G1 X95.885 Y178.014 E11.09761
G1 X95.912 Y177.709 E11.10767
G1 X95.987 Y177.427 E11.11726
G1 X96.111 Y177.162 E11.12686
G1 X96.278 Y176.923 E11.13645
G1 X96.485 Y176.717 E11.14605
G1 X96.724 Y176.549 E11.15564
G1 X96.988 Y176.426 E11.16523
G1 X97.270 Y176.350 E11.17483
G1 X97.575 Y176.324 E11.18489
G1 X103.547 Y176.324 E11.38111
G1 X103.852 Y176.350 E11.39117
G1 X104.134 Y176.426 E11.40077 F1470.000
G1 X104.399 Y176.549 E11.41036
G1 X104.638 Y176.717 E11.41996
G1 X104.844 Y176.923 E11.42955
G1 X105.012 Y177.162 E11.43914
G1 X105.135 Y177.427 E11.44874
G1 X105.211 Y177.709 E11.45833
G1 X105.237 Y178.014 E11.46839
G1 X105.237 Y182.580 E11.61843
G1 F1200.000 E10.61843
G92 E0
G1 X112.823 Y195.005 F7800.000
G1 E1.00000 F1200.000
G1 X116.694 Y197.240 E1.14688 F2100.000
G1 X117.688 Y197.094 E1.17988
G1 X112.452 Y194.071 E1.37854
G1 X112.332 Y193.281 E1.40478
G1 X118.432 Y196.803 E1.63624
G1 X119.045 Y196.438 E1.65970
G1 X112.311 Y192.550 E1.91520
G1 X112.311 Y191.830 E1.93885
G1 X119.555 Y196.012 E2.21368
G1 X119.968 Y195.531 E2.23451
G1 X112.311 Y191.111 E2.52501
G1 X112.311 Y190.391 E2.54866
G1 X120.290 Y194.997 E2.85138
G1 X120.552 Y194.429 E2.87194
G1 X112.311 Y189.671 E3.18462
G1 X112.311 Y188.951 E3.20827
G1 X120.722 Y193.807 E3.52739
G1 X120.800 Y193.133 E3.54971
G1 X112.311 Y188.232 E3.87179
G1 X112.311 Y187.512 E3.89544
G1 X120.811 Y192.419 E4.21794
G1 X120.811 Y191.699 E4.24159
G1 X112.311 Y186.792 E4.56408
G1 X112.311 Y186.073 E4.58773
G1 X120.811 Y190.980 E4.91022
G1 X120.811 Y190.260 E4.93387
G1 X112.311 Y185.353 E5.25637
G1 X112.311 Y184.633 E5.28002
G1 X120.811 Y189.540 E5.60251
G1 X120.811 Y188.821 E5.62616
G1 X112.311 Y183.913 E5.94865
G1 X112.311 Y183.194 E5.97230
G1 X120.811 Y188.101 E6.29480
G1 X120.811 Y187.381 E6.31844
G1 X112.311 Y182.474 E6.64094
G1 X112.311 Y181.754 E6.66459
G1 X114.201 Y182.845 E6.73628
G1 X113.686 Y181.828 E6.77375
G1 X112.311 Y181.034 E6.82590
G1 X112.311 Y180.315 E6.84955
G1 X113.561 Y181.036 E6.89697
G1 X113.636 Y180.360 E6.91934
G1 X112.311 Y179.595 E6.96959
G1 X112.311 Y178.875 E6.99324
G1 X113.840 Y179.758 E7.05122
G1 X114.155 Y179.220 E7.07170
G1 X112.311 Y178.156 E7.14167
G1 X112.431 Y177.505 E7.16341
G1 X114.583 Y178.747 E7.24508
G1 X115.152 Y178.356 E7.26777
G1 X112.814 Y177.006 E7.35647
G1 X113.617 Y176.750 E7.38416
G1 X115.920 Y178.080 E7.47153
G1 X117.119 Y178.052 E7.51093
G1 X114.864 Y176.750 E7.59650
G1 X116.110 Y176.750 E7.63746
G1 X120.811 Y179.464 E7.81581
G1 X120.811 Y178.744 E7.83946
G1 X117.357 Y176.750 E7.97051
G1 X118.604 Y176.750 E8.01148
G1 X120.810 Y178.024 E8.09520
G1 X120.366 Y177.048 E8.13045
G1 X119.983 Y176.827 E8.14496
G1 X120.811 Y180.184 F7800.000
G1 X118.835 Y179.043 E8.21993 F2100.000
G1 X119.417 Y180.099 E8.25953
G1 X120.811 Y180.904 E8.31243
G1 X120.811 Y181.623 E8.33608
G1 X119.555 Y180.898 E8.38372
G1 X119.501 Y181.587 E8.40640
G1 X120.811 Y182.343 E8.45611
G1 X120.811 Y183.063 E8.47976
G1 X119.306 Y182.194 E8.53688
G1 X118.998 Y182.736 E8.55736
G1 X120.811 Y183.782 E8.62615
G1 X120.811 Y184.502 E8.64980
G1 X118.579 Y183.213 E8.73450
G1 X118.030 Y183.616 E8.75688
G1 X120.811 Y185.222 E8.86240
G1 X120.811 Y185.942 E8.88605
G1 X117.282 Y183.904 E9.01996
G1 X116.143 Y183.967 E9.05742
G1 X120.811 Y186.661 E9.23452
G1 X114.712 Y196.815 F7800.000
G1 X114.182 Y196.509 E9.25462 F2100.000
G1 X118.981 Y181.881 F7800.000
G1 X118.791 Y182.288 E9.26937 F1470.000
G1 X118.534 Y182.655 E9.28412
G1 X118.216 Y182.973 E9.29887
G1 X117.849 Y183.230 E9.31362
G1 X117.442 Y183.420 E9.32837
G1 X116.969 Y183.539 E9.34440
G1 X116.561 Y183.575 E9.35785
G1 X116.114 Y183.536 E9.37260
G1 X115.681 Y183.420 E9.38734
G1 X115.274 Y183.230 E9.40209
G1 X114.906 Y182.973 E9.41684
G1 X114.589 Y182.655 E9.43159
G1 X114.331 Y182.287 E9.44634
G1 X114.142 Y181.881 E9.46109
G1 X114.025 Y181.447 E9.47584
G1 X113.986 Y181.000 E9.49059
G1 X114.025 Y180.553 E9.50534
G1 X114.141 Y180.119 E9.52008
G1 X114.331 Y179.713 E9.53483
G1 X114.589 Y179.345 E9.54958
G1 X114.906 Y179.027 E9.56433
G1 X115.274 Y178.770 E9.57908
G1 X115.680 Y178.580 E9.59383
G1 X116.114 Y178.464 E9.60858
G1 X116.601 Y178.428 E9.62462
G1 X117.008 Y178.464 E9.63806 F1470.000
G1 X117.442 Y178.580 E9.65280
G1 X117.849 Y178.770 E9.66755
G1 X118.216 Y179.027 E9.68230
G1 X118.534 Y179.345 E9.69705
G1 X118.791 Y179.713 E9.71180
G1 X118.981 Y180.119 E9.72655
G1 X119.097 Y180.553 E9.74130
G1 X119.136 Y181.000 E9.75605
G1 X119.097 Y181.447 E9.77080
G1 X119.000 Y181.808 E9.78308
G1 X121.237 Y181.881 F7800.000
G1 X121.237 Y192.982 E10.14786 F1470.000
G1 X121.196 Y193.610 E10.16854
G1 X121.077 Y194.210 E10.18863
G1 X120.880 Y194.789 E10.20873
G1 X120.610 Y195.337 E10.22882
G1 X120.270 Y195.846 E10.24892
G1 X119.867 Y196.306 E10.26901
G1 X119.407 Y196.709 E10.28911
G1 X118.899 Y197.049 E10.30920
G1 X118.350 Y197.319 E10.32930
G1 X117.764 Y197.518 E10.34965
G1 X117.177 Y197.635 E10.36932
G1 X116.566 Y197.676 E10.38943
G1 X115.938 Y197.633 E10.41011
G1 X115.355 Y197.517 E10.42965
G1 X114.772 Y197.320 E10.44986
G1 X114.224 Y197.050 E10.46996
G1 X113.715 Y196.710 E10.49006
G1 X113.255 Y196.307 E10.51016
G1 X112.852 Y195.847 E10.53025
G1 X112.512 Y195.338 E10.55035
G1 X112.242 Y194.790 E10.57045
G1 X112.045 Y194.211 E10.59052
G1 X111.926 Y193.610 E10.61065
G1 X111.885 Y192.989 E10.63110
G1 X111.885 Y178.014 E11.12317
G1 X111.912 Y177.709 E11.13323
G1 X111.987 Y177.427 E11.14282
G1 X112.111 Y177.162 E11.15242
G1 X112.278 Y176.923 E11.16201
G1 X112.485 Y176.717 E11.17161
G1 X112.724 Y176.549 E11.18120
G1 X112.988 Y176.426 E11.19079
G1 X113.270 Y176.350 E11.20039
G1 X113.575 Y176.324 E11.21045
G1 X119.547 Y176.324 E11.40667
G1 X119.852 Y176.350 E11.41673
G1 X120.134 Y176.426 E11.42633 F1470.000
G1 X120.399 Y176.549 E11.43592
G1 X120.638 Y176.717 E11.44551
G1 X120.844 Y176.923 E11.45511
G1 X121.012 Y177.162 E11.46470
G1 X121.135 Y177.427 E11.47430
G1 X121.211 Y177.709 E11.48389
G1 X121.237 Y178.014 E11.49395
G1 X121.237 Y181.806 E11.61854
G1 F1200.000 E10.61854
G92 E0
G1 X128.823 Y195.005 F7800.000
G1 E1.00000 F1200.000
G1 X132.694 Y197.240 E1.14688 F2100.000
G1 X133.688 Y197.094 E1.17988
G1 X128.452 Y194.071 E1.37854
G1 X128.332 Y193.281 E1.40478
G1 X134.432 Y196.803 E1.63624
G1 X135.045 Y196.438 E1.65970
G1 X128.311 Y192.550 E1.91520
G1 X128.311 Y191.830 E1.93885
G1 X135.555 Y196.012 E2.21368
G1 X135.968 Y195.531 E2.23451
G1 X128.311 Y191.111 E2.52501
G1 X128.311 Y190.391 E2.54866
