; generated by Slic3r 1.1.7 on 2015-07-15 at 07:18:40

; perimeters extrusion width = 0.42mm
; infill extrusion width = 0.58mm
; solid infill extrusion width = 0.60mm
; top infill extrusion width = 0.45mm

G21 ; set units to millimeters
M107

M301 P34 I4 D113     ; set PID nozzle
M304 P162 I17 D378 ; set PID Bed

M104 S230                 ; set extruder temp for budaschnozzle
;M104 S250                 ; set extruder temp for hex_hot_end
;M140 S100                 ; set bed temp for PET
M140 S110                 ; set bed temp for PEI (reminder ~G1 Z2 ~ M140 S(@-10 degree change) ;if -m is present in file name)

G28                            ; home
G1 Z5 F300                ; move bed down 5mm
M84                            ; disable steppers
G4 S300                     ; wait 5 mins to preheat

G28                            ; home

G90 ; use absolute coordinates
G92 E0
M82 ; use absolute distances for extrusion
G1 F1200.000 E-1.20000
G92 E0
G1 Z0.350 F9000.000
G1 X148.006 Y114.428 F9000.000
G1 E1.20000 F1200.000
G1 X149.967 Y113.072 E1.27360 F1500.000
G1 X152.128 Y112.451 E1.34301
G1 X196.128 Y107.049 E2.71142
G1 X197.872 Y107.049 E2.76527
G1 X241.872 Y112.451 E4.13369
G1 X244.157 Y113.132 E4.20729 F1500.000
G1 X246.092 Y114.526 E4.28090
G1 X247.401 Y116.354 E4.35030
G1 X253.401 Y128.351 E4.76437
G1 X254.157 Y131.552 E4.86591
G1 X254.157 Y214.552 E7.42800
G1 X253.760 Y216.904 E7.50160
G1 X252.612 Y218.994 E7.57521
G1 X250.842 Y220.591 E7.64881
G1 X249.447 Y221.278 E7.69681
G1 X203.759 Y237.892 E9.19748
G1 X202.657 Y238.229 E9.23306
G1 X202.035 Y238.392 E9.25291
G1 X200.908 Y238.635 E9.28849
G1 X200.275 Y238.745 E9.30834
G1 X198.491 Y238.948 E9.36375
G1 X197.339 Y238.997 E9.39933
G1 X196.696 Y238.998 E9.41918
G1 X195.545 Y238.949 E9.45476
G1 X194.904 Y238.896 E9.47461
G1 X193.761 Y238.750 E9.51019
G1 X193.127 Y238.643 E9.53003
G1 X191.377 Y238.239 E9.58545
G1 X189.890 Y237.774 E9.63357
G1 X144.553 Y221.278 E11.12281
G1 X142.479 Y220.101 E11.19641
G1 X140.907 Y218.308 E11.27002
G1 X140.012 Y216.098 E11.34362
G1 X139.843 Y214.552 E11.39162
G1 X139.843 Y131.552 E13.95370
G1 X140.599 Y128.351 E14.05524
G1 X146.599 Y116.354 E14.46931
G1 X147.961 Y114.489 E14.54060
G1 X148.477 Y114.778 F9000.000
G1 X150.385 Y113.518 E14.61119 F1500.000
G1 X152.198 Y113.025 E14.66918
G1 X196.198 Y107.623 E16.03760
G1 X197.802 Y107.623 E16.08709
G1 X241.802 Y113.025 E17.45551
G1 X243.987 Y113.694 E17.52605 F1500.000
G1 X245.812 Y115.069 E17.59660
G1 X246.884 Y116.612 E17.65459
G1 X252.884 Y128.610 E18.06867
G1 X253.579 Y131.552 E18.16200
G1 X253.579 Y214.552 E20.72408
G1 X253.182 Y216.803 E20.79463
G1 X252.039 Y218.782 E20.86517
G1 X249.249 Y220.734 E20.97027
G1 X203.589 Y237.338 E22.47002
G1 X202.487 Y237.676 E22.50560
G1 X201.913 Y237.827 E22.52394
G1 X200.786 Y238.070 E22.55951
G1 X200.201 Y238.172 E22.57785
G1 X198.466 Y238.370 E22.63175
G1 X197.315 Y238.419 E22.66732
G1 X196.721 Y238.420 E22.68566
G1 X195.569 Y238.371 E22.72124
G1 X194.977 Y238.322 E22.73957
G1 X193.834 Y238.176 E22.77515
G1 X193.249 Y238.077 E22.79348
G1 X191.547 Y237.686 E22.84738
G1 X190.087 Y237.230 E22.89458
G1 X144.751 Y220.734 E24.38381
G1 X142.771 Y219.592 E24.45436
G1 X141.303 Y217.841 E24.52491
G1 X140.421 Y214.552 E24.63000
G1 X140.421 Y131.552 E27.19209
G1 X141.116 Y128.610 E27.28542
G1 X147.116 Y116.612 E27.69949
G1 X148.432 Y114.838 E27.76768
G1 F1200.000 E26.56768
G92 E0
G1 X230.398 Y199.117 F9000.000
G1 E1.20000 F1200.000
M204 S800
G1 X229.521 Y200.074 E1.24007 F1500.000
G1 X228.564 Y200.951 E1.28014
G1 X227.534 Y201.741 E1.32021
G1 X226.440 Y202.438 E1.36028
G1 X225.219 Y203.066 E1.40266
G1 X224.089 Y203.534 E1.44041
G1 X222.851 Y203.925 E1.48048
G1 X221.584 Y204.206 E1.52054
G1 X220.297 Y204.375 E1.56061
G1 X219.000 Y204.432 E1.60068
G1 X217.703 Y204.375 E1.64075
G1 X216.416 Y204.206 E1.68082
G1 X215.149 Y203.925 E1.72089
G1 X213.911 Y203.534 E1.76096
G1 X212.712 Y203.038 E1.80103
G1 X211.497 Y202.398 E1.84341
G1 X210.466 Y201.741 E1.88116
G1 X209.436 Y200.951 E1.92123
G1 X208.479 Y200.074 E1.96130
G1 X207.602 Y199.117 E2.00137
G1 X206.812 Y198.087 E2.04143
G1 X206.114 Y196.992 E2.08150
G1 X205.515 Y195.841 E2.12157
G1 X205.018 Y194.641 E2.16164
G1 X204.628 Y193.403 E2.20171
G1 X204.347 Y192.136 E2.24178
G1 X204.177 Y190.849 E2.28185
G1 X204.121 Y189.572 E2.32133
G1 X204.121 Y159.533 E3.24857
G1 X204.177 Y158.256 E3.28804
G1 X204.347 Y156.969 E3.32811
G1 X204.628 Y155.701 E3.36818
G1 X205.018 Y154.463 E3.40825
G1 X205.515 Y153.264 E3.44832
G1 X206.114 Y152.113 E3.48839
G1 X206.812 Y151.018 E3.52846
G1 X207.602 Y149.988 E3.56853
G1 X208.479 Y149.031 E3.60860
G1 X209.436 Y148.154 E3.64866
G1 X210.466 Y147.364 E3.68873
G1 X211.560 Y146.666 E3.72880
G1 X212.712 Y146.067 E3.76887
G1 X213.911 Y145.570 E3.80894
G1 X215.149 Y145.180 E3.84901
G1 X216.416 Y144.899 E3.88908
G1 X217.703 Y144.730 E3.92915
G1 X219.075 Y144.676 E3.97153
M204 S800
M204 S800
G1 X220.297 Y144.730 E4.00928 F1500.000
G1 X221.584 Y144.899 E4.04935
G1 X222.851 Y145.180 E4.08942
G1 X224.089 Y145.570 E4.12949
G1 X225.288 Y146.067 E4.16955
G1 X226.440 Y146.666 E4.20962
G1 X227.534 Y147.364 E4.24969
G1 X228.564 Y148.154 E4.28976
G1 X229.521 Y149.031 E4.32983
G1 X230.398 Y149.988 E4.36990
G1 X231.188 Y151.018 E4.40997
G1 X231.886 Y152.113 E4.45004
G1 X232.485 Y153.264 E4.49011
G1 X232.982 Y154.463 E4.53018
G1 X233.372 Y155.701 E4.57025
G1 X233.653 Y156.969 E4.61032
G1 X233.823 Y158.256 E4.65038
G1 X233.879 Y159.533 E4.68986
G1 X233.879 Y189.572 E5.61710
G1 X233.823 Y190.849 E5.65658
G1 X233.653 Y192.136 E5.69665
G1 X233.372 Y193.403 E5.73672
G1 X232.982 Y194.641 E5.77679
G1 X232.485 Y195.841 E5.81685
G1 X231.886 Y196.992 E5.85692
G1 X231.188 Y198.087 E5.89699
G1 X230.444 Y199.057 E5.93475
M204 S800
G1 X229.955 Y198.744 F9000.000
M204 S800
G1 X229.112 Y199.664 E5.97326 F1500.000
G1 X228.192 Y200.507 E6.01177
G1 X227.202 Y201.267 E6.05028
G1 X226.150 Y201.937 E6.08878
G1 X224.997 Y202.532 E6.12883
G1 X223.891 Y202.990 E6.16580
G1 X222.701 Y203.365 E6.20431
G1 X221.483 Y203.635 E6.24282
G1 X220.246 Y203.798 E6.28133
G1 X219.000 Y203.853 E6.31984
G1 X217.704 Y203.792 E6.35988
G1 X216.517 Y203.635 E6.39685
G1 X215.299 Y203.365 E6.43536
G1 X214.109 Y202.990 E6.47387
G1 X212.956 Y202.513 E6.51238
G1 X211.850 Y201.937 E6.55089
G1 X210.798 Y201.267 E6.58940
G1 X209.808 Y200.507 E6.62791
G1 X208.888 Y199.664 E6.66642
G1 X208.045 Y198.744 E6.70493
G1 X207.286 Y197.755 E6.74344
G1 X206.616 Y196.703 E6.78195
G1 X206.020 Y195.550 E6.82199
G1 X205.562 Y194.443 E6.85896
G1 X205.187 Y193.254 E6.89747
G1 X204.917 Y192.036 E6.93598
G1 X204.754 Y190.799 E6.97449
G1 X204.700 Y189.559 E7.01280
G1 X204.700 Y159.546 E7.93926
G1 X204.754 Y158.306 E7.97757
G1 X204.917 Y157.069 E8.01608
G1 X205.187 Y155.851 E8.05458
G1 X205.562 Y154.661 E8.09309
G1 X206.040 Y153.509 E8.13160
G1 X206.642 Y152.360 E8.17165
G1 X207.286 Y151.350 E8.20862
G1 X208.045 Y150.360 E8.24713
G1 X208.888 Y149.441 E8.28564
G1 X209.808 Y148.598 E8.32415
G1 X210.798 Y147.838 E8.36266
G1 X211.850 Y147.168 E8.40117
G1 X212.956 Y146.592 E8.43968
G1 X214.109 Y146.115 E8.47819
G1 X215.299 Y145.739 E8.51670
G1 X216.517 Y145.469 E8.55521
G1 X217.804 Y145.304 E8.59525
M204 S800
M204 S800
G1 X219.000 Y145.252 E8.63222 F1500.000
G1 X220.246 Y145.307 E8.67073
G1 X221.483 Y145.469 E8.70924
G1 X222.701 Y145.739 E8.74775
G1 X223.891 Y146.115 E8.78626
G1 X225.044 Y146.592 E8.82477
G1 X226.150 Y147.168 E8.86328
G1 X227.202 Y147.838 E8.90179
G1 X228.192 Y148.598 E8.94030
G1 X229.112 Y149.441 E8.97881
G1 X229.955 Y150.360 E9.01732
G1 X230.714 Y151.350 E9.05583
G1 X231.384 Y152.402 E9.09434
G1 X231.960 Y153.509 E9.13284
G1 X232.438 Y154.661 E9.17135
G1 X232.813 Y155.851 E9.20986
G1 X233.083 Y157.069 E9.24837
G1 X233.246 Y158.306 E9.28688
G1 X233.300 Y159.546 E9.32519
G1 X233.300 Y189.559 E10.25165
G1 X233.246 Y190.799 E10.28996
G1 X233.083 Y192.036 E10.32847
G1 X232.813 Y193.254 E10.36698
G1 X232.438 Y194.443 E10.40549
G1 X231.960 Y195.596 E10.44400
G1 X231.384 Y196.703 E10.48251
G1 X230.714 Y197.755 E10.52102
G1 X230.000 Y198.685 E10.55721
M204 S800
G1 F1200.000 E9.35721
G92 E0
G1 X217.749 Y144.807 F9000.000
G1 X189.653 Y192.136 F9000.000
G1 E1.20000 F1200.000
M204 S800
G1 X189.372 Y193.403 E1.24007 F1500.000
G1 X188.982 Y194.641 E1.28014
G1 X188.485 Y195.841 E1.32021
G1 X187.886 Y196.992 E1.36028
G1 X187.188 Y198.087 E1.40035
G1 X186.398 Y199.117 E1.44041
G1 X185.521 Y200.074 E1.48048
G1 X184.564 Y200.951 E1.52055
G1 X183.534 Y201.741 E1.56062
G1 X182.440 Y202.438 E1.60069
G1 X181.288 Y203.038 E1.64076
G1 X180.089 Y203.534 E1.68083
G1 X178.851 Y203.925 E1.72090
G1 X177.584 Y204.206 E1.76097
G1 X176.222 Y204.378 E1.80335
G1 X175.000 Y204.432 E1.84110
G1 X173.703 Y204.375 E1.88117
G1 X172.416 Y204.206 E1.92124
G1 X171.149 Y203.925 E1.96131
G1 X169.911 Y203.534 E2.00137
G1 X168.712 Y203.038 E2.04144
G1 X167.560 Y202.438 E2.08151
G1 X166.466 Y201.741 E2.12158
G1 X165.436 Y200.951 E2.16165
G1 X164.479 Y200.074 E2.20172
G1 X163.602 Y199.117 E2.24179
G1 X162.812 Y198.087 E2.28186
G1 X162.114 Y196.992 E2.32193
G1 X161.515 Y195.841 E2.36200
G1 X161.018 Y194.641 E2.40207
G1 X160.628 Y193.404 E2.44213
G1 X160.347 Y192.136 E2.48220
G1 X160.177 Y190.849 E2.52228
G1 X160.121 Y189.572 E2.56175
G1 X160.121 Y159.533 E3.48899
G1 X160.177 Y158.256 E3.52847
G1 X160.347 Y156.969 E3.56854
G1 X160.628 Y155.701 E3.60861
G1 X161.018 Y154.463 E3.64867
G1 X161.515 Y153.264 E3.68874
G1 X162.114 Y152.113 E3.72881
G1 X162.812 Y151.018 E3.76888
G1 X163.602 Y149.988 E3.80895
G1 X164.479 Y149.031 E3.84902
G1 X165.436 Y148.154 E3.88909
G1 X166.529 Y147.324 E3.93147
G1 X167.560 Y146.666 E3.96922
G1 X168.712 Y146.067 E4.00929
G1 X169.911 Y145.570 E4.04936
G1 X171.149 Y145.180 E4.08943
G1 X172.416 Y144.899 E4.12950
G1 X173.703 Y144.730 E4.16956
G1 X175.000 Y144.673 E4.20963
G1 X176.297 Y144.730 E4.24970
M204 S800
M204 S800
G1 X177.584 Y144.899 E4.28977 F1500.000
G1 X178.851 Y145.180 E4.32984
G1 X180.159 Y145.599 E4.37222
G1 X181.288 Y146.067 E4.40997
G1 X182.440 Y146.666 E4.45004
G1 X183.534 Y147.364 E4.49011
G1 X184.564 Y148.154 E4.53018
G1 X185.521 Y149.031 E4.57025
G1 X186.398 Y149.988 E4.61032
G1 X187.188 Y151.018 E4.65039
G1 X187.886 Y152.113 E4.69045
G1 X188.514 Y153.334 E4.73284
G1 X188.982 Y154.463 E4.77058
G1 X189.372 Y155.701 E4.81065
G1 X189.653 Y156.969 E4.85072
G1 X189.823 Y158.256 E4.89079
G1 X189.879 Y159.533 E4.93027
G1 X189.879 Y189.572 E5.85751
G1 X189.823 Y190.849 E5.89698
G1 X189.663 Y192.062 E5.93474
M204 S800
G1 X189.083 Y192.036 F9000.000
M204 S800
G1 X188.813 Y193.254 E5.97325 F1500.000
G1 X188.438 Y194.443 E6.01176
G1 X187.960 Y195.596 E6.05027
G1 X187.384 Y196.703 E6.08878
G1 X186.714 Y197.755 E6.12729
G1 X185.955 Y198.744 E6.16580
G1 X185.112 Y199.664 E6.20431
G1 X184.192 Y200.507 E6.24282
G1 X183.202 Y201.267 E6.28133
G1 X182.150 Y201.937 E6.31983
G1 X180.997 Y202.532 E6.35988
G1 X179.891 Y202.990 E6.39685
G1 X178.701 Y203.365 E6.43536
G1 X177.483 Y203.635 E6.47387
G1 X176.246 Y203.798 E6.51238
G1 X175.000 Y203.853 E6.55089
G1 X173.754 Y203.798 E6.58940
G1 X172.517 Y203.635 E6.62791
G1 X171.299 Y203.365 E6.66642
G1 X170.109 Y202.990 E6.70493
G1 X168.956 Y202.513 E6.74344
G1 X167.850 Y201.937 E6.78195
G1 X166.798 Y201.267 E6.82046
G1 X165.808 Y200.507 E6.85897
G1 X164.888 Y199.664 E6.89747
G1 X164.045 Y198.744 E6.93598
G1 X163.286 Y197.755 E6.97449
G1 X162.616 Y196.703 E7.01300
G1 X162.040 Y195.596 E7.05151
G1 X161.562 Y194.443 E7.09002
G1 X161.187 Y193.254 E7.12853
G1 X160.917 Y192.036 E7.16704
G1 X160.754 Y190.799 E7.20555
G1 X160.700 Y189.559 E7.24386
G1 X160.700 Y159.546 E8.17032
G1 X160.754 Y158.306 E8.20863
G1 X160.917 Y157.069 E8.24714
G1 X161.187 Y155.851 E8.28565
G1 X161.562 Y154.661 E8.32416
G1 X162.040 Y153.509 E8.36267
G1 X162.642 Y152.360 E8.40271
G1 X163.286 Y151.350 E8.43968
G1 X164.045 Y150.360 E8.47819
G1 X164.888 Y149.441 E8.51670
G1 X165.808 Y148.598 E8.55521
G1 X166.798 Y147.838 E8.59372
G1 X167.850 Y147.168 E8.63223
G1 X168.956 Y146.592 E8.67074
G1 X170.109 Y146.115 E8.70925
G1 X171.299 Y145.739 E8.74776
G1 X172.517 Y145.469 E8.78627
G1 X173.804 Y145.304 E8.82631
M204 S800
M204 S800
G1 X175.000 Y145.252 E8.86328 F1500.000
G1 X176.246 Y145.307 E8.90179
G1 X177.483 Y145.469 E8.94030
G1 X178.701 Y145.739 E8.97881
G1 X179.891 Y146.115 E9.01732
G1 X181.044 Y146.592 E9.05583
G1 X182.150 Y147.168 E9.09434
G1 X183.202 Y147.838 E9.13285
G1 X184.192 Y148.598 E9.17136
G1 X185.112 Y149.441 E9.20987
G1 X185.955 Y150.360 E9.24838
G1 X186.714 Y151.350 E9.28689
G1 X187.384 Y152.402 E9.32540
G1 X187.960 Y153.509 E9.36391
G1 X188.438 Y154.661 E9.40242
G1 X188.813 Y155.851 E9.44093
G1 X189.083 Y157.069 E9.47944
G1 X189.246 Y158.306 E9.51794
G1 X189.300 Y159.546 E9.55625
G1 X189.300 Y189.559 E10.48271
G1 X189.246 Y190.799 E10.52102
G1 X189.093 Y191.961 E10.55721
M204 S800
G1 F1200.000 E9.35721
G92 E0
G1 X173.735 Y144.809 F9000.000
G1 X196.229 Y219.275 F9000.000
G1 E1.20000 F1200.000
M204 S800
G1 X196.740 Y219.184 E1.21603 F1500.000
G1 X197.044 Y219.175 E1.22541
M204 S800
M204 S800
G1 X197.517 Y219.218 E1.24008 F1500.000
G1 X197.771 Y219.275 E1.24811
G1 X198.259 Y219.452 E1.26413
G1 X198.709 Y219.712 E1.28017
G1 X199.107 Y220.046 E1.29620
G1 X199.441 Y220.444 E1.31223
G1 X199.700 Y220.893 E1.32827
G1 X199.878 Y221.381 E1.34428
G1 X199.968 Y221.893 E1.36033
G1 X199.979 Y225.171 E1.46153
G1 X199.934 Y225.670 E1.47699
G1 X199.800 Y226.171 E1.49300
G1 X199.680 Y226.450 E1.50238
G1 X199.440 Y226.861 E1.51706
G1 X199.107 Y227.259 E1.53309
G1 X198.915 Y227.435 E1.54111
G1 X198.709 Y227.593 E1.54914
G1 X198.259 Y227.853 E1.56516
G1 X198.019 Y227.952 E1.57319
G1 X197.517 Y228.087 E1.58922
G1 X197.000 Y228.132 E1.60526
G1 X196.740 Y228.120 E1.61328
G1 X196.440 Y228.077 E1.62265
G1 X195.981 Y227.952 E1.63733
G1 X195.741 Y227.853 E1.64535
G1 X195.291 Y227.593 E1.66139
G1 X195.085 Y227.435 E1.66941
G1 X194.864 Y227.227 E1.67878
G1 X194.559 Y226.861 E1.69346
G1 X194.420 Y226.642 E1.70148
G1 X194.200 Y226.172 E1.71751
G1 X194.066 Y225.670 E1.73355
G1 X194.021 Y225.172 E1.74898
G1 X194.021 Y222.133 E1.84277
G1 X194.066 Y221.635 E1.85822
G1 X194.200 Y221.134 E1.87424
G1 X194.300 Y220.893 E1.88227
G1 X194.443 Y220.626 E1.89164
G1 X194.718 Y220.237 E1.90632
G1 X194.893 Y220.046 E1.91434
G1 X195.120 Y219.843 E1.92371
G1 X195.510 Y219.572 E1.93839
G1 X195.741 Y219.452 E1.94641
G1 X196.157 Y219.297 E1.96014
M204 S800
G1 X196.379 Y219.834 F9000.000
M204 S800
G1 X196.809 Y219.760 E1.97362 F1500.000
M204 S800
M204 S800
G1 X197.209 Y219.761 E1.98596 F1500.000
G1 X197.417 Y219.789 E1.99243
G1 X197.821 Y219.897 E2.00534
G1 X198.200 Y220.074 E2.01826
G1 X198.543 Y220.314 E2.03117
G1 X198.710 Y220.469 E2.03821
G1 X198.966 Y220.776 E2.05055
G1 X199.175 Y221.138 E2.06347
G1 X199.318 Y221.531 E2.07638
G1 X199.391 Y221.943 E2.08930
G1 X199.400 Y225.159 E2.18856
G1 X199.364 Y225.569 E2.20128
G1 X199.256 Y225.973 E2.21419
G1 X199.167 Y226.183 E2.22123
G1 X198.966 Y226.529 E2.23357
G1 X198.697 Y226.850 E2.24648
G1 X198.543 Y226.991 E2.25295
G1 X198.377 Y227.119 E2.25941
G1 X198.014 Y227.328 E2.27232
G1 X197.821 Y227.408 E2.27879
G1 X197.417 Y227.516 E2.29170
G1 X197.000 Y227.553 E2.30462
G1 X196.565 Y227.512 E2.31811
G1 X196.179 Y227.408 E2.33045
G1 X195.986 Y227.328 E2.33691
G1 X195.623 Y227.119 E2.34983
G1 X195.290 Y226.836 E2.36331
G1 X195.034 Y226.529 E2.37565
G1 X194.921 Y226.353 E2.38212
G1 X194.744 Y225.973 E2.39503
G1 X194.636 Y225.569 E2.40795
G1 X194.600 Y225.159 E2.42066
G1 X194.600 Y222.146 E2.51367
G1 X194.636 Y221.736 E2.52639
G1 X194.682 Y221.531 E2.53285
G1 X194.752 Y221.314 E2.53988
G1 X194.921 Y220.952 E2.55222
G1 X195.034 Y220.776 E2.55869
G1 X195.303 Y220.455 E2.57160
G1 X195.472 Y220.302 E2.57864
G1 X195.800 Y220.074 E2.59098
G1 X195.986 Y219.977 E2.59744
G1 X196.307 Y219.856 E2.60805
M204 S800
G1 X196.979 Y219.399 F9000.000
G1 F1200.000 E1.40805
G92 E0
G1 X147.879 Y213.674 F9000.000
G1 E1.20000 F1200.000
M204 S800
G1 X147.879 Y132.369 E3.70976 F1500.000
G1 X148.206 Y132.325 E3.71997
G1 X148.748 Y132.205 E3.73710
G1 X149.385 Y132.004 E3.75772
