;Generated by Cura LulzBot Edition GCodeWriter Version: 3.6.16
;FLAVOR:Marlin
;TIME:9453
;Filament used: 7.09673m
;Layer height: 0.33
;Generated with Cura_SteamEngine 3.6.16
M82 ;absolute extrusion mode
;This G-Code has been generated specifically for the LulzBot Mini 2 with SE 0.5mm Tool Head
M73 P0                  ; clear GLCD progress bar
M75 					; Start GLCD Print Timer
G26 					; clear potential 'probe fail' condition
M107 					; disable fans
M420 S0                 ; disable leveling matrix
G90 					; absolute positioning
M82 					; set extruder to absolute mode
G92 E0 					; set extruder position to 0
M140 S115.0 	; start bed heating up
G28 					; home all axes
G28                       ; Home Axis
G0 X160 F9999             ; Move toolhead to the right
G0 Z5 F6000               ; Move to bottom of printer
G91                       ; Set relative motion mode
M211 S0		  	  ; Turn off soft endstops
M400                      ; Finish moves
G0 Z-15 F500              ; Skip steppers against lower Z mounts
G90                       ; Return to absolute mode
M400                      ; Finish moves
M211 S1			  ; Turn soft endstops back on
M400                      ; Finish moves
G28                       ; Rehome
M117 X-Axis Leveled
G0 X0 Y187 Z156 F200 			; move away from endstops
M117 Mini 2 Wiping...			; progress indicator message on LCD
M109 R170 	; soften filament before retraction
G1 E-15 F75 				; retract filament
M109 R170 	; wait for extruder to reach wiping temp
G1 X45 Y176 F11520 			; move above wiper pad
G1 Z0 F1200 				; push nozzle into wiper
G1 X45 Y178 Z-.5 F4000		; wiping
G1 X55 Y176 Z-.5 F4000		; wiping
G1 X45 Y177 Z0 F4000		; wiping
G1 X55 Y176 F4000		; wiping
G1 X45 Y178 F4000		; wiping
G1 X55 Y176 F4000		; wiping
G1 X45 Y178 F4000		; wiping
G1 X55 Y176 F4000		; wiping
G1 X60 Y178 F4000		; wiping
G1 X80 Y176 F4000		; wiping
G1 X60 Y178 F4000		; wiping
G1 X80 Y176 F4000		; wiping
G1 X60 Y178 F4000		; wiping
G1 X90 Y176 F4000		; wiping
G1 X80 Y178 F4000		; wiping
G1 X100 Y176 F4000		; wiping
G1 X80 Y178 F4000		; wiping
G1 X100 Y176 F4000		; wiping
G1 X80 Y178 F4000		; wiping
G1 X100 Y176 F4000		; wiping
G1 X110 Y178 F4000		; wiping
G1 X100 Y176 F4000		; wiping
G1 X110 Y178 F4000		; wiping
G1 X100 Y176 F4000		; wiping
G1 X110 Y178 F4000		; wiping
G1 X115 Y176 Z-0.5 F1000	; wiping
G1 Z10					; raise extruder
G28 X0 Y0				; home X and Y
M109 R170	; wait for extruder to reach probe temp
M204 S300				; set probing acceleration
G29					; start auto-leveling sequence
M420 S1                     ; enable leveling matrix
M425 Z			     		; use measured Z backlash for compensation
M425 Z F0		     		; turn off measured Z backlash compensation. (if activated in the quality settings, this command will automatically be ignored)
M204 S2000				; restore standard acceleration
G1 X5 Y15 Z10 F5000			; move up off last probe point
G4 S1					; pause
M400					; wait for moves to finish
M117 Heating...				; progress indicator message on LCD
M109 R250	; wait for extruder to reach initial printing temp
M190 S116.0 ; wait for bed to reach printing temp
G1 Z2 E0 F75				; prime tiny bit of filment into the nozzle
M117 Mini 2 Printing...		; progress indicator message on LCD
M221 S100 T0
M83 ;relative extrusion mode
G1 F600 E-1
;LAYER_COUNT:206
;LAYER:0
M107
M204 S800
M205 X10 Y10
G0 F2625 X35.475 Y43.098 Z0.4
;TYPE:SKIRT
G1 F600 E1
G1 F900 X35.911 Y42.825 E0.02016
G1 X36.384 Y42.622 E0.02017
G1 X36.882 Y42.495 E0.02014
G1 X37.449 Y42.446 E0.0223
G1 X119.43 Y42.447 E3.21273
G1 X119.943 Y42.487 E0.02016
G1 X120.443 Y42.606 E0.02014
G1 X120.92 Y42.801 E0.02019
G1 X121.36 Y43.067 E0.02015
G1 X121.753 Y43.398 E0.02014
G1 X122.091 Y43.786 E0.02017
G1 X122.364 Y44.222 E0.02016
G1 X122.567 Y44.695 E0.02017
G1 X122.694 Y45.193 E0.02014
G1 X122.743 Y45.759 E0.02226
G1 X122.752 Y72.006 E1.02858
G1 X122.909 Y77.539 E0.21692
G1 X123.371 Y82.978 E0.21391
G1 X124.144 Y88.403 E0.21475
G1 X125.219 Y93.763 E0.21423
G1 X125.859 Y96.374 E0.10535
G1 X127.71 Y102.81 E0.26244
G1 X127.813 Y103.314 E0.02016
G1 X127.838 Y103.652 E0.01328
G1 X127.852 Y104.282 E0.02469
G1 X127.824 Y104.796 E0.02017
G1 X127.772 Y105.085 E0.01151
G1 X127.586 Y105.91 E0.03314
G1 X127.434 Y106.401 E0.02014
G1 X127.308 Y106.682 E0.01207
G1 X127.025 Y107.239 E0.02448
G1 X126.627 Y107.846 E0.02844
G1 X126.151 Y108.423 E0.02931
G1 X125.919 Y108.676 E0.01345
G1 X124.278 Y110.291 E0.09023
G1 X123.884 Y110.623 E0.02019
G1 X123.444 Y110.889 E0.02015
G1 X122.968 Y111.084 E0.02016
G1 X122.468 Y111.203 E0.02014
G1 X121.954 Y111.243 E0.0202
G1 X37.448 Y111.241 E3.31168
G1 X36.935 Y111.201 E0.02016
G1 X36.435 Y111.082 E0.02014
G1 X35.958 Y110.887 E0.02019
G1 X35.518 Y110.621 E0.02015
G1 X35.125 Y110.29 E0.02014
G1 X34.787 Y109.902 E0.02017
G1 X34.514 Y109.466 E0.02016
G1 X34.311 Y108.993 E0.02017
G1 X34.184 Y108.495 E0.02014
G1 X34.135 Y107.928 E0.0223
G1 X34.136 Y45.759 E2.43632
G1 X34.176 Y45.246 E0.02016
G1 X34.295 Y44.746 E0.02014
G1 X34.49 Y44.269 E0.02019
G1 X34.756 Y43.829 E0.02015
G1 X35.087 Y43.436 E0.02014
G1 X35.475 Y43.098 E0.02017
G1 F600 E-1
;MESH:
G0 F2625 X79.889 Y45.085
G0 X79.889 Y46.7
G0 X80.911 Y46.786
G0 X80.911 Y46.686
;TYPE:WALL-INNER
G1 F600 E1
G1 F900 X81.308 Y46.686 E0.01556
G1 X81.715 Y46.686 E0.01595
G1 X82.127 Y46.686 E0.01615
G1 X82.543 Y46.686 E0.0163
G1 X82.96 Y46.686 E0.01634
G1 X83.368 Y46.686 E0.01599
G1 X83.769 Y46.686 E0.01571
G1 X84.164 Y46.686 E0.01548
G1 X84.49 Y46.686 E0.01278
G1 X90.253 Y46.686 E0.22584
G1 X90.253 Y107.002 E2.3637
G1 X79.875 Y107.002 E0.4067
G1 X79.875 Y55.343 E2.02445
G1 X79.875 Y55.049 E0.01152
G1 X79.875 Y54.867 E0.00713
G1 X80.149 Y55.049 E0.00591
G1 X80.408 Y55.189 E0.00876
G1 X80.513 Y55.246 E0.00468
G1 X80.896 Y55.41 E0.01633
G1 X81.293 Y55.536 E0.01632
G1 X81.701 Y55.624 E0.01636
G1 X82.112 Y55.673 E0.01622
G1 X82.524 Y55.686 E0.01615
G1 X82.942 Y55.659 E0.01641
G1 X83.353 Y55.592 E0.01632
G1 X83.755 Y55.488 E0.01627
G1 X84.148 Y55.346 E0.01638
G1 X84.524 Y55.167 E0.01632
G1 X84.881 Y54.956 E0.01625
G1 X85.218 Y54.709 E0.01637
G1 X85.528 Y54.434 E0.01624
G1 X85.812 Y54.132 E0.01625
G1 X86.069 Y53.802 E0.01639
G1 X86.284 Y53.462 E0.01576
G1 X86.394 Y53.262 E0.00894
G1 X86.561 Y52.889 E0.01602
G1 X86.697 Y52.497 E0.01626
G1 X86.795 Y52.092 E0.01633
G1 X86.855 Y51.68 E0.01632
G1 X86.875 Y51.268 E0.01616
G1 X86.859 Y50.853 E0.01628
G1 X86.802 Y50.438 E0.01642
G1 X86.707 Y50.032 E0.01634
G1 X86.574 Y49.639 E0.01626
G1 X86.405 Y49.259 E0.0163
G1 X86.2 Y48.895 E0.01637
G1 X85.963 Y48.554 E0.01627
G1 X85.697 Y48.237 E0.01622
G1 X85.399 Y47.943 E0.01641
G1 X85.075 Y47.68 E0.01635
G1 X84.739 Y47.459 E0.01576
G1 X84.543 Y47.345 E0.00889
G1 X84.457 Y47.303 E0.00375
G1 X84.164 Y47.161 E0.01126
G1 X83.769 Y47.017 E0.01088
G1 X83.368 Y46.912 E0.00746
G1 X82.96 Y46.844 E0.00509
G1 X82.543 Y46.815 E0.00379
G1 X82.127 Y46.824 E0.00348
G1 X81.715 Y46.873 E0.00427
G1 X81.308 Y46.96 E0.00619
G1 X80.911 Y47.084 E0.00901
G1 X80.526 Y47.246 E0.01637
G1 X80.414 Y47.306 E0.00498
G1 X80.411 Y47.308 E0.00014
G1 X80.161 Y47.443 E0.01113
G1 X79.875 Y47.632 E0.01343
G1 X79.875 Y47.443 E0.00024
G1 X79.875 Y47.159 E0.00854
G1 X79.875 Y46.686 E0.01854
G1 X80.398 Y46.686 E0.0205
G1 X80.526 Y46.686 E0.00412
G1 X80.911 Y46.686 E0.01149
G0 F2625 X80.911 Y46.786
G0 X79.945 Y46.756
G0 X79.251 Y46.062
;TYPE:WALL-OUTER
G1 F900 X90.877 Y46.062 E0.45561
G1 X90.877 Y107.626 E2.41261
G1 X79.251 Y107.626 E0.45561
G1 X79.251 Y54.119 E2.09687
G1 X79.251 Y53.839 E0.01097
G1 X79.251 Y53.566 E0.0107
G1 X79.251 Y53.335 E0.00905
G1 X79.412 Y53.566 E0.00267
G1 X79.641 Y53.839 E0.00747
G1 X79.84 Y54.035 E0.00905
G1 X79.897 Y54.091 E0.00313
G1 X80.174 Y54.316 E0.01399
G1 X80.471 Y54.514 E0.01399
G1 X80.784 Y54.683 E0.01394
G1 X81.114 Y54.824 E0.01406
G1 X81.454 Y54.932 E0.01398
G1 X81.804 Y55.008 E0.01404
G1 X82.158 Y55.05 E0.01397
G1 X82.514 Y55.061 E0.01396
G1 X82.872 Y55.038 E0.01406
G1 X83.224 Y54.981 E0.01397
G1 X83.57 Y54.891 E0.01401
G1 X83.908 Y54.769 E0.01408
G1 X84.23 Y54.616 E0.01397
G1 X84.537 Y54.434 E0.01399
G1 X84.826 Y54.223 E0.01402
G1 X85.093 Y53.986 E0.01399
G1 X85.338 Y53.726 E0.014
G1 X85.558 Y53.443 E0.01405
G1 X85.746 Y53.145 E0.01381
G1 X85.835 Y52.983 E0.00724
G1 X85.981 Y52.658 E0.01396
G1 X86.098 Y52.321 E0.01398
G1 X86.182 Y51.974 E0.01399
G1 X86.233 Y51.62 E0.01402
G1 X86.25 Y51.264 E0.01397
G1 X86.237 Y50.907 E0.014
G1 X86.188 Y50.552 E0.01404
G1 X86.106 Y50.204 E0.01401
G1 X85.992 Y49.866 E0.01398
G1 X85.847 Y49.539 E0.01402
G1 X85.671 Y49.227 E0.01404
G1 X85.467 Y48.934 E0.01399
G1 X85.238 Y48.661 E0.01396
G1 X84.982 Y48.409 E0.01408
G1 X84.705 Y48.184 E0.01399
G1 X84.41 Y47.989 E0.01386
G1 X84.25 Y47.896 E0.00725
G1 X83.92 Y47.736 E0.01437
G1 X83.583 Y47.613 E0.01406
G1 X83.237 Y47.523 E0.01401
G1 X82.886 Y47.464 E0.01395
G1 X82.528 Y47.439 E0.01406
G1 X82.171 Y47.447 E0.01399
G1 X81.817 Y47.489 E0.01397
G1 X81.467 Y47.564 E0.01403
G1 X81.126 Y47.671 E0.01401
G1 X80.796 Y47.81 E0.01403
G1 X80.482 Y47.979 E0.01397
G1 X80.184 Y48.176 E0.014
G1 X79.906 Y48.401 E0.01402
G1 X79.842 Y48.464 E0.00352
G1 X79.65 Y48.651 E0.0105
G1 X79.42 Y48.923 E0.01396
G1 X79.251 Y49.165 E0.01157
G1 X79.251 Y48.923 E0.00081
G1 X79.251 Y48.651 E0.00435
G1 X79.251 Y48.383 E0.00876
G1 X79.251 Y46.062 E0.09096
G0 F2625 X79.945 Y46.756
G0 X82.955 Y46.804
G0 X85.581 Y47.3
;TYPE:SKIN
G1 F900 X89.639 Y47.3 E0.15903
G1 X89.639 Y106.388 E2.31558
G1 X80.489 Y106.388 E0.35858
G1 X80.489 Y55.903 E1.97844
G1 X80.682 Y55.986 E0.00823
G1 X81.135 Y56.13 E0.01863
G1 X81.6 Y56.23 E0.01864
G1 X82.066 Y56.285 E0.01839
G1 X82.534 Y56.3 E0.01835
G1 X83.011 Y56.269 E0.01873
G1 X83.479 Y56.194 E0.01857
G1 X83.937 Y56.075 E0.01854
G1 X84.384 Y55.913 E0.01863
G1 X84.813 Y55.71 E0.0186
G1 X85.22 Y55.469 E0.01854
G1 X85.604 Y55.187 E0.01867
G1 X85.957 Y54.875 E0.01846
G1 X86.279 Y54.532 E0.01844
G1 X86.572 Y54.156 E0.01868
G1 X86.813 Y53.775 E0.01767
G1 X86.945 Y53.535 E0.01073
G1 X87.132 Y53.115 E0.01802
G1 X87.287 Y52.67 E0.01847
G1 X87.399 Y52.208 E0.01863
G1 X87.467 Y51.739 E0.01857
G1 X87.489 Y51.271 E0.01836
G1 X87.471 Y50.8 E0.01847
G1 X87.406 Y50.326 E0.01875
G1 X87.298 Y49.863 E0.01863
G1 X87.147 Y49.415 E0.01853
G1 X86.954 Y48.983 E0.01854
G1 X86.721 Y48.568 E0.01865
G1 X86.451 Y48.18 E0.01852
G1 X86.149 Y47.82 E0.01841
G1 X85.809 Y47.485 E0.01871
G1 X85.581 Y47.3 E0.01151
G0 F2625 X86.763 Y48.125
G1 F900 X89.352 Y48.125 E0.10146
G0 F2625 X89.352 Y48.75
G1 F900 X87.152 Y48.75 E0.08622
G0 F2625 X87.436 Y49.375
G1 F900 X89.352 Y49.375 E0.07509
G0 F2625 X89.352 Y50
G1 F900 X87.624 Y50 E0.06772
G0 F2625 X87.736 Y50.625
G1 F900 X89.352 Y50.625 E0.06333
G0 F2625 X89.352 Y51.25
G1 F900 X87.775 Y51.25 E0.0618
G0 F2625 X87.737 Y51.875
G1 F900 X89.352 Y51.875 E0.06329
G0 F2625 X89.352 Y52.5
G1 F900 X87.624 Y52.5 E0.06772
G0 F2625 X87.432 Y53.125
G1 F900 X89.352 Y53.125 E0.07524
G0 F2625 X89.352 Y53.75
G1 F900 X87.155 Y53.75 E0.0861
G0 F2625 X86.766 Y54.375
G1 F900 X89.352 Y54.375 E0.10134
G0 F2625 X89.352 Y55
G1 F900 X86.233 Y55 E0.12223
G0 F2625 X85.491 Y55.625
G1 F900 X89.352 Y55.625 E0.15131
G0 F2625 X89.352 Y56.25
G1 F900 X84.292 Y56.25 E0.19829
G1 X84.167 Y56.25
G0 F2625 X80.776 Y56.875
G1 F900 X89.352 Y56.875 E0.33608
G0 F2625 X89.352 Y57.5
G1 F900 X80.776 Y57.5 E0.33608
G0 F2625 X80.776 Y58.125
G1 F900 X89.352 Y58.125 E0.33608
G0 F2625 X89.352 Y58.75
G1 F900 X80.776 Y58.75 E0.33608
G0 F2625 X80.776 Y59.375
G1 F900 X89.352 Y59.375 E0.33608
G0 F2625 X89.352 Y60
G1 F900 X80.776 Y60 E0.33608
G0 F2625 X80.776 Y60.625
G1 F900 X89.352 Y60.625 E0.33608
G0 F2625 X89.352 Y61.25
G1 F900 X80.776 Y61.25 E0.33608
G0 F2625 X80.776 Y61.875
G1 F900 X89.352 Y61.875 E0.33608
G0 F2625 X89.352 Y62.5
G1 F900 X80.776 Y62.5 E0.33608
G0 F2625 X80.776 Y63.125
G1 F900 X89.352 Y63.125 E0.33608
G0 F2625 X89.352 Y63.75
G1 F900 X80.776 Y63.75 E0.33608
G0 F2625 X80.776 Y64.375
G1 F900 X89.352 Y64.375 E0.33608
G0 F2625 X89.352 Y65
G1 F900 X80.776 Y65 E0.33608
G0 F2625 X80.776 Y65.625
G1 F900 X89.352 Y65.625 E0.33608
G0 F2625 X89.352 Y66.25
G1 F900 X80.776 Y66.25 E0.33608
G0 F2625 X80.776 Y66.875
G1 F900 X89.352 Y66.875 E0.33608
G0 F2625 X89.352 Y67.5
G1 F900 X80.776 Y67.5 E0.33608
G0 F2625 X80.776 Y68.125
G1 F900 X89.352 Y68.125 E0.33608
G0 F2625 X89.352 Y68.75
G1 F900 X80.776 Y68.75 E0.33608
G0 F2625 X80.776 Y69.375
G1 F900 X89.352 Y69.375 E0.33608
G0 F2625 X89.352 Y70
G1 F900 X80.776 Y70 E0.33608
G0 F2625 X80.776 Y70.625
G1 F900 X89.352 Y70.625 E0.33608
G0 F2625 X89.352 Y71.25
G1 F900 X80.776 Y71.25 E0.33608
G0 F2625 X80.776 Y71.875
G1 F900 X89.352 Y71.875 E0.33608
G0 F2625 X89.352 Y72.5
G1 F900 X80.776 Y72.5 E0.33608
G0 F2625 X80.776 Y73.125
G1 F900 X89.352 Y73.125 E0.33608
G0 F2625 X89.352 Y73.75
G1 F900 X80.776 Y73.75 E0.33608
G0 F2625 X80.776 Y74.375
G1 F900 X89.352 Y74.375 E0.33608
G0 F2625 X89.352 Y75
G1 F900 X80.776 Y75 E0.33608
G0 F2625 X80.776 Y75.625
G1 F900 X89.352 Y75.625 E0.33608
G0 F2625 X89.352 Y76.25
G1 F900 X80.776 Y76.25 E0.33608
G0 F2625 X80.776 Y76.875
G1 F900 X89.352 Y76.875 E0.33608
G0 F2625 X89.352 Y77.5
G1 F900 X80.776 Y77.5 E0.33608
G0 F2625 X80.776 Y78.125
G1 F900 X89.352 Y78.125 E0.33608
G0 F2625 X89.352 Y78.75
G1 F900 X80.776 Y78.75 E0.33608
G0 F2625 X80.776 Y79.375
G1 F900 X89.352 Y79.375 E0.33608
G0 F2625 X89.352 Y80
G1 F900 X80.776 Y80 E0.33608
G0 F2625 X80.776 Y80.625
G1 F900 X89.352 Y80.625 E0.33608
G0 F2625 X89.352 Y81.25
G1 F900 X80.776 Y81.25 E0.33608
G0 F2625 X80.776 Y81.875
G1 F900 X89.352 Y81.875 E0.33608
G0 F2625 X89.352 Y82.5
G1 F900 X80.776 Y82.5 E0.33608
G0 F2625 X80.776 Y83.125
G1 F900 X89.352 Y83.125 E0.33608
G0 F2625 X89.352 Y83.75
G1 F900 X80.776 Y83.75 E0.33608
G0 F2625 X80.776 Y84.375
G1 F900 X89.352 Y84.375 E0.33608
G0 F2625 X89.352 Y85
G1 F900 X80.776 Y85 E0.33608
G0 F2625 X80.776 Y85.625
G1 F900 X89.352 Y85.625 E0.33608
G0 F2625 X89.352 Y86.25
G1 F900 X80.776 Y86.25 E0.33608
G0 F2625 X80.776 Y86.875
G1 F900 X89.352 Y86.875 E0.33608
G0 F2625 X89.352 Y87.5
G1 F900 X80.776 Y87.5 E0.33608
G0 F2625 X80.776 Y88.125
G1 F900 X89.352 Y88.125 E0.33608
G0 F2625 X89.352 Y88.75
G1 F900 X80.776 Y88.75 E0.33608
G0 F2625 X80.776 Y89.375
G1 F900 X89.352 Y89.375 E0.33608
G0 F2625 X89.352 Y90
G1 F900 X80.776 Y90 E0.33608
G0 F2625 X80.776 Y90.625
G1 F900 X89.352 Y90.625 E0.33608
G0 F2625 X89.352 Y91.25
G1 F900 X80.776 Y91.25 E0.33608
G0 F2625 X80.776 Y91.875
G1 F900 X89.352 Y91.875 E0.33608
G0 F2625 X89.352 Y92.5
G1 F900 X80.776 Y92.5 E0.33608
G0 F2625 X80.776 Y93.125
G1 F900 X89.352 Y93.125 E0.33608
G0 F2625 X89.352 Y93.75
G1 F900 X80.776 Y93.75 E0.33608
G0 F2625 X80.776 Y94.375
G1 F900 X89.352 Y94.375 E0.33608
G0 F2625 X89.352 Y95
G1 F900 X80.776 Y95 E0.33608
G0 F2625 X80.776 Y95.625
G1 F900 X89.352 Y95.625 E0.33608
G0 F2625 X89.352 Y96.25
G1 F900 X80.776 Y96.25 E0.33608
G0 F2625 X80.776 Y96.875
G1 F900 X89.352 Y96.875 E0.33608
G0 F2625 X89.352 Y97.5
G1 F900 X80.776 Y97.5 E0.33608
G0 F2625 X80.776 Y98.125
G1 F900 X89.352 Y98.125 E0.33608
G0 F2625 X89.352 Y98.75
G1 F900 X80.776 Y98.75 E0.33608
G0 F2625 X80.776 Y99.375
G1 F900 X89.352 Y99.375 E0.33608
G0 F2625 X89.352 Y100
G1 F900 X80.776 Y100 E0.33608
G0 F2625 X80.776 Y100.625
G1 F900 X89.352 Y100.625 E0.33608
G0 F2625 X89.352 Y101.25
G1 F900 X80.776 Y101.25 E0.33608
G0 F2625 X80.776 Y101.875
G1 F900 X89.352 Y101.875 E0.33608
G0 F2625 X89.352 Y102.5
G1 F900 X80.776 Y102.5 E0.33608
G0 F2625 X80.776 Y103.125
G1 F900 X89.352 Y103.125 E0.33608
G0 F2625 X89.352 Y103.75
G1 F900 X80.776 Y103.75 E0.33608
G0 F2625 X80.776 Y104.375
G1 F900 X89.352 Y104.375 E0.33608
G0 F2625 X89.352 Y105
G1 F900 X80.776 Y105 E0.33608
G0 F2625 X80.776 Y105.625
G1 F900 X89.352 Y105.625 E0.33608
G1 X89.477 Y105.625
G0 F2625 X86.839 Y50.419
G0 X86.443 Y49.247
G0 X86.001 Y48.539
G0 X85.424 Y47.914
G0 X84.561 Y47.31
G0 X83.778 Y46.978
G0 X82.548 Y46.776
G0 X80.293 Y47
;TYPE:SKIN
G1 F900 X80.177 Y47 E0.00182
G1 F600 E-1
G0 F2625 X79.895 Y46.756
G0 X76.983 Y46.756
G0 X76.933 Y46.756
G0 X77.003 Y46.686
;TYPE:WALL-INNER
G1 F600 E1
G1 F900 X77.003 Y107.002 E2.3637
G1 X66.625 Y107.002 E0.4067
G1 X66.625 Y46.686 E2.3637
G1 X77.003 Y46.686 E0.4067
