; generated by Slic3r 1.1.7 on 2015-02-16 at 09:43:05

; perimeters extrusion width = 0.50mm
; infill extrusion width = 0.54mm
; solid infill extrusion width = 0.45mm
; top infill extrusion width = 0.40mm

G21 ; set units to millimeters
M107

M301 P34 I4 D113     ; set PID nozzle
M304 P162 I17 D378 ; set PID Bed

M104 S230                  ; set extruder temp for budaschnozzle
;M104 S240                 ; set extruder temp for hex_hot_end
M140 S95                    ; set bed temp for PET
;M140 S110                 ; set bed temp for PEI (reminder ~G1 Z2 ~ M140 S(@-10 degree change) ;if -m is present in file name)

G28                            ; home
G1 Z5 F300                ; move bed down 5mm
M84                            ; disable steppers
G4 S300                     ; wait 5 mins to preheat

G28                            ; home

G90 ; use absolute coordinates
G92 E0
M82 ; use absolute distances for extrusion
G1 F1500.000 E-1.20000
G92 E0
G1 Z0.350 F9000.000
G1 X106.570 Y82.318 F9000.000
G1 E1.20000 F1500.000
G1 X107.989 Y80.606 E1.27307 F1260.000
G1 X109.919 Y79.501 E1.34614
G1 X112.000 Y79.143 E1.41554
G1 X200.000 Y79.143 E4.30714
G1 X202.188 Y79.540 E4.38021
G1 X204.098 Y80.680 E4.45328 F1260.000
G1 X205.485 Y82.417 E4.52635
G1 X206.232 Y85.375 E4.62657
G1 X206.231 Y148.968 E6.71621
G1 X205.655 Y187.219 E7.97323
G1 X205.225 Y189.401 E8.04630
G1 X204.057 Y191.293 E8.11938
G1 X201.342 Y193.054 E8.22570
G1 X184.342 Y198.554 E8.81282
G1 X182.424 Y198.857 E8.87663
G1 X98.353 Y198.718 E11.63911
G1 X96.166 Y198.318 E11.71218
G1 X94.258 Y197.175 E11.78525
G1 X92.874 Y195.434 E11.85832
G1 X92.133 Y192.546 E11.95630
G1 X91.768 Y154.375 E13.21064
G1 X91.791 Y110.761 E14.64373
G1 X92.031 Y109.030 E14.70117
G1 X92.563 Y107.365 E14.75861
G1 X93.086 Y106.272 E14.79841
G1 X106.533 Y82.383 E15.69919
G1 X107.106 Y82.620 F9000.000
G1 X108.468 Y81.008 E15.76853 F1260.000
G1 X110.329 Y80.013 E15.83787
G1 X112.000 Y79.759 E15.89340
G1 X200.000 Y79.759 E18.78500
G1 X202.073 Y80.155 E18.85433
G1 X203.853 Y81.289 E18.92367 F1260.000
G1 X205.089 Y82.999 E18.99301
G1 X205.616 Y85.375 E19.07298
G1 X205.615 Y148.959 E21.16230
G1 X205.039 Y187.210 E22.41933
G1 X204.611 Y189.276 E22.48867
G1 X203.451 Y191.039 E22.55800
G1 X201.153 Y192.469 E22.64696
G1 X184.153 Y197.969 E23.23407
G1 X182.424 Y198.241 E23.29157
G1 X98.354 Y198.102 E26.05402
G1 X96.283 Y197.702 E26.12335
G1 X94.505 Y196.566 E26.19269
G1 X93.272 Y194.854 E26.26203
G1 X92.749 Y192.540 E26.33996
G1 X92.384 Y154.375 E27.59410
G1 X92.405 Y110.814 E29.02547
G1 X92.627 Y109.186 E29.07945
G1 X93.123 Y107.620 E29.13343
G1 X93.622 Y106.574 E29.17152
G1 X107.069 Y82.685 E30.07230
G1 F1500.000 E28.87230
G92 E0
G1 X155.060 Y147.935 F9000.000
G1 E1.20000 F1500.000
M204 S600
G1 X155.060 Y153.435 E1.38072 F1890.000
G1 X152.940 Y153.435 E1.45041
G1 X152.940 Y148.834 E1.60159
G1 X152.988 Y148.273 E1.62010
G1 X153.120 Y147.768 E1.63727
G1 X153.337 Y147.292 E1.65445
G1 X153.632 Y146.860 E1.67162
G1 X153.996 Y146.485 E1.68880
G1 X154.419 Y146.178 E1.70597
G1 X154.888 Y145.947 E1.72315
G1 X155.428 Y145.787 E1.74165
G1 X165.246 Y143.784 E2.07092
G1 X166.187 Y143.508 E2.10316
G1 X167.105 Y143.059 E2.13671
G1 X167.933 Y142.462 E2.17025
G1 X168.649 Y141.735 E2.20381
G1 X169.233 Y140.897 E2.23735
G1 X169.667 Y139.973 E2.27090
G1 X169.939 Y138.989 E2.30446
G1 X170.042 Y137.973 E2.33800
G1 X169.973 Y136.955 E2.37154
G1 X169.732 Y135.962 E2.40509
G1 X169.329 Y135.024 E2.43865
G1 X168.773 Y134.168 E2.47219
G1 X168.080 Y133.417 E2.50575
G1 X167.272 Y132.794 E2.53930
G1 X166.940 Y132.618 E2.55165
G1 X166.940 Y123.814 E2.84093
G1 X172.060 Y123.814 E3.00919
G1 X172.060 Y147.935 E3.80178
G1 X155.135 Y147.935 E4.35792
M204 S800
G1 X155.676 Y148.551 F9000.000
M204 S600
G1 X155.676 Y154.051 E4.53864 F1323.000
G1 X152.324 Y154.051 E4.64880
G1 X152.324 Y148.808 E4.82109
G1 X152.379 Y148.168 E4.84219
G1 X152.538 Y147.560 E4.86284
G1 X152.799 Y146.988 E4.88349
G1 X153.153 Y146.469 E4.90414
G1 X153.591 Y146.018 E4.92479
G1 X154.099 Y145.649 E4.94543
G1 X154.663 Y145.371 E4.96608
G1 X155.279 Y145.189 E4.98719
G1 X165.097 Y143.186 E5.31646
G1 X165.964 Y142.932 E5.34613
G1 X166.787 Y142.529 E5.37625
G1 X167.531 Y141.993 E5.40637
G1 X168.147 Y141.368 E5.43522
G1 X168.698 Y140.588 E5.46659
G1 X169.087 Y139.758 E5.49670
G1 X169.332 Y138.875 E5.52682
G1 X169.424 Y137.963 E5.55694
G1 X169.362 Y137.049 E5.58705
G1 X169.146 Y136.158 E5.61717
G1 X168.784 Y135.316 E5.64729
G1 X168.285 Y134.547 E5.67741
G1 X167.663 Y133.873 E5.70753
G1 X166.937 Y133.314 E5.73765
G1 X166.324 Y132.988 E5.76046
G1 X166.324 Y123.198 E6.08215
G1 X172.676 Y123.198 E6.29089
G1 X172.676 Y148.551 E7.12395
G1 X155.751 Y148.551 E7.68009
M204 S800
G1 X155.176 Y148.551 F9000.000
G1 X153.366 Y152.969 F9000.000
M204 S800
G1 X153.406 Y153.009 E7.68195 F2310.000
G1 X154.292 Y153.009 E7.71106
G1 X153.366 Y152.083 E7.75409
G1 X153.366 Y151.197 E7.78320
G1 X154.634 Y152.465 E7.84212
G1 X154.634 Y151.579 E7.87123
G1 X153.366 Y150.311 E7.93014
G1 X153.366 Y149.425 E7.95926
G1 X154.634 Y150.693 E8.01817
G1 X154.634 Y149.807 E8.04729
G1 X153.391 Y148.564 E8.10505
G1 X153.555 Y147.842 E8.12937
G1 X154.634 Y148.921 E8.17949
G1 X154.634 Y148.035 E8.20861
G1 X153.869 Y147.270 E8.24415
G1 X154.287 Y146.801 E8.26477
G1 X154.994 Y147.509 E8.29763
G1 X155.880 Y147.509 E8.32674
G1 X154.824 Y146.453 E8.37578
G1 X155.475 Y146.218 E8.39852
G1 X156.766 Y147.509 E8.45849
G1 X157.652 Y147.509 E8.48761
G1 X156.207 Y146.064 E8.55475
G1 X156.942 Y145.913 E8.57943
G1 X158.538 Y147.509 E8.65355
G1 X159.424 Y147.509 E8.68267
G1 X157.678 Y145.763 E8.76376
G1 X158.414 Y145.613 E8.78844
G1 X160.309 Y147.509 E8.87651
G1 X161.195 Y147.509 E8.90563
G1 X159.150 Y145.463 E9.00067
G1 X159.886 Y145.313 E9.02535
G1 X162.081 Y147.509 E9.12738
G1 X162.967 Y147.509 E9.15649
G1 X160.622 Y145.163 E9.26549
G1 X161.358 Y145.013 E9.29016
G1 X163.853 Y147.509 E9.40614
G1 X164.739 Y147.509 E9.43525
G1 X162.093 Y144.863 E9.55820
G1 X162.829 Y144.713 E9.58288
G1 X165.625 Y147.509 E9.71280
G1 X166.511 Y147.509 E9.74191
G1 X163.565 Y144.563 E9.87882
G1 X164.301 Y144.412 E9.90349
G1 X167.397 Y147.509 E10.04737
G1 X168.283 Y147.509 E10.07648
G1 X165.037 Y144.262 E10.22733
G1 X165.743 Y144.083 E10.25128
G1 X169.169 Y147.509 E10.41048
G1 X170.055 Y147.509 E10.43959
G1 X166.417 Y143.870 E10.60865
G1 X167.012 Y143.579 E10.63042
G1 X170.941 Y147.509 E10.81301
G1 X171.634 Y147.316 E10.83664
G1 X167.569 Y143.250 E11.02555
G1 X168.084 Y142.879 E11.04641
G1 X171.634 Y146.430 E11.21138
G1 X171.634 Y145.544 E11.24049
G1 X168.542 Y142.452 E11.38417
G1 X168.981 Y142.005 E11.40476
G1 X171.634 Y144.658 E11.52804
G1 X171.634 Y143.772 E11.55715
G1 X169.345 Y141.483 E11.66353
G1 X169.685 Y140.937 E11.68466
G1 X171.634 Y142.886 E11.77522
G1 X171.634 Y142.000 E11.80433
G1 X169.968 Y140.334 E11.88172
G1 X170.193 Y139.673 E11.90468
G1 X171.634 Y141.114 E11.97166
G1 X171.634 Y140.228 E12.00077
G1 X170.370 Y138.964 E12.05949
G1 X170.452 Y138.160 E12.08606
G1 X171.634 Y139.342 E12.14099
G1 X171.634 Y138.456 E12.17010
G1 X170.420 Y137.242 E12.22653
G1 X170.217 Y136.154 E12.26289
G1 X171.634 Y137.570 E12.32871
G1 X171.634 Y136.684 E12.35782
G1 X169.583 Y134.633 E12.45312
M204 S800
G1 X167.366 Y131.530 F9000.000
M204 S800
G1 X171.634 Y135.798 E12.65145 F2310.000
G1 X171.634 Y134.912 E12.68056
G1 X167.366 Y130.644 E12.87889
G1 X167.366 Y129.758 E12.90800
G1 X171.634 Y134.026 E13.10633
G1 X171.634 Y133.140 E13.13544
G1 X167.366 Y128.872 E13.33377
G1 X167.366 Y127.986 E13.36288
G1 X171.634 Y132.254 E13.56120
G1 X171.634 Y131.368 E13.59032
G1 X167.366 Y127.100 E13.78864
G1 X167.366 Y126.215 E13.81775
G1 X171.634 Y130.482 E14.01608
G1 X171.634 Y129.596 E14.04519
G1 X167.366 Y125.329 E14.24352
G1 X167.366 Y124.443 E14.27263
G1 X171.634 Y128.710 E14.47096
G1 X171.634 Y127.825 E14.50007
G1 X168.050 Y124.241 E14.66661
G1 X168.936 Y124.241 E14.69572
G1 X171.634 Y126.939 E14.82109
G1 X171.634 Y126.053 E14.85020
G1 X169.822 Y124.241 E14.93440
G1 X170.708 Y124.241 E14.96351
G1 X171.634 Y125.167 E15.00654
G1 X171.634 Y124.281 E15.03565
G1 X171.594 Y124.241 E15.03751
M204 S800
G1 F1500.000 E13.83751
G92 E0
G1 X182.060 Y147.935 F9000.000
G1 E1.20000 F1500.000
M204 S600
G1 X182.060 Y153.435 E1.38072 F1890.000
G1 X179.940 Y153.435 E1.45041
G1 X179.940 Y148.834 E1.60159
G1 X179.988 Y148.273 E1.62010
G1 X180.120 Y147.768 E1.63727
G1 X180.337 Y147.292 E1.65445
G1 X180.632 Y146.860 E1.67162
G1 X180.996 Y146.485 E1.68880
G1 X181.419 Y146.178 E1.70597
G1 X181.888 Y145.947 E1.72315
G1 X182.428 Y145.787 E1.74165
G1 X192.246 Y143.784 E2.07092
G1 X193.187 Y143.508 E2.10316
G1 X194.105 Y143.059 E2.13671
G1 X194.933 Y142.462 E2.17025
G1 X195.649 Y141.735 E2.20381
G1 X196.233 Y140.897 E2.23735
G1 X196.667 Y139.973 E2.27090
G1 X196.939 Y138.989 E2.30446
G1 X197.042 Y137.973 E2.33800
G1 X196.973 Y136.955 E2.37154
G1 X196.732 Y135.962 E2.40509
G1 X196.329 Y135.024 E2.43865
G1 X195.773 Y134.168 E2.47219
G1 X195.080 Y133.417 E2.50575
G1 X194.272 Y132.794 E2.53930
G1 X193.940 Y132.618 E2.55165
G1 X193.940 Y123.814 E2.84093
G1 X199.060 Y123.814 E3.00919
G1 X199.060 Y147.935 E3.80178
G1 X182.135 Y147.935 E4.35792
M204 S800
G1 X182.676 Y148.551 F9000.000
M204 S600
G1 X182.676 Y154.051 E4.53864 F1323.000
G1 X179.324 Y154.051 E4.64880
G1 X179.324 Y148.808 E4.82109
G1 X179.379 Y148.168 E4.84219
G1 X179.538 Y147.560 E4.86284
G1 X179.799 Y146.988 E4.88349
G1 X180.153 Y146.469 E4.90414
G1 X180.591 Y146.018 E4.92479
G1 X181.099 Y145.649 E4.94543
G1 X181.663 Y145.371 E4.96608
G1 X182.279 Y145.189 E4.98719
G1 X192.097 Y143.186 E5.31646
G1 X192.964 Y142.932 E5.34613
G1 X193.787 Y142.529 E5.37625
G1 X194.531 Y141.993 E5.40637
G1 X195.147 Y141.368 E5.43522
G1 X195.698 Y140.588 E5.46659
G1 X196.087 Y139.758 E5.49670
G1 X196.332 Y138.875 E5.52682
G1 X196.424 Y137.963 E5.55694
G1 X196.362 Y137.049 E5.58705
G1 X196.146 Y136.158 E5.61717
G1 X195.784 Y135.316 E5.64729
G1 X195.285 Y134.547 E5.67741
G1 X194.663 Y133.873 E5.70753
G1 X193.937 Y133.314 E5.73765
G1 X193.324 Y132.988 E5.76046
G1 X193.324 Y123.198 E6.08215
G1 X199.676 Y123.198 E6.29089
G1 X199.676 Y148.551 E7.12395
G1 X182.751 Y148.551 E7.68009
M204 S800
G1 X182.176 Y148.551 F9000.000
G1 X180.366 Y152.969 F9000.000
M204 S800
G1 X180.406 Y153.009 E7.68195 F2310.000
G1 X181.292 Y153.009 E7.71106
G1 X180.366 Y152.083 E7.75409
G1 X180.366 Y151.197 E7.78320
G1 X181.634 Y152.465 E7.84212
G1 X181.634 Y151.579 E7.87123
G1 X180.366 Y150.311 E7.93014
G1 X180.366 Y149.425 E7.95926
G1 X181.634 Y150.693 E8.01817
G1 X181.634 Y149.807 E8.04729
G1 X180.391 Y148.564 E8.10505
G1 X180.555 Y147.842 E8.12937
G1 X181.634 Y148.921 E8.17949
G1 X181.634 Y148.035 E8.20861
G1 X180.869 Y147.270 E8.24415
G1 X181.287 Y146.801 E8.26477
G1 X181.994 Y147.509 E8.29763
G1 X182.880 Y147.509 E8.32674
G1 X181.824 Y146.453 E8.37578
G1 X182.475 Y146.218 E8.39852
G1 X183.766 Y147.509 E8.45849
G1 X184.652 Y147.509 E8.48761
G1 X183.207 Y146.064 E8.55475
G1 X183.942 Y145.913 E8.57943
G1 X185.538 Y147.509 E8.65355
G1 X186.424 Y147.509 E8.68267
G1 X184.678 Y145.763 E8.76376
G1 X185.414 Y145.613 E8.78844
G1 X187.309 Y147.509 E8.87651
G1 X188.195 Y147.509 E8.90563
G1 X186.150 Y145.463 E9.00067
G1 X186.886 Y145.313 E9.02535
G1 X189.081 Y147.509 E9.12738
G1 X189.967 Y147.509 E9.15649
G1 X187.622 Y145.163 E9.26549
G1 X188.358 Y145.013 E9.29016
G1 X190.853 Y147.509 E9.40614
G1 X191.739 Y147.509 E9.43525
G1 X189.093 Y144.863 E9.55820
G1 X189.829 Y144.713 E9.58288
G1 X192.625 Y147.509 E9.71280
G1 X193.511 Y147.509 E9.74191
G1 X190.565 Y144.563 E9.87882
G1 X191.301 Y144.412 E9.90349
G1 X194.397 Y147.509 E10.04737
G1 X195.283 Y147.509 E10.07648
G1 X192.037 Y144.262 E10.22733
G1 X192.743 Y144.083 E10.25128
G1 X196.169 Y147.509 E10.41048
G1 X197.055 Y147.509 E10.43959
G1 X193.417 Y143.870 E10.60865
G1 X194.012 Y143.579 E10.63042
G1 X197.941 Y147.509 E10.81301
G1 X198.634 Y147.316 E10.83664
G1 X194.569 Y143.250 E11.02555
G1 X195.084 Y142.879 E11.04641
G1 X198.634 Y146.430 E11.21138
G1 X198.634 Y145.544 E11.24049
G1 X195.542 Y142.452 E11.38417
G1 X195.981 Y142.005 E11.40476
G1 X198.634 Y144.658 E11.52804
G1 X198.634 Y143.772 E11.55715
G1 X196.345 Y141.483 E11.66353
G1 X196.685 Y140.937 E11.68466
G1 X198.634 Y142.886 E11.77522
G1 X198.634 Y142.000 E11.80433
G1 X196.968 Y140.334 E11.88172
G1 X197.193 Y139.673 E11.90468
G1 X198.634 Y141.114 E11.97166
G1 X198.634 Y140.228 E12.00077
G1 X197.370 Y138.964 E12.05949
G1 X197.452 Y138.160 E12.08606
G1 X198.634 Y139.342 E12.14099
G1 X198.634 Y138.456 E12.17010
G1 X197.420 Y137.242 E12.22653
G1 X197.217 Y136.154 E12.26289
G1 X198.634 Y137.570 E12.32871
G1 X198.634 Y136.684 E12.35782
G1 X196.583 Y134.633 E12.45312
M204 S800
G1 X194.366 Y131.530 F9000.000
M204 S800
G1 X198.634 Y135.798 E12.65145 F2310.000
G1 X198.634 Y134.912 E12.68056
G1 X194.366 Y130.644 E12.87889
G1 X194.366 Y129.758 E12.90800
G1 X198.634 Y134.026 E13.10633
G1 X198.634 Y133.140 E13.13544
G1 X194.366 Y128.872 E13.33377
G1 X194.366 Y127.986 E13.36288
G1 X198.634 Y132.254 E13.56120
G1 X198.634 Y131.368 E13.59032
G1 X194.366 Y127.100 E13.78864
G1 X194.366 Y126.215 E13.81775
G1 X198.634 Y130.482 E14.01608
G1 X198.634 Y129.596 E14.04519
G1 X194.366 Y125.329 E14.24352
G1 X194.366 Y124.443 E14.27263
G1 X198.634 Y128.710 E14.47096
G1 X198.634 Y127.825 E14.50007
G1 X195.050 Y124.241 E14.66661
G1 X195.936 Y124.241 E14.69572
G1 X198.634 Y126.939 E14.82109
G1 X198.634 Y126.053 E14.85020
G1 X196.822 Y124.241 E14.93440
G1 X197.708 Y124.241 E14.96351
G1 X198.634 Y125.167 E15.00654
G1 X198.634 Y124.281 E15.03565
G1 X198.594 Y124.241 E15.03751
M204 S800
G1 F1500.000 E13.83751
G92 E0
G1 X182.060 Y110.435 F9000.000
G1 E1.20000 F1500.000
M204 S600
G1 X182.060 Y115.935 E1.38072 F1890.000
G1 X179.940 Y115.935 E1.45041
G1 X179.940 Y111.334 E1.60159
G1 X179.988 Y110.773 E1.62010
G1 X180.120 Y110.268 E1.63727
G1 X180.337 Y109.792 E1.65445
G1 X180.632 Y109.360 E1.67162
G1 X180.996 Y108.985 E1.68880
G1 X181.419 Y108.678 E1.70597
G1 X181.888 Y108.447 E1.72315
G1 X182.428 Y108.287 E1.74165
G1 X192.246 Y106.284 E2.07092
G1 X193.187 Y106.008 E2.10316
G1 X194.105 Y105.559 E2.13671
G1 X194.933 Y104.962 E2.17025
G1 X195.649 Y104.235 E2.20381
G1 X196.233 Y103.397 E2.23735
G1 X196.667 Y102.473 E2.27090
G1 X196.939 Y101.489 E2.30446
G1 X197.042 Y100.473 E2.33800
G1 X196.973 Y99.455 E2.37154
G1 X196.732 Y98.462 E2.40509
G1 X196.329 Y97.524 E2.43865
G1 X195.773 Y96.668 E2.47219
G1 X195.080 Y95.917 E2.50575
G1 X194.272 Y95.294 E2.53930
G1 X193.940 Y95.118 E2.55165
G1 X193.940 Y86.314 E2.84093
G1 X199.060 Y86.314 E3.00919
G1 X199.060 Y110.435 E3.80178
G1 X182.135 Y110.435 E4.35792
M204 S800
G1 X182.676 Y111.051 F9000.000
M204 S600
G1 X182.676 Y116.551 E4.53864 F1323.000
G1 X179.324 Y116.551 E4.64880
G1 X179.324 Y111.308 E4.82109
G1 X179.379 Y110.668 E4.84219
G1 X179.538 Y110.060 E4.86284
G1 X179.799 Y109.488 E4.88349
G1 X180.153 Y108.969 E4.90414
G1 X180.591 Y108.518 E4.92479
G1 X181.099 Y108.149 E4.94543
G1 X181.663 Y107.871 E4.96608
G1 X182.279 Y107.689 E4.98719
G1 X192.097 Y105.686 E5.31646
G1 X192.964 Y105.432 E5.34613
G1 X193.787 Y105.029 E5.37625
G1 X194.531 Y104.493 E5.40637
G1 X195.147 Y103.868 E5.43522
G1 X195.698 Y103.088 E5.46659
G1 X196.087 Y102.258 E5.49670
G1 X196.332 Y101.375 E5.52682
G1 X196.424 Y100.463 E5.55694
G1 X196.362 Y99.549 E5.58705
G1 X196.146 Y98.658 E5.61717
G1 X195.784 Y97.816 E5.64729
G1 X195.285 Y97.047 E5.67741
G1 X194.663 Y96.373 E5.70753
G1 X193.937 Y95.814 E5.73765
G1 X193.324 Y95.488 E5.76046
G1 X193.324 Y85.698 E6.08215
G1 X199.676 Y85.698 E6.29089
G1 X199.676 Y111.051 E7.12395
G1 X182.751 Y111.051 E7.68009
M204 S800
G1 X182.176 Y111.051 F9000.000
G1 X180.366 Y115.469 F9000.000
M204 S800
G1 X180.406 Y115.509 E7.68195 F2310.000
G1 X181.292 Y115.509 E7.71106
G1 X180.366 Y114.583 E7.75409
G1 X180.366 Y113.697 E7.78320
G1 X181.634 Y114.965 E7.84212
G1 X181.634 Y114.079 E7.87123
G1 X180.366 Y112.811 E7.93014
G1 X180.366 Y111.925 E7.95926
G1 X181.634 Y113.193 E8.01817
G1 X181.634 Y112.307 E8.04729
G1 X180.391 Y111.064 E8.10505
G1 X180.555 Y110.342 E8.12937
