; generated by Slic3r 1.1.7 on 2015-04-30 at 14:12:09

; perimeters extrusion width = 0.50mm
; infill extrusion width = 0.61mm
; solid infill extrusion width = 0.50mm
; top infill extrusion width = 0.43mm

G21 ; set units to millimeters
M107

M301 P34 I4 D113     ; set PID nozzle
M304 P162 I17 D378 ; set PID Bed

;M104 S230                 ; set extruder temp for budaschnozzle
M104 S250                 ; set extruder temp for hex_hot_end
;M140 S100                 ; set bed temp for PET
M140 S110                 ; set bed temp for PEI (reminder ~G1 Z2 ~ M140 S(@-10 degree change) ;if -m is present in file name)

;G28                            ; home
;G1 Z5 F300                ; move bed down 5mm
;M84                            ; disable steppers
;G4 S300                     ; wait 5 mins to preheat

G28                            ; home

G90 ; use absolute coordinates
G92 E0
M82 ; use absolute distances for extrusion
M204 S1800
G1 F1500.000 E-1.40000
G92 E0
G1 Z0.350 F9600.000
G1 X108.838 Y97.317 F9600.000
G1 E1.40000 F1500.000
G1 X109.339 Y96.815 E1.42340 F1365.000
G1 X110.304 Y96.005 E1.46492
G1 X111.353 Y95.309 E1.50643
G1 X112.474 Y94.734 E1.54795
G1 X113.652 Y94.289 E1.58947
G1 X114.180 Y94.137 E1.60758
G1 X114.873 Y93.978 E1.63100
G1 X116.120 Y93.806 E1.67252
G1 X117.030 Y93.764 E1.70253
G1 X181.380 Y93.774 E3.82374
G1 X182.634 Y93.884 E3.86525 F1365.000
G1 X183.175 Y93.976 E3.88335
G1 X183.869 Y94.133 E3.90679
G1 X185.068 Y94.520 E3.94831
G1 X185.576 Y94.730 E3.96644
G1 X186.216 Y95.038 E3.98984
G1 X186.697 Y95.304 E4.00796
G1 X187.298 Y95.681 E4.03137
G1 X187.746 Y95.998 E4.04945
G1 X188.302 Y96.441 E4.07290
G1 X189.215 Y97.309 E4.11442
G1 X190.025 Y98.274 E4.15594
G1 X190.721 Y99.323 E4.19745
G1 X191.296 Y100.444 E4.23898
G1 X191.506 Y100.953 E4.25712
G1 X191.741 Y101.622 E4.28051
G1 X191.893 Y102.151 E4.29864
G1 X192.052 Y102.843 E4.32203
G1 X192.144 Y103.386 E4.34021
G1 X192.224 Y104.091 E4.36357
G1 X192.265 Y105.000 E4.39358
G1 X192.256 Y173.350 E6.64664
G1 X192.224 Y173.906 E6.66500
G1 X192.146 Y174.604 E6.68818
G1 X192.053 Y175.154 E6.70656
G1 X191.896 Y175.839 E6.72971
G1 X191.510 Y177.037 E6.77122
G1 X191.297 Y177.554 E6.78964
G1 X190.992 Y178.186 E6.81277
G1 X190.349 Y179.269 E6.85428
G1 X190.028 Y179.720 E6.87254
G1 X189.589 Y180.272 E6.89581
G1 X189.217 Y180.688 E6.91418
G1 X188.720 Y181.185 E6.93735
G1 X187.756 Y181.995 E6.97887
G1 X187.302 Y182.316 E6.99720
G1 X186.706 Y182.691 E7.02039
G1 X186.223 Y182.959 E7.03862
G1 X185.586 Y183.266 E7.06193
G1 X185.075 Y183.477 E7.08016
G1 X184.407 Y183.711 E7.10347
G1 X183.187 Y184.022 E7.14498
G1 X182.641 Y184.115 E7.16323
G1 X181.939 Y184.194 E7.18651
G1 X181.386 Y184.225 E7.20479
G1 X157.000 Y184.236 E8.00863
G1 X116.621 Y184.035 E9.33972
G1 X115.366 Y183.925 E9.38123
G1 X114.131 Y183.676 E9.42275
G1 X113.599 Y183.522 E9.44100
G1 X112.932 Y183.289 E9.46428
G1 X111.784 Y182.771 E9.50580
G1 X110.702 Y182.128 E9.54732
G1 X109.698 Y181.368 E9.58883
G1 X109.286 Y180.999 E9.60705
G1 X108.785 Y180.500 E9.63037
G1 X107.975 Y179.535 E9.67189
G1 X107.654 Y179.081 E9.69022
G1 X107.279 Y178.486 E9.71341
G1 X107.010 Y177.999 E9.73175
G1 X106.704 Y177.365 E9.75495
G1 X106.493 Y176.854 E9.77318
G1 X106.259 Y176.186 E9.79649
G1 X105.948 Y174.966 E9.83800
G1 X105.855 Y174.420 E9.85625
G1 X105.776 Y173.718 E9.87954
G1 X105.745 Y173.166 E9.89778
G1 X105.735 Y146.800 E10.76690
G1 X105.804 Y104.650 E12.15631
G1 X105.835 Y104.103 E12.17439
G1 X105.914 Y103.396 E12.19785
G1 X106.006 Y102.854 E12.21594
G1 X106.163 Y102.161 E12.23937
G1 X106.549 Y100.962 E12.28089
G1 X106.760 Y100.454 E12.29904
G1 X107.068 Y99.814 E12.32243
G1 X107.333 Y99.333 E12.34054
G1 X107.711 Y98.732 E12.36396
G1 X108.028 Y98.284 E12.38205
G1 X108.471 Y97.728 E12.40549
G1 X108.788 Y97.373 E12.42115
G1 X109.298 Y97.729 F9600.000
G1 X109.751 Y97.276 E12.44227 F1365.000
G1 X110.662 Y96.509 E12.48151
G1 X111.652 Y95.850 E12.52074
G1 X112.711 Y95.305 E12.55998
G1 X113.823 Y94.882 E12.59921
G1 X114.351 Y94.730 E12.61732
G1 X114.976 Y94.587 E12.63846
G1 X116.155 Y94.422 E12.67769
G1 X117.030 Y94.382 E12.70656
G1 X181.345 Y94.391 E14.82663
G1 X182.531 Y94.493 E14.86586 F1365.000
G1 X183.072 Y94.585 E14.88395
G1 X183.698 Y94.727 E14.90511
G1 X184.831 Y95.090 E14.94435
G1 X185.339 Y95.301 E14.96247
G1 X185.917 Y95.578 E14.98360
G1 X186.398 Y95.844 E15.00171
G1 X186.941 Y96.185 E15.02284
G1 X187.388 Y96.502 E15.04093
G1 X187.891 Y96.902 E15.06209
G1 X188.754 Y97.721 E15.10133
G1 X189.521 Y98.632 E15.14056
G1 X190.180 Y99.622 E15.17980
G1 X190.725 Y100.681 E15.21903
G1 X190.935 Y101.189 E15.23717
G1 X191.148 Y101.793 E15.25828
G1 X191.300 Y102.322 E15.27641
G1 X191.443 Y102.946 E15.29752
G1 X191.535 Y103.490 E15.31570
G1 X191.607 Y104.125 E15.33678
G1 X191.648 Y105.000 E15.36565
G1 X191.639 Y173.315 E17.61757
G1 X191.608 Y173.871 E17.63591
G1 X191.537 Y174.501 E17.65682
G1 X191.444 Y175.050 E17.67518
G1 X191.303 Y175.668 E17.69607
G1 X190.940 Y176.801 E17.73530
G1 X190.726 Y177.317 E17.75369
G1 X190.452 Y177.887 E17.77455
G1 X189.845 Y178.911 E17.81378
G1 X189.525 Y179.363 E17.83204
G1 X189.128 Y179.861 E17.85303
G1 X188.757 Y180.276 E17.87139
G1 X188.309 Y180.724 E17.89229
G1 X187.398 Y181.491 E17.93152
G1 X186.945 Y181.812 E17.94984
G1 X186.408 Y182.150 E17.97076
G1 X185.924 Y182.418 E17.98899
G1 X185.349 Y182.695 E18.01002
G1 X184.838 Y182.907 E18.02825
G1 X184.236 Y183.118 E18.04927
G1 X183.083 Y183.413 E18.08850
G1 X182.538 Y183.506 E18.10674
G1 X181.905 Y183.578 E18.12775
G1 X181.351 Y183.609 E18.14602
G1 X157.003 Y183.618 E18.94863
G1 X116.655 Y183.418 E20.27867
G1 X115.469 Y183.316 E20.31790
G1 X114.302 Y183.082 E20.35713
G1 X113.770 Y182.929 E20.37538
G1 X113.169 Y182.719 E20.39639
G1 X112.083 Y182.231 E20.43562
G1 X111.059 Y181.624 E20.47485
G1 X110.109 Y180.907 E20.51409
G1 X109.697 Y180.539 E20.53231
G1 X109.246 Y180.088 E20.55334
G1 X108.479 Y179.177 E20.59257
G1 X108.158 Y178.724 E20.61089
G1 X107.820 Y178.187 E20.63181
G1 X107.551 Y177.700 E20.65014
G1 X107.275 Y177.128 E20.67107
G1 X107.063 Y176.617 E20.68930
G1 X106.852 Y176.015 E20.71032
G1 X106.557 Y174.863 E20.74955
G1 X106.464 Y174.317 E20.76780
G1 X106.393 Y173.684 E20.78880
G1 X106.352 Y172.809 E20.81767
G1 X106.352 Y146.801 E21.67499
G1 X106.421 Y104.685 E23.06329
G1 X106.452 Y104.137 E23.08138
G1 X106.523 Y103.499 E23.10255
G1 X106.615 Y102.958 E23.12064
G1 X106.757 Y102.332 E23.14179
G1 X107.120 Y101.199 E23.18103
G1 X107.331 Y100.690 E23.19917
G1 X107.608 Y100.113 E23.22028
G1 X107.874 Y99.632 E23.23839
G1 X108.215 Y99.089 E23.25953
G1 X108.532 Y98.641 E23.27762
G1 X108.932 Y98.139 E23.29877
G1 X109.248 Y97.785 E23.31443
G1 F1500.000 E21.91443
G92 E0
G1 X182.571 Y114.185 F9600.000
G1 E1.40000 F1500.000
G1 X182.161 Y114.678 E1.42114 F2100.000
G1 X181.708 Y115.132 E1.44229
G1 X181.214 Y115.541 E1.46343
G1 X180.685 Y115.904 E1.48457
G1 X180.125 Y116.216 E1.50571
G1 X179.538 Y116.475 E1.52686
G1 X178.930 Y116.679 E1.54800
G1 X178.306 Y116.826 E1.56914
G1 X177.671 Y116.914 E1.59028
G1 X177.030 Y116.944 E1.61143
G1 X176.389 Y116.914 E1.63257
G1 X175.754 Y116.826 E1.65371
G1 X175.130 Y116.679 E1.67485
G1 X174.521 Y116.475 E1.69599
G1 X173.935 Y116.216 E1.71714
G1 X173.374 Y115.904 E1.73828
G1 X172.901 Y115.580 E1.75719
G1 X172.352 Y115.132 E1.78055
G1 X171.898 Y114.678 E1.80169
G1 X171.488 Y114.184 E1.82284
G1 X171.126 Y113.655 E1.84398
G1 X170.814 Y113.095 E1.86513
G1 X170.555 Y112.508 E1.88627
G1 X170.351 Y111.900 E1.90740
G1 X170.204 Y111.276 E1.92855
G1 X170.116 Y110.641 E1.94969
G1 X170.086 Y110.000 E1.97084
G1 X170.116 Y109.359 E1.99198
G1 X170.204 Y108.724 E2.01312
G1 X170.351 Y108.100 E2.03426
G1 X170.555 Y107.491 E2.05541
G1 X170.814 Y106.905 E2.07654
G1 X171.126 Y106.345 E2.09769
G1 X171.489 Y105.815 E2.11883
G1 X171.898 Y105.322 E2.13997
G1 X172.352 Y104.868 E2.16112
G1 X172.845 Y104.459 E2.18226
G1 X173.374 Y104.096 E2.20340
G1 X173.935 Y103.784 E2.22454
G1 X174.521 Y103.525 E2.24569
G1 X175.130 Y103.321 E2.26683
G1 X175.754 Y103.174 E2.28797
G1 X176.389 Y103.086 E2.30911
G1 X177.030 Y103.056 E2.33025
G1 X177.603 Y103.083 E2.34916
G1 X178.306 Y103.174 E2.37253 F2100.000
G1 X178.930 Y103.321 E2.39367
G1 X179.538 Y103.525 E2.41481
G1 X180.284 Y103.854 E2.44168
G1 X180.284 Y103.873 E2.44229
G1 X180.685 Y104.096 E2.45744
G1 X181.214 Y104.459 E2.47858
G1 X181.708 Y104.868 E2.49972
G1 X182.161 Y105.322 E2.52086
G1 X182.571 Y105.815 E2.54200
G1 X182.895 Y106.289 E2.56091
G1 X183.246 Y106.905 E2.58428
G1 X183.505 Y107.492 E2.60542
G1 X183.709 Y108.100 E2.62656
G1 X183.855 Y108.724 E2.64771
G1 X183.944 Y109.359 E2.66885
G1 X183.974 Y110.000 E2.68999
G1 X183.944 Y110.641 E2.71113
G1 X183.855 Y111.276 E2.73228
G1 X183.709 Y111.900 E2.75342
G1 X183.505 Y112.509 E2.77456
G1 X183.246 Y113.095 E2.79570
G1 X182.934 Y113.655 E2.81684
G1 X182.614 Y114.123 E2.83551
G1 X182.078 Y113.812 F9600.000
G1 X181.704 Y114.261 E2.85477 F1575.000
G1 X181.291 Y114.675 E2.87403
G1 X180.842 Y115.048 E2.89329
G1 X180.360 Y115.378 E2.91255
G1 X179.849 Y115.662 E2.93181
G1 X179.315 Y115.898 E2.95107
G1 X178.761 Y116.084 E2.97033
G1 X178.192 Y116.218 E2.98959
G1 X177.613 Y116.298 E3.00885
G1 X177.030 Y116.325 E3.02810
G1 X176.446 Y116.298 E3.04736
G1 X175.868 Y116.218 E3.06662
G1 X175.299 Y116.084 E3.08588
G1 X174.745 Y115.898 E3.10514
G1 X174.210 Y115.662 E3.12440
G1 X173.700 Y115.378 E3.14366
G1 X173.250 Y115.070 E3.16163
G1 X172.769 Y114.674 E3.18217
G1 X172.355 Y114.261 E3.20143
G1 X171.982 Y113.812 E3.22069
G1 X171.652 Y113.330 E3.23995
G1 X171.368 Y112.819 E3.25921
G1 X171.132 Y112.285 E3.27847
G1 X170.946 Y111.731 E3.29773
G1 X170.812 Y111.162 E3.31699
G1 X170.731 Y110.584 E3.33625
G1 X170.705 Y110.000 E3.35551
G1 X170.731 Y109.416 E3.37476
G1 X170.812 Y108.838 E3.39402
G1 X170.946 Y108.269 E3.41328
G1 X171.132 Y107.715 E3.43254
G1 X171.368 Y107.181 E3.45180
G1 X171.652 Y106.670 E3.47106
G1 X171.982 Y106.188 E3.49032
G1 X172.355 Y105.739 E3.50958
G1 X172.769 Y105.325 E3.52884
G1 X173.188 Y104.977 E3.54680
G1 X173.700 Y104.622 E3.56735
G1 X174.210 Y104.338 E3.58661
G1 X174.745 Y104.102 E3.60587
G1 X175.299 Y103.916 E3.62513
G1 X175.868 Y103.782 E3.64439
G1 X176.485 Y103.700 E3.66494
G1 X177.030 Y103.675 E3.68290 F1575.000
G1 X177.613 Y103.702 E3.70216
G1 X178.192 Y103.782 E3.72142
G1 X178.761 Y103.916 E3.74068
G1 X179.315 Y104.102 E3.75994
G1 X179.849 Y104.338 E3.77920
G1 X180.360 Y104.622 E3.79846
G1 X180.842 Y104.952 E3.81772
G1 X181.291 Y105.326 E3.83697
G1 X181.704 Y105.739 E3.85623
G1 X182.053 Y106.158 E3.87420
G1 X182.408 Y106.670 E3.89475
G1 X182.692 Y107.181 E3.91401
G1 X182.928 Y107.715 E3.93327
G1 X183.114 Y108.269 E3.95252
G1 X183.248 Y108.838 E3.97178
G1 X183.328 Y109.416 E3.99104
G1 X183.355 Y110.000 E4.01030
G1 X183.328 Y110.584 E4.02956
G1 X183.248 Y111.162 E4.04882
G1 X183.114 Y111.731 E4.06808
G1 X182.928 Y112.285 E4.08734
G1 X182.692 Y112.819 E4.10660
G1 X182.408 Y113.330 E4.12586
G1 X182.120 Y113.750 E4.14264
G1 F1500.000 E2.74264
G92 E0
G1 X176.379 Y103.211 F9600.000
G1 X167.855 Y111.276 F9600.000
G1 E1.40000 F1500.000
G1 X167.709 Y111.900 E1.42114 F2100.000
G1 X167.526 Y112.444 E1.44005
G1 X167.246 Y113.095 E1.46341
G1 X166.934 Y113.655 E1.48456
G1 X166.571 Y114.185 E1.50570
G1 X166.161 Y114.678 E1.52684
G1 X165.756 Y115.084 E1.54575
G1 X165.214 Y115.541 E1.56912
G1 X164.685 Y115.904 E1.59026
G1 X164.125 Y116.216 E1.61141
G1 X163.538 Y116.475 E1.63255
G1 X162.930 Y116.679 E1.65369
G1 X162.306 Y116.826 E1.67483
G1 X161.671 Y116.914 E1.69597
G1 X161.030 Y116.944 E1.71712
G1 X160.389 Y116.914 E1.73826
G1 X159.754 Y116.826 E1.75940
G1 X159.130 Y116.679 E1.78054
G1 X158.521 Y116.475 E1.80169
G1 X157.935 Y116.216 E1.82283
G1 X157.374 Y115.904 E1.84397
G1 X156.845 Y115.541 E1.86512
G1 X156.352 Y115.132 E1.88625
G1 X155.898 Y114.678 E1.90739
G1 X155.488 Y114.184 E1.92854
G1 X155.126 Y113.655 E1.94968
G1 X154.847 Y113.154 E1.96859
G1 X154.555 Y112.508 E1.99196
G1 X154.351 Y111.900 E2.01310
G1 X154.204 Y111.276 E2.03425
G1 X154.116 Y110.641 E2.05539
G1 X154.086 Y110.000 E2.07653
G1 X154.116 Y109.359 E2.09767
G1 X154.204 Y108.724 E2.11881
G1 X154.351 Y108.100 E2.13995
G1 X154.555 Y107.491 E2.16110
G1 X154.814 Y106.905 E2.18223
G1 X155.126 Y106.345 E2.20338
G1 X155.489 Y105.815 E2.22452
G1 X155.898 Y105.322 E2.24566
G1 X156.352 Y104.868 E2.26681
G1 X156.793 Y104.502 E2.28571
G1 X157.374 Y104.096 E2.30908
G1 X157.935 Y103.784 E2.33023
G1 X158.521 Y103.525 E2.35137
G1 X159.130 Y103.321 E2.37251
G1 X159.754 Y103.174 E2.39365
G1 X160.389 Y103.086 E2.41479
G1 X161.030 Y103.056 E2.43594
G1 X161.603 Y103.083 E2.45484
G1 X162.306 Y103.174 E2.47821 F2100.000
G1 X162.930 Y103.321 E2.49936
G1 X163.538 Y103.525 E2.52050
G1 X164.284 Y103.854 E2.54737
G1 X164.284 Y103.873 E2.54797
G1 X164.685 Y104.096 E2.56312
G1 X165.214 Y104.459 E2.58426
G1 X165.708 Y104.868 E2.60540
G1 X166.161 Y105.322 E2.62654
G1 X166.571 Y105.815 E2.64769
G1 X166.934 Y106.345 E2.66884
G1 X167.246 Y106.905 E2.68997
G1 X167.505 Y107.492 E2.71111
G1 X167.709 Y108.100 E2.73225
G1 X167.855 Y108.724 E2.75340
G1 X167.944 Y109.359 E2.77454
G1 X167.974 Y110.000 E2.79568
G1 X167.944 Y110.641 E2.81682
G1 X167.866 Y111.202 E2.83549
G1 X167.248 Y111.162 F9600.000
G1 X167.114 Y111.731 E2.85475 F1575.000
G1 X166.941 Y112.248 E2.87272
G1 X166.692 Y112.819 E2.89327
G1 X166.408 Y113.330 E2.91253
G1 X166.078 Y113.812 E2.93178
G1 X165.704 Y114.261 E2.95104
G1 X165.291 Y114.675 E2.97031
G1 X164.842 Y115.048 E2.98956
G1 X164.360 Y115.378 E3.00882
G1 X163.849 Y115.662 E3.02808
G1 X163.315 Y115.898 E3.04734
G1 X162.761 Y116.084 E3.06660
G1 X162.192 Y116.218 E3.08586
G1 X161.613 Y116.298 E3.10512
G1 X161.030 Y116.325 E3.12438
G1 X160.446 Y116.298 E3.14364
G1 X159.868 Y116.218 E3.16290
G1 X159.299 Y116.084 E3.18216
G1 X158.745 Y115.898 E3.20141
G1 X158.246 Y115.678 E3.21938
G1 X157.700 Y115.378 E3.23993
G1 X157.218 Y115.048 E3.25919
G1 X156.769 Y114.674 E3.27845
G1 X156.355 Y114.261 E3.29770
G1 X155.982 Y113.812 E3.31697
G1 X155.652 Y113.330 E3.33622
G1 X155.368 Y112.819 E3.35548
G1 X155.132 Y112.285 E3.37474
G1 X154.946 Y111.731 E3.39400
G1 X154.812 Y111.162 E3.41326
G1 X154.731 Y110.584 E3.43252
G1 X154.705 Y110.000 E3.45178
G1 X154.731 Y109.416 E3.47104
G1 X154.812 Y108.838 E3.49030
G1 X154.946 Y108.269 E3.50956
G1 X155.132 Y107.715 E3.52882
G1 X155.368 Y107.181 E3.54807
G1 X155.652 Y106.670 E3.56733
G1 X155.982 Y106.188 E3.58659
G1 X156.355 Y105.739 E3.60585
G1 X156.769 Y105.325 E3.62511
G1 X157.218 Y104.952 E3.64437
G1 X157.734 Y104.603 E3.66492
G1 X158.210 Y104.338 E3.68288
G1 X158.745 Y104.102 E3.70214
G1 X159.299 Y103.916 E3.72140
G1 X159.868 Y103.782 E3.74066
G1 X160.485 Y103.700 E3.76121
G1 X161.030 Y103.675 E3.77917 F1575.000
G1 X161.613 Y103.702 E3.79843
G1 X162.192 Y103.782 E3.81769
G1 X162.761 Y103.916 E3.83695
G1 X163.315 Y104.102 E3.85621
G1 X163.849 Y104.338 E3.87547
G1 X164.360 Y104.622 E3.89473
G1 X164.842 Y104.952 E3.91399
G1 X165.291 Y105.326 E3.93325
G1 X165.704 Y105.739 E3.95251
G1 X166.078 Y106.188 E3.97177
G1 X166.408 Y106.670 E3.99103
G1 X166.692 Y107.181 E4.01028
G1 X166.928 Y107.715 E4.02954
G1 X167.114 Y108.269 E4.04880
G1 X167.248 Y108.838 E4.06806
G1 X167.328 Y109.416 E4.08732
G1 X167.355 Y110.000 E4.10658
G1 X167.328 Y110.584 E4.12584
G1 X167.258 Y111.088 E4.14263
G1 F1500.000 E2.74263
G92 E0
G1 X160.342 Y103.221 F9600.000
G1 X168.553 Y123.038 F9600.000
G1 E1.40000 F1500.000
G1 X168.895 Y123.017 E1.41129 F2100.000
G1 X169.507 Y123.038 E1.43148
G1 X170.112 Y123.133 E1.45167 F2100.000
G1 X170.374 Y123.201 E1.46058
G1 X170.701 Y123.303 E1.47187
G1 X171.264 Y123.543 E1.49207
G1 X171.794 Y123.850 E1.51226
G1 X172.013 Y124.009 E1.52117
G1 X172.282 Y124.220 E1.53246
G1 X172.722 Y124.647 E1.55266
G1 X173.105 Y125.125 E1.57286
G1 X173.250 Y125.353 E1.58176
G1 X173.427 Y125.647 E1.59306
G1 X173.683 Y126.203 E1.61326
G1 X173.868 Y126.788 E1.63346
G1 X173.919 Y127.053 E1.64237
G1 X173.981 Y127.390 E1.65367
G1 X174.018 Y128.000 E1.67381
G1 X173.981 Y128.610 E1.69395
G1 X173.919 Y128.947 E1.70525
G1 X173.868 Y129.212 E1.71415
G1 X173.683 Y129.797 E1.73435
