;Generated by Cura LulzBot Edition GCodeWriter Version: 3.6.3
;FLAVOR:Marlin
;TIME:9595
;Filament used: 5.62132m
;Layer height: 0.2
;Generated with Cura_SteamEngine 3.6.3
M82 ;absolute extrusion mode
M221 S100
;This G-Code has been generated specifically for the LulzBot Mini 2 with SE 0.5mm Tool Head
M73 P0                  ; clear GLCD progress bar
M75 					; Start GLCD Print Timer
G26 					; clear potential 'probe fail' condition
M107 					; disable fans
M420 S0                 ; disable leveling matrix
G90 					; absolute positioning
M82 					; set extruder to absolute mode
G92 E0 					; set extruder position to 0
M140 S115 	; start bed heating up
G28                       ; Home Axis
G0 X160 F9999             ; Move toolhead to the right
G0 Z5 F6000               ; Move to bottom of printer
G91                       ; Set relative motion mode
M211 S0		  	  ; Turn off soft endstops
M400                      ; Finish moves
G0 Z-15 F500              ; Skip steppers against lower Z mounts
G90                       ; Return to absolute mode
M400                      ; Finish moves
M211 S1			  ; Turn soft endstops back on
M400                      ; Finish moves
G28                       ; Rehome
M117 X-Axis LeveledG0 X0 Y187 Z156 F200 			; move away from endstops
M117 Mini 2 Wiping...			; progress indicator message on LCD
M109 R170 	; soften filament before retraction
G1 E-15 F75 				; retract filament
M109 R170 	; wait for extruder to reach wiping temp
G1 X45 Y176 F11520 			; move above wiper pad
G1 Z0 F1200 				; push nozzle into wiper
G1 X45 Y178 Z-.5 F4000		; wiping
G1 X55 Y176 Z-.5 F4000		; wiping
G1 X45 Y177 Z0 F4000		; wiping
G1 X55 Y176 F4000		; wiping
G1 X45 Y178 F4000		; wiping
G1 X55 Y176 F4000		; wiping
G1 X45 Y178 F4000		; wiping
G1 X55 Y176 F4000		; wiping
G1 X60 Y178 F4000		; wiping
G1 X80 Y176 F4000		; wiping
G1 X60 Y178 F4000		; wiping
G1 X80 Y176 F4000		; wiping
G1 X60 Y178 F4000		; wiping
G1 X90 Y176 F4000		; wiping
G1 X80 Y178 F4000		; wiping
G1 X100 Y176 F4000		; wiping
G1 X80 Y178 F4000		; wiping
G1 X100 Y176 F4000		; wiping
G1 X80 Y178 F4000		; wiping
G1 X100 Y176 F4000		; wiping
G1 X110 Y178 F4000		; wiping
G1 X100 Y176 F4000		; wiping
G1 X110 Y178 F4000		; wiping
G1 X100 Y176 F4000		; wiping
G1 X110 Y178 F4000		; wiping
G1 X115 Y176 Z-0.5 F1000	; wiping
G1 Z10					; raise extruder
G28 X0 Y0				; home X and Y
M109 R170	; wait for extruder to reach probe temp
M204 S300				; set probing acceleration
G29					; start auto-leveling sequence
M420 S1                     ; enable leveling matrix
M425 Z			     		; use measured Z backlash for compensation
M425 Z F0		     		; turn off measured Z backlash compensation. (if activated in the quality settings, this command will automatically be ignored)
M204 S2000				; restore standard acceleration
G1 X5 Y15 Z10 F5000			; move up off last probe point
G4 S1					; pause
M400					; wait for moves to finish
M117 Heating...				; progress indicator message on LCD
M109 R250	; wait for extruder to reach initial printing temp
M190 S116 ; wait for bed to reach printing temp
G1 Z2 E0 F75				; prime tiny bit of filment into the nozzle
M117 Mini 2 Printing...		; progress indicator message on LCD
M83 ;relative extrusion mode
G1 F600 E-1
;LAYER_COUNT:67
;LAYER:0
M425 F1.0
M107
M204 S1000
M205 X10 Y10
G0 F2625 X103.45 Y91.305 Z0.4
;TYPE:SKIRT
G1 F600 E1
G1 F900 X52.537 Y150.668 E3.06477
G1 X52.173 Y151.031 E0.02015
G1 X51.757 Y151.334 E0.02017
G1 X51.485 Y151.483 E0.01215
G1 X35.365 Y159.42 E0.70414
G1 X34.888 Y159.611 E0.02014
G1 X34.386 Y159.725 E0.02017
G1 X33.873 Y159.761 E0.02015
G1 X33.36 Y159.716 E0.02018
G1 X32.861 Y159.593 E0.02014
G1 X32.387 Y159.394 E0.02015
G1 X31.949 Y159.124 E0.02016
G1 X31.744 Y158.962 E0.01024
G1 X6.915 Y137.646 E1.2824
G1 X6.432 Y137.132 E0.02764
G1 X5.992 Y136.551 E0.02856
G1 X5.714 Y136.118 E0.02016
G1 X5.507 Y135.647 E0.02016
G1 X5.412 Y135.326 E0.01312
G1 X5.221 Y134.532 E0.032
G1 X5.14 Y134.024 E0.02016
G1 X5.147 Y133.411 E0.02402
G1 X5.857 Y126.657 E0.26614
G1 X6.103 Y121.194 E0.2143
G1 X6.039 Y115.71 E0.21493
G1 X5.755 Y110.708 E0.19634
G1 X5.766 Y110.193 E0.02019
G1 X5.856 Y109.687 E0.02014
G1 X6.024 Y109.201 E0.02015
G1 X6.265 Y108.746 E0.02018
G1 X6.546 Y108.365 E0.01855
G1 X12.831 Y101.025 E0.37869
G1 X13.195 Y100.662 E0.02015
G1 X13.611 Y100.359 E0.02017
G1 X14.182 Y100.079 E0.02492
G1 X22.421 Y96.982 E0.34493
G1 X27.396 Y94.735 E0.21393
G1 X32.253 Y92.203 E0.21465
G1 X36.941 Y89.41 E0.21385
G1 X41.488 Y86.34 E0.215
G1 X45.825 Y83.042 E0.21352
G1 X49.99 Y79.483 E0.21469
G1 X53.949 Y75.693 E0.21478
G1 X55.823 Y73.744 E0.10596
G1 X58.55 Y70.695 E0.1603
G1 X109.463 Y11.332 E3.06477
G1 X109.827 Y10.969 E0.02015
G1 X110.243 Y10.666 E0.02017
G1 X110.515 Y10.517 E0.01215
G1 X126.635 Y2.58 E0.70414
G1 X127.112 Y2.389 E0.02014
G1 X127.614 Y2.275 E0.02017
G1 X128.127 Y2.239 E0.02015
G1 X128.64 Y2.284 E0.02018
G1 X129.139 Y2.407 E0.02014
G1 X129.613 Y2.606 E0.02015
G1 X130.051 Y2.876 E0.02016
G1 X130.256 Y3.038 E0.01024
G1 X155.084 Y24.353 E1.28235
G1 X155.567 Y24.866 E0.02761
G1 X156.008 Y25.448 E0.02862
G1 X156.285 Y25.881 E0.02014
G1 X156.493 Y26.352 E0.02018
G1 X156.588 Y26.674 E0.01316
G1 X156.779 Y27.468 E0.032
G1 X156.86 Y27.976 E0.02016
G1 X156.853 Y28.589 E0.02402
G1 X156.143 Y35.343 E0.26614
G1 X155.897 Y40.806 E0.2143
G1 X155.961 Y46.29 E0.21493
G1 X156.245 Y51.292 E0.19634
G1 X156.234 Y51.807 E0.02019
G1 X156.144 Y52.313 E0.02014
G1 X155.976 Y52.799 E0.02015
G1 X155.735 Y53.254 E0.02018
G1 X155.454 Y53.635 E0.01855
G1 X149.169 Y60.975 E0.37869
G1 X148.805 Y61.338 E0.02015
G1 X148.389 Y61.641 E0.02017
G1 X147.818 Y61.921 E0.02492
G1 X139.579 Y65.018 E0.34493
G1 X134.604 Y67.265 E0.21393
G1 X129.752 Y69.794 E0.21442
G1 X125.059 Y72.59 E0.21408
G1 X120.512 Y75.66 E0.215
G1 X116.175 Y78.958 E0.21352
G1 X112.01 Y82.517 E0.21469
G1 X108.051 Y86.307 E0.21478
G1 X106.177 Y88.256 E0.10596
G1 X103.45 Y91.305 E0.1603
G1 F600 E-1
;MESH:
G0 F2625 X100.21 Y88.524
G0 X83.736 Y95.085
G0 X79.246 Y92.022
;TYPE:WALL-INNER
G1 F600 E1
G1 F900 X83.801 Y95.927 E0.23512
G1 X131.933 Y39.796 E2.89768
G1 X132.136 Y39.56 E0.0122
G1 X131.9 Y39.357 E0.00788
G1 X125.776 Y34.109 E0.31606
G1 X125.748 Y34.085 E0.00145
G1 X125.661 Y33.987 E0.00514
G1 X125.629 Y33.935 E0.00239
G1 X125.607 Y33.879 E0.00236
G1 X125.596 Y33.826 E0.00212
G1 X125.6 Y33.762 E0.00251
G1 X125.63 Y33.668 E0.00387
G1 X125.717 Y33.536 E0.0062
G1 X125.741 Y33.508 E0.00145
G1 X139.286 Y17.711 E0.81547
G1 X139.347 Y17.653 E0.0033
G1 X139.449 Y17.587 E0.00476
G1 X139.543 Y17.564 E0.00379
G1 X139.617 Y17.568 E0.0029
G1 X139.696 Y17.595 E0.00327
G1 X139.833 Y17.684 E0.0064
G1 X151.829 Y27.969 E0.61924
G1 X151.855 Y27.991 E0.00133
G1 X151.945 Y28.092 E0.0053
G1 X151.998 Y28.196 E0.00457
G1 X152.01 Y28.254 E0.00232
G1 X152.007 Y28.316 E0.00243
G1 X151.976 Y28.409 E0.00384
G1 X151.886 Y28.546 E0.00642
G1 X151.864 Y28.572 E0.00133
G1 X139.671 Y42.792 E0.73407
G1 X139.451 Y43.049 E0.01326
G1 X139.725 Y43.247 E0.00838
G1 X150.722 Y51.191 E0.53164
G1 X150.996 Y51.389 E0.01325
G1 X150.776 Y51.646 E0.00838
G1 X145.751 Y57.507 E0.30255
G1 X117.451 Y67.487 E1.17598
G1 X49.037 Y147.275 E4.11884
G1 X34.131 Y154.606 E0.65097
G1 X27.922 Y149.284 E0.32047
G1 X27.686 Y149.081 E0.0122
G1 X27.889 Y148.845 E0.00788
G1 X28.909 Y147.656 E0.06139
G1 X34.983 Y152.862 E0.3135
G1 X82.376 Y97.588 E2.85333
G1 X82.579 Y97.352 E0.0122
G1 X82.343 Y97.149 E0.00788
G1 X78.26 Y93.65 E0.21072
G1 X78.024 Y93.447 E0.0122
G1 X78.227 Y93.211 E0.00788
G1 X79.246 Y92.022 E0.06137
G0 F2625 X83.736 Y95.085
G0 X131.294 Y39.625
G0 X135.588 Y31.979
G1 F900 X135.869 Y32.273 E0.01594
G1 X136.18 Y32.562 E0.01664
G1 X136.514 Y32.826 E0.01668
G1 X136.847 Y33.058 E0.0159
G1 X137.27 Y33.312 E0.01934
G1 X137.487 Y33.424 E0.00957
G1 X137.92 Y33.62 E0.01863
G1 X138.145 Y33.706 E0.00944
G1 X138.62 Y33.862 E0.01959
G1 X139.32 Y34.015 E0.02808
G1 X140.036 Y34.087 E0.0282
G1 X140.747 Y34.08 E0.02786
G1 X141.248 Y34.022 E0.01976
G1 X141.486 Y33.984 E0.00945
G1 X141.954 Y33.879 E0.0188
G1 X142.19 Y33.811 E0.00962
G1 X142.643 Y33.654 E0.01879
G1 X142.869 Y33.559 E0.00961
G1 X143.299 Y33.351 E0.01872
G1 X143.513 Y33.231 E0.00961
G1 X143.912 Y32.981 E0.01845
G1 X144.11 Y32.839 E0.00955
G1 X144.487 Y32.538 E0.01891
G1 X144.666 Y32.375 E0.00949
G1 X145.001 Y32.04 E0.01857
G1 X145.163 Y31.855 E0.00964
G1 X145.476 Y31.46 E0.01975
G1 X145.855 Y30.872 E0.02741
G1 X146.081 Y30.427 E0.01956
G1 X146.183 Y30.203 E0.00965
G1 X146.352 Y29.753 E0.01884
G1 X146.425 Y29.521 E0.00953
G1 X146.542 Y29.058 E0.01871
G1 X146.589 Y28.819 E0.00955
G1 X146.653 Y28.348 E0.01863
G1 X146.673 Y28.102 E0.00967
G1 X146.681 Y27.617 E0.01901
G1 X146.671 Y27.371 E0.00965
G1 X146.613 Y26.793 E0.02276
G1 X146.519 Y26.303 E0.01955
G1 X146.46 Y26.066 E0.00957
G1 X146.316 Y25.606 E0.01889
G1 X146.231 Y25.38 E0.00946
G1 X146.036 Y24.937 E0.01897
G1 X145.922 Y24.72 E0.00961
G1 X145.684 Y24.31 E0.01858
G1 X145.546 Y24.108 E0.00959
G1 X145.263 Y23.728 E0.01857
G1 X145.106 Y23.542 E0.00954
G1 X144.758 Y23.173 E0.01988
G1 X144.245 Y22.726 E0.02666
G1 X144.039 Y22.573 E0.01006
G1 X143.642 Y22.308 E0.01871
G1 X143.433 Y22.187 E0.00946
G1 X142.986 Y21.954 E0.01975
G1 X142.327 Y21.695 E0.02775
G1 X141.852 Y21.561 E0.01934
G1 X141.617 Y21.505 E0.00947
G1 X141.144 Y21.426 E0.01879
G1 X140.901 Y21.398 E0.00959
G1 X140.419 Y21.373 E0.01891
G1 X140.177 Y21.374 E0.00948
G1 X139.699 Y21.402 E0.01876
G1 X139.457 Y21.431 E0.00955
G1 X138.96 Y21.517 E0.01977
G1 X138.273 Y21.708 E0.02794
G1 X137.608 Y21.978 E0.02813
G1 X136.995 Y22.311 E0.02734
G1 X136.782 Y22.451 E0.00999
G1 X136.375 Y22.743 E0.01963
G1 X135.853 Y23.206 E0.02734
G1 X135.51 Y23.575 E0.01974
G1 X135.352 Y23.764 E0.00965
G1 X135.07 Y24.147 E0.01864
G1 X134.936 Y24.351 E0.00956
G1 X134.697 Y24.763 E0.01867
G1 X134.585 Y24.986 E0.00978
G1 X134.395 Y25.425 E0.01875
G1 X134.312 Y25.653 E0.00951
G1 X134.173 Y26.108 E0.01864
G1 X134.115 Y26.346 E0.0096
G1 X134.029 Y26.813 E0.01861
G1 X133.999 Y27.053 E0.00948
G1 X133.962 Y27.561 E0.01996
G1 X133.982 Y28.272 E0.02787
G1 X134.084 Y28.984 E0.02819
G1 X134.266 Y29.682 E0.02827
G1 X134.522 Y30.344 E0.02782
G1 X134.748 Y30.79 E0.01959
G1 X134.867 Y31.002 E0.00953
G1 X135.132 Y31.407 E0.01897
G1 X135.277 Y31.603 E0.00955
G1 X135.588 Y31.979 E0.01912
G0 F2625 X131.294 Y39.625
G0 X83.736 Y95.085
G0 X79.186 Y91.24
G0 X79.179 Y91.141
G1 F900 X83.733 Y95.046 E0.23509
G1 X131.052 Y39.864 E2.84871
G1 X131.255 Y39.628 E0.0122
G1 X131.019 Y39.425 E0.00788
G1 X125.311 Y34.534 E0.29458
G1 X125.157 Y34.362 E0.00905
G1 X125.067 Y34.214 E0.00679
G1 X125.007 Y34.063 E0.00637
G1 X124.976 Y33.912 E0.00604
G1 X124.97 Y33.835 E0.00303
G1 X124.978 Y33.681 E0.00604
G1 X124.993 Y33.607 E0.00296
G1 X125.052 Y33.426 E0.00746
G1 X125.08 Y33.367 E0.00256
G1 X125.213 Y33.164 E0.00951
G1 X138.836 Y17.276 E0.82017
G1 X138.941 Y17.176 E0.00568
G1 X139.072 Y17.079 E0.00639
G1 X139.217 Y17.004 E0.0064
G1 X139.38 Y16.955 E0.00667
G1 X139.523 Y16.937 E0.00565
G1 X139.714 Y16.948 E0.0075
G1 X139.868 Y16.988 E0.00624
G1 X139.999 Y17.046 E0.00561
G1 X140.206 Y17.181 E0.00968
G1 X152.295 Y27.546 E0.62404
G1 X152.447 Y27.715 E0.00891
G1 X152.544 Y27.875 E0.00733
G1 X152.599 Y28.017 E0.00597
G1 X152.63 Y28.168 E0.00604
G1 X152.636 Y28.245 E0.00303
G1 X152.628 Y28.399 E0.00604
G1 X152.613 Y28.473 E0.00296
G1 X152.554 Y28.653 E0.00742
G1 X152.529 Y28.705 E0.00226
G1 X152.388 Y28.921 E0.01011
G1 X140.588 Y42.683 E0.71042
G1 X140.368 Y42.94 E0.01326
G1 X140.642 Y43.138 E0.00838
G1 X151.588 Y51.045 E0.52917
G1 X151.802 Y51.2 E0.01036
G1 X151.907 Y51.287 E0.00534
G1 X151.735 Y51.488 E0.00739
G1 X146.118 Y58.04 E0.3382
G1 X117.817 Y68.021 E1.17603
G1 X49.427 Y147.78 E4.11736
G1 X34.037 Y155.349 E0.67211
G1 X27.041 Y149.352 E0.36111
G1 X26.805 Y149.149 E0.0122
G1 X27.008 Y148.913 E0.00788
G1 X28.842 Y146.775 E0.11039
G1 X34.915 Y151.981 E0.31347
G1 X81.495 Y97.656 E2.80436
G1 X81.698 Y97.42 E0.0122
G1 X81.462 Y97.217 E0.00788
G1 X77.378 Y93.718 E0.21075
G1 X77.142 Y93.515 E0.0122
G1 X77.345 Y93.279 E0.00788
G1 X79.179 Y91.141 E0.11039
G0 F2625 X79.186 Y91.24
G0 X83.736 Y95.085
G0 X131.294 Y39.625
G0 X135.981 Y31.629
G0 X136.055 Y31.563
G1 F900 X136.308 Y31.828 E0.01436
G1 X136.587 Y32.087 E0.01492
G1 X136.887 Y32.324 E0.01498
G1 X137.187 Y32.533 E0.01433
G1 X137.574 Y32.766 E0.0177
G1 X137.759 Y32.861 E0.00815
G1 X138.161 Y33.043 E0.01729
G1 X138.354 Y33.117 E0.0081
G1 X138.785 Y33.258 E0.01777
G1 X139.419 Y33.397 E0.02544
G1 X140.064 Y33.462 E0.0254
G1 X140.708 Y33.455 E0.02524
G1 X141.163 Y33.403 E0.01795
G1 X141.368 Y33.37 E0.00814
G1 X141.799 Y33.273 E0.01731
G1 X142.001 Y33.215 E0.00824
G1 X142.419 Y33.07 E0.01734
G1 X142.612 Y32.989 E0.0082
G1 X143.01 Y32.797 E0.01732
G1 X143.193 Y32.694 E0.00823
G1 X143.564 Y32.461 E0.01717
G1 X143.734 Y32.34 E0.00818
G1 X144.081 Y32.063 E0.0174
G1 X144.234 Y31.923 E0.00813
G1 X144.545 Y31.612 E0.01724
G1 X144.683 Y31.455 E0.00819
G1 X144.967 Y31.096 E0.01794
G1 X145.312 Y30.56 E0.02498
G1 X145.518 Y30.155 E0.01781
G1 X145.606 Y29.963 E0.00828
G1 X145.761 Y29.549 E0.01732
G1 X145.824 Y29.35 E0.00818
G1 X145.932 Y28.922 E0.0173
G1 X145.972 Y28.717 E0.00819
G1 X146.031 Y28.281 E0.01724
G1 X146.048 Y28.071 E0.00826
G1 X146.056 Y27.625 E0.01748
G1 X146.047 Y27.415 E0.00824
G1 X145.994 Y26.883 E0.02095
G1 X145.908 Y26.437 E0.0178
G1 X145.858 Y26.234 E0.00819
G1 X145.725 Y25.81 E0.01741
G1 X145.652 Y25.616 E0.00812
G1 X145.473 Y25.209 E0.01742
G1 X145.375 Y25.023 E0.00824
G1 X145.154 Y24.643 E0.01723
G1 X145.037 Y24.47 E0.00818
G1 X144.773 Y24.117 E0.01727
G1 X144.639 Y23.958 E0.00815
G1 X144.324 Y23.624 E0.01799
G1 X143.853 Y23.213 E0.0245
G1 X143.679 Y23.084 E0.00849
G1 X143.312 Y22.839 E0.01729
G1 X143.132 Y22.735 E0.00815
G1 X142.727 Y22.524 E0.0179
G1 X142.127 Y22.288 E0.02527
G1 X141.695 Y22.166 E0.01759
G1 X141.493 Y22.118 E0.00814
G1 X141.057 Y22.045 E0.01732
G1 X140.849 Y22.021 E0.00821
G1 X140.404 Y21.998 E0.01746
G1 X140.197 Y21.999 E0.00811
G1 X139.755 Y22.025 E0.01735
G1 X139.548 Y22.05 E0.00817
G1 X139.097 Y22.128 E0.01794
G1 X138.475 Y22.301 E0.0253
G1 X137.875 Y22.544 E0.02537
G1 X137.316 Y22.848 E0.02494
G1 X137.136 Y22.966 E0.00843
G1 X136.766 Y23.232 E0.01786
G1 X136.29 Y23.654 E0.02493
G1 X135.979 Y23.988 E0.01788
G1 X135.844 Y24.15 E0.00826
G1 X135.583 Y24.504 E0.01724
G1 X135.468 Y24.679 E0.00821
G1 X135.247 Y25.061 E0.01729
G1 X135.151 Y25.251 E0.00834
G1 X134.976 Y25.656 E0.01729
G1 X134.905 Y25.851 E0.00813
G1 X134.776 Y26.273 E0.01729
G1 X134.727 Y26.476 E0.00818
G1 X134.647 Y26.909 E0.01726
G1 X134.621 Y27.115 E0.00814
G1 X134.588 Y27.575 E0.01807
G1 X134.606 Y28.219 E0.02525
G1 X134.698 Y28.86 E0.02538
G1 X134.862 Y29.49 E0.02551
G1 X135.094 Y30.09 E0.02521
G1 X135.299 Y30.496 E0.01782
G1 X135.401 Y30.677 E0.00814
G1 X135.645 Y31.05 E0.01747
G1 X135.769 Y31.218 E0.00818
G1 X136.055 Y31.563 E0.01756
G0 F2625 X135.981 Y31.629
G0 X131.294 Y39.625
G0 X83.736 Y95.085
G0 X79.186 Y91.24
G0 X79.112 Y90.261
;TYPE:WALL-OUTER
G1 F900 X83.666 Y94.166 E0.23509
G1 X130.172 Y39.932 E2.79976
G1 X130.375 Y39.696 E0.0122
G1 X130.139 Y39.493 E0.00788
G1 X124.881 Y34.987 E0.27137
G1 X124.736 Y34.833 E0.00829
G1 X124.653 Y34.732 E0.00512
G1 X124.578 Y34.619 E0.00531
G1 X124.506 Y34.49 E0.00579
G1 X124.455 Y34.376 E0.00489
G1 X124.408 Y34.242 E0.00556
G1 X124.377 Y34.117 E0.00505
G1 X124.356 Y33.985 E0.00524
G1 X124.346 Y33.849 E0.00534
G1 X124.348 Y33.709 E0.00549
G1 X124.362 Y33.58 E0.00509
G1 X124.387 Y33.45 E0.00519
G1 X124.472 Y33.191 E0.01068
G1 X124.533 Y33.065 E0.00549
G1 X124.716 Y32.785 E0.01311
G1 X138.382 Y16.847 E0.82276
G1 X138.533 Y16.704 E0.00815
G1 X138.639 Y16.618 E0.00535
G1 X138.747 Y16.545 E0.00511
G1 X138.876 Y16.473 E0.00579
G1 X138.988 Y16.423 E0.00481
G1 X139.13 Y16.375 E0.00587
G1 X139.249 Y16.344 E0.00482
G1 X139.388 Y16.322 E0.00552
G1 X139.517 Y16.312 E0.00507
G1 X139.789 Y16.327 E0.01068
G1 X139.917 Y16.352 E0.00511
G1 X140.059 Y16.393 E0.00579
G1 X140.172 Y16.436 E0.00474
G1 X140.303 Y16.5 E0.00571
G1 X140.583 Y16.682 E0.01309
G1 X152.725 Y27.093 E0.62679
