; generated by Slic3r 1.1.7 on 2015-06-23 at 17:38:51

; perimeters extrusion width = 0.50mm
; infill extrusion width = 0.60mm
; solid infill extrusion width = 0.60mm
; top infill extrusion width = 0.43mm

G21 ; set units to millimeters
G21                                      ; metric values
G90                                      ; absolute positioning
M82                                      ; set extruder to absolute mode
M107                                    ; start with the fan off
G92 E0                                 ; set extruder position to 0
M140 S110                           ; get bed heating up
G28                                      ; home all
M109 S150                           ; set to cleaning temp and wait
G1 Z150 E-30 F75                ; suck up XXmm of filament
M109 S170                           ; heat up rest of way
G1 X45 Y174 F11520           ; move behind scraper
G1 Z0  F1200                       ; CRITICAL: set Z to height of top of scraper
G1 X45 Y174 Z-.5 F4000      ; wiping ; plunge into wipe pad
G1 X55 Y172 Z-.5 F4000      ; wiping
G1 X45 Y174 Z0 F4000        ; wiping
G1 X55 Y172 F4000             ; wiping
G1 X45 Y174 F4000             ; wiping
G1 X55 Y172 F4000             ; wiping
G1 X45 Y174 F4000             ; wiping
G1 X55 Y172 F4000             ; wiping
G1 X60 Y174 F4000             ; wiping
G1 X80 Y172 F4000             ; wiping
G1 X60 Y174 F4000             ; wiping
G1 X80 Y172 F4000             ; wiping
G1 X60 Y174 F4000             ; wiping
G1 X90 Y172 F4000             ; wiping
G1 X80 Y174 F4000             ; wiping
G1 X100 Y172 F4000           ; wiping
G1 X80 Y174 F4000             ; wiping
G1 X100 Y172 F4000           ; wiping
G1 X80 Y174 F4000             ; wiping
G1 X100 Y172 F4000           ; wiping
G1 X110 Y174 F4000           ; wiping
G1 X100 Y172 F4000           ; wiping
G1 X110 Y174 F4000           ; wiping
G1 X100 Y172 F4000           ; wiping
G1 X110 Y174 F4000           ; wiping
G1 X115 Y172 Z-0.5 F1000  ; wipe slower and bury noz in cleanish area
G1 Z10                                 ; raise z
G28 X0 Y0                            ; home x and y
M109 S170                           ; set to probing temp
M204 S300                           ; set accel for probing
G29                                      ; Probe
M204 S2000                         ; set accel back to normal
G1 X5 Y15 Z10 F5000          ; get out the way
M400                                    ; clear buffer
G4 S1                                   ; pause
M109 S250                           ; set extruder temp and wait
G4 S25                                 ; wait for bed to temp up
G1 Z2 E0 F75                       ; extrude filament back into nozzle
M140 S110                           ; get bed temping up during first layer
G90 ; use absolute coordinates
G92 E0
M82 ; use absolute distances for extrusion
M204 S2000
G1 F600.000 E-1.00000
G92 E0
G1 Z0.350 F9600.000
G1 X28.144 Y35.224 F9600.000
G1 E1.00000 F600.000
G1 X29.540 Y34.109 E1.05889 F1500.000
G1 X32.501 Y33.361 E1.15956
G1 X121.455 Y33.361 E4.09184
G1 X123.644 Y33.758 E4.16517
G1 X125.555 Y34.898 E4.23849 F1500.000
G1 X126.943 Y36.635 E4.31182
G1 X127.691 Y39.596 E4.41250
G1 X127.691 Y105.766 E6.59369
G1 X127.294 Y107.955 E6.66702
G1 X125.458 Y110.547 E6.77173
G1 X113.888 Y120.226 E7.26900
G1 X113.461 Y120.552 E7.28669
G1 X112.540 Y121.161 E7.32307
G1 X112.068 Y121.425 E7.34092
G1 X111.572 Y121.678 E7.35927
G1 X111.159 Y121.862 E7.37418
G1 X110.552 Y122.105 E7.39574
G1 X110.171 Y122.235 E7.40901
G1 X109.503 Y122.434 E7.43197
G1 X108.431 Y122.663 E7.46812
G1 X107.337 Y122.793 E7.50443
G1 X106.400 Y122.821 E7.53534
G1 X47.438 Y122.819 E9.47893
G1 X46.381 Y122.766 E9.51382
G1 X45.336 Y122.620 E9.54861
G1 X44.306 Y122.380 E9.58346
G1 X43.301 Y122.048 E9.61837
G1 X42.333 Y121.630 E9.65310
G1 X41.407 Y121.128 E9.68784
G1 X40.526 Y120.542 E9.72272
G1 X39.128 Y119.467 E9.78086
G1 X28.498 Y110.567 E10.23786
G1 X27.075 Y108.857 E10.31119
G1 X26.265 Y105.786 E10.41590
G1 X26.265 Y39.596 E12.59774
G1 X26.662 Y37.408 E12.67107
G1 X27.802 Y35.497 E12.74440
G1 X28.086 Y35.271 E12.75636
G1 X28.483 Y35.693 F9600.000
G1 X30.123 Y34.507 E12.82309 F1500.000
G1 X32.501 Y33.979 E12.90337
G1 X121.455 Y33.979 E15.83565
G1 X123.528 Y34.375 E15.90522
G1 X125.309 Y35.508 E15.97479 F1500.000
G1 X126.545 Y37.219 E16.04436
G1 X127.073 Y39.596 E16.12464
G1 X127.073 Y105.766 E18.30584
G1 X126.677 Y107.839 E18.37541
G1 X125.062 Y110.073 E18.46629
G1 X113.513 Y119.735 E18.96265
G1 X113.088 Y120.060 E18.98028
G1 X112.216 Y120.635 E19.01469
G1 X111.786 Y120.875 E19.03093
G1 X110.928 Y121.289 E19.06236
G1 X110.335 Y121.527 E19.08340
G1 X109.991 Y121.644 E19.09537
G1 X109.343 Y121.837 E19.11768
G1 X108.328 Y122.054 E19.15188
G1 X107.293 Y122.176 E19.18622
G1 X106.400 Y122.203 E19.21570
G1 X47.454 Y122.202 E21.15876
G1 X46.453 Y122.153 E21.19182
G1 X45.462 Y122.015 E21.22479
G1 X44.486 Y121.788 E21.25782
G1 X43.532 Y121.475 E21.29091
G1 X42.615 Y121.080 E21.32382
G1 X41.737 Y120.605 E21.35675
G1 X40.901 Y120.051 E21.38980
G1 X39.525 Y118.993 E21.44703
G1 X28.895 Y110.093 E21.90403
G1 X27.560 Y108.458 E21.97360
G1 X26.883 Y105.786 E22.06448
G1 X26.883 Y39.596 E24.24633
G1 X27.280 Y37.524 E24.31590
G1 X28.422 Y35.736 E24.38582
G1 F600.000 E23.38582
G92 E0
G1 X113.783 Y61.881 F9600.000
G1 E1.00000 F600.000
G1 X113.199 Y62.027 E1.01987 F1500.000
G1 X112.602 Y62.115 E1.03974
G1 X112.000 Y62.145 E1.05962
G1 X111.398 Y62.115 E1.07949
G1 X110.801 Y62.027 E1.09937
G1 X110.216 Y61.880 E1.11925
G1 X109.649 Y61.677 E1.13912
G1 X109.104 Y61.419 E1.15900
G1 X108.587 Y61.110 E1.17887
G1 X108.102 Y60.750 E1.19875
G1 X107.656 Y60.345 E1.21862
G1 X107.251 Y59.899 E1.23849
G1 X106.891 Y59.414 E1.25837
G1 X106.582 Y58.897 E1.27824
G1 X106.324 Y58.352 E1.29812
G1 X106.121 Y57.785 E1.31799
G1 X105.974 Y57.200 E1.33787
G1 X105.886 Y56.603 E1.35775
G1 X105.856 Y56.001 E1.37762
G1 X105.886 Y55.399 E1.39750
G1 X105.974 Y54.802 E1.41737
G1 X106.121 Y54.218 E1.43725
G1 X106.324 Y53.650 E1.45712
G1 X106.581 Y53.105 E1.47699
G1 X106.892 Y52.588 E1.49687
G1 X107.251 Y52.103 E1.51675
G1 X107.656 Y51.657 E1.53662
G1 X108.118 Y51.238 E1.55718
G1 X108.594 Y50.888 E1.57667
G1 X109.090 Y50.591 E1.59571
G1 X109.673 Y50.316 E1.61696
G1 X110.207 Y50.125 E1.63566
G1 X110.779 Y49.981 E1.65510
G1 X111.372 Y49.890 E1.67490
G1 X112.038 Y49.859 E1.69685
G1 X112.584 Y49.886 E1.71486 F1500.000
G1 X113.182 Y49.973 E1.73479
G1 X113.761 Y50.116 E1.75447
G1 X114.316 Y50.312 E1.77385
G1 X114.909 Y50.590 E1.79547
G1 X115.406 Y50.888 E1.81455
G1 X115.882 Y51.238 E1.83404
G1 X116.344 Y51.657 E1.85459
G1 X116.749 Y52.103 E1.87446
G1 X117.108 Y52.588 E1.89434
G1 X117.418 Y53.105 E1.91422
G1 X117.676 Y53.650 E1.93409
G1 X117.879 Y54.217 E1.95396
G1 X118.026 Y54.802 E1.97384
G1 X118.114 Y55.399 E1.99372
G1 X118.144 Y56.001 E2.01359
G1 X118.114 Y56.603 E2.03347
G1 X118.026 Y57.200 E2.05334
G1 X117.879 Y57.785 E2.07322
G1 X117.676 Y58.352 E2.09309
G1 X117.418 Y58.897 E2.11297
G1 X117.108 Y59.415 E2.13285
G1 X116.749 Y59.899 E2.15272
G1 X116.344 Y60.345 E2.17259
G1 X115.898 Y60.750 E2.19247
G1 X115.414 Y61.109 E2.21234
G1 X114.896 Y61.420 E2.23222
G1 X114.351 Y61.677 E2.25210
G1 X113.854 Y61.855 E2.26951
G1 X113.604 Y61.289 F9600.000
G1 X113.078 Y61.420 E2.28738 F1500.000
G1 X112.542 Y61.500 E2.30525
G1 X112.000 Y61.526 E2.32313
G1 X111.458 Y61.500 E2.34100
G1 X110.922 Y61.420 E2.35887
G1 X110.396 Y61.289 E2.37675
G1 X109.886 Y61.106 E2.39462
G1 X109.395 Y60.874 E2.41250
G1 X108.930 Y60.595 E2.43037
G1 X108.495 Y60.272 E2.44824
G1 X108.093 Y59.908 E2.46612
G1 X107.729 Y59.506 E2.48399
G1 X107.406 Y59.071 E2.50187
G1 X107.127 Y58.606 E2.51974
G1 X106.895 Y58.116 E2.53762
G1 X106.713 Y57.605 E2.55549
G1 X106.581 Y57.079 E2.57336
G1 X106.501 Y56.543 E2.59124
G1 X106.475 Y56.001 E2.60911
G1 X106.501 Y55.459 E2.62699
G1 X106.586 Y54.903 E2.64555
G1 X106.713 Y54.397 E2.66273
G1 X106.895 Y53.887 E2.68061
G1 X107.127 Y53.396 E2.69848
G1 X107.406 Y52.931 E2.71635
G1 X107.729 Y52.496 E2.73423
G1 X108.093 Y52.094 E2.75210
G1 X108.500 Y51.725 E2.77021
G1 X108.938 Y51.402 E2.78815
G1 X109.390 Y51.131 E2.80552
G1 X109.896 Y50.893 E2.82395
G1 X110.392 Y50.715 E2.84132
G1 X110.911 Y50.584 E2.85897
G1 X111.475 Y50.501 E2.87778
G1 X111.988 Y50.476 E2.89469 F1500.000
G1 X112.532 Y50.502 E2.91265
G1 X113.070 Y50.581 E2.93056
G1 X113.594 Y50.711 E2.94837
G1 X114.119 Y50.899 E2.96676
G1 X114.610 Y51.131 E2.98464
G1 X115.062 Y51.402 E3.00204
G1 X115.500 Y51.725 E3.01997
G1 X115.907 Y52.094 E3.03808
G1 X116.271 Y52.496 E3.05595
G1 X116.594 Y52.931 E3.07382
G1 X116.873 Y53.396 E3.09170
G1 X117.105 Y53.887 E3.10957
G1 X117.287 Y54.397 E3.12745
G1 X117.419 Y54.923 E3.14532
G1 X117.499 Y55.460 E3.16320
G1 X117.525 Y56.001 E3.18107
G1 X117.499 Y56.543 E3.19894
G1 X117.419 Y57.079 E3.21682
G1 X117.287 Y57.605 E3.23469
G1 X117.105 Y58.116 E3.25257
G1 X116.873 Y58.606 E3.27044
G1 X116.594 Y59.071 E3.28831
G1 X116.271 Y59.506 E3.30619
G1 X115.907 Y59.908 E3.32406
G1 X115.505 Y60.272 E3.34194
G1 X115.070 Y60.595 E3.35981
G1 X114.605 Y60.874 E3.37769
G1 X114.114 Y61.106 E3.39556
G1 X113.674 Y61.263 E3.41096
G1 F600.000 E2.41096
G92 E0
G1 X111.419 Y50.005 F9600.000
G1 X48.114 Y56.603 F9600.000
G1 E1.00000 F600.000
G1 X48.013 Y57.249 E1.02155 F1500.000
G1 X47.879 Y57.785 E1.03974
G1 X47.676 Y58.352 E1.05962
G1 X47.418 Y58.897 E1.07950
G1 X47.108 Y59.415 E1.09937
G1 X46.749 Y59.899 E1.11924
G1 X46.306 Y60.380 E1.14080
G1 X45.898 Y60.750 E1.15898
G1 X45.413 Y61.109 E1.17886
G1 X44.896 Y61.420 E1.19874
G1 X44.351 Y61.677 E1.21861
G1 X43.783 Y61.880 E1.23849
G1 X43.199 Y62.027 E1.25836
G1 X42.602 Y62.115 E1.27824
G1 X42.000 Y62.145 E1.29811
G1 X41.347 Y62.108 E1.31967
G1 X40.802 Y62.027 E1.33785
G1 X40.216 Y61.880 E1.35773
G1 X39.649 Y61.677 E1.37760
G1 X39.104 Y61.420 E1.39748
G1 X38.587 Y61.110 E1.41736
G1 X38.103 Y60.751 E1.43722
G1 X37.655 Y60.345 E1.45712
G1 X37.251 Y59.899 E1.47699
G1 X36.892 Y59.414 E1.49686
G1 X36.581 Y58.897 E1.51673
G1 X36.324 Y58.352 E1.53661
G1 X36.121 Y57.785 E1.55647
G1 X35.974 Y57.200 E1.57636
G1 X35.886 Y56.603 E1.59625
G1 X35.856 Y56.001 E1.61610
G1 X35.886 Y55.399 E1.63598
G1 X35.974 Y54.802 E1.65586
G1 X36.121 Y54.218 E1.67573
G1 X36.324 Y53.650 E1.69561
G1 X36.582 Y53.105 E1.71549
G1 X36.891 Y52.588 E1.73535
G1 X37.251 Y52.104 E1.75523
G1 X37.656 Y51.656 E1.77512
G1 X38.118 Y51.238 E1.79567
G1 X38.594 Y50.888 E1.81516
G1 X39.089 Y50.591 E1.83417
G1 X39.673 Y50.316 E1.85545
G1 X40.207 Y50.125 E1.87415
G1 X40.779 Y49.981 E1.89358
G1 X41.372 Y49.890 E1.91338
G1 X42.038 Y49.859 E1.93534
G1 X42.584 Y49.886 E1.95335 F1500.000
G1 X43.182 Y49.973 E1.97328
G1 X43.761 Y50.116 E1.99296
G1 X44.362 Y50.330 E2.01399
G1 X44.909 Y50.590 E2.03395
G1 X45.406 Y50.888 E2.05304
G1 X45.882 Y51.238 E2.07253
G1 X46.344 Y51.657 E2.09308
G1 X46.749 Y52.103 E2.11295
G1 X47.108 Y52.588 E2.13283
G1 X47.419 Y53.105 E2.15271
G1 X47.676 Y53.650 E2.17258
G1 X47.804 Y54.006 E2.18505
G1 X47.908 Y54.006 E2.18848
G1 X48.114 Y55.399 E2.23490
G1 X48.144 Y56.001 E2.25477
G1 X48.118 Y56.528 E2.27217
G1 X47.499 Y56.543 F9600.000
G1 X47.414 Y57.099 E2.29073 F1500.000
G1 X47.287 Y57.605 E2.30792
G1 X47.105 Y58.116 E2.32579
G1 X46.873 Y58.606 E2.34367
G1 X46.594 Y59.071 E2.36154
G1 X46.271 Y59.506 E2.37942
G1 X45.892 Y59.922 E2.39798
G1 X45.505 Y60.272 E2.41516
G1 X45.070 Y60.595 E2.43303
G1 X44.605 Y60.874 E2.45091
G1 X44.114 Y61.106 E2.46878
G1 X43.604 Y61.289 E2.48666
G1 X43.078 Y61.420 E2.50453
G1 X42.542 Y61.500 E2.52241
G1 X42.000 Y61.526 E2.54028
G1 X41.438 Y61.497 E2.55884
G1 X40.922 Y61.420 E2.57602
G1 X40.396 Y61.289 E2.59390
G1 X39.886 Y61.106 E2.61177
G1 X39.395 Y60.874 E2.62965
G1 X38.930 Y60.595 E2.64752
G1 X38.495 Y60.272 E2.66539
G1 X38.093 Y59.908 E2.68327
G1 X37.729 Y59.506 E2.70115
G1 X37.406 Y59.071 E2.71902
G1 X37.127 Y58.606 E2.73689
G1 X36.895 Y58.116 E2.75477
G1 X36.713 Y57.605 E2.77264
G1 X36.581 Y57.079 E2.79052
G1 X36.501 Y56.543 E2.80839
G1 X36.475 Y56.001 E2.82626
G1 X36.501 Y55.459 E2.84414
G1 X36.581 Y54.923 E2.86201
G1 X36.713 Y54.397 E2.87989
G1 X36.895 Y53.887 E2.89776
G1 X37.127 Y53.396 E2.91563
G1 X37.406 Y52.931 E2.93351
G1 X37.729 Y52.496 E2.95138
G1 X38.093 Y52.094 E2.96926
G1 X38.500 Y51.725 E2.98737
G1 X38.938 Y51.402 E3.00530
G1 X39.390 Y51.131 E3.02267
G1 X39.896 Y50.893 E3.04111
G1 X40.392 Y50.715 E3.05848
G1 X40.911 Y50.584 E3.07613
G1 X41.475 Y50.501 E3.09493
G1 X41.988 Y50.476 E3.11185 F1500.000
G1 X42.562 Y50.505 E3.13080
G1 X43.070 Y50.581 E3.14772
G1 X43.594 Y50.711 E3.16552
G1 X44.098 Y50.890 E3.18317
G1 X44.609 Y51.131 E3.20179
G1 X45.062 Y51.402 E3.21919
G1 X45.500 Y51.725 E3.23712
G1 X45.907 Y52.094 E3.25523
G1 X46.284 Y52.513 E3.27379
G1 X46.594 Y52.931 E3.29097
G1 X46.873 Y53.396 E3.30885
G1 X47.105 Y53.887 E3.32672
G1 X47.287 Y54.397 E3.34460
G1 X47.344 Y54.624 E3.35230
G1 X47.375 Y54.624 E3.35331
G1 X47.499 Y55.459 E3.38115
G1 X47.525 Y56.001 E3.39903
G1 X47.502 Y56.468 E3.41443
G1 F600.000 E2.41443
G92 E0
G1 X41.323 Y50.025 F9600.000
G1 X51.675 Y56.543 F9600.000
G1 E1.00000 F600.000
G1 X51.675 Y49.290 E1.23906 F1500.000
G1 X51.703 Y48.867 E1.25305
G1 X51.788 Y48.440 E1.26739
G1 X51.919 Y48.052 E1.28090
G1 X52.120 Y47.638 E1.29606
G1 X52.362 Y47.277 E1.31040
G1 X52.648 Y46.949 E1.32474
G1 X52.975 Y46.663 E1.33908
G1 X53.337 Y46.421 E1.35342
G1 X53.727 Y46.229 E1.36776
G1 X54.139 Y46.089 E1.38210
G1 X54.566 Y46.004 E1.39644
G1 X54.989 Y45.976 E1.41043
G1 X67.389 Y45.976 E1.81918
G1 X68.002 Y46.014 E1.83940
G1 X68.685 Y46.138 E1.86230 F1500.000
G1 X69.313 Y46.339 E1.88404
G1 X69.911 Y46.616 E1.90577
G1 X70.471 Y46.965 E1.92750
G1 X70.983 Y47.380 E1.94924
G1 X71.440 Y47.855 E1.97097
G1 X72.160 Y48.835 E2.01103
G1 X72.524 Y49.255 E2.02937
G1 X72.925 Y49.640 E2.04770
G1 X73.359 Y49.988 E2.06603
G1 X73.822 Y50.295 E2.08436
G1 X74.312 Y50.560 E2.10269
G1 X74.823 Y50.779 E2.12102
G1 X75.351 Y50.952 E2.13936
G1 X75.893 Y51.076 E2.15769
G1 X76.444 Y51.151 E2.17602
G1 X77.000 Y51.176 E2.19435
G1 X77.556 Y51.151 E2.21268
G1 X78.107 Y51.076 E2.23101
G1 X78.649 Y50.952 E2.24934
G1 X79.177 Y50.779 E2.26768
G1 X79.688 Y50.560 E2.28601
G1 X80.178 Y50.295 E2.30434
G1 X80.641 Y49.988 E2.32267
G1 X81.075 Y49.640 E2.34100
G1 X81.476 Y49.255 E2.35933
G1 X81.840 Y48.835 E2.37766
G1 X82.560 Y47.855 E2.41773
G1 X83.017 Y47.380 E2.43946
G1 X83.529 Y46.965 E2.46120
G1 X84.089 Y46.616 E2.48293
G1 X84.655 Y46.354 E2.50349
G1 X85.315 Y46.138 E2.52639
G1 X85.963 Y46.016 E2.54812
G1 X86.611 Y45.976 E2.56952
G1 X99.011 Y45.976 E2.97827
G1 X99.445 Y46.006 E2.99262
G1 X99.856 Y46.088 E3.00642
G1 X100.272 Y46.228 E3.02091
G1 X100.668 Y46.424 E3.03546
G1 X101.021 Y46.660 E3.04946
G1 X101.352 Y46.950 E3.06398
G1 X101.631 Y47.268 E3.07791
G1 X101.880 Y47.638 E3.09263
G1 X102.076 Y48.040 E3.10735
G1 X102.211 Y48.437 E3.12118
G1 X102.297 Y48.865 E3.13559
G1 X102.325 Y49.290 E3.14963
G1 X102.325 Y60.712 E3.52612
G1 X102.295 Y61.148 E3.54053
G1 X102.212 Y61.561 E3.55443
G1 X102.069 Y61.981 E3.56905
G1 X101.882 Y62.361 E3.58302
G1 X101.638 Y62.726 E3.59749
G1 X101.344 Y63.060 E3.61214
G1 X101.031 Y63.334 E3.62586
G1 X100.667 Y63.578 E3.64031
G1 X100.275 Y63.773 E3.65475
G1 X99.861 Y63.913 E3.66916
G1 X99.433 Y63.998 E3.68355
G1 X99.010 Y64.026 E3.69751
G1 X54.989 Y64.026 E5.14859
G1 X54.566 Y63.998 E5.16258
G1 X54.139 Y63.913 E5.17692
G1 X53.727 Y63.774 E5.19126
G1 X53.337 Y63.581 E5.20560
G1 X52.975 Y63.340 E5.21994
G1 X52.648 Y63.053 E5.23428
G1 X52.362 Y62.726 E5.24862
G1 X52.120 Y62.364 E5.26296
G1 X51.927 Y61.974 E5.27730
G1 X51.788 Y61.562 E5.29164
G1 X51.703 Y61.135 E5.30598
G1 X51.675 Y60.712 E5.31997
G1 X51.675 Y56.618 E5.45493
G1 F600.000 E4.45493
G92 E0
G1 X68.196 Y45.553 F9600.000
G1 X104.903 Y62.678 F9600.000
G1 E1.00000 F600.000
G1 X103.065 Y63.887 E1.07253 F1500.000
G1 X102.552 Y64.317 E1.09459
G1 X102.093 Y64.803 E1.11664
G1 X101.694 Y65.340 E1.13869
G1 X101.324 Y66.000 E1.16363
G1 X101.094 Y66.534 E1.18277
G1 X100.902 Y67.174 E1.20483
G1 X100.786 Y67.833 E1.22688
G1 X100.747 Y68.501 E1.24893
G1 X100.786 Y69.169 E1.27098
