; generated by Slic3r 1.1.7 on 2015-06-23 at 18:29:13

; perimeters extrusion width = 0.50mm
; infill extrusion width = 0.60mm
; solid infill extrusion width = 0.60mm
; top infill extrusion width = 0.43mm

G21 ; set units to millimeters
G21                                      ; metric values
G90                                      ; absolute positioning
M82                                      ; set extruder to absolute mode
M107                                    ; start with the fan off
G92 E0                                 ; set extruder position to 0
M140 S110                           ; get bed heating up
G28                                      ; home all
M109 S150                           ; set to cleaning temp and wait
G1 Z150 E-30 F75                ; suck up XXmm of filament
M109 S170                           ; heat up rest of way
G1 X45 Y174 F11520           ; move behind scraper
G1 Z0  F1200                       ; CRITICAL: set Z to height of top of scraper
G1 X45 Y174 Z-.5 F4000      ; wiping ; plunge into wipe pad
G1 X55 Y172 Z-.5 F4000      ; wiping
G1 X45 Y174 Z0 F4000        ; wiping
G1 X55 Y172 F4000             ; wiping
G1 X45 Y174 F4000             ; wiping
G1 X55 Y172 F4000             ; wiping
G1 X45 Y174 F4000             ; wiping
G1 X55 Y172 F4000             ; wiping
G1 X60 Y174 F4000             ; wiping
G1 X80 Y172 F4000             ; wiping
G1 X60 Y174 F4000             ; wiping
G1 X80 Y172 F4000             ; wiping
G1 X60 Y174 F4000             ; wiping
G1 X90 Y172 F4000             ; wiping
G1 X80 Y174 F4000             ; wiping
G1 X100 Y172 F4000           ; wiping
G1 X80 Y174 F4000             ; wiping
G1 X100 Y172 F4000           ; wiping
G1 X80 Y174 F4000             ; wiping
G1 X100 Y172 F4000           ; wiping
G1 X110 Y174 F4000           ; wiping
G1 X100 Y172 F4000           ; wiping
G1 X110 Y174 F4000           ; wiping
G1 X100 Y172 F4000           ; wiping
G1 X110 Y174 F4000           ; wiping
G1 X115 Y172 Z-0.5 F1000  ; wipe slower and bury noz in cleanish area
G1 Z10                                 ; raise z
G28 X0 Y0                            ; home x and y
M109 S170                           ; set to probing temp
M204 S300                           ; set accel for probing
G29                                      ; Probe
M204 S2000                         ; set accel back to normal
G1 X5 Y15 Z10 F5000          ; get out the way
M400                                    ; clear buffer
G4 S1                                   ; pause
M109 S250                           ; set extruder temp and wait
G4 S25                                 ; wait for bed to temp up
G1 Z2 E0 F75                       ; extrude filament back into nozzle
M140 S110                           ; get bed temping up during first layer
G90 ; use absolute coordinates
G92 E0
M82 ; use absolute distances for extrusion
M204 S2000
G1 F600.000 E-1.00000
G92 E0
G1 Z0.350 F9600.000
G1 X21.036 Y30.079 F9600.000
G1 E1.00000 F600.000
G1 X21.845 Y29.545 E1.03197 F1500.000
G1 X22.780 Y29.032 E1.06713
G1 X23.667 Y28.639 E1.09911
G1 X24.674 Y28.288 E1.13426
G1 X26.665 Y27.869 E1.20133
G1 X28.180 Y27.764 E1.25137
G1 X126.668 Y27.786 E4.49793
G1 X128.687 Y28.041 E4.56500 F1500.000
G1 X129.627 Y28.281 E4.59698
G1 X130.635 Y28.628 E4.63213
G1 X132.459 Y29.529 E4.69920
G1 X134.109 Y30.721 E4.76628
G1 X135.538 Y32.170 E4.83335
G1 X136.706 Y33.836 E4.90043
G1 X137.161 Y34.693 E4.93240
G1 X137.583 Y35.672 E4.96756
G1 X137.889 Y36.592 E4.99953
G1 X138.142 Y37.629 E5.03469
G1 X138.291 Y38.587 E5.06666
G1 X138.370 Y39.574 E5.09931
G1 X138.296 Y117.385 E7.66424
G1 X137.898 Y119.380 E7.73131
G1 X137.174 Y121.282 E7.79839
G1 X136.720 Y122.139 E7.83035
G1 X136.145 Y123.038 E7.86552
G1 X135.555 Y123.807 E7.89749
G1 X134.840 Y124.598 E7.93265
G1 X134.130 Y125.259 E7.96461
G1 X133.293 Y125.920 E7.99978
G1 X132.484 Y126.455 E8.03175
G1 X131.549 Y126.968 E8.06691
G1 X129.655 Y127.712 E8.13398
G1 X128.715 Y127.952 E8.16595
G1 X127.663 Y128.131 E8.20111
G1 X126.697 Y128.212 E8.23308
G1 X126.149 Y128.236 E8.25115
G1 X86.141 Y128.236 E9.56997
G1 X27.332 Y128.139 E11.50855
G1 X26.365 Y128.059 E11.54052
G1 X25.313 Y127.884 E11.57569
G1 X23.365 Y127.298 E11.64276
G1 X21.540 Y126.396 E11.70984
G1 X19.891 Y125.204 E11.77691
G1 X19.181 Y124.543 E11.80888
G1 X18.462 Y123.755 E11.84404
G1 X17.294 Y122.090 E11.91111
G1 X16.417 Y120.253 E11.97819
G1 X15.858 Y118.297 E12.04526
G1 X15.630 Y116.351 E12.10983
G1 X15.630 Y86.456 E13.09530
G1 X16.033 Y38.615 E14.67236
G1 X16.182 Y37.657 E14.70433
G1 X16.431 Y36.620 E14.73949
G1 X16.737 Y35.700 E14.77146
G1 X17.155 Y34.718 E14.80662
G1 X18.183 Y32.962 E14.87370
G1 X18.774 Y32.193 E14.90567
G1 X19.489 Y31.402 E14.94083
G1 X20.199 Y30.741 E14.97279
G1 X20.977 Y30.126 E15.00549
G1 X21.376 Y30.595 F9600.000
G1 X22.185 Y30.061 E15.03745 F1500.000
G1 X23.030 Y29.597 E15.06922
G1 X23.917 Y29.204 E15.10121
G1 X24.827 Y28.887 E15.13297
G1 X26.717 Y28.485 E15.19665
G1 X28.180 Y28.382 E15.24499
G1 X126.617 Y28.402 E18.48986
G1 X128.534 Y28.640 E18.55354 F1500.000
G1 X129.474 Y28.880 E18.58552
G1 X130.385 Y29.193 E18.61728
G1 X132.119 Y30.045 E18.68097
G1 X133.688 Y31.173 E18.74466
G1 X135.047 Y32.546 E18.80835
G1 X136.161 Y34.125 E18.87204
G1 X136.615 Y34.982 E18.90401
G1 X136.996 Y35.867 E18.93578
G1 X137.302 Y36.787 E18.96774
G1 X137.532 Y37.724 E18.99952
G1 X137.681 Y38.682 E19.03149
G1 X137.752 Y39.574 E19.06099
G1 X137.685 Y117.290 E21.62279
G1 X137.311 Y119.185 E21.68648
G1 X136.628 Y120.993 E21.75017
G1 X136.174 Y121.849 E21.78213
G1 X135.655 Y122.662 E21.81391
G1 X135.065 Y123.431 E21.84588
G1 X134.419 Y124.146 E21.87765
G1 X133.709 Y124.807 E21.90962
G1 X132.953 Y125.405 E21.94139
G1 X132.143 Y125.939 E21.97336
G1 X131.299 Y126.403 E22.00513
G1 X129.502 Y127.113 E22.06882
G1 X128.562 Y127.353 E22.10079
G1 X127.612 Y127.515 E22.13256
G1 X126.646 Y127.596 E22.16453
G1 X126.149 Y127.618 E22.18090
G1 X86.142 Y127.618 E23.49969
G1 X27.383 Y127.524 E25.43661
G1 X26.417 Y127.443 E25.46858
G1 X25.466 Y127.285 E25.50035
G1 X23.615 Y126.733 E25.56404
G1 X21.881 Y125.880 E25.62773
G1 X20.312 Y124.752 E25.69141
G1 X19.602 Y124.091 E25.72339
G1 X18.953 Y123.379 E25.75515
G1 X17.839 Y121.800 E25.81884
G1 X17.004 Y120.058 E25.88253
G1 X16.468 Y118.202 E25.94622
G1 X16.248 Y116.351 E26.00765
G1 X16.248 Y86.460 E26.99298
G1 X16.644 Y38.710 E28.56705
G1 X16.793 Y37.752 E28.59901
G1 X17.017 Y36.815 E28.63079
G1 X17.323 Y35.895 E28.66275
G1 X17.700 Y35.007 E28.69453
G1 X18.674 Y33.338 E28.75822
G1 X19.264 Y32.569 E28.79018
G1 X19.910 Y31.854 E28.82196
G1 X20.620 Y31.193 E28.85392
G1 X21.317 Y30.642 E28.88322
G1 F600.000 E27.88322
G92 E0
G1 X88.406 Y70.894 F9600.000
G1 E1.00000 F600.000
G1 X88.043 Y71.257 E1.01693 F1500.000
G1 X87.959 Y71.316 E1.02032
G1 X87.622 Y71.552 E1.03386
G1 X87.157 Y71.769 E1.05079
G1 X86.661 Y71.902 E1.06772
G1 X86.149 Y71.946 E1.08465
G1 X85.638 Y71.902 E1.10158
G1 X85.142 Y71.769 E1.11851
G1 X84.676 Y71.552 E1.13544
G1 X84.255 Y71.257 E1.15237
G1 X83.892 Y70.894 E1.16930
G1 X83.598 Y70.473 E1.18623
G1 X83.381 Y70.008 E1.20316
G1 X83.248 Y69.512 E1.22009
G1 X83.203 Y69.000 E1.23702
G1 X83.248 Y68.488 E1.25395
G1 X83.381 Y67.992 E1.27088
G1 X83.424 Y67.899 E1.27427
G1 X83.598 Y67.527 E1.28781
G1 X83.892 Y67.106 E1.30474
G1 X84.255 Y66.743 E1.32167
G1 X84.340 Y66.684 E1.32506
G1 X84.676 Y66.448 E1.33860
G1 X85.142 Y66.231 E1.35553
G1 X85.638 Y66.098 E1.37246
G1 X86.149 Y66.054 E1.38939
G1 X86.661 Y66.098 E1.40632
G1 X87.157 Y66.231 E1.42325 F1500.000
G1 X87.622 Y66.448 E1.44018
G1 X88.043 Y66.743 E1.45711
G1 X88.406 Y67.106 E1.47404
G1 X88.701 Y67.527 E1.49097
G1 X88.918 Y67.992 E1.50790
G1 X89.051 Y68.488 E1.52483
G1 X89.060 Y68.591 E1.52822
G1 X89.096 Y69.000 E1.54176
G1 X89.051 Y69.512 E1.55869
G1 X88.918 Y70.008 E1.57562
G1 X88.701 Y70.473 E1.59255
G1 X88.449 Y70.832 E1.60701
G1 X87.931 Y70.495 F9600.000
G1 X87.605 Y70.810 E1.62196 F1500.000
G1 X87.312 Y71.015 E1.63372
G1 X86.945 Y71.186 E1.64709
G1 X86.553 Y71.291 E1.66045
G1 X86.149 Y71.326 E1.67382
G1 X85.745 Y71.291 E1.68718
G1 X85.354 Y71.186 E1.70055
G1 X84.986 Y71.015 E1.71392
G1 X84.654 Y70.782 E1.72729
G1 X84.367 Y70.495 E1.74065
G1 X84.135 Y70.163 E1.75402
G1 X83.963 Y69.796 E1.76738
G1 X83.858 Y69.404 E1.78075
G1 X83.823 Y69.000 E1.79412
G1 X83.858 Y68.596 E1.80748
G1 X83.963 Y68.204 E1.82085
G1 X84.135 Y67.837 E1.83422
G1 X84.402 Y67.470 E1.84917
G1 X84.654 Y67.218 E1.86093
G1 X84.986 Y66.985 E1.87429
G1 X85.354 Y66.814 E1.88766
G1 X85.794 Y66.705 E1.90261
G1 X86.149 Y66.674 E1.91437 F1500.000
G1 X86.553 Y66.709 E1.92774
G1 X86.945 Y66.814 E1.94111
G1 X87.312 Y66.985 E1.95447
G1 X87.645 Y67.218 E1.96784
G1 X87.931 Y67.505 E1.98120
G1 X88.164 Y67.837 E1.99457
G1 X88.335 Y68.204 E2.00794
G1 X88.440 Y68.596 E2.02130
G1 X88.475 Y69.000 E2.03467
G1 X88.440 Y69.404 E2.04804
G1 X88.335 Y69.796 E2.06140
G1 X88.164 Y70.163 E2.07477
G1 X87.974 Y70.434 E2.08566
G1 F600.000 E1.08566
G92 E0
G1 X85.703 Y66.360 F9600.000
G1 X86.149 Y42.946 F9600.000
G1 E1.00000 F600.000
G1 X85.638 Y42.902 E1.01693 F1500.000
G1 X85.142 Y42.769 E1.03385
G1 X84.676 Y42.552 E1.05079
G1 X84.255 Y42.257 E1.06772
G1 X83.892 Y41.894 E1.08465
G1 X83.598 Y41.473 E1.10158
G1 X83.381 Y41.008 E1.11851
G1 X83.248 Y40.512 E1.13544
G1 X83.203 Y40.000 E1.15236
G1 X83.248 Y39.488 E1.16930
G1 X83.381 Y38.992 E1.18623
G1 X83.424 Y38.899 E1.18961
G1 X83.598 Y38.527 E1.20316
G1 X83.892 Y38.106 E1.22009
G1 X84.255 Y37.743 E1.23702
G1 X84.676 Y37.448 E1.25395
G1 X85.142 Y37.231 E1.27088
G1 X85.637 Y37.098 E1.28780
G1 X86.149 Y37.054 E1.30474
G1 X86.252 Y37.063 E1.30813
G1 X86.661 Y37.098 E1.32167 F1500.000
G1 X87.157 Y37.231 E1.33859
G1 X87.622 Y37.448 E1.35553
G1 X88.043 Y37.743 E1.37246
G1 X88.406 Y38.106 E1.38939
G1 X88.701 Y38.527 E1.40632
G1 X88.918 Y38.992 E1.42325
G1 X89.051 Y39.488 E1.44017
G1 X89.096 Y40.000 E1.45711
G1 X89.051 Y40.512 E1.47404
G1 X88.918 Y41.008 E1.49096
G1 X88.701 Y41.473 E1.50790
G1 X88.406 Y41.894 E1.52483
G1 X88.043 Y42.257 E1.54176
G1 X87.622 Y42.552 E1.55869
G1 X87.157 Y42.769 E1.57562
G1 X86.661 Y42.902 E1.59254
G1 X86.224 Y42.940 E1.60701
G1 X86.149 Y42.326 F9600.000
G1 X85.745 Y42.291 E1.62037 F1500.000
G1 X85.354 Y42.186 E1.63374
G1 X84.986 Y42.015 E1.64711
G1 X84.654 Y41.782 E1.66047
G1 X84.367 Y41.495 E1.67384
G1 X84.135 Y41.163 E1.68721
G1 X83.963 Y40.796 E1.70057
G1 X83.858 Y40.404 E1.71394
G1 X83.823 Y40.000 E1.72730
G1 X83.858 Y39.596 E1.74067
G1 X83.963 Y39.204 E1.75404
G1 X84.135 Y38.837 E1.76740
G1 X84.367 Y38.505 E1.78077
G1 X84.654 Y38.218 E1.79414
G1 X84.986 Y37.985 E1.80750
G1 X85.354 Y37.814 E1.82087
G1 X85.794 Y37.705 E1.83582
G1 X86.149 Y37.674 E1.84758 F1500.000
G1 X86.553 Y37.709 E1.86095
G1 X86.945 Y37.814 E1.87431
G1 X87.312 Y37.985 E1.88768
G1 X87.645 Y38.218 E1.90105
G1 X87.931 Y38.505 E1.91441
G1 X88.164 Y38.837 E1.92778
G1 X88.335 Y39.204 E1.94115
G1 X88.440 Y39.596 E1.95451
G1 X88.475 Y40.000 E1.96788
G1 X88.440 Y40.404 E1.98125
G1 X88.315 Y40.840 E1.99620
G1 X88.164 Y41.163 E2.00796
G1 X87.931 Y41.495 E2.02132
G1 X87.645 Y41.782 E2.03469
G1 X87.312 Y42.015 E2.04806
G1 X86.945 Y42.186 E2.06142
G1 X86.553 Y42.291 E2.07479
G1 X86.224 Y42.320 E2.08569
G1 F600.000 E1.08569
G92 E0
G1 X85.754 Y37.350 F9600.000
G1 X123.203 Y40.000 F9600.000
G1 E1.00000 F600.000
G1 X123.248 Y39.488 E1.01693 F1500.000
G1 X123.381 Y38.992 E1.03386
G1 X123.424 Y38.899 E1.03725
G1 X123.598 Y38.527 E1.05079
G1 X123.892 Y38.106 E1.06772
G1 X124.255 Y37.743 E1.08465
G1 X124.676 Y37.448 E1.10158
G1 X125.142 Y37.231 E1.11851
G1 X125.638 Y37.098 E1.13544
G1 X126.149 Y37.054 E1.15237
G1 X126.252 Y37.063 E1.15576
G1 X126.661 Y37.098 E1.16930 F1500.000
G1 X127.157 Y37.231 E1.18623
G1 X127.622 Y37.448 E1.20316
G1 X128.043 Y37.743 E1.22009
G1 X128.406 Y38.106 E1.23702
G1 X128.465 Y38.190 E1.24041
G1 X128.701 Y38.527 E1.25395
G1 X128.918 Y38.992 E1.27088
G1 X129.051 Y39.488 E1.28781
G1 X129.096 Y40.000 E1.30474
G1 X129.051 Y40.512 E1.32167
G1 X128.918 Y41.008 E1.33860
G1 X128.701 Y41.473 E1.35553
G1 X128.406 Y41.894 E1.37246
G1 X128.043 Y42.257 E1.38939
G1 X127.622 Y42.552 E1.40632
G1 X127.157 Y42.769 E1.42325
G1 X126.661 Y42.902 E1.44018
G1 X126.149 Y42.946 E1.45711
G1 X125.638 Y42.902 E1.47404
G1 X125.142 Y42.769 E1.49097
G1 X124.676 Y42.552 E1.50790
G1 X124.255 Y42.257 E1.52483
G1 X123.892 Y41.894 E1.54176
G1 X123.598 Y41.473 E1.55869
G1 X123.381 Y41.008 E1.57562
G1 X123.248 Y40.512 E1.59255
G1 X123.209 Y40.075 E1.60701
G1 X123.823 Y40.000 F9600.000
G1 X123.858 Y39.596 E1.62037 F1500.000
G1 X123.963 Y39.204 E1.63374
G1 X124.135 Y38.837 E1.64711
G1 X124.367 Y38.505 E1.66047
G1 X124.654 Y38.218 E1.67384
G1 X124.986 Y37.985 E1.68721
G1 X125.354 Y37.814 E1.70057
G1 X125.794 Y37.705 E1.71552
G1 X126.149 Y37.674 E1.72728 F1500.000
G1 X126.553 Y37.709 E1.74065
G1 X126.945 Y37.814 E1.75402
G1 X127.312 Y37.985 E1.76738
G1 X127.679 Y38.252 E1.78233
G1 X127.931 Y38.505 E1.79409
G1 X128.164 Y38.837 E1.80746
G1 X128.335 Y39.204 E1.82083
G1 X128.440 Y39.596 E1.83419
G1 X128.475 Y40.000 E1.84756
G1 X128.440 Y40.404 E1.86093
G1 X128.315 Y40.840 E1.87588
G1 X128.164 Y41.163 E1.88764
G1 X127.931 Y41.495 E1.90101
G1 X127.645 Y41.782 E1.91437
G1 X127.312 Y42.015 E1.92774
G1 X126.945 Y42.186 E1.94110
G1 X126.553 Y42.291 E1.95447
G1 X126.149 Y42.326 E1.96784
G1 X125.745 Y42.291 E1.98120
G1 X125.354 Y42.186 E1.99457
G1 X124.946 Y41.987 E2.00952
G1 X124.654 Y41.782 E2.02128
G1 X124.367 Y41.495 E2.03465
G1 X124.135 Y41.163 E2.04801
G1 X123.963 Y40.796 E2.06138
G1 X123.858 Y40.404 E2.07475
G1 X123.830 Y40.075 E2.08564
G1 F600.000 E1.08564
G92 E0
G1 X125.847 Y37.352 F9600.000
G1 X126.103 Y66.058 F9600.000
G1 E1.00000 F600.000
G1 X126.252 Y66.063 E1.00491 F1500.000
G1 X126.661 Y66.098 E1.01845 F1500.000
G1 X127.157 Y66.231 E1.03538
G1 X127.622 Y66.448 E1.05231
G1 X128.043 Y66.743 E1.06924
G1 X128.406 Y67.106 E1.08617
G1 X128.701 Y67.527 E1.10310
G1 X128.918 Y67.992 E1.12003
G1 X129.051 Y68.488 E1.13696
G1 X129.096 Y69.000 E1.15389
G1 X129.051 Y69.512 E1.17082
G1 X128.918 Y70.008 E1.18775
G1 X128.701 Y70.473 E1.20468
G1 X128.406 Y70.894 E1.22161
G1 X128.043 Y71.257 E1.23854
G1 X127.622 Y71.552 E1.25547
G1 X127.529 Y71.595 E1.25886
G1 X127.157 Y71.769 E1.27240
G1 X126.661 Y71.902 E1.28933
G1 X126.149 Y71.946 E1.30626
G1 X125.638 Y71.902 E1.32319
G1 X125.142 Y71.769 E1.34012
G1 X124.676 Y71.552 E1.35705
G1 X124.255 Y71.257 E1.37398
G1 X123.892 Y70.894 E1.39091
G1 X123.598 Y70.473 E1.40784
G1 X123.381 Y70.008 E1.42477
G1 X123.248 Y69.512 E1.44170
G1 X123.203 Y69.000 E1.45863
G1 X123.248 Y68.488 E1.47556
G1 X123.381 Y67.992 E1.49249
G1 X123.598 Y67.527 E1.50942
G1 X123.892 Y67.106 E1.52635
G1 X124.255 Y66.743 E1.54328
G1 X124.676 Y66.448 E1.56021
G1 X125.142 Y66.231 E1.57714
G1 X125.638 Y66.098 E1.59407
G1 X126.028 Y66.064 E1.60699
G1 X126.149 Y66.674 F9600.000
G1 X126.553 Y66.709 E1.62036 F1500.000
G1 X126.945 Y66.814 E1.63372
G1 X127.312 Y66.985 E1.64709
G1 X127.645 Y67.218 E1.66046
G1 X127.931 Y67.505 E1.67382
G1 X128.164 Y67.837 E1.68719
G1 X128.335 Y68.204 E1.70056
G1 X128.440 Y68.596 E1.71392
G1 X128.475 Y69.000 E1.72729
G1 X128.440 Y69.404 E1.74066
G1 X128.335 Y69.796 E1.75402
G1 X128.136 Y70.203 E1.76897
G1 X127.931 Y70.495 E1.78073
G1 X127.645 Y70.782 E1.79410
G1 X127.312 Y71.015 E1.80747
G1 X126.945 Y71.186 E1.82083
G1 X126.553 Y71.291 E1.83420
G1 X126.149 Y71.326 E1.84757
G1 X125.745 Y71.291 E1.86093
G1 X125.354 Y71.186 E1.87430
G1 X124.946 Y70.987 E1.88925
G1 X124.654 Y70.782 E1.90101
G1 X124.367 Y70.495 E1.91438
G1 X124.135 Y70.163 E1.92774
G1 X123.963 Y69.796 E1.94111
G1 X123.858 Y69.404 E1.95448
G1 X123.823 Y69.000 E1.96784
G1 X123.871 Y68.549 E1.98280
G1 X123.963 Y68.204 E1.99455
G1 X124.135 Y67.837 E2.00792
G1 X124.367 Y67.505 E2.02129
G1 X124.654 Y67.218 E2.03465
G1 X124.986 Y66.985 E2.04802
G1 X125.354 Y66.814 E2.06139
G1 X125.794 Y66.705 E2.07634
G1 X126.075 Y66.680 E2.08563 F1500.000
G1 X125.778 Y66.424 F9600.000
G1 F600.000 E1.08563
G92 E0
G1 X128.867 Y64.391 F9600.000
G1 E1.00000 F600.000
G1 X130.333 Y66.165 E1.07587 F1500.000
