; generated by Slic3r 1.1.4 on 2014-12-31 at 11:47:42

; perimeters extrusion width = 0.55mm
; infill extrusion width = 0.65mm
; solid infill extrusion width = 0.65mm
; top infill extrusion width = 0.43mm

G21 ; set units to millimeters
M107

M301 P34 I4 D113     ; set PID nozzle
M304 P162 I17 D378 ; set PID Bed

;M104 S230                 ; set extruder temp for budaschnozzle
M104 S250                 ; set extruder temp for hex_hot_end
M140 S110                 ; set bed temp for PEI

;G28                            ; home
;G1 Z5 F300                ; move bed down 5mm
;M84                            ; disable steppers
;G4 S300                     ; wait 5 mins to preheat

G28                            ; home

G90 ; use absolute coordinates
G92 E0
M82 ; use absolute distances for extrusion
M204 S2000
G1 F1500.000 E-1.40000
G92 E0
G1 Z0.350 F9600.000
G1 X177.197 Y65.467 F9600.000
G1 E1.40000 F1500.000
G1 X177.609 Y64.829 E1.42502 F1800.000
G1 X178.135 Y64.110 E1.45438
G1 X178.615 Y63.509 E1.47974
G1 X179.205 Y62.856 E1.50874
G1 X179.747 Y62.303 E1.53428
G1 X181.123 Y61.125 E1.59398
G1 X182.340 Y60.272 E1.64298
G1 X183.778 Y59.464 E1.69734
G1 X185.290 Y58.806 E1.75170
G1 X186.862 Y58.304 E1.80609
G1 X187.060 Y58.258 E1.81282
G1 X188.657 Y57.944 E1.86646
G1 X190.510 Y57.778 E1.92777
G1 X191.192 Y57.768 E1.95026
G1 X250.914 Y57.769 E3.91894
G1 X252.013 Y57.809 E3.95518
G1 X254.086 Y58.065 E4.02404
G1 X254.995 Y58.271 E4.05476
G1 X255.697 Y58.464 E4.07876
G1 X256.571 Y58.758 E4.10916
G1 X257.259 Y59.025 E4.13348
G1 X258.089 Y59.402 E4.16353
G1 X258.756 Y59.742 E4.18820
G1 X259.534 Y60.197 E4.21791
G1 X260.171 Y60.609 E4.24292
G1 X260.890 Y61.135 E4.27227
G1 X261.491 Y61.615 E4.29764
G1 X262.144 Y62.205 E4.32664
G1 X262.697 Y62.747 E4.35218
G1 X263.778 Y63.992 E4.40653
G1 X264.728 Y65.340 E4.46091
G1 X265.536 Y66.778 E4.51527
G1 X265.613 Y66.945 E4.52131
G1 X266.194 Y68.290 E4.56963
G1 X266.696 Y69.861 E4.62399
G1 X267.056 Y71.657 E4.68437
G1 X267.222 Y73.510 E4.74568
G1 X267.232 Y74.192 E4.76817
G1 X267.227 Y204.326 E9.05789
G1 X267.190 Y205.024 E9.08093
G1 X267.088 Y206.131 E9.11756
G1 X266.859 Y207.467 E9.16227
G1 X266.779 Y207.795 E9.17338
G1 X266.420 Y209.077 E9.21728
G1 X265.817 Y210.633 E9.27229
G1 X265.058 Y212.119 E9.32730
G1 X264.150 Y213.520 E9.38230
G1 X263.103 Y214.819 E9.43732
G1 X262.788 Y215.156 E9.45251
G1 X261.928 Y216.005 E9.49234
G1 X261.562 Y216.323 E9.50835
G1 X260.638 Y217.063 E9.54736
G1 X260.221 Y217.357 E9.56418
G1 X259.246 Y217.983 E9.60237
G1 X258.779 Y218.245 E9.62001
G1 X257.767 Y218.755 E9.65739
G1 X257.253 Y218.978 E9.67584
G1 X256.216 Y219.372 E9.71242
G1 X255.659 Y219.548 E9.73168
G1 X254.610 Y219.826 E9.76743
G1 X254.014 Y219.948 E9.78751
G1 X252.591 Y220.150 E9.83487
G1 X251.000 Y220.236 E9.88739
G1 X190.674 Y220.227 E11.87598
G1 X189.976 Y220.190 E11.89901
G1 X188.869 Y220.088 E11.93564
G1 X187.533 Y219.859 E11.98034
G1 X185.923 Y219.420 E12.03536
G1 X184.367 Y218.817 E12.09036
G1 X182.881 Y218.058 E12.14536
G1 X181.480 Y217.150 E12.20038
G1 X180.180 Y216.103 E12.25541
G1 X179.844 Y215.788 E12.27059
G1 X178.995 Y214.928 E12.31042
G1 X178.677 Y214.562 E12.32642
G1 X177.937 Y213.638 E12.36545
G1 X177.643 Y213.221 E12.38226
G1 X177.017 Y212.246 E12.42044
G1 X176.755 Y211.779 E12.43809
G1 X176.245 Y210.767 E12.47547
G1 X176.022 Y210.253 E12.49392
G1 X175.628 Y209.216 E12.53049
G1 X175.452 Y208.659 E12.54975
G1 X175.174 Y207.610 E12.58553
G1 X175.052 Y207.014 E12.60558
G1 X174.850 Y205.591 E12.65294
G1 X174.764 Y204.000 E12.70548
G1 X174.769 Y74.086 E16.98795
G1 X174.809 Y72.987 E17.02419
G1 X175.065 Y70.914 E17.09304
G1 X175.271 Y70.005 E17.12377
G1 X175.464 Y69.303 E17.14777
G1 X175.758 Y68.429 E17.17816
G1 X176.025 Y67.741 E17.20249
G1 X176.402 Y66.911 E17.23253
G1 X176.742 Y66.244 E17.25720
G1 X177.159 Y65.531 E17.28443
G1 X177.729 Y65.781 F9600.000
G1 X178.107 Y65.194 E17.30745 F1800.000
G1 X178.632 Y64.476 E17.33676
G1 X179.074 Y63.923 E17.36008
G1 X179.663 Y63.271 E17.38907
G1 X180.162 Y62.761 E17.41256
G1 X181.488 Y61.624 E17.47016
G1 X182.654 Y60.804 E17.51716
G1 X184.037 Y60.025 E17.56946
G1 X185.491 Y59.390 E17.62178
G1 X187.003 Y58.906 E17.67411
G1 X187.196 Y58.861 E17.68066
G1 X188.719 Y58.559 E17.73184
G1 X190.520 Y58.396 E17.79144
G1 X191.192 Y58.385 E17.81359
G1 X250.904 Y58.386 E19.78192
G1 X251.951 Y58.424 E19.81645
G1 X253.950 Y58.668 E19.88285
G1 X254.854 Y58.872 E19.91338
G1 X255.500 Y59.049 E19.93548
G1 X256.370 Y59.342 E19.96572
G1 X257.003 Y59.587 E19.98812
G1 X257.830 Y59.963 E20.01805
G1 X258.444 Y60.275 E20.04075
G1 X259.219 Y60.729 E20.07037
G1 X259.806 Y61.107 E20.09338
G1 X260.524 Y61.632 E20.12269
G1 X261.077 Y62.074 E20.14602
G1 X261.729 Y62.663 E20.17500
G1 X262.239 Y63.162 E20.19849
G1 X263.281 Y64.358 E20.25079
G1 X264.196 Y65.655 E20.30312
G1 X264.975 Y67.037 E20.35543
G1 X265.051 Y67.200 E20.36135
G1 X265.610 Y68.492 E20.40774
G1 X266.094 Y70.003 E20.46005
G1 X266.441 Y71.720 E20.51778
G1 X266.604 Y73.520 E20.57738
G1 X266.615 Y74.192 E20.59953
G1 X266.610 Y204.294 E24.88818
G1 X266.573 Y204.981 E24.91086
G1 X266.478 Y206.034 E24.94572
G1 X266.258 Y207.326 E24.98891
G1 X266.182 Y207.635 E24.99941
G1 X265.836 Y208.876 E25.04187
G1 X265.256 Y210.374 E25.09484
G1 X264.526 Y211.805 E25.14779
G1 X263.652 Y213.153 E25.20075
G1 X262.645 Y214.405 E25.25371
G1 X262.351 Y214.719 E25.26788
G1 X261.514 Y215.546 E25.30668
G1 X261.173 Y215.843 E25.32158
G1 X260.272 Y216.565 E25.35965
G1 X259.884 Y216.839 E25.37528
G1 X258.932 Y217.451 E25.41261
G1 X258.499 Y217.694 E25.42898
G1 X257.508 Y218.195 E25.46558
G1 X257.032 Y218.401 E25.48268
G1 X256.015 Y218.788 E25.51855
G1 X255.499 Y218.951 E25.53638
G1 X254.469 Y219.224 E25.57151
G1 X253.917 Y219.338 E25.59008
G1 X252.548 Y219.533 E25.63567
G1 X251.000 Y219.618 E25.68677
G1 X190.706 Y219.610 E27.67429
G1 X190.019 Y219.573 E27.69696
G1 X188.966 Y219.478 E27.73182
G1 X187.674 Y219.258 E27.77501
G1 X186.124 Y218.836 E27.82798
G1 X184.626 Y218.256 E27.88093
G1 X183.195 Y217.526 E27.93388
G1 X181.847 Y216.652 E27.98685
G1 X180.595 Y215.645 E28.03982
G1 X180.281 Y215.351 E28.05398
G1 X179.454 Y214.514 E28.09278
G1 X179.157 Y214.173 E28.10768
G1 X178.435 Y213.272 E28.14576
G1 X178.161 Y212.884 E28.16138
G1 X177.549 Y211.932 E28.19870
G1 X177.306 Y211.499 E28.21508
G1 X176.805 Y210.508 E28.25168
G1 X176.599 Y210.032 E28.26878
G1 X176.212 Y209.015 E28.30465
G1 X176.049 Y208.499 E28.32248
G1 X175.776 Y207.468 E28.35763
G1 X175.662 Y206.917 E28.37618
G1 X175.467 Y205.548 E28.42177
G1 X175.382 Y204.000 E28.47288
G1 X175.386 Y74.096 E32.75500
G1 X175.424 Y73.049 E32.78953
G1 X175.668 Y71.050 E32.85593
G1 X175.872 Y70.146 E32.88646
G1 X176.049 Y69.500 E32.90857
G1 X176.342 Y68.630 E32.93880
G1 X176.587 Y67.997 E32.96120
G1 X176.963 Y67.170 E32.99112
G1 X177.275 Y66.556 E33.01383
G1 X177.691 Y65.846 E33.04097
G1 F1500.000 E31.64097
G92 E0
G1 X233.748 Y189.040 F9600.000
G1 E1.40000 F1500.000
G1 X233.154 Y190.475 E1.45121 F3000.000
G1 X232.208 Y191.708 E1.50242
G1 X230.975 Y192.654 E1.55363
G1 X229.540 Y193.248 E1.60484
G1 X228.062 Y193.443 E1.65399
G1 X207.938 Y193.443 E2.31734
G1 X206.460 Y193.248 E2.36650
G1 X205.025 Y192.654 E2.41771
G1 X203.792 Y191.708 E2.46892
G1 X202.846 Y190.475 E2.52013
G1 X202.252 Y189.040 E2.57134
G1 X202.057 Y187.562 E2.62049
G1 X202.057 Y162.938 E3.43218
G1 X202.252 Y161.460 E3.48133
G1 X202.846 Y160.025 E3.53254
G1 X203.792 Y158.792 E3.58375
G1 X205.025 Y157.846 E3.63496
G1 X206.460 Y157.252 E3.68617
G1 X207.938 Y157.057 E3.73533
G1 X228.062 Y157.057 E4.39868
G1 X229.540 Y157.252 E4.44783
G1 X230.975 Y157.846 E4.49904
G1 X232.208 Y158.792 E4.55025
G1 X233.154 Y160.025 E4.60146
G1 X233.748 Y161.460 E4.65267
G1 X233.943 Y162.938 E4.70182
G1 X233.943 Y187.562 E5.51351
G1 X233.758 Y188.966 E5.56019
G1 X233.146 Y188.879 F9600.000
G1 X232.614 Y190.164 E5.60604 F2250.000
G1 X231.767 Y191.267 E5.65189
G1 X230.664 Y192.114 E5.69773
G1 X229.379 Y192.646 E5.74358
G1 X228.021 Y192.825 E5.78872
G1 X207.979 Y192.825 E6.44940
G1 X206.621 Y192.646 E6.49454
G1 X205.336 Y192.114 E6.54039
G1 X204.233 Y191.267 E6.58623
G1 X203.386 Y190.164 E6.63208
G1 X202.854 Y188.879 E6.67793
G1 X202.675 Y187.521 E6.72307
G1 X202.675 Y162.979 E7.53209
G1 X202.854 Y161.621 E7.57722
G1 X203.386 Y160.336 E7.62307
G1 X204.233 Y159.233 E7.66892
G1 X205.336 Y158.386 E7.71477
G1 X206.621 Y157.854 E7.76061
G1 X207.979 Y157.675 E7.80575
G1 X228.021 Y157.675 E8.46643
G1 X229.379 Y157.854 E8.51157
G1 X230.664 Y158.386 E8.55742
G1 X231.767 Y159.233 E8.60327
G1 X232.614 Y160.336 E8.64911
G1 X233.146 Y161.621 E8.69496
G1 X233.325 Y162.979 E8.74010
G1 X233.325 Y187.521 E9.54912
G1 X233.156 Y188.805 E9.59178
G1 X233.484 Y189.248 F9600.000
G1 F1500.000 E8.19178
G92 E0
G1 X241.891 Y203.057 F9600.000
G1 E1.40000 F1500.000
G1 X200.109 Y203.057 E2.77732 F3000.000
G1 X199.984 Y205.113 E2.84522
G1 X199.837 Y205.980 E2.87420
G1 X199.526 Y207.048 E2.91085
G1 X199.161 Y207.931 E2.94235
G1 X198.641 Y208.860 E2.97744
G1 X198.053 Y209.680 E3.01073
G1 X197.448 Y210.357 E3.04065
G1 X196.621 Y211.100 E3.07730
G1 X195.795 Y211.682 E3.11059
G1 X194.910 Y212.168 E3.14388
G1 X193.976 Y212.553 E3.17717
G1 X193.005 Y212.831 E3.21046
G1 X192.010 Y212.999 E3.24374
G1 X190.998 Y213.056 E3.27715
G1 X189.952 Y212.992 E3.31171
G1 X189.144 Y212.864 E3.33867
G1 X188.231 Y212.622 E3.36979
G1 X187.349 Y212.287 E3.40091
G1 X186.506 Y211.862 E3.43203
G1 X185.712 Y211.351 E3.46314
G1 X184.903 Y210.695 E3.49747
G1 X184.239 Y210.024 E3.52858
G1 X183.649 Y209.288 E3.55970
G1 X183.138 Y208.494 E3.59082
G1 X182.754 Y207.740 E3.61873
G1 X182.378 Y206.769 E3.65305
G1 X182.159 Y205.951 E3.68095
G1 X182.008 Y205.048 E3.71113
G1 X181.972 Y204.530 E3.72824
G1 X181.944 Y204.000 E3.74575
G1 X181.994 Y203.051 E3.77707
G1 X182.143 Y202.113 E3.80837
G1 X182.389 Y201.196 E3.83967
G1 X182.730 Y200.310 E3.87097
G1 X183.162 Y199.464 E3.90228
G1 X183.680 Y198.668 E3.93358
G1 X184.278 Y197.931 E3.96489
G1 X184.951 Y197.260 E3.99619
G1 X185.690 Y196.664 E4.02749
G1 X186.487 Y196.148 E4.05880
G1 X187.317 Y195.726 E4.08949
G1 X188.222 Y195.381 E4.12141
G1 X189.140 Y195.137 E4.15271
G1 X189.944 Y195.010 E4.17957
G1 X191.943 Y194.895 E4.24556
G1 X191.943 Y83.104 E7.93059
G1 X189.962 Y82.992 E7.99600
G1 X189.176 Y82.871 E8.02221
G1 X188.275 Y82.636 E8.05291
G1 X187.394 Y82.308 E8.08389
G1 X186.568 Y81.897 E8.11431
G1 X185.780 Y81.400 E8.14501
G1 X185.046 Y80.824 E8.17577
G1 X184.377 Y80.176 E8.20647
G1 X183.778 Y79.463 E8.23717
G1 X183.255 Y78.693 E8.26787
G1 X182.814 Y77.873 E8.29856
G1 X182.459 Y77.011 E8.32926
G1 X182.195 Y76.118 E8.35996
G1 X182.026 Y75.213 E8.39033
G1 X181.947 Y74.160 E8.42514
G1 X181.955 Y73.681 E8.44094
G1 X182.082 Y72.432 E8.48231
G1 X182.282 Y71.549 E8.51215
G1 X182.578 Y70.672 E8.54266
G1 X182.961 Y69.830 E8.57318
G1 X183.429 Y69.031 E8.60369
G1 X183.976 Y68.284 E8.63420
G1 X184.596 Y67.596 E8.66473
G1 X185.284 Y66.976 E8.69526
G1 X186.031 Y66.429 E8.72577
G1 X186.830 Y65.961 E8.75628
G1 X187.672 Y65.578 E8.78680
G1 X188.549 Y65.282 E8.81731
G1 X189.432 Y65.082 E8.84715
G1 X190.681 Y64.955 E8.88852
G1 X191.160 Y64.947 E8.90432
G1 X192.213 Y65.026 E8.93913
G1 X193.118 Y65.195 E8.96949
G1 X194.011 Y65.459 E9.00019
G1 X194.873 Y65.814 E9.03089
G1 X195.693 Y66.255 E9.06159
G1 X196.463 Y66.778 E9.09229
G1 X197.176 Y67.377 E9.12299
G1 X197.824 Y68.046 E9.15369
G1 X198.400 Y68.780 E9.18445
G1 X198.895 Y69.564 E9.21501
G1 X199.311 Y70.402 E9.24585
G1 X199.636 Y71.275 E9.27655
G1 X199.871 Y72.176 E9.30725
G1 X199.992 Y72.962 E9.33346
G1 X200.104 Y74.943 E9.39886
G1 X241.896 Y74.943 E10.77647
G1 X242.008 Y72.962 E10.84187
G1 X242.129 Y72.176 E10.86808
G1 X242.364 Y71.275 E10.89878
G1 X242.689 Y70.402 E10.92948
G1 X243.105 Y69.564 E10.96032
G1 X243.600 Y68.780 E10.99088
G1 X244.176 Y68.046 E11.02164
G1 X244.824 Y67.377 E11.05234
G1 X245.537 Y66.778 E11.08304
G1 X246.307 Y66.255 E11.11374
G1 X247.127 Y65.814 E11.14444
G1 X247.989 Y65.459 E11.17514
G1 X248.882 Y65.195 E11.20584
G1 X249.787 Y65.026 E11.23620
G1 X250.840 Y64.947 E11.27101
G1 X251.319 Y64.955 E11.28681
G1 X252.568 Y65.082 E11.32818
G1 X253.451 Y65.282 E11.35802
G1 X254.328 Y65.578 E11.38853
G1 X255.081 Y65.920 E11.41580
G1 X255.969 Y66.429 E11.44955
G1 X256.716 Y66.976 E11.48006
G1 X257.330 Y67.530 E11.50733
G1 X258.024 Y68.284 E11.54110
G1 X258.621 Y69.116 E11.57485
G1 X259.039 Y69.830 E11.60211
G1 X259.422 Y70.672 E11.63262
G1 X259.718 Y71.549 E11.66314
G1 X259.918 Y72.432 E11.69298
G1 X260.045 Y73.681 E11.73435
G1 X260.053 Y74.160 E11.75015
G1 X259.974 Y75.213 E11.78496
G1 X259.805 Y76.118 E11.81532
G1 X259.502 Y77.111 E11.84953
G1 X259.186 Y77.873 E11.87671
G1 X258.745 Y78.693 E11.90741
G1 X258.222 Y79.463 E11.93811
G1 X257.623 Y80.176 E11.96881
G1 X256.954 Y80.824 E11.99951
G1 X256.304 Y81.334 E12.02675
G1 X255.432 Y81.897 E12.06095
G1 X254.598 Y82.311 E12.09165
G1 X253.725 Y82.636 E12.12235
G1 X252.824 Y82.871 E12.15305
G1 X252.038 Y82.992 E12.17926
G1 X250.057 Y83.104 E12.24466
G1 X250.057 Y99.557 E12.78701
G1 X239.943 Y99.557 E13.12042
G1 X239.943 Y93.438 E13.32213
G1 X239.748 Y91.960 E13.37128
G1 X239.154 Y90.525 E13.42249
G1 X238.208 Y89.292 E13.47370
G1 X236.975 Y88.346 E13.52491
G1 X235.540 Y87.752 E13.57612
G1 X234.062 Y87.557 E13.62528
G1 X203.438 Y87.557 E14.63475
G1 X201.960 Y87.752 E14.68390
G1 X200.525 Y88.346 E14.73511
G1 X199.292 Y89.292 E14.78632
G1 X198.346 Y90.525 E14.83753
G1 X197.752 Y91.960 E14.88874
G1 X197.557 Y93.438 E14.93789
G1 X197.557 Y143.062 E16.57368
G1 X197.684 Y144.023 E16.60562
G1 X198.078 Y144.975 E16.63961
G1 X198.706 Y145.794 E16.67362
G1 X199.525 Y146.422 E16.70762
G1 X200.477 Y146.816 E16.74161
G1 X201.438 Y146.943 E16.77356
G1 X236.062 Y146.943 E17.91489
G1 X237.023 Y146.816 E17.94684
G1 X237.975 Y146.422 E17.98082
G1 X238.794 Y145.794 E18.01483
G1 X239.422 Y144.975 E18.04883
G1 X239.816 Y144.023 E18.08282
G1 X239.943 Y143.062 E18.11477
G1 X239.943 Y138.443 E18.26703
G1 X250.057 Y138.443 E18.60044
G1 X250.057 Y194.895 E20.46131
G1 X252.056 Y195.010 E20.52729
G1 X252.860 Y195.137 E20.55415
G1 X253.778 Y195.381 E20.58545
G1 X254.666 Y195.719 E20.61676
G1 X255.513 Y196.148 E20.64806
G1 X256.310 Y196.664 E20.67937
G1 X257.049 Y197.260 E20.71067
G1 X257.722 Y197.931 E20.74197
G1 X258.320 Y198.668 E20.77328
G1 X258.838 Y199.464 E20.80458
G1 X259.270 Y200.310 E20.83589
G1 X259.611 Y201.196 E20.86719
G1 X259.857 Y202.113 E20.89849
G1 X260.006 Y203.051 E20.92979
G1 X260.056 Y204.000 E20.96111
G1 X259.992 Y205.048 E20.99573
G1 X259.864 Y205.856 E21.02270
G1 X259.622 Y206.769 E21.05382
G1 X259.287 Y207.651 E21.08493
G1 X258.862 Y208.494 E21.11605
G1 X258.351 Y209.288 E21.14717
G1 X257.761 Y210.024 E21.17829
G1 X257.097 Y210.695 E21.20940
G1 X256.367 Y211.294 E21.24052
G1 X255.494 Y211.862 E21.27484
G1 X254.651 Y212.287 E21.30596
G1 X253.769 Y212.622 E21.33708
G1 X252.951 Y212.841 E21.36499
G1 X252.048 Y212.992 E21.39516
G1 X251.530 Y213.028 E21.41227
G1 X251.002 Y213.056 E21.42972
G1 X249.990 Y212.999 E21.46313
G1 X248.995 Y212.831 E21.49640
G1 X248.024 Y212.553 E21.52969
G1 X246.999 Y212.121 E21.56634
G1 X246.205 Y211.682 E21.59626
G1 X245.379 Y211.100 E21.62955
G1 X244.624 Y210.430 E21.66284
G1 X243.947 Y209.680 E21.69613
G1 X243.305 Y208.773 E21.73279
G1 X242.839 Y207.930 E21.76451
G1 X242.439 Y206.952 E21.79937
G1 X242.163 Y205.980 E21.83266
G1 X242.016 Y205.113 E21.86164
G1 X241.896 Y203.132 E21.92707
G1 X241.307 Y203.675 F9600.000
G1 X200.693 Y203.675 E23.26588 F2250.000
G1 X200.598 Y205.188 E23.31584
G1 X200.442 Y206.105 E23.34652
G1 X200.103 Y207.271 E23.38655
G1 X199.648 Y208.369 E23.42571
G1 X199.624 Y208.369 E23.42649
G1 X199.155 Y209.202 E23.45802
G1 X198.526 Y210.077 E23.49354
G1 X197.900 Y210.779 E23.52454
G1 X196.997 Y211.591 E23.56456
G1 X196.116 Y212.211 E23.60008
G1 X195.171 Y212.729 E23.63560
G1 X194.175 Y213.139 E23.67112
G1 X193.139 Y213.435 E23.70664
G1 X192.076 Y213.614 E23.74215
G1 X190.999 Y213.675 E23.77771
G1 X189.882 Y213.606 E23.81462
G1 X189.025 Y213.470 E23.84323
G1 X188.050 Y213.214 E23.87644
G1 X187.108 Y212.857 E23.90965
