; generated by Slic3r 1.1.4 on 2015-01-12 at 11:05:26

; perimeters extrusion width = 0.50mm
; infill extrusion width = 0.60mm
; solid infill extrusion width = 0.60mm
; top infill extrusion width = 0.43mm

G21 ; set units to millimeters
M107

M301 P34 I4 D113     ; set PID nozzle
M304 P162 I17 D378 ; set PID Bed

;M104 S230                 ; set extruder temp for budaschnozzle
M104 S250                 ; set extruder temp for hex_hot_end
;M140 S100                 ; set bed temp for PET
M140 S110                 ; set bed temp for PEI (reminder: heatmod=M140 @10 degree change at @G1 Z2)

G28                            ; home
G1 Z5 F300                ; move bed down 5mm
M84                            ; disable steppers
G4 S300                     ; wait 5 mins to preheat

G28                            ; home

G90 ; use absolute coordinates
G92 E0
M82 ; use absolute distances for extrusion
M204 S2000
G1 F1800.000 E-2.00000
G92 E0
G1 Z0.350 F9600.000
G1 X170.941 Y67.245 F9600.000
G1 E2.00000 F1800.000
G1 X172.609 Y65.772 E2.07333 F1260.000
G1 X174.687 Y64.979 E2.14666
G1 X175.836 Y64.873 E2.18469
G1 X217.969 Y64.873 E3.57358
G1 X220.158 Y65.269 E3.64691
G1 X222.069 Y66.409 E3.72024
G1 X223.890 Y69.150 E3.82870
G1 X224.226 Y70.167 E3.86401
G1 X224.359 Y70.652 E3.88061
G1 X224.644 Y72.102 E3.92932
G1 X224.731 Y73.416 E3.97272
G1 X224.916 Y112.586 E5.26392
G1 X224.912 Y119.776 E5.50093
G1 X224.853 Y121.425 E5.55533
G1 X224.624 Y123.568 E5.62637
G1 X224.286 Y125.442 E5.68913
G1 X223.829 Y127.260 E5.75092
G1 X223.201 Y129.190 E5.81783
G1 X222.659 Y130.545 E5.86595
G1 X221.644 Y132.648 E5.94291
G1 X220.876 Y134.008 E5.99439
G1 X219.698 Y135.786 E6.06470
G1 X218.535 Y137.295 E6.12752
G1 X217.312 Y138.680 E6.18842
G1 X215.924 Y140.048 E6.25267
G1 X214.629 Y141.171 E6.30916
G1 X212.962 Y142.420 E6.37781
G1 X211.722 Y143.232 E6.42669
G1 X209.541 Y144.452 E6.50907
G1 X208.058 Y145.141 E6.56297
G1 X206.199 Y145.858 E6.62865
G1 X204.396 Y146.414 E6.69085
G1 X202.539 Y146.852 E6.75372
G1 X200.877 Y147.134 E6.80930
G1 X198.851 Y147.336 E6.87643
G1 X196.880 Y147.389 E6.94142
G1 X195.263 Y147.332 E6.99475
G1 X193.097 Y147.102 E7.06655
G1 X191.611 Y146.845 E7.11624
G1 X190.975 Y146.704 E7.13773
G1 X189.367 Y146.296 E7.19241
G1 X187.573 Y145.711 E7.25462
G1 X185.971 Y145.073 E7.31144
G1 X184.105 Y144.172 E7.37977
G1 X182.683 Y143.370 E7.43358
G1 X180.877 Y142.176 E7.50494
G1 X179.638 Y141.236 E7.55621
G1 X177.839 Y139.660 E7.63506
G1 X177.099 Y138.920 E7.66956
G1 X176.645 Y138.421 E7.69178
G1 X175.295 Y136.851 E7.76004
G1 X174.241 Y135.437 E7.81820
G1 X173.250 Y133.908 E7.87824
G1 X172.293 Y132.178 E7.94340
G1 X171.534 Y130.562 E8.00226
G1 X170.808 Y128.684 E8.06863
G1 X170.280 Y126.998 E8.12687
G1 X169.812 Y125.021 E8.19385
G1 X169.537 Y123.415 E8.24756
G1 X169.327 Y121.347 E8.31607
G1 X169.269 Y119.593 E8.37394
G1 X169.084 Y80.423 E9.66514
G1 X169.102 Y72.973 E9.91073
G1 X169.196 Y71.849 E9.94791
G1 X169.307 Y71.228 E9.96868
G1 X169.534 Y70.342 E9.99882
G1 X169.896 Y69.209 E10.03806
G1 X170.906 Y67.311 E10.10892
G1 X171.494 Y67.543 F9600.000
G1 X173.116 Y66.193 E10.17849 F1260.000
G1 X175.836 Y65.490 E10.27109
G1 X217.969 Y65.490 E11.65998
G1 X220.042 Y65.887 E11.72955
G1 X221.823 Y67.020 E11.79912
G1 X223.303 Y69.344 E11.88994
G1 X223.637 Y70.354 E11.92501
G1 X223.757 Y70.792 E11.93998
G1 X224.030 Y72.165 E11.98613
G1 X224.113 Y73.419 E12.02755
G1 X224.298 Y112.586 E13.31865
G1 X224.295 Y119.755 E13.55498
G1 X224.237 Y121.387 E13.60881
G1 X224.015 Y123.463 E13.67763
G1 X223.686 Y125.295 E13.73900
G1 X223.240 Y127.075 E13.79947
G1 X222.627 Y128.963 E13.86492
G1 X222.096 Y130.291 E13.91204
G1 X221.106 Y132.345 E13.98722
G1 X220.347 Y133.688 E14.03805
G1 X219.206 Y135.412 E14.10623
G1 X218.069 Y136.889 E14.16766
G1 X216.872 Y138.246 E14.22731
G1 X215.518 Y139.582 E14.29003
G1 X214.242 Y140.689 E14.34571
G1 X212.623 Y141.903 E14.41239
G1 X211.392 Y142.710 E14.46094
G1 X209.275 Y143.894 E14.54086
G1 X207.831 Y144.566 E14.59338
G1 X206.012 Y145.269 E14.65767
G1 X204.250 Y145.814 E14.71847
G1 X202.434 Y146.243 E14.77995
G1 X200.794 Y146.522 E14.83480
G1 X198.823 Y146.719 E14.90011
G1 X196.901 Y146.772 E14.96349
G1 X195.299 Y146.715 E15.01631
G1 X193.202 Y146.493 E15.08583
G1 X191.721 Y146.237 E15.13537
G1 X191.122 Y146.103 E15.15562
G1 X189.554 Y145.707 E15.20892
G1 X187.800 Y145.136 E15.26974
G1 X186.222 Y144.509 E15.32570
G1 X184.408 Y143.634 E15.39210
G1 X183.000 Y142.840 E15.44536
G1 X181.251 Y141.684 E15.51450
G1 X180.019 Y140.749 E15.56547
G1 X178.276 Y139.223 E15.64183
G1 X177.537 Y138.485 E15.67626
G1 X177.111 Y138.015 E15.69717
G1 X175.787 Y136.478 E15.76403
G1 X174.757 Y135.098 E15.82080
G1 X173.785 Y133.599 E15.87968
G1 X172.851 Y131.913 E15.94323
G1 X172.105 Y130.326 E16.00105
G1 X171.397 Y128.497 E16.06568
G1 X170.877 Y126.840 E16.12294
G1 X170.421 Y124.916 E16.18811
G1 X170.148 Y123.326 E16.24129
G1 X169.945 Y121.317 E16.30784
G1 X169.887 Y119.590 E16.36482
G1 X169.702 Y80.423 E17.65593
G1 X169.718 Y73.019 E17.89997
G1 X169.809 Y71.927 E17.93610
G1 X169.909 Y71.368 E17.95483
G1 X170.122 Y70.531 E17.98331
G1 X170.485 Y69.397 E18.02254
G1 X171.458 Y67.609 E18.08964
G1 F1800.000 E16.08964
G92 E0
G1 X203.602 Y124.761 F9600.000
G1 E2.00000 F1800.000
G1 X202.980 Y125.457 E2.03078 F1575.000
G1 X202.283 Y126.079 E2.06155
G1 X201.522 Y126.620 E2.09233
G1 X200.705 Y127.071 E2.12311
G1 X199.842 Y127.428 E2.15388
G1 X198.945 Y127.687 E2.18466
G1 X198.025 Y127.843 E2.21543
G1 X197.093 Y127.896 E2.24621
G1 X196.192 Y127.845 E2.27595
G1 X195.240 Y127.687 E2.30776
G1 X194.343 Y127.428 E2.33853
G1 X193.480 Y127.071 E2.36931
G1 X192.663 Y126.620 E2.40008
G1 X191.902 Y126.079 E2.43086
G1 X191.205 Y125.457 E2.46164
G1 X190.583 Y124.761 E2.49241
G1 X190.043 Y124.000 E2.52319
G1 X189.592 Y123.182 E2.55396
G1 X189.234 Y122.320 E2.58474
G1 X188.976 Y121.423 E2.61552
G1 X188.819 Y120.502 E2.64629
G1 X188.767 Y119.570 E2.67707
G1 X188.818 Y118.669 E2.70681
G1 X188.976 Y117.717 E2.73862
G1 X189.234 Y116.820 E2.76939
G1 X189.580 Y115.987 E2.79914
G1 X190.043 Y115.140 E2.83095
G1 X190.581 Y114.383 E2.86157
G1 X191.201 Y113.689 E2.89225
G1 X191.897 Y113.064 E2.92308
G1 X192.661 Y112.522 E2.95397
G1 X193.470 Y112.075 E2.98444
G1 X194.342 Y111.712 E3.01557
G1 X195.247 Y111.452 E3.04658
G1 X196.154 Y111.298 E3.07692
G1 X197.092 Y111.245 E3.10791
G1 X198.031 Y111.298 E3.13889
G1 X198.937 Y111.452 E3.16918
G1 X199.842 Y111.712 E3.20022
G1 X200.685 Y112.061 E3.23031
G1 X201.533 Y112.528 E3.26224
G1 X202.288 Y113.064 E3.29273
G1 X202.976 Y113.680 E3.32318
G1 X203.603 Y114.382 E3.35421
G1 X204.142 Y115.140 E3.38487
G1 X204.605 Y115.987 E3.41668
G1 X204.951 Y116.820 E3.44642
G1 X205.209 Y117.717 E3.47720
G1 X205.366 Y118.638 E3.50798
G1 X205.418 Y119.570 E3.53876
G1 X205.366 Y120.502 E3.56953
G1 X205.209 Y121.423 E3.60031
G1 X204.951 Y122.320 E3.63109
G1 X204.594 Y123.182 E3.66186
G1 X204.142 Y124.000 E3.69264
G1 X203.645 Y124.700 E3.72094
G1 X203.776 Y125.230 F9600.000
G1 F1800.000 E1.72094
G92 E0
G1 X215.454 Y128.984 F9600.000
G1 E2.00000 F1800.000
G1 X215.469 Y128.984 E2.00049 F1995.000
G1 X214.731 Y130.297 E2.05012
G1 X213.959 Y131.474 E2.09653
G1 X213.105 Y132.600 E2.14311
G1 X212.181 Y133.659 E2.18943
G1 X211.182 Y134.659 E2.23604
G1 X210.121 Y135.584 E2.28243
G1 X208.998 Y136.435 E2.32887
G1 X207.886 Y137.164 E2.37271
G1 X206.444 Y137.976 E2.42727
G1 X205.394 Y138.475 E2.46557
G1 X204.006 Y139.022 E2.51478
G1 X202.665 Y139.448 E2.56114
G1 X201.231 Y139.797 E2.60979
G1 X202.504 Y138.045 E2.68118
G1 X203.074 Y136.606 E2.73221
G1 X203.268 Y135.070 E2.78323
G1 X203.074 Y133.534 E2.83426
G1 X202.504 Y132.095 E2.88528
G1 X201.594 Y130.843 E2.93631
G1 X200.401 Y129.856 E2.98734
G1 X199.001 Y129.197 E3.03836
G1 X197.562 Y128.923 E3.08663
G1 X197.591 Y128.486 E3.10104
G1 X198.094 Y128.458 E3.11764
G1 X199.083 Y128.290 E3.15071
G1 X200.047 Y128.013 E3.18377
G1 X200.973 Y127.629 E3.21683
G1 X201.905 Y127.105 E3.25205
G1 X202.669 Y126.563 E3.28295
G1 X203.417 Y125.895 E3.31600
G1 X204.086 Y125.147 E3.34907
G1 X204.666 Y124.329 E3.38213
G1 X205.151 Y123.451 E3.41520
G1 X205.535 Y122.524 E3.44826
G1 X205.813 Y121.561 E3.48132
G1 X205.981 Y120.572 E3.51439
G1 X206.001 Y120.215 E3.52616
G1 X206.422 Y120.174 E3.54012
G1 X206.851 Y121.843 E3.59695
G1 X207.597 Y123.200 E3.64798
G1 X208.656 Y124.328 E3.69900
G1 X209.963 Y125.158 E3.75003
G1 X211.435 Y125.636 E3.80105
G1 X212.980 Y125.733 E3.85208
G1 X214.501 Y125.443 E3.90311
G1 X215.901 Y124.784 E3.95413
G1 X216.913 Y123.947 E3.99741
G1 X217.215 Y124.137 E4.00917
G1 X216.971 Y125.138 E4.04314
G1 X216.512 Y126.587 E4.09325
G1 X216.111 Y127.602 E4.12924
G1 X215.486 Y128.917 E4.17722
G1 F1800.000 E2.17722
G92 E0
G1 X217.396 Y115.758 F9600.000
G1 E2.00000 F1800.000
G1 X217.094 Y115.343 E2.01691 F1995.000
G1 X215.901 Y114.356 E2.06794
G1 X214.501 Y113.697 E2.11896
G1 X212.980 Y113.407 E2.16999
G1 X211.435 Y113.504 E2.22102
G1 X209.963 Y113.983 E2.27204
G1 X208.656 Y114.812 E2.32307
G1 X207.597 Y115.940 E2.37409
G1 X206.851 Y117.297 E2.42512
G1 X206.422 Y118.967 E2.48195
G1 X206.001 Y118.925 E2.49591
G1 X205.981 Y118.568 E2.50769
G1 X205.813 Y117.580 E2.54075
G1 X205.535 Y116.615 E2.57383
G1 X205.151 Y115.689 E2.60689
G1 X204.665 Y114.811 E2.63997
G1 X204.091 Y114.002 E2.67266
G1 X203.380 Y113.212 E2.70772
G1 X202.673 Y112.581 E2.73894
G1 X201.882 Y112.017 E2.77098
G1 X201.065 Y111.562 E2.80180
G1 X201.160 Y111.191 E2.81442
G1 X217.451 Y111.191 E3.35142
G1 X217.567 Y111.482 E3.36173
G1 X217.691 Y112.019 E3.37992
G1 X217.737 Y112.622 E3.39983
G1 X217.737 Y115.647 E3.49956
G1 X217.467 Y115.735 E3.50893
G1 F1800.000 E1.50893
G92 E0
G1 X196.683 Y128.491 F9600.000
G1 E2.00000 F1800.000
G1 X196.684 Y128.957 E2.01535 F1995.000
G1 X195.935 Y129.004 E2.04008
G1 X194.463 Y129.483 E2.09111
G1 X193.156 Y130.312 E2.14213
G1 X192.097 Y131.440 E2.19316
G1 X191.351 Y132.797 E2.24419
G1 X190.966 Y134.296 E2.29521
G1 X190.966 Y135.844 E2.34624
G1 X191.351 Y137.343 E2.39726
G1 X192.097 Y138.700 E2.44829
G1 X192.736 Y139.380 E2.47906
G1 X192.550 Y139.699 E2.49122
G1 X191.526 Y139.449 E2.52595
G1 X190.176 Y139.021 E2.57263
G1 X188.869 Y138.506 E2.61895
G1 X187.595 Y137.899 E2.66547
G1 X186.366 Y137.208 E2.71195
G1 X185.189 Y136.437 E2.75833
G1 X184.063 Y135.582 E2.80493
G1 X182.892 Y134.561 E2.85615
G1 X182.202 Y133.872 E2.88829
G1 X180.995 Y132.488 E2.94882
G1 X180.225 Y131.472 E2.99086
G1 X179.455 Y130.298 E3.03711
G1 X178.762 Y129.066 E3.08372
G1 X178.158 Y127.796 E3.13007
G1 X177.640 Y126.482 E3.17664
G1 X177.215 Y125.141 E3.22301
G1 X176.969 Y124.135 E3.25715
G1 X177.304 Y123.954 E3.26970
G1 X177.656 Y124.328 E3.28665
G1 X178.963 Y125.158 E3.33768
G1 X180.435 Y125.636 E3.38870
G1 X181.980 Y125.733 E3.43973
G1 X183.501 Y125.443 E3.49075
G1 X184.901 Y124.784 E3.54178
G1 X186.094 Y123.797 E3.59281
G1 X187.004 Y122.545 E3.64383
G1 X187.574 Y121.106 E3.69486
G1 X187.720 Y119.952 E3.73320
G1 X188.171 Y119.968 E3.74807
G1 X188.204 Y120.572 E3.76801
G1 X188.372 Y121.560 E3.80107
G1 X188.650 Y122.524 E3.83414
G1 X189.034 Y123.451 E3.86720
G1 X189.519 Y124.329 E3.90026
G1 X190.100 Y125.147 E3.93333
G1 X190.768 Y125.895 E3.96638
G1 X191.516 Y126.563 E3.99946
G1 X192.334 Y127.143 E4.03251
G1 X193.212 Y127.629 E4.06558
G1 X194.138 Y128.012 E4.09864
G1 X195.102 Y128.290 E4.13170
G1 X196.091 Y128.458 E4.16476
G1 X196.608 Y128.487 E4.18182
G1 F1800.000 E2.18182
G92 E0
G1 X188.171 Y119.173 F9600.000
G1 E2.00000 F1800.000
G1 X187.720 Y119.188 E2.01487 F1995.000
G1 X187.574 Y118.034 E2.05321
G1 X187.004 Y116.595 E2.10424
G1 X186.094 Y115.343 E2.15526
G1 X184.901 Y114.356 E2.20629
G1 X183.501 Y113.697 E2.25732
G1 X181.980 Y113.407 E2.30834
G1 X180.668 Y113.490 E2.35168
G1 X180.435 Y113.504 E2.35937
G1 X178.963 Y113.983 E2.41039
G1 X177.656 Y114.812 E2.46142
G1 X176.448 Y116.099 E2.51961
G1 X176.448 Y112.622 E2.63423
G1 X176.501 Y111.920 E2.65742
G1 X176.560 Y111.665 E2.66606
G1 X176.749 Y111.191 E2.68287
G1 X193.025 Y111.191 E3.21937
G1 X193.120 Y111.562 E3.23199
G1 X192.327 Y112.000 E3.26187
G1 X191.512 Y112.581 E3.29486
G1 X190.810 Y113.208 E3.32590
G1 X190.092 Y114.004 E3.36121
G1 X189.520 Y114.811 E3.39382
G1 X189.034 Y115.689 E3.42690
G1 X188.650 Y116.616 E3.45998
G1 X188.373 Y117.579 E3.49303
G1 X188.204 Y118.569 E3.52611
G1 X188.175 Y119.098 E3.54358
G1 F1800.000 E1.54358
G92 E0
G1 X176.262 Y118.179 F9600.000
G1 E2.00000 F1800.000
G1 X175.830 Y118.124 E2.01436 F1575.000
G1 X175.830 Y112.598 E2.19652
G1 X175.889 Y111.827 E2.22202
G1 X175.969 Y111.480 E2.23376
G1 X176.331 Y110.573 E2.26592
G1 X217.870 Y110.573 E3.63521
G1 X218.158 Y111.296 E3.66087
G1 X218.304 Y111.926 E3.68216
G1 X218.355 Y112.598 E3.70439
G1 X218.355 Y118.069 E3.88474
G1 X217.953 Y118.146 E3.89821
G1 X217.458 Y116.895 E3.94255
G1 X216.640 Y115.769 E3.98843
G1 X215.568 Y114.882 E4.03431
G1 X214.308 Y114.289 E4.08019
G1 X212.941 Y114.029 E4.12607
G1 X211.552 Y114.116 E4.17195
G1 X210.228 Y114.546 E4.21783
G1 X209.053 Y115.292 E4.26371
G1 X208.100 Y116.306 E4.30959
G1 X207.430 Y117.526 E4.35547
G1 X207.084 Y118.874 E4.40135
G1 X207.084 Y120.266 E4.44724
G1 X207.391 Y121.464 E4.48800
G1 X207.430 Y121.614 E4.49312
G1 X208.100 Y122.834 E4.53900
G1 X209.053 Y123.848 E4.58488
G1 X209.184 Y123.932 E4.58999
G1 X210.228 Y124.594 E4.63076
G1 X211.552 Y125.024 E4.67664
G1 X212.941 Y125.112 E4.72252
G1 X214.308 Y124.851 E4.76840
G1 X215.568 Y124.258 E4.81428
G1 X216.640 Y123.371 E4.86016
G1 X217.458 Y122.245 E4.90604
G1 X217.853 Y121.249 E4.94137
G1 X218.271 Y121.351 E4.95556
G1 X218.157 Y122.464 E4.99245
G1 X217.910 Y123.897 E5.04040
G1 X217.567 Y125.305 E5.08814
G1 X217.094 Y126.794 E5.13964
G1 X216.678 Y127.849 E5.17702
G1 X215.920 Y129.442 E5.23518
G1 X215.259 Y130.618 E5.27965
G1 X214.464 Y131.830 E5.32745
G1 X213.585 Y132.990 E5.37542
G1 X212.633 Y134.081 E5.42313
G1 X211.603 Y135.111 E5.47114
G1 X210.511 Y136.063 E5.51891
G1 X209.355 Y136.940 E5.56675
G1 X208.207 Y137.693 E5.61198
G1 X206.728 Y138.524 E5.66793
G1 X205.640 Y139.042 E5.70762
G1 X204.208 Y139.606 E5.75837
G1 X202.832 Y140.043 E5.80598
G1 X201.414 Y140.388 E5.85406
G1 X199.988 Y140.634 E5.90178
G1 X198.944 Y140.742 E5.93636
G1 X198.833 Y140.340 E5.95012
G1 X200.068 Y139.758 E5.99512
G1 X201.140 Y138.871 E6.04100
G1 X201.958 Y137.745 E6.08688
G1 X202.471 Y136.451 E6.13276
G1 X202.645 Y135.070 E6.17864
G1 X202.490 Y133.843 E6.21941
G1 X202.471 Y133.689 E6.22452
G1 X201.958 Y132.395 E6.27040
G1 X201.140 Y131.269 E6.31628
G1 X200.187 Y130.481 E6.35705
G1 X200.068 Y130.382 E6.36216
G1 X198.808 Y129.789 E6.40804
G1 X197.441 Y129.529 E6.45392
G1 X196.207 Y129.606 E6.49469
G1 X196.052 Y129.616 E6.49980
G1 X194.728 Y130.046 E6.54568
G1 X193.553 Y130.792 E6.59156
G1 X192.600 Y131.806 E6.63745
G1 X191.930 Y133.026 E6.68333
G1 X191.622 Y134.224 E6.72409
G1 X191.584 Y134.374 E6.72921
G1 X191.584 Y135.766 E6.77509
G1 X191.930 Y137.114 E6.82097
G1 X192.600 Y138.334 E6.86685
G1 X193.553 Y139.348 E6.91273
G1 X194.728 Y140.094 E6.95861
G1 X195.405 Y140.314 E6.98205
G1 X195.313 Y140.749 E6.99670
G1 X194.201 Y140.635 E7.03355
G1 X192.774 Y140.389 E7.08128
G1 X191.361 Y140.045 E7.12921
G1 X189.969 Y139.604 E7.17734
G1 X188.626 Y139.074 E7.22493
G1 X187.310 Y138.448 E7.27296
G1 X186.042 Y137.735 E7.32095
G1 X184.833 Y136.942 E7.36861
G1 X183.673 Y136.062 E7.41660
G1 X182.470 Y135.013 E7.46921
G1 X181.750 Y134.294 E7.50274
G1 X180.516 Y132.878 E7.56466
G1 X179.720 Y131.828 E7.60809
G1 X178.927 Y130.620 E7.65574
G1 X178.213 Y129.350 E7.70374
G1 X177.591 Y128.042 E7.75148
G1 X177.058 Y126.689 E7.79944
G1 X176.619 Y125.308 E7.84720
G1 X176.275 Y123.895 E7.89514
G1 X176.028 Y122.465 E7.94297
G1 X175.932 Y121.531 E7.97391
G1 X176.318 Y121.411 E7.98723
G1 X177.100 Y122.834 E8.04075
G1 X178.053 Y123.848 E8.08663
G1 X179.228 Y124.594 E8.13251
G1 X180.552 Y125.024 E8.17839
G1 X181.941 Y125.112 E8.22428
G1 X183.308 Y124.851 E8.27016
G1 X184.568 Y124.258 E8.31604
G1 X185.640 Y123.371 E8.36192
G1 X186.458 Y122.245 E8.40780
G1 X186.971 Y120.951 E8.45368
G1 X187.145 Y119.570 E8.49956
G1 X186.971 Y118.189 E8.54544
G1 X186.515 Y117.039 E8.58621
