; generated by Slic3r 1.1.7 on 2015-02-16 at 09:41:02

; perimeters extrusion width = 0.50mm
; infill extrusion width = 0.54mm
; solid infill extrusion width = 0.45mm
; top infill extrusion width = 0.40mm

G21 ; set units to millimeters
M107

M301 P34 I4 D113     ; set PID nozzle
M304 P162 I17 D378 ; set PID Bed

M104 S230                  ; set extruder temp for budaschnozzle
;M104 S240                 ; set extruder temp for hex_hot_end
M140 S95                    ; set bed temp for PET
;M140 S110                 ; set bed temp for PEI (reminder ~G1 Z2 ~ M140 S(@-10 degree change) ;if -m is present in file name)

G28                            ; home
G1 Z5 F300                ; move bed down 5mm
M84                            ; disable steppers
G4 S300                     ; wait 5 mins to preheat

G28                            ; home

G90 ; use absolute coordinates
G92 E0
M82 ; use absolute distances for extrusion
G1 F1500.000 E-1.20000
G92 E0
G1 Z0.350 F9000.000
G1 X99.306 Y83.901 F9000.000
G1 E1.20000 F1500.000
G1 X101.044 Y82.514 E1.27307 F1260.000
G1 X104.000 Y81.768 E1.37324
G1 X194.000 Y81.768 E4.33056
G1 X196.188 Y82.165 E4.40363
G1 X198.098 Y83.305 E4.47670 F1260.000
G1 X199.485 Y85.043 E4.54977
G1 X200.232 Y87.998 E4.64995
G1 X200.250 Y189.636 E7.98965
G1 X199.853 Y191.824 E8.06273
G1 X198.713 Y193.733 E8.13580
G1 X196.975 Y195.121 E8.20887
G1 X194.112 Y195.867 E8.30608
G1 X170.000 Y196.232 E9.09848
G1 X127.906 Y196.231 E10.48166
G1 X103.888 Y195.867 E11.27096
G1 X101.706 Y195.437 E11.34403
G1 X99.814 Y194.268 E11.41710
G1 X98.453 Y192.510 E11.49018
G1 X97.750 Y189.636 E11.58739
G1 X97.768 Y87.998 E14.92709
G1 X98.166 Y85.810 E15.00016
G1 X99.267 Y83.966 E15.07077
G1 X99.850 Y84.248 F9000.000
G1 X99.915 Y84.146 E15.07473 F1260.000
G1 X101.625 Y82.911 E15.14406
G1 X104.000 Y82.384 E15.22399
G1 X194.000 Y82.384 E18.18130
G1 X196.073 Y82.781 E18.25064
G1 X197.853 Y83.914 E18.31997 F1260.000
G1 X199.089 Y85.624 E18.38931
G1 X199.616 Y87.999 E18.46923
G1 X199.634 Y189.636 E21.80893
G1 X199.237 Y191.708 E21.87827
G1 X198.104 Y193.488 E21.94761
G1 X196.394 Y194.724 E22.01694
G1 X194.103 Y195.251 E22.09418
G1 X170.000 Y195.616 E22.88627
G1 X127.915 Y195.615 E24.26915
G1 X103.897 Y195.251 E25.05844
G1 X101.831 Y194.823 E25.12778
G1 X100.068 Y193.663 E25.19712
G1 X98.858 Y191.934 E25.26645
G1 X98.366 Y189.636 E25.34369
G1 X98.384 Y87.999 E28.68339
G1 X98.781 Y85.926 E28.75273
G1 X99.810 Y84.311 E28.81564
G1 F1500.000 E27.61564
G92 E0
G1 X138.521 Y132.535 F9000.000
G1 E1.20000 F1500.000
M204 S600
G1 X138.035 Y133.021 E1.22258 F1890.000
G1 X137.955 Y133.077 E1.22579
G1 X137.472 Y133.415 E1.24517
G1 X136.849 Y133.705 E1.26776
G1 X136.185 Y133.883 E1.29034
G1 X135.500 Y133.943 E1.31293
G1 X134.815 Y133.883 E1.33551
G1 X134.151 Y133.705 E1.35810
G1 X133.528 Y133.415 E1.38069
G1 X132.965 Y133.021 E1.40327
G1 X132.479 Y132.535 E1.42585
G1 X132.085 Y131.972 E1.44844
G1 X131.795 Y131.349 E1.47103
G1 X131.617 Y130.685 E1.49361
G1 X131.557 Y130.000 E1.51619
G1 X131.617 Y129.315 E1.53878
G1 X131.795 Y128.651 E1.56137
G1 X132.085 Y128.028 E1.58395
G1 X132.479 Y127.465 E1.60654
G1 X132.965 Y126.979 E1.62912
G1 X133.045 Y126.923 E1.63232
G1 X133.528 Y126.585 E1.65171
G1 X134.151 Y126.295 E1.67430
G1 X134.815 Y126.117 E1.69688
G1 X135.500 Y126.057 E1.71946
G1 X135.597 Y126.065 E1.72267
M204 S800
M204 S600
G1 X136.185 Y126.117 E1.74204 F1890.000
G1 X136.849 Y126.295 E1.76464
G1 X137.472 Y126.585 E1.78722
G1 X138.035 Y126.979 E1.80981
G1 X138.521 Y127.465 E1.83239
G1 X138.915 Y128.028 E1.85498
G1 X139.205 Y128.651 E1.87757
G1 X139.383 Y129.315 E1.90015
G1 X139.443 Y130.000 E1.92273
G1 X139.383 Y130.685 E1.94531
G1 X139.205 Y131.349 E1.96791
G1 X138.915 Y131.972 E1.99049
G1 X138.564 Y132.473 E2.01061
M204 S800
G1 X138.047 Y132.137 F9000.000
M204 S600
G1 X137.602 Y132.572 E2.03107 F1323.000
G1 X137.163 Y132.880 E2.04868
G1 X136.637 Y133.124 E2.06772
G1 X136.077 Y133.274 E2.08677
G1 X135.457 Y133.321 E2.10722
G1 X134.923 Y133.274 E2.12484
G1 X134.363 Y133.124 E2.14388
G1 X133.837 Y132.880 E2.16293
G1 X133.363 Y132.547 E2.18197
G1 X132.953 Y132.137 E2.20101
G1 X132.620 Y131.662 E2.22006
G1 X132.376 Y131.137 E2.23911
G1 X132.226 Y130.577 E2.25815
G1 X132.175 Y130.000 E2.27719
G1 X132.237 Y129.381 E2.29765
G1 X132.376 Y128.863 E2.31526
G1 X132.620 Y128.337 E2.33431
G1 X132.953 Y127.863 E2.35335
G1 X133.363 Y127.453 E2.37240
G1 X133.837 Y127.120 E2.39144
G1 X134.363 Y126.876 E2.41049
G1 X134.966 Y126.722 E2.43094
M204 S800
M204 S600
G1 X135.500 Y126.675 E2.44855 F1323.000
G1 X136.077 Y126.726 E2.46760
G1 X136.637 Y126.876 E2.48664
G1 X137.163 Y127.120 E2.50569
G1 X137.637 Y127.453 E2.52473
G1 X138.047 Y127.863 E2.54378
G1 X138.380 Y128.337 E2.56282
G1 X138.624 Y128.863 E2.58187
G1 X138.774 Y129.423 E2.60091
G1 X138.825 Y130.000 E2.61995
G1 X138.774 Y130.577 E2.63900
G1 X138.624 Y131.137 E2.65804
G1 X138.380 Y131.663 E2.67709
G1 X138.090 Y132.076 E2.69367
M204 S800
G1 F1500.000 E1.49367
G92 E0
G1 X134.838 Y126.238 F9000.000
G1 X142.940 Y141.860 F9000.000
G1 E1.20000 F1500.000
M204 S600
G1 X142.940 Y150.940 E1.49833 F1890.000
G1 X131.060 Y150.940 E1.88867
G1 X131.060 Y141.860 E2.18701
G1 X142.865 Y141.860 E2.57488
M204 S800
G1 X142.324 Y142.476 F9000.000
M204 S600
G1 X142.324 Y150.324 E2.83274 F1323.000
G1 X131.676 Y150.324 E3.18261
G1 X131.676 Y142.476 E3.44047
G1 X142.249 Y142.476 E3.78787
M204 S800
G1 X142.824 Y142.476 F9000.000
G1 X145.060 Y153.060 F9000.000
M204 S600
G1 X128.940 Y153.060 E4.31758 F1890.000
G1 X128.940 Y124.940 E5.24161
G1 X145.060 Y124.940 E5.77132
G1 X145.060 Y152.985 E6.69288
M204 S800
G1 X145.676 Y153.676 F9000.000
M204 S600
G1 X128.324 Y153.676 E7.26307 F1323.000
G1 X128.324 Y124.324 E8.22756
G1 X145.676 Y124.324 E8.79775
G1 X145.676 Y153.601 E9.75978
M204 S800
G1 X145.243 Y153.426 F9000.000
G1 X129.406 Y152.634 F9000.000
M204 S800
G1 X129.366 Y152.594 E9.76164 F2310.000
G1 X129.366 Y151.709 E9.79070
G1 X130.291 Y152.634 E9.83366
G1 X131.175 Y152.634 E9.86272
G1 X129.366 Y150.825 E9.94679
M204 S800
G1 X133.765 Y133.996 F9000.000
M204 S800
G1 X141.203 Y141.434 E10.29245 F2310.000
G1 X142.087 Y141.434 E10.32151
G1 X134.979 Y134.326 E10.65183
M204 S800
G1 F1500.000 E9.45183
G92 E0
G1 X137.304 Y126.036 F9000.000
G1 E1.20000 F1500.000
M204 S800
G1 X136.700 Y125.432 E1.22807 F2310.000
M204 S800
G1 X134.312 Y125.698 F9000.000
M204 S800
G1 X133.980 Y125.366 E1.24350 F2310.000
G1 X133.096 Y125.366 E1.27256
G1 X133.744 Y126.014 E1.30268
G1 X133.164 Y126.319 E1.32419
G1 X132.211 Y125.366 E1.36849
G1 X131.327 Y125.366 E1.39756
G1 X132.651 Y126.691 E1.45911
G1 X132.209 Y127.133 E1.47966
G1 X130.442 Y125.366 E1.56176
G1 X129.558 Y125.366 E1.59082
G1 X131.834 Y127.643 E1.69663
G1 X131.526 Y128.219 E1.71810
G1 X129.366 Y126.059 E1.81846
G1 X129.366 Y126.944 E1.84752
G1 X131.294 Y128.872 E1.93712
G1 X131.162 Y129.624 E1.96221
G1 X129.366 Y127.828 E2.04565
G1 X129.366 Y128.713 E2.07471
G1 X131.174 Y130.521 E2.15874
G1 X131.504 Y131.735 E2.20010
G1 X129.366 Y129.597 E2.29947
G1 X129.366 Y130.482 E2.32853
G1 X140.318 Y141.434 E2.83749
G1 X139.434 Y141.434 E2.86655
G1 X129.366 Y131.366 E3.33440
G1 X129.366 Y132.251 E3.36346
G1 X138.549 Y141.434 E3.79021
G1 X137.665 Y141.434 E3.81928
G1 X129.366 Y133.135 E4.20492
G1 X129.366 Y134.020 E4.23399
G1 X136.780 Y141.434 E4.57853
G1 X135.896 Y141.434 E4.60759
G1 X129.366 Y134.904 E4.91104
G1 X129.366 Y135.789 E4.94010
G1 X135.011 Y141.434 E5.20244
G1 X134.127 Y141.434 E5.23150
G1 X129.366 Y136.673 E5.45274
G1 X129.366 Y137.558 E5.48181
G1 X133.242 Y141.434 E5.66194
G1 X132.358 Y141.434 E5.69100
G1 X129.366 Y138.442 E5.83004
G1 X129.366 Y139.327 E5.85910
G1 X131.473 Y141.434 E5.95703
G1 X130.634 Y141.479 E5.98466
G1 X129.366 Y140.211 E6.04358
G1 X129.366 Y141.096 E6.07264
G1 X130.634 Y142.363 E6.13156
G1 X130.634 Y143.248 E6.16062
G1 X129.366 Y141.980 E6.21954
G1 X129.366 Y142.864 E6.24860
G1 X130.634 Y144.132 E6.30752
G1 X130.634 Y145.017 E6.33658
G1 X129.366 Y143.749 E6.39550
G1 X129.366 Y144.633 E6.42457
G1 X130.634 Y145.901 E6.48348
G1 X130.634 Y146.786 E6.51255
G1 X129.366 Y145.518 E6.57146
G1 X129.366 Y146.402 E6.60053
G1 X130.634 Y147.670 E6.65945
G1 X130.634 Y148.555 E6.68851
G1 X129.366 Y147.287 E6.74743
G1 X129.366 Y148.171 E6.77649
G1 X130.634 Y149.439 E6.83541
G1 X130.634 Y150.324 E6.86447
G1 X129.366 Y149.056 E6.92339
G1 X129.366 Y149.940 E6.95245
G1 X132.060 Y152.634 E7.07762
G1 X132.944 Y152.634 E7.10668
G1 X131.676 Y151.366 E7.16560
G1 X132.561 Y151.366 E7.19466
G1 X133.829 Y152.634 E7.25358
G1 X134.713 Y152.634 E7.28265
G1 X133.445 Y151.366 E7.34156
G1 X134.330 Y151.366 E7.37063
G1 X135.598 Y152.634 E7.42954
G1 X136.482 Y152.634 E7.45861
G1 X135.214 Y151.366 E7.51753
G1 X136.099 Y151.366 E7.54659
G1 X137.367 Y152.634 E7.60551
G1 X138.251 Y152.634 E7.63457
G1 X136.983 Y151.366 E7.69349
G1 X137.868 Y151.366 E7.72255
G1 X139.136 Y152.634 E7.78147
G1 X140.020 Y152.634 E7.81053
G1 X138.752 Y151.366 E7.86945
G1 X139.637 Y151.366 E7.89852
G1 X140.904 Y152.634 E7.95743
G1 X141.789 Y152.634 E7.98650
G1 X140.521 Y151.366 E8.04541
G1 X141.406 Y151.366 E8.07448
G1 X142.673 Y152.634 E8.13340
G1 X143.558 Y152.634 E8.16246
G1 X142.290 Y151.366 E8.22138
G1 X143.175 Y151.366 E8.25044
G1 X144.442 Y152.634 E8.30936
G1 X144.634 Y151.941 E8.33298
G1 X143.366 Y150.673 E8.39190
G1 X143.366 Y149.789 E8.42097
G1 X144.634 Y151.056 E8.47988
G1 X144.634 Y150.172 E8.50895
G1 X143.366 Y148.904 E8.56786
G1 X143.366 Y148.020 E8.59693
G1 X144.634 Y149.287 E8.65585
G1 X144.634 Y148.403 E8.68491
G1 X143.366 Y147.135 E8.74383
G1 X143.366 Y146.251 E8.77289
G1 X144.634 Y147.518 E8.83181
G1 X144.634 Y146.634 E8.86087
G1 X143.366 Y145.366 E8.91979
G1 X143.366 Y144.482 E8.94885
G1 X144.634 Y145.749 E9.00777
G1 X144.634 Y144.865 E9.03683
G1 X143.366 Y143.597 E9.09575
G1 X143.366 Y142.713 E9.12482
G1 X144.634 Y143.980 E9.18373
G1 X144.634 Y143.096 E9.21280
G1 X135.876 Y134.338 E9.61976
G1 X136.628 Y134.206 E9.64485
G1 X144.634 Y142.211 E10.01687
G1 X144.634 Y141.327 E10.04593
G1 X137.281 Y133.974 E10.38761
G1 X137.857 Y133.666 E10.40908
G1 X144.634 Y140.442 E10.72400
G1 X144.634 Y139.558 E10.75306
G1 X138.367 Y133.291 E11.04428
G1 X138.809 Y132.849 E11.06483
G1 X144.634 Y138.673 E11.33549
G1 X144.634 Y137.789 E11.36455
G1 X139.181 Y132.336 E11.61797
G1 X139.486 Y131.756 E11.63948
G1 X144.634 Y136.904 E11.87871
G1 X144.634 Y136.020 E11.90778
G1 X139.714 Y131.100 E12.13643
G1 X139.841 Y130.343 E12.16164
G1 X144.634 Y135.136 E12.38436
G1 X144.634 Y134.251 E12.41342
G1 X139.822 Y129.439 E12.63702
G1 X139.464 Y128.196 E12.67953
G1 X144.634 Y133.367 E12.91978
G1 X144.634 Y132.482 E12.94885
G1 X137.518 Y125.366 E13.27952
G1 X138.402 Y125.366 E13.30859
G1 X144.634 Y131.598 E13.59816
G1 X144.634 Y130.713 E13.62722
G1 X139.287 Y125.366 E13.87570
G1 X140.171 Y125.366 E13.90476
G1 X144.634 Y129.829 E14.11213
G1 X144.634 Y128.944 E14.14119
G1 X141.056 Y125.366 E14.30746
G1 X141.940 Y125.366 E14.33652
G1 X144.634 Y128.060 E14.46169
G1 X144.634 Y127.175 E14.49075
G1 X142.825 Y125.366 E14.57482
G1 X143.709 Y125.366 E14.60388
G1 X144.634 Y126.291 E14.64684
G1 X144.634 Y125.406 E14.67591
G1 X144.594 Y125.366 E14.67776
M204 S800
G1 X136.268 Y125.531 F9000.000
G1 X135.522 Y125.498 E14.69218 F420.000
G1 X134.732 Y125.531 E14.70744
G1 F1500.000 E13.50744
G92 E0
G1 X112.849 Y133.705 F9000.000
G1 E1.20000 F1500.000
M204 S600
G1 X112.185 Y133.883 E1.22258 F1890.000
G1 X111.500 Y133.943 E1.24516
G1 X110.815 Y133.883 E1.26775
G1 X110.151 Y133.705 E1.29034
G1 X109.528 Y133.415 E1.31292
G1 X108.965 Y133.021 E1.33551
G1 X108.479 Y132.535 E1.35809
G1 X108.085 Y131.972 E1.38068
G1 X107.795 Y131.349 E1.40327
G1 X107.617 Y130.685 E1.42585
G1 X107.557 Y130.000 E1.44843
G1 X107.617 Y129.315 E1.47102
G1 X107.642 Y129.221 E1.47422
G1 X107.795 Y128.651 E1.49361
G1 X108.085 Y128.028 E1.51619
G1 X108.479 Y127.465 E1.53878
G1 X108.965 Y126.979 E1.56136
G1 X109.045 Y126.923 E1.56456
G1 X109.528 Y126.585 E1.58395
G1 X110.151 Y126.295 E1.60654
G1 X110.815 Y126.117 E1.62912
G1 X111.500 Y126.057 E1.65170
G1 X111.597 Y126.065 E1.65491
M204 S800
M204 S600
G1 X112.185 Y126.117 E1.67428 F1890.000
G1 X112.849 Y126.295 E1.69688
G1 X113.472 Y126.585 E1.71946
G1 X114.035 Y126.979 E1.74205
G1 X114.521 Y127.465 E1.76463
G1 X114.915 Y128.028 E1.78722
G1 X115.205 Y128.651 E1.80981
G1 X115.383 Y129.315 E1.83239
G1 X115.443 Y130.000 E1.85497
G1 X115.383 Y130.685 E1.87755
G1 X115.205 Y131.349 E1.90014
G1 X114.915 Y131.972 E1.92273
G1 X114.521 Y132.535 E1.94531
G1 X114.035 Y133.021 E1.96790
G1 X113.472 Y133.415 E1.99048
G1 X112.917 Y133.674 E2.01061
M204 S800
G1 X112.637 Y133.124 F9000.000
M204 S600
G1 X112.077 Y133.274 E2.02965 F1323.000
G1 X111.500 Y133.325 E2.04870
G1 X110.923 Y133.274 E2.06774
G1 X110.363 Y133.124 E2.08679
G1 X109.837 Y132.880 E2.10583
G1 X109.363 Y132.547 E2.12488
G1 X108.928 Y132.102 E2.14533
G1 X108.620 Y131.662 E2.16294
G1 X108.376 Y131.137 E2.18199
G1 X108.226 Y130.577 E2.20103
G1 X108.175 Y130.000 E2.22008
G1 X108.237 Y129.381 E2.24053
G1 X108.376 Y128.863 E2.25815
G1 X108.620 Y128.337 E2.27719
G1 X108.953 Y127.863 E2.29624
G1 X109.363 Y127.453 E2.31528
G1 X109.837 Y127.120 E2.33432
G1 X110.363 Y126.876 E2.35337
G1 X110.966 Y126.722 E2.37383
M204 S800
M204 S600
G1 X111.500 Y126.675 E2.39144 F1323.000
G1 X112.077 Y126.726 E2.41048
G1 X112.637 Y126.876 E2.42953
G1 X113.163 Y127.120 E2.44857
G1 X113.637 Y127.453 E2.46762
G1 X114.047 Y127.863 E2.48666
G1 X114.380 Y128.337 E2.50571
G1 X114.624 Y128.863 E2.52475
G1 X114.774 Y129.423 E2.54380
G1 X114.825 Y130.000 E2.56284
G1 X114.774 Y130.577 E2.58188
G1 X114.624 Y131.137 E2.60093
G1 X114.380 Y131.663 E2.61997
G1 X114.047 Y132.137 E2.63902
G1 X113.637 Y132.547 E2.65806
G1 X113.163 Y132.880 E2.67711
G1 X112.705 Y133.093 E2.69369
M204 S800
G1 F1500.000 E1.49369
G92 E0
G1 X110.880 Y126.229 F9000.000
G1 X107.060 Y141.860 F9000.000
G1 E1.20000 F1500.000
M204 S600
G1 X118.940 Y141.860 E1.59034 F1890.000
G1 X118.940 Y150.940 E1.88867
G1 X107.060 Y150.940 E2.27901
G1 X107.060 Y141.935 E2.57488
M204 S800
G1 X107.676 Y142.476 F9000.000
M204 S600
G1 X118.324 Y142.476 E2.92475 F1323.000
G1 X118.324 Y150.324 E3.18261
G1 X107.676 Y150.324 E3.53247
G1 X107.676 Y142.551 E3.78787
M204 S800
G1 X107.676 Y141.976 F9000.000
G1 X104.940 Y153.060 F9000.000
M204 S600
G1 X104.940 Y124.940 E4.71189 F1890.000
G1 X121.060 Y124.940 E5.24161
G1 X121.060 Y153.060 E6.16563
G1 X105.015 Y153.060 E6.69288
M204 S800
G1 X104.324 Y153.676 F9000.000
M204 S600
G1 X104.324 Y124.324 E7.65737 F1323.000
G1 X121.676 Y124.324 E8.22756
G1 X121.676 Y153.676 E9.19206
G1 X104.399 Y153.676 E9.75978
M204 S800
G1 X104.574 Y153.243 F9000.000
G1 X105.406 Y152.634 F9000.000
M204 S800
G1 X105.366 Y152.594 E9.76164 F2310.000
G1 X105.366 Y151.709 E9.79070
G1 X106.291 Y152.634 E9.83366
G1 X107.175 Y152.634 E9.86272
G1 X105.366 Y150.825 E9.94679
M204 S800
G1 X109.765 Y133.996 F9000.000
M204 S800
G1 X117.203 Y141.434 E10.29245 F2310.000
G1 X118.087 Y141.434 E10.32151
G1 X110.979 Y134.326 E10.65183
M204 S800
G1 F1500.000 E9.45183
G92 E0
G1 X113.304 Y126.036 F9000.000
G1 E1.20000 F1500.000
M204 S800
G1 X112.700 Y125.432 E1.22807 F2310.000
M204 S800
G1 X110.312 Y125.698 F9000.000
M204 S800
G1 X109.980 Y125.366 E1.24350 F2310.000
G1 X109.096 Y125.366 E1.27256
G1 X109.744 Y126.014 E1.30268
G1 X109.164 Y126.319 E1.32419
G1 X108.211 Y125.366 E1.36849
G1 X107.327 Y125.366 E1.39756
G1 X108.651 Y126.691 E1.45911
G1 X108.209 Y127.133 E1.47966
G1 X106.442 Y125.366 E1.56176
G1 X105.558 Y125.366 E1.59082
G1 X107.834 Y127.643 E1.69663
G1 X107.526 Y128.219 E1.71810
G1 X105.366 Y126.059 E1.81846
G1 X105.366 Y126.944 E1.84752
G1 X107.294 Y128.872 E1.93712
G1 X107.162 Y129.624 E1.96221
G1 X105.366 Y127.828 E2.04565
G1 X105.366 Y128.713 E2.07471
G1 X107.174 Y130.521 E2.15874
G1 X107.504 Y131.735 E2.20010
G1 X105.366 Y129.597 E2.29947
G1 X105.366 Y130.482 E2.32853
G1 X116.318 Y141.434 E2.83749
G1 X115.434 Y141.434 E2.86655
G1 X105.366 Y131.366 E3.33440
G1 X105.366 Y132.251 E3.36346
G1 X114.549 Y141.434 E3.79021
G1 X113.665 Y141.434 E3.81928
