; generated by Slic3r 1.1.7 on 2015-05-12 at 18:00:47

; perimeters extrusion width = 0.43mm
; infill extrusion width = 0.49mm
; solid infill extrusion width = 0.43mm
; top infill extrusion width = 0.42mm

G21 ; set units to millimeters
M107

M301 P34 I4 D113     ; set PID nozzle
M304 P162 I17 D378 ; set PID Bed

M104 S230                 ; set extruder temp for budaschnozzle
;M104 S250                 ; set extruder temp for hex_hot_end
;M140 S100                 ; set bed temp for PET
M140 S110                 ; set bed temp for PEI (reminder ~G1 Z2 ~ M140 S(@-10 degree change) ;if -m is present in file name)

;G28                            ; home
;G1 Z5 F300                ; move bed down 5mm
;M84                            ; disable steppers
;G4 S300                     ; wait 5 mins to preheat

G28                            ; home

G90 ; use absolute coordinates
G92 E0
M82 ; use absolute distances for extrusion
G1 F1200.000 E-1.00000
G92 E0
G1 Z0.350 F9600.000
G1 X186.929 Y59.334 F9600.000
G1 E1.00000 F1200.000
G1 X187.787 Y58.070 E1.04715 F1080.000
G1 X188.458 Y57.241 E1.08008
G1 X190.320 Y55.438 E1.16008
G1 X191.551 Y54.533 E1.20725
G1 X192.461 Y53.976 E1.24018
G1 X193.827 Y53.294 E1.28732
G1 X194.819 Y52.898 E1.32026
G1 X196.281 Y52.458 E1.36742
G1 X197.325 Y52.237 E1.40034
G1 X199.540 Y52.003 E1.46909
G1 X241.928 Y51.518 E2.77766
G1 X247.551 Y51.542 E2.95123
G1 X248.293 Y51.607 E2.97422 F1080.000
G1 X249.357 Y51.793 E3.00755
G1 X251.053 Y52.345 E3.06262
G1 X252.628 Y53.182 E3.11767
G1 X253.206 Y53.587 E3.13945
G1 X254.080 Y54.327 E3.17482
G1 X255.226 Y55.606 E3.22782
G1 X255.631 Y56.184 E3.24959
G1 X256.200 Y57.179 E3.28497
G1 X256.839 Y58.772 E3.33797
G1 X257.022 Y59.454 E3.35975
G1 X257.210 Y60.517 E3.39307
G1 X257.299 Y61.803 E3.43287
G1 X257.272 Y211.356 E8.04935
G1 X256.962 Y213.932 E8.12945
G1 X256.263 Y216.255 E8.20432
G1 X255.071 Y218.666 E8.28737
G1 X254.213 Y219.929 E8.33450
G1 X253.542 Y220.759 E8.36745
G1 X251.680 Y222.563 E8.44746
G1 X250.449 Y223.467 E8.49462
G1 X249.539 Y224.024 E8.52755
G1 X247.181 Y225.102 E8.60756
G1 X245.719 Y225.542 E8.65470
G1 X244.675 Y225.763 E8.68764
G1 X243.160 Y225.950 E8.73477
G1 X242.460 Y225.997 E8.75641
G1 X200.072 Y226.482 E10.06498
G1 X195.045 Y226.482 E10.22015
G1 X194.383 Y226.453 E10.24061
G1 X192.643 Y226.207 E10.29484
G1 X190.947 Y225.655 E10.34990
G1 X189.372 Y224.818 E10.40496
G1 X188.797 Y224.415 E10.42664
G1 X187.967 Y223.720 E10.46005
G1 X186.774 Y222.394 E10.51511
G1 X186.370 Y221.818 E10.53683
G1 X185.829 Y220.881 E10.57021
G1 X185.532 Y220.244 E10.59191
G1 X185.161 Y219.228 E10.62531
G1 X184.978 Y218.547 E10.64707
G1 X184.790 Y217.483 E10.68042
G1 X184.701 Y216.197 E10.72021
G1 X184.728 Y66.644 E15.33669
G1 X185.038 Y64.068 E15.41679
G1 X185.737 Y61.746 E15.49166
G1 X186.896 Y59.401 E15.57239
G1 X187.408 Y59.659 F9600.000
G1 X188.266 Y58.395 E15.61955 F1080.000
G1 X188.875 Y57.642 E15.64943
G1 X190.662 Y55.904 E15.72640
G1 X191.894 Y54.999 E15.77357
G1 X192.719 Y54.493 E15.80346
G1 X194.086 Y53.811 E15.85060
G1 X194.986 Y53.452 E15.88050
G1 X196.448 Y53.012 E15.92766
G1 X197.395 Y52.811 E15.95754
G1 X199.546 Y52.581 E16.02431
G1 X241.928 Y52.097 E17.33268
G1 X247.501 Y52.118 E17.50469
G1 X248.243 Y52.183 E17.52768 F1080.000
G1 X249.207 Y52.352 E17.55790
G1 X250.809 Y52.869 E17.60986
G1 X252.296 Y53.656 E17.66180
G1 X252.874 Y54.061 E17.68357
G1 X253.671 Y54.736 E17.71583
G1 X254.753 Y55.938 E17.76573
G1 X255.157 Y56.515 E17.78749
G1 X255.675 Y57.423 E17.81976
G1 X256.280 Y58.922 E17.86965
G1 X256.463 Y59.603 E17.89142
G1 X256.634 Y60.567 E17.92164
G1 X256.720 Y61.803 E17.95987
G1 X256.696 Y211.306 E22.57484
G1 X256.403 Y213.786 E22.65190
G1 X255.736 Y216.015 E22.72373
G1 X254.592 Y218.341 E22.80375
G1 X253.734 Y219.604 E22.85088
G1 X253.125 Y220.358 E22.88080
G1 X251.337 Y222.096 E22.95777
G1 X250.106 Y223.001 E23.00493
G1 X249.281 Y223.507 E23.03481
G1 X247.015 Y224.548 E23.11179
G1 X245.552 Y224.988 E23.15893
G1 X244.605 Y225.189 E23.18884
G1 X243.089 Y225.375 E23.23596
G1 X242.454 Y225.419 E23.25563
G1 X200.072 Y225.903 E24.56399
G1 X195.045 Y225.903 E24.71916
G1 X194.433 Y225.876 E24.73806
G1 X192.793 Y225.648 E24.78918
G1 X191.191 Y225.131 E24.84113
G1 X189.704 Y224.344 E24.89308
G1 X189.129 Y223.941 E24.91476
G1 X188.376 Y223.311 E24.94506
G1 X187.247 Y222.062 E24.99701
G1 X186.844 Y221.486 E25.01872
G1 X186.353 Y220.637 E25.04900
G1 X186.056 Y220.000 E25.07069
G1 X185.720 Y219.078 E25.10098
G1 X185.537 Y218.397 E25.12273
G1 X185.366 Y217.433 E25.15297
G1 X185.280 Y216.197 E25.19120
G1 X185.304 Y66.693 E29.80617
G1 X185.597 Y64.214 E29.88323
G1 X186.264 Y61.985 E29.95506
G1 X187.375 Y59.726 E30.03277
G1 F1200.000 E29.03277
G92 E0
G1 X204.057 Y70.224 F9600.000
G1 E1.00000 F1200.000
M204 S2000
G1 X203.476 Y70.893 E1.02735 F1710.000
G1 X202.787 Y71.450 E1.05469
G1 X202.013 Y71.880 E1.08203
G1 X201.175 Y72.168 E1.10938
G1 X201.083 Y72.183 E1.11227
G1 X200.300 Y72.307 E1.13672
G1 X199.414 Y72.291 E1.16407
G1 X198.545 Y72.122 E1.19141
G1 X197.718 Y71.805 E1.21875
G1 X196.959 Y71.349 E1.24610
G1 X196.290 Y70.767 E1.27345
G1 X195.733 Y70.079 E1.30079
G1 X195.303 Y69.304 E1.32813
G1 X195.015 Y68.467 E1.35547
G1 X195.000 Y68.374 E1.35837
G1 X194.876 Y67.592 E1.38282
G1 X194.892 Y66.706 E1.41017
G1 X195.061 Y65.836 E1.43751
G1 X195.378 Y65.010 E1.46485
G1 X195.834 Y64.250 E1.49220
G1 X196.415 Y63.582 E1.51955
G1 X197.104 Y63.024 E1.54689
G1 X197.879 Y62.595 E1.57423
G1 X198.716 Y62.306 E1.60157
G1 X199.591 Y62.168 E1.62892
G1 X199.685 Y62.169 E1.63182
M204 S2000
M204 S2000
G1 X200.477 Y62.183 E1.65627 F1710.000
G1 X201.346 Y62.352 E1.68361
G1 X202.173 Y62.670 E1.71095
G1 X202.933 Y63.126 E1.73830
G1 X203.601 Y63.707 E1.76564
G1 X204.159 Y64.395 E1.79298
G1 X204.588 Y65.170 E1.82033
G1 X204.877 Y66.008 E1.84767
G1 X205.015 Y66.883 E1.87502
G1 X205.000 Y67.768 E1.90236
G1 X204.831 Y68.638 E1.92971
G1 X204.513 Y69.465 E1.95705
G1 X204.096 Y70.160 E1.98208
M204 S2000
G1 X203.587 Y69.883 F9600.000
M204 S2000
G1 X203.072 Y70.475 E2.00630 F1170.000
G1 X202.425 Y70.990 E2.03183
G1 X201.776 Y71.349 E2.05472
G1 X201.035 Y71.605 E2.07894
G1 X200.260 Y71.727 E2.10316
G1 X199.475 Y71.714 E2.12738
G1 X198.705 Y71.564 E2.15160
G1 X197.972 Y71.283 E2.17582
G1 X197.267 Y70.850 E2.20135
G1 X196.708 Y70.364 E2.22424
G1 X196.214 Y69.754 E2.24846
G1 X195.834 Y69.068 E2.27268
G1 X195.578 Y68.326 E2.29689
G1 X195.455 Y67.551 E2.32112
G1 X195.469 Y66.767 E2.34533
G1 X195.619 Y65.997 E2.36955
G1 X195.900 Y65.264 E2.39377
G1 X196.332 Y64.559 E2.41930
G1 X196.819 Y63.999 E2.44219
G1 X197.429 Y63.506 E2.46641
G1 X198.115 Y63.125 E2.49063
G1 X198.899 Y62.863 E2.51616
M204 S2000
M204 S2000
G1 X199.632 Y62.747 E2.53905 F1170.000
G1 X200.416 Y62.761 E2.56327
G1 X201.186 Y62.910 E2.58749
G1 X201.919 Y63.192 E2.61171
G1 X202.624 Y63.624 E2.63724
G1 X203.183 Y64.111 E2.66013
G1 X203.677 Y64.720 E2.68435
G1 X204.072 Y65.447 E2.70988
G1 X204.313 Y66.148 E2.73277
G1 X204.436 Y66.923 E2.75699
G1 X204.422 Y67.708 E2.78121
G1 X204.272 Y68.478 E2.80543
G1 X203.991 Y69.210 E2.82965
G1 X203.626 Y69.819 E2.85155
M204 S2000
G1 F1200.000 E1.85155
G92 E0
G1 X198.737 Y62.390 F9600.000
G1 X198.332 Y99.447 F9600.000
G1 E1.00000 F1200.000
M204 S2000
G1 X192.085 Y99.452 E1.19285 F1710.000
G1 X191.760 Y99.423 E1.20292
G1 X191.741 Y99.211 E1.20948
G1 X191.741 Y67.206 E2.19745
G1 X191.863 Y65.774 E2.24179
G1 X192.174 Y64.585 E2.27974
G1 X192.792 Y63.224 E2.32588
G1 X193.576 Y62.069 E2.36898
G1 X194.545 Y61.063 E2.41208
G1 X195.671 Y60.237 E2.45518
G1 X196.920 Y59.613 E2.49827
G1 X198.257 Y59.211 E2.54138
G1 X199.643 Y59.040 E2.58448
G1 X201.037 Y59.108 E2.62757
G1 X202.400 Y59.411 E2.67067
G1 X203.692 Y59.940 E2.71377
G1 X204.875 Y60.681 E2.75687
G1 X205.916 Y61.612 E2.79997
G1 X206.783 Y62.706 E2.84307
G1 X207.453 Y63.932 E2.88617
G1 X207.929 Y65.325 E2.93163
G1 X210.202 Y74.440 E3.22159
G1 X210.415 Y75.079 E3.24239
G1 X210.756 Y75.739 E3.26533
G1 X211.195 Y76.339 E3.28827
G1 X211.722 Y76.864 E3.31123
G1 X212.323 Y77.300 E3.33416
G1 X212.985 Y77.639 E3.35713
G1 X213.692 Y77.872 E3.38008
G1 X214.425 Y77.992 E3.40301
G1 X215.098 Y77.998 E3.42380
G1 X222.841 Y77.456 E3.66339
G1 X223.246 Y83.254 E3.84279
G1 X209.918 Y117.974 E4.99082
G1 X209.502 Y119.295 E5.03358
G1 X209.239 Y120.712 E5.07803
G1 X209.155 Y122.094 E5.12079
G1 X209.155 Y194.396 E7.35264
G1 X209.123 Y194.873 E7.36740
G1 X209.030 Y195.342 E7.38215
G1 X203.228 Y216.997 E8.07420
G1 X203.026 Y217.559 E8.09263
G1 X202.772 Y218.017 E8.10879
G1 X202.447 Y218.427 E8.12494
G1 X202.059 Y218.778 E8.14111
G1 X201.619 Y219.062 E8.15726
G1 X201.139 Y219.270 E8.17342
G1 X200.631 Y219.397 E8.18958
G1 X200.036 Y219.446 E8.20801
G1 X195.024 Y219.446 E8.36272
G1 X194.390 Y219.391 E8.38237
G1 X193.850 Y219.246 E8.39961
G1 X193.345 Y219.010 E8.41683
G1 X192.887 Y218.690 E8.43406
G1 X192.493 Y218.296 E8.45129
G1 X192.172 Y217.838 E8.46852
G1 X191.937 Y217.332 E8.48575
G1 X191.792 Y216.793 E8.50298
G1 X191.737 Y216.159 E8.52264
G1 X191.737 Y213.315 E8.61041
G1 X191.760 Y213.051 E8.61860
G1 X192.021 Y213.029 E8.62668
G1 X198.333 Y213.028 E8.82153
G1 X198.332 Y99.522 E12.32530
M204 S2000
G1 X197.754 Y100.025 F9600.000
M204 S2000
G1 X192.072 Y100.037 E12.50067 F1170.000
G1 X191.810 Y100.008 E12.50883
G1 X191.554 Y99.915 E12.51722
G1 X191.346 Y99.740 E12.52561
G1 X191.210 Y99.505 E12.53401
G1 X191.163 Y99.237 E12.54241
G1 X191.163 Y67.181 E13.53193
G1 X191.291 Y65.676 E13.57856
G1 X191.627 Y64.391 E13.61956
G1 X192.286 Y62.940 E13.66875
G1 X193.126 Y61.703 E13.71490
G1 X194.163 Y60.626 E13.76105
G1 X195.368 Y59.741 E13.80720
G1 X196.706 Y59.074 E13.85335
G1 X198.137 Y58.642 E13.89950
G1 X199.621 Y58.460 E13.94565
G1 X201.114 Y58.532 E13.99180
G1 X202.574 Y58.857 E14.03795
G1 X203.957 Y59.424 E14.08410
G1 X205.224 Y60.217 E14.13025
G1 X206.338 Y61.214 E14.17640
G1 X207.267 Y62.386 E14.22255
G1 X207.984 Y63.698 E14.26870
G1 X208.485 Y65.162 E14.31645
G1 X210.758 Y74.278 E14.60648
G1 X210.949 Y74.853 E14.62520
G1 X211.249 Y75.434 E14.64536
G1 X211.635 Y75.961 E14.66553
G1 X212.099 Y76.422 E14.68571
G1 X212.627 Y76.806 E14.70587
G1 X213.209 Y77.104 E14.72605
G1 X213.830 Y77.308 E14.74622
G1 X214.474 Y77.414 E14.76639
G1 X215.080 Y77.419 E14.78510
G1 X223.377 Y76.839 E15.04185
G1 X223.832 Y83.341 E15.24307
G1 X210.465 Y118.165 E16.39451
G1 X210.064 Y119.436 E16.43563
G1 X209.814 Y120.782 E16.47790
G1 X209.733 Y122.112 E16.51902
G1 X209.733 Y194.415 E18.75091
G1 X209.698 Y194.949 E18.76742
G1 X209.594 Y195.473 E18.78393
G1 X203.780 Y217.170 E19.47729
G1 X203.555 Y217.799 E19.49791
G1 X203.255 Y218.339 E19.51700
G1 X202.870 Y218.824 E19.53609
G1 X202.412 Y219.239 E19.55518
G1 X201.892 Y219.574 E19.57427
G1 X201.325 Y219.820 E19.59335
G1 X200.725 Y219.970 E19.61244
G1 X200.059 Y220.025 E19.63307
G1 X194.999 Y220.025 E19.78929
G1 X194.289 Y219.963 E19.81128
G1 X193.652 Y219.792 E19.83164
G1 X193.054 Y219.513 E19.85199
G1 X192.514 Y219.135 E19.87235
G1 X192.048 Y218.669 E19.89270
G1 X191.670 Y218.129 E19.91306
G1 X191.391 Y217.531 E19.93341
G1 X191.220 Y216.894 E19.95376
G1 X191.158 Y216.184 E19.97576
G1 X191.158 Y213.290 E20.06510
G1 X191.175 Y213.101 E20.07095
G1 X191.268 Y212.846 E20.07934
G1 X191.442 Y212.638 E20.08774
G1 X191.554 Y212.559 E20.09195
G1 X191.810 Y212.466 E20.10034
G1 X191.995 Y212.450 E20.10608
G1 X197.754 Y212.450 E20.28386
G1 X197.754 Y100.100 E23.75192
M204 S2000
G1 X197.753 Y99.525 F9600.000
G1 F1200.000 E22.75192
G92 E0
G1 X192.754 Y99.052 F9600.000
G1 E1.00000 F1200.000
M204 S2500
G1 X192.141 Y98.438 E1.02678 F1800.000
G1 X192.141 Y97.618 E1.05210
G1 X193.574 Y99.051 E1.11466
G1 X194.393 Y99.050 E1.13995
G1 X192.141 Y96.798 E1.23828
G1 X192.141 Y95.978 E1.26360
G1 X195.213 Y99.050 E1.39770
G1 X196.032 Y99.049 E1.42300
G1 X192.141 Y95.158 E1.59288
G1 X192.141 Y94.338 E1.61819
G1 X196.852 Y99.049 E1.82384
G1 X197.671 Y99.048 E1.84914
G1 X192.141 Y93.518 E2.09056
M204 S2000
G1 F1200.000 E1.09056
G92 E0
G1 X192.141 Y68.095 F9600.000
G1 E1.00000 F1200.000
M204 S2500
G1 X218.514 Y94.468 E2.15130 F1800.000
G1 X218.286 Y95.061 E2.17090
G1 X192.141 Y68.915 E3.31227
G1 X192.141 Y69.735 E3.33758
G1 X218.059 Y95.653 E4.46903
G1 X217.831 Y96.246 E4.48862
G1 X192.141 Y70.555 E5.61013
G1 X192.141 Y71.375 E5.63545
G1 X217.604 Y96.838 E6.74703
G1 X217.376 Y97.431 E6.76662
G1 X192.141 Y72.195 E7.86827
G1 X192.141 Y73.015 E7.89359
G1 X217.149 Y98.024 E8.98531
G1 X216.921 Y98.616 E9.00490
G1 X192.141 Y73.836 E10.08669
G1 X192.141 Y74.656 E10.11200
G1 X216.694 Y99.209 E11.18386
G1 X216.466 Y99.801 E11.20346
G1 X192.141 Y75.476 E12.26538
G1 X192.141 Y76.296 E12.29070
G1 X216.239 Y100.394 E13.34270
G1 X216.011 Y100.987 E13.36229
G1 X192.141 Y77.116 E14.40436
G1 X192.141 Y77.936 E14.42967
G1 X215.784 Y101.579 E15.46181
G1 X215.556 Y102.172 E15.48140
G1 X192.141 Y78.756 E16.50361
G1 X192.141 Y79.576 E16.52892
G1 X215.329 Y102.764 E17.54120
G1 X215.101 Y103.357 E17.56079
G1 X192.141 Y80.396 E18.56314
G1 X192.141 Y81.216 E18.58845
G1 X214.874 Y103.950 E19.58087
G1 X214.646 Y104.542 E19.60046
G1 X192.141 Y82.036 E20.58294
G1 X192.141 Y82.856 E20.60826
G1 X214.419 Y105.135 E21.58081
G1 X214.191 Y105.727 E21.60040
G1 X192.141 Y83.677 E22.56303
G1 X192.141 Y84.497 E22.58834
G1 X213.964 Y106.320 E23.54103
G1 X213.737 Y106.913 E23.56063
G1 X192.141 Y85.317 E24.50339
G1 X192.141 Y86.137 E24.52870
G1 X213.509 Y107.505 E25.46153
G1 X213.282 Y108.098 E25.48113
G1 X192.141 Y86.957 E26.40403
G1 X192.141 Y87.777 E26.42934
G1 X213.054 Y108.690 E27.34231
G1 X212.827 Y109.283 E27.36191
G1 X192.141 Y88.597 E28.26495
G1 X192.141 Y89.417 E28.29026
G1 X212.599 Y109.876 E29.18337
G1 X212.372 Y110.468 E29.20296
G1 X192.141 Y90.237 E30.08614
G1 X192.141 Y91.057 E30.11146
G1 X212.144 Y111.061 E30.98470
G1 X211.917 Y111.653 E31.00430
G1 X192.141 Y91.877 E31.86761
G1 X192.141 Y92.697 E31.89293
G1 X211.689 Y112.246 E32.74631
G1 X211.462 Y112.839 E32.76591
G1 X198.732 Y100.108 E33.32164
G1 X198.732 Y100.929 E33.34696
G1 X211.234 Y113.431 E33.89276
G1 X211.007 Y114.024 E33.91235
G1 X198.732 Y101.749 E34.44822
G1 X198.732 Y102.569 E34.47353
G1 X210.779 Y114.616 E34.99947
G1 X210.552 Y115.209 E35.01907
G1 X198.732 Y103.389 E35.53508
G1 X198.732 Y104.209 E35.56039
G1 X210.324 Y115.802 E36.06647
G1 X210.097 Y116.394 E36.08606
G1 X198.732 Y105.029 E36.58221
G1 X198.732 Y105.849 E36.60752
G1 X209.869 Y116.987 E37.09374
G1 X209.642 Y117.579 E37.11333
G1 X198.732 Y106.669 E37.58962
G1 X198.732 Y107.489 E37.61493
G1 X209.432 Y118.189 E38.08204
G1 X209.235 Y118.813 E38.10222
G1 X198.732 Y108.309 E38.56074
G1 X198.732 Y109.129 E38.58606
G1 X209.064 Y119.462 E39.03713
G1 X208.936 Y120.154 E39.05885
G1 X198.732 Y109.950 E39.50433
G1 X198.732 Y110.770 E39.52965
G1 X208.829 Y120.867 E39.97046
G1 X208.782 Y121.640 E39.99436
G1 X198.732 Y111.590 E40.43312
G1 X198.732 Y112.410 E40.45843
G1 X208.755 Y122.433 E40.89600
G1 X208.755 Y123.253 E40.92132
G1 X198.732 Y113.230 E41.35889
G1 X198.732 Y114.050 E41.38421
G1 X208.755 Y124.074 E41.82178
G1 X208.755 Y124.894 E41.84709
G1 X198.732 Y114.870 E42.28467
G1 X198.732 Y115.690 E42.30998
G1 X208.755 Y125.714 E42.74756
G1 X208.755 Y126.534 E42.77287
G1 X198.732 Y116.510 E43.21044
G1 X198.732 Y117.330 E43.23576
G1 X208.755 Y127.354 E43.67333
G1 X208.755 Y128.174 E43.69864
G1 X198.732 Y118.150 E44.13622
G1 X198.732 Y118.971 E44.16153
G1 X208.755 Y128.994 E44.59910
G1 X208.755 Y129.814 E44.62442
G1 X198.732 Y119.791 E45.06199
G1 X198.732 Y120.611 E45.08730
G1 X208.755 Y130.634 E45.52488
G1 X208.755 Y131.454 E45.55019
G1 X198.732 Y121.431 E45.98776
G1 X198.732 Y122.251 E46.01308
G1 X208.755 Y132.274 E46.45065
G1 X208.755 Y133.094 E46.47596
G1 X198.732 Y123.071 E46.91353
G1 X198.732 Y123.891 E46.93885
G1 X208.755 Y133.915 E47.37642
G1 X208.755 Y134.735 E47.40173
G1 X198.732 Y124.711 E47.83930
G1 X198.732 Y125.531 E47.86462
G1 X208.755 Y135.555 E48.30219
G1 X208.755 Y136.375 E48.32750
G1 X198.732 Y126.351 E48.76507
G1 X198.732 Y127.171 E48.79039
G1 X208.755 Y137.195 E49.22796
G1 X208.755 Y138.015 E49.25327
G1 X198.732 Y127.992 E49.69084
