; generated by Slic3r 1.0.0RC3 on 2014-04-07 at 09:13:03

; layer_height = .35
; perimeters = 2
; top_solid_layers = 2
; bottom_solid_layers = 2
; fill_density = 0.78
; perimeter_speed = 95
; infill_speed = 115
; travel_speed = 160
; nozzle_diameter = .5
; filament_diameter = 2.89
; extrusion_multiplier = 1
; perimeters extrusion width = 0.43mm
; infill extrusion width = 0.49mm
; solid infill extrusion width = 0.43mm
; top infill extrusion width = 0.42mm
; first layer extrusion width = 0.50mm

G21 ; set units to millimeters
M107
G28 ; home all axes
G90 ; use absolute coordinates
G92 E0
M82 ; use absolute distances for extrusion
G1 F1500.000 E-1.20000
G92 E0
G1 Z0.385 F9600.000
G1 X22.590 Y156.010 F9600.000
G1 E1.20000 F1500.000
G1 X23.640 Y155.160 E1.23964 F3705.000
G1 X24.850 Y154.520 E1.27981
G1 X26.150 Y154.130 E1.31964
G1 X27.500 Y154.000 E1.35944
G1 X127.500 Y154.000 E4.29402
G1 X128.870 Y154.130 E4.33440
G1 X130.180 Y154.530 E4.37460
G1 X131.390 Y155.180 E4.41490
G1 X132.450 Y156.050 E4.45515
G1 X133.320 Y157.110 E4.49539
G1 X133.970 Y158.320 E4.53570
G1 X134.370 Y159.630 E4.57589
G1 X134.500 Y161.000 E4.61628
G1 X134.500 Y221.220 E6.38348
G1 X133.500 Y253.220 E7.32300
G1 X133.330 Y254.550 E7.36235
G1 X132.900 Y255.830 E7.40197
G1 X132.240 Y257.000 E7.44139
G1 X131.370 Y258.030 E7.48096
G1 X130.320 Y258.870 E7.52042
G1 X129.130 Y259.490 E7.55979
G1 X127.840 Y259.870 E7.59926
G1 X126.500 Y260.000 E7.63877
G1 X26.500 Y260.000 E10.57334
G1 X25.130 Y259.870 E10.61373
G1 X23.820 Y259.470 E10.65392
G1 X22.610 Y258.820 E10.69423
G1 X21.550 Y257.950 E10.73447
G1 X20.680 Y256.890 E10.77471
G1 X20.030 Y255.680 E10.81502
G1 X19.630 Y254.370 E10.85522
G1 X19.500 Y253.000 E10.89560
G1 X19.500 Y225.890 E11.69116
G1 X20.500 Y160.890 E13.59886
G1 X20.650 Y159.540 E13.63872
G1 X21.060 Y158.250 E13.67844
G1 X21.720 Y157.060 E13.71838
G1 X22.542 Y156.068 E13.75619
G1 X22.940 Y156.370 F9600.000
G1 X23.920 Y155.570 E13.79332 F3705.000
G1 X25.040 Y154.990 E13.83033
G1 X26.240 Y154.620 E13.86718
G1 X27.500 Y154.500 E13.90432
G1 X127.500 Y154.500 E16.83890
G1 X128.770 Y154.620 E16.87633
G1 X129.990 Y154.990 E16.91375
G1 X131.110 Y155.600 E16.95117
G1 X132.100 Y156.400 E16.98852
G1 X132.900 Y157.390 E17.02588
G1 X133.510 Y158.510 E17.06330
G1 X133.880 Y159.730 E17.10071
G1 X134.000 Y161.000 E17.13815
G1 X134.000 Y221.200 E18.90476
G1 X133.000 Y253.200 E19.84428
G1 X132.840 Y254.440 E19.88098
G1 X132.450 Y255.630 E19.91772
G1 X131.830 Y256.720 E19.95452
G1 X131.020 Y257.670 E19.99116
G1 X130.050 Y258.450 E20.02769
G1 X128.940 Y259.020 E20.06430
G1 X127.740 Y259.380 E20.10107
G1 X126.500 Y259.500 E20.13763
G1 X26.500 Y259.500 E23.07220
G1 X25.230 Y259.380 E23.10964
G1 X24.010 Y259.010 E23.14705
G1 X22.890 Y258.400 E23.18448
G1 X21.900 Y257.600 E23.22183
G1 X21.100 Y256.610 E23.25918
G1 X20.490 Y255.490 E23.29661
G1 X20.120 Y254.270 E23.33402
G1 X20.000 Y253.000 E23.37145
G1 X20.000 Y225.900 E24.16672
G1 X21.000 Y160.900 E26.07442
G1 X21.140 Y159.650 E26.11133
G1 X21.520 Y158.440 E26.14855
G1 X22.130 Y157.340 E26.18546
G1 X22.892 Y156.428 E26.22035
G1 F1500.000 E25.02035
G92 E0
G1 X30.736 Y228.262 F9600.000
G1 E1.20000 F1500.000
M204 S1500
G1 X31.000 Y228.250 E1.20774 F780.000
G1 X31.268 Y228.263 E1.21562
G1 X31.534 Y228.302 E1.22350
G1 X31.794 Y228.367 E1.23138
G1 X32.047 Y228.457 E1.23927
G1 X32.290 Y228.571 E1.24715
G1 X32.521 Y228.709 E1.25503
G1 X32.737 Y228.868 E1.26291
G1 X32.937 Y229.048 E1.27079
G1 X33.132 Y229.263 E1.27930
G1 X33.291 Y229.479 E1.28718
G1 X33.429 Y229.710 E1.29506
G1 X33.543 Y229.953 E1.30294
G1 X33.633 Y230.206 E1.31083
G1 X33.698 Y230.466 E1.31871
G1 X33.737 Y230.732 E1.32659
G1 X33.750 Y231.000 E1.33446
G1 X33.738 Y231.264 E1.34221
G1 X33.700 Y231.525 E1.34996
G1 X33.637 Y231.781 E1.35770
G1 X33.550 Y232.030 E1.36545
G1 X33.439 Y232.270 E1.37319
G1 X33.306 Y232.498 E1.38094
G1 X33.152 Y232.712 E1.38869
G1 X32.978 Y232.911 E1.39643
G1 X32.786 Y233.092 E1.40418
G1 X32.577 Y233.253 E1.41192
G1 X32.354 Y233.394 E1.41967
G1 X32.118 Y233.513 E1.42741
G1 X31.872 Y233.608 E1.43516
G1 X31.618 Y233.680 E1.44291
G1 X31.358 Y233.727 E1.45065
G1 X31.095 Y233.748 E1.45840
G1 X30.831 Y233.745 E1.46614
G1 X30.569 Y233.716 E1.47389
G1 X30.310 Y233.662 E1.48163
G1 X30.058 Y233.584 E1.48938
G1 X29.815 Y233.482 E1.49713
G1 X29.582 Y233.357 E1.50487
G1 X29.346 Y233.197 E1.51324
G1 X29.143 Y233.029 E1.52098
G1 X28.957 Y232.841 E1.52873
G1 X28.790 Y232.637 E1.53647
G1 X28.643 Y232.417 E1.54422
G1 X28.518 Y232.185 E1.55196
G1 X28.416 Y231.942 E1.55971
G1 X28.338 Y231.690 E1.56746
G1 X28.269 Y231.321 E1.57846
G1 X28.250 Y231.037 E1.58682
G1 X28.259 Y230.773 E1.59456
G1 X28.294 Y230.512 E1.60230
G1 X28.353 Y230.254 E1.61005
G1 X28.437 Y230.004 E1.61779
G1 X28.544 Y229.763 E1.62554
G1 X28.674 Y229.533 E1.63329
G1 X28.825 Y229.317 E1.64103
G1 X28.997 Y229.116 E1.64878
G1 X29.186 Y228.933 E1.65653
G1 X29.393 Y228.768 E1.66427
G1 X29.614 Y228.624 E1.67202
G1 X29.849 Y228.502 E1.67977
G1 X30.093 Y228.404 E1.68751
G1 X30.346 Y228.329 E1.69526
G1 X30.662 Y228.271 E1.70467
M204 S1500
G1 X30.677 Y228.773 F9600.000
M204 S1500
G1 X31.110 Y228.753 E1.71740 F780.000
G1 X31.545 Y228.817 E1.73031
G1 X31.960 Y228.965 E1.74322
G1 X32.337 Y229.191 E1.75613
G1 X32.670 Y229.492 E1.76931
G1 X32.932 Y229.846 E1.78222
G1 X33.119 Y230.244 E1.79513
G1 X33.226 Y230.671 E1.80804
G1 X33.247 Y231.108 E1.82089
G1 X33.185 Y231.535 E1.83356
G1 X33.043 Y231.943 E1.84623
G1 X32.825 Y232.316 E1.85890
G1 X32.540 Y232.640 E1.87157
G1 X32.199 Y232.904 E1.88424
G1 X31.813 Y233.098 E1.89691
G1 X31.397 Y233.215 E1.90958
G1 X30.967 Y233.250 E1.92225
G1 X30.538 Y233.202 E1.93492
G1 X30.126 Y233.073 E1.94759
G1 X29.738 Y232.863 E1.96053
G1 X29.406 Y232.588 E1.97320
G1 X29.132 Y232.254 E1.98586
G1 X28.927 Y231.874 E1.99853
G1 X28.852 Y231.671 E2.00488
G1 X28.780 Y231.365 E2.01412
G1 X28.751 Y230.925 E2.02706
G1 X28.807 Y230.497 E2.03972
G1 X28.943 Y230.087 E2.05239
G1 X29.156 Y229.711 E2.06506
G1 X29.436 Y229.383 E2.07773
G1 X29.773 Y229.114 E2.09040
G1 X30.156 Y228.914 E2.10307
G1 X30.603 Y228.786 E2.11671
M204 S1500
G1 X30.847 Y228.374 F9600.000
G1 F1500.000 E0.91671
G92 E0
G1 X53.259 Y230.773 F9600.000
G1 E1.20000 F1500.000
M204 S1500
G1 X53.294 Y230.511 E1.20774 F780.000
G1 X53.353 Y230.254 E1.21549
G1 X53.437 Y230.004 E1.22324
G1 X53.544 Y229.763 E1.23098
G1 X53.674 Y229.533 E1.23873
G1 X53.825 Y229.317 E1.24647
G1 X53.997 Y229.116 E1.25422
G1 X54.186 Y228.933 E1.26197
G1 X54.393 Y228.768 E1.26971
G1 X54.614 Y228.624 E1.27746
G1 X54.849 Y228.502 E1.28521
G1 X55.093 Y228.404 E1.29296
G1 X55.346 Y228.329 E1.30070
G1 X55.605 Y228.278 E1.30844
G1 X55.868 Y228.253 E1.31619
G1 X56.134 Y228.253 E1.32399
G1 X56.401 Y228.279 E1.33187
G1 X56.665 Y228.331 E1.33975
G1 X56.922 Y228.409 E1.34763
G1 X57.170 Y228.511 E1.35552
G1 X57.407 Y228.637 E1.36340
G1 X57.631 Y228.786 E1.37128
G1 X57.839 Y228.956 E1.37916
G1 X58.044 Y229.161 E1.38768
G1 X58.214 Y229.369 E1.39556
G1 X58.363 Y229.593 E1.40344
G1 X58.489 Y229.830 E1.41132
G1 X58.591 Y230.078 E1.41920
G1 X58.669 Y230.335 E1.42708
G1 X58.721 Y230.599 E1.43496
G1 X58.747 Y230.866 E1.44284
G1 X58.747 Y231.132 E1.45065
G1 X58.722 Y231.395 E1.45840
G1 X58.671 Y231.654 E1.46614
G1 X58.596 Y231.907 E1.47388
G1 X58.497 Y232.152 E1.48164
G1 X58.376 Y232.386 E1.48938
G1 X58.232 Y232.607 E1.49713
G1 X58.067 Y232.814 E1.50487
G1 X57.868 Y233.018 E1.51324
G1 X57.577 Y233.253 E1.52423
G1 X57.354 Y233.394 E1.53198
G1 X57.118 Y233.513 E1.53973
G1 X56.872 Y233.608 E1.54747
G1 X56.618 Y233.680 E1.55521
G1 X56.358 Y233.727 E1.56296
G1 X56.095 Y233.748 E1.57070
G1 X55.831 Y233.745 E1.57846
G1 X55.569 Y233.716 E1.58620
G1 X55.310 Y233.662 E1.59394
G1 X55.058 Y233.584 E1.60169
G1 X54.815 Y233.482 E1.60944
G1 X54.583 Y233.357 E1.61718
G1 X54.363 Y233.210 E1.62493
G1 X54.159 Y233.043 E1.63267
G1 X53.957 Y232.841 E1.64103
G1 X53.790 Y232.637 E1.64878
G1 X53.643 Y232.417 E1.65653
G1 X53.518 Y232.185 E1.66428
G1 X53.416 Y231.942 E1.67202
G1 X53.338 Y231.690 E1.67976
G1 X53.284 Y231.431 E1.68751
G1 X53.255 Y231.169 E1.69526
G1 X53.255 Y230.848 E1.70467
M204 S1500
G1 X53.751 Y230.925 F9600.000
M204 S1500
G1 X53.807 Y230.497 E1.71735 F780.000
G1 X53.943 Y230.087 E1.73001
G1 X54.156 Y229.711 E1.74268
G1 X54.436 Y229.383 E1.75535
G1 X54.773 Y229.114 E1.76802
G1 X55.156 Y228.914 E1.78069
G1 X55.570 Y228.791 E1.79336
G1 X56.000 Y228.750 E1.80603
G1 X56.438 Y228.793 E1.81894
G1 X56.859 Y228.920 E1.83185
G1 X57.247 Y229.127 E1.84476
G1 X57.588 Y229.406 E1.85767
G1 X57.873 Y229.753 E1.87085
G1 X58.080 Y230.141 E1.88376
G1 X58.207 Y230.562 E1.89668
G1 X58.250 Y231.000 E1.90958
G1 X58.209 Y231.430 E1.92225
G1 X58.086 Y231.844 E1.93492
G1 X57.886 Y232.227 E1.94759
G1 X57.611 Y232.571 E1.96053
G1 X57.376 Y232.780 E1.96977
G1 X57.199 Y232.904 E1.97611
G1 X56.813 Y233.098 E1.98878
G1 X56.397 Y233.215 E2.00145
G1 X55.967 Y233.250 E2.01412
G1 X55.538 Y233.202 E2.02679
G1 X55.126 Y233.073 E2.03946
G1 X54.746 Y232.868 E2.05213
G1 X54.406 Y232.588 E2.06507
G1 X54.132 Y232.254 E2.07773
G1 X53.927 Y231.874 E2.09040
G1 X53.798 Y231.462 E2.10307
G1 X53.750 Y231.000 E2.11671
M204 S1500
G1 X53.390 Y230.688 F9600.000
G1 F1500.000 E0.91671
G92 E0
G1 X94.250 Y231.037 F9600.000
G1 E1.20000 F1500.000
M204 S1500
G1 X94.259 Y230.773 E1.20775 F780.000
G1 X94.294 Y230.512 E1.21549
G1 X94.353 Y230.254 E1.22323
G1 X94.437 Y230.004 E1.23098
G1 X94.544 Y229.763 E1.23872
G1 X94.674 Y229.533 E1.24647
G1 X94.825 Y229.317 E1.25422
G1 X94.997 Y229.116 E1.26196
G1 X95.186 Y228.933 E1.26971
G1 X95.393 Y228.768 E1.27746
G1 X95.614 Y228.624 E1.28520
G1 X95.848 Y228.503 E1.29295
G1 X96.093 Y228.404 E1.30070
G1 X96.346 Y228.329 E1.30844
G1 X96.605 Y228.278 E1.31619
G1 X96.868 Y228.253 E1.32393
G1 X97.134 Y228.253 E1.33174
G1 X97.401 Y228.279 E1.33961
G1 X97.665 Y228.331 E1.34750
G1 X97.922 Y228.409 E1.35538
G1 X98.170 Y228.511 E1.36327
G1 X98.407 Y228.637 E1.37114
G1 X98.631 Y228.786 E1.37902
G1 X98.839 Y228.956 E1.38691
G1 X99.044 Y229.161 E1.39542
G1 X99.214 Y229.369 E1.40330
G1 X99.363 Y229.593 E1.41118
G1 X99.489 Y229.830 E1.41906
G1 X99.591 Y230.078 E1.42694
G1 X99.669 Y230.335 E1.43482
G1 X99.721 Y230.599 E1.44270
G1 X99.747 Y230.866 E1.45059
G1 X99.747 Y231.132 E1.45840
G1 X99.722 Y231.395 E1.46614
G1 X99.671 Y231.654 E1.47389
G1 X99.596 Y231.907 E1.48163
G1 X99.497 Y232.152 E1.48938
G1 X99.376 Y232.386 E1.49712
G1 X99.232 Y232.607 E1.50487
G1 X99.053 Y232.829 E1.51323
G1 X98.786 Y233.092 E1.52423
G1 X98.577 Y233.253 E1.53197
G1 X98.354 Y233.394 E1.53972
G1 X98.118 Y233.513 E1.54747
G1 X97.872 Y233.608 E1.55521
G1 X97.618 Y233.680 E1.56296
G1 X97.358 Y233.727 E1.57071
G1 X97.095 Y233.748 E1.57845
G1 X96.831 Y233.745 E1.58620
G1 X96.569 Y233.716 E1.59394
G1 X96.310 Y233.662 E1.60169
G1 X96.058 Y233.584 E1.60944
G1 X95.815 Y233.482 E1.61718
G1 X95.583 Y233.357 E1.62492
G1 X95.363 Y233.210 E1.63267
G1 X95.143 Y233.029 E1.64103
G1 X94.957 Y232.841 E1.64878
G1 X94.790 Y232.637 E1.65653
G1 X94.643 Y232.417 E1.66427
G1 X94.518 Y232.185 E1.67202
G1 X94.416 Y231.942 E1.67976
G1 X94.338 Y231.690 E1.68751
G1 X94.284 Y231.431 E1.69525
G1 X94.253 Y231.112 E1.70467
M204 S1500
G1 X94.754 Y231.141 F9600.000
M204 S1500
G1 X94.769 Y230.710 E1.71734 F780.000
G1 X94.865 Y230.289 E1.73001
G1 X95.040 Y229.894 E1.74268
G1 X95.288 Y229.540 E1.75535
G1 X95.598 Y229.240 E1.76802
G1 X95.960 Y229.005 E1.78069
G1 X96.360 Y228.843 E1.79336
G1 X96.784 Y228.760 E1.80603
G1 X97.220 Y228.761 E1.81882
G1 X97.651 Y228.846 E1.83173
G1 X98.058 Y229.014 E1.84464
G1 X98.424 Y229.258 E1.85755
G1 X98.742 Y229.576 E1.87073
G1 X98.986 Y229.942 E1.88364
G1 X99.154 Y230.349 E1.89655
G1 X99.239 Y230.780 E1.90946
G1 X99.240 Y231.216 E1.92225
G1 X99.157 Y231.640 E1.93492
G1 X98.995 Y232.040 E1.94759
G1 X98.754 Y232.409 E1.96052
G1 X98.540 Y232.640 E1.96977
G1 X98.376 Y232.780 E1.97611
G1 X98.010 Y233.010 E1.98878
G1 X97.608 Y233.166 E2.00145
G1 X97.183 Y233.243 E2.01412
G1 X96.751 Y233.236 E2.02679
G1 X96.329 Y233.148 E2.03946
G1 X95.931 Y232.980 E2.05213
G1 X95.565 Y232.733 E2.06506
G1 X95.261 Y232.428 E2.07773
G1 X95.020 Y232.069 E2.09040
G1 X94.852 Y231.671 E2.10307
G1 X94.761 Y231.216 E2.11671
M204 S1500
G1 X94.372 Y230.940 F9600.000
G1 F1500.000 E0.91671
G92 E0
G1 X119.250 Y231.037 F9600.000
G1 E1.20000 F1500.000
M204 S1500
G1 X119.259 Y230.773 E1.20775 F780.000
G1 X119.294 Y230.512 E1.21549
G1 X119.353 Y230.254 E1.22323
G1 X119.437 Y230.004 E1.23098
G1 X119.544 Y229.763 E1.23872
G1 X119.674 Y229.533 E1.24647
G1 X119.825 Y229.317 E1.25422
G1 X119.997 Y229.116 E1.26196
G1 X120.186 Y228.933 E1.26971
G1 X120.393 Y228.768 E1.27746
G1 X120.614 Y228.624 E1.28520
G1 X120.848 Y228.503 E1.29295
G1 X121.093 Y228.404 E1.30070
G1 X121.346 Y228.329 E1.30844
G1 X121.605 Y228.278 E1.31619
G1 X121.868 Y228.253 E1.32393
G1 X122.134 Y228.253 E1.33174
G1 X122.401 Y228.279 E1.33962
G1 X122.665 Y228.331 E1.34750
G1 X122.922 Y228.409 E1.35538
G1 X123.170 Y228.511 E1.36327
G1 X123.407 Y228.637 E1.37114
G1 X123.631 Y228.786 E1.37902
G1 X123.839 Y228.956 E1.38691
G1 X124.044 Y229.161 E1.39542
G1 X124.214 Y229.369 E1.40330
G1 X124.363 Y229.593 E1.41118
G1 X124.489 Y229.830 E1.41907
G1 X124.591 Y230.078 E1.42694
G1 X124.669 Y230.335 E1.43483
G1 X124.721 Y230.599 E1.44270
G1 X124.747 Y230.866 E1.45059
G1 X124.747 Y231.132 E1.45840
G1 X124.722 Y231.395 E1.46614
G1 X124.671 Y231.654 E1.47389
G1 X124.596 Y231.907 E1.48163
G1 X124.497 Y232.152 E1.48938
G1 X124.376 Y232.386 E1.49712
G1 X124.232 Y232.607 E1.50487
G1 X124.053 Y232.829 E1.51323
G1 X123.786 Y233.092 E1.52423
G1 X123.577 Y233.253 E1.53197
G1 X123.354 Y233.394 E1.53972
G1 X123.118 Y233.513 E1.54747
G1 X122.872 Y233.608 E1.55521
G1 X122.618 Y233.680 E1.56296
G1 X122.358 Y233.727 E1.57071
G1 X122.095 Y233.748 E1.57845
G1 X121.831 Y233.745 E1.58620
G1 X121.569 Y233.716 E1.59394
G1 X121.310 Y233.662 E1.60169
G1 X121.058 Y233.584 E1.60944
G1 X120.815 Y233.482 E1.61718
G1 X120.583 Y233.357 E1.62492
G1 X120.363 Y233.210 E1.63267
G1 X120.143 Y233.029 E1.64103
G1 X119.957 Y232.841 E1.64878
G1 X119.790 Y232.637 E1.65653
G1 X119.643 Y232.417 E1.66427
G1 X119.518 Y232.185 E1.67202
G1 X119.416 Y231.942 E1.67976
G1 X119.338 Y231.690 E1.68751
G1 X119.284 Y231.431 E1.69525
G1 X119.253 Y231.112 E1.70467
M204 S1500
G1 X119.754 Y231.141 F9600.000
M204 S1500
G1 X119.769 Y230.710 E1.71734 F780.000
G1 X119.865 Y230.289 E1.73001
G1 X120.040 Y229.894 E1.74268
G1 X120.288 Y229.540 E1.75535
G1 X120.598 Y229.240 E1.76802
G1 X120.960 Y229.005 E1.78069
G1 X121.360 Y228.843 E1.79336
G1 X121.784 Y228.760 E1.80603
G1 X122.220 Y228.761 E1.81882
G1 X122.651 Y228.846 E1.83173
G1 X123.058 Y229.014 E1.84464
G1 X123.424 Y229.258 E1.85755
G1 X123.742 Y229.576 E1.87073
G1 X123.986 Y229.942 E1.88364
G1 X124.154 Y230.349 E1.89655
G1 X124.239 Y230.780 E1.90946
G1 X124.240 Y231.216 E1.92225
G1 X124.157 Y231.640 E1.93492
G1 X123.995 Y232.040 E1.94759
G1 X123.754 Y232.409 E1.96052
G1 X123.540 Y232.640 E1.96977
G1 X123.376 Y232.780 E1.97611
G1 X123.010 Y233.010 E1.98878
G1 X122.608 Y233.166 E2.00145
G1 X122.183 Y233.243 E2.01412
G1 X121.751 Y233.236 E2.02679
G1 X121.329 Y233.148 E2.03946
G1 X120.931 Y232.980 E2.05213
G1 X120.565 Y232.733 E2.06506
G1 X120.261 Y232.428 E2.07773
G1 X120.020 Y232.069 E2.09040
G1 X119.852 Y231.671 E2.10307
G1 X119.761 Y231.216 E2.11671
M204 S1500
G1 X119.372 Y230.940 F9600.000
G1 F1500.000 E0.91671
G92 E0
G1 X125.750 Y226.750 F9600.000
G1 E1.20000 F1500.000
M204 S1500
G1 X125.750 Y252.208 E1.94709 F3705.000
G1 X125.180 Y252.081 E1.96423
G1 X124.755 Y251.952 E1.97727
G1 X124.232 Y251.735 E1.99389
G1 X123.816 Y251.513 E2.00772
G1 X123.444 Y251.270 E2.02077
G1 X123.093 Y250.996 E2.03382
G1 X122.664 Y250.587 E2.05121
G1 X122.374 Y250.250 E2.06426
G1 X122.033 Y249.765 E2.08165
G1 X121.815 Y249.378 E2.09470
G1 X121.630 Y248.973 E2.10775
G1 X121.438 Y248.413 E2.12514
G1 X121.337 Y247.980 E2.13819
G1 X121.272 Y247.540 E2.15124
G1 X121.250 Y247.257 E2.15957
G1 X121.250 Y246.422 E2.18407
G1 X76.500 Y241.052 E3.50671
G1 X31.750 Y246.422 E4.82935
G1 X31.750 Y247.257 E4.85385
G1 X31.728 Y247.540 E4.86218
