; generated by Slic3r 1.0.0RC3 on 2014-04-07 at 09:13:03

; layer_height = .35
; perimeters = 2
; top_solid_layers = 2
; bottom_solid_layers = 2
; fill_density = 0.78
; perimeter_speed = 95
; infill_speed = 115
; travel_speed = 160
; nozzle_diameter = .5
; filament_diameter = 2.89
; extrusion_multiplier = 1
; perimeters extrusion width = 0.43mm
; infill extrusion width = 0.49mm
; solid infill extrusion width = 0.43mm
; top infill extrusion width = 0.42mm
; first layer extrusion width = 0.50mm

G21 ; set units to millimeters
M107
G28 ; home all axes
G90 ; use absolute coordinates
G92 E0
M82 ; use absolute distances for extrusion
G1 F1500.000 E-1.20000
G92 E0
G1 Z0.385 F9600.000
G1 X166.590 Y20.010 F9600.000
G1 E1.20000 F1500.000
G1 X167.640 Y19.160 E1.23964 F3705.000
G1 X168.850 Y18.520 E1.27981
G1 X170.150 Y18.130 E1.31964
G1 X171.500 Y18.000 E1.35944
G1 X271.500 Y18.000 E4.29402
G1 X272.870 Y18.130 E4.33440
G1 X274.180 Y18.530 E4.37460
G1 X275.390 Y19.180 E4.41490
G1 X276.450 Y20.050 E4.45515
G1 X277.320 Y21.110 E4.49539
G1 X277.970 Y22.320 E4.53570
G1 X278.370 Y23.630 E4.57589
G1 X278.500 Y25.000 E4.61628
G1 X278.500 Y85.220 E6.38348
G1 X277.500 Y117.220 E7.32300
G1 X277.330 Y118.550 E7.36235
G1 X276.900 Y119.830 E7.40197
G1 X276.240 Y121.000 E7.44139
G1 X275.370 Y122.030 E7.48096
G1 X274.320 Y122.870 E7.52042
G1 X273.130 Y123.490 E7.55979
G1 X271.840 Y123.870 E7.59926
G1 X270.500 Y124.000 E7.63877
G1 X170.500 Y124.000 E10.57334
G1 X169.130 Y123.870 E10.61373
G1 X167.820 Y123.470 E10.65392
G1 X166.610 Y122.820 E10.69423
G1 X165.550 Y121.950 E10.73447
G1 X164.680 Y120.890 E10.77471
G1 X164.030 Y119.680 E10.81502
G1 X163.630 Y118.370 E10.85522
G1 X163.500 Y117.000 E10.89560
G1 X163.500 Y89.890 E11.69116
G1 X164.500 Y24.890 E13.59886
G1 X164.650 Y23.540 E13.63872
G1 X165.060 Y22.250 E13.67844
G1 X165.720 Y21.060 E13.71838
G1 X166.542 Y20.068 E13.75619
G1 X166.940 Y20.370 F9600.000
G1 X167.920 Y19.570 E13.79332 F3705.000
G1 X169.040 Y18.990 E13.83033
G1 X170.240 Y18.620 E13.86718
G1 X171.500 Y18.500 E13.90432
G1 X271.500 Y18.500 E16.83890
G1 X272.770 Y18.620 E16.87633
G1 X273.990 Y18.990 E16.91375
G1 X275.110 Y19.600 E16.95117
G1 X276.100 Y20.400 E16.98852
G1 X276.900 Y21.390 E17.02588
G1 X277.510 Y22.510 E17.06330
G1 X277.880 Y23.730 E17.10071
G1 X278.000 Y25.000 E17.13815
G1 X278.000 Y85.200 E18.90476
G1 X277.000 Y117.200 E19.84428
G1 X276.840 Y118.440 E19.88098
G1 X276.450 Y119.630 E19.91772
G1 X275.830 Y120.720 E19.95452
G1 X275.020 Y121.670 E19.99116
G1 X274.050 Y122.450 E20.02769
G1 X272.940 Y123.020 E20.06430
G1 X271.740 Y123.380 E20.10107
G1 X270.500 Y123.500 E20.13763
G1 X170.500 Y123.500 E23.07220
G1 X169.230 Y123.380 E23.10964
G1 X168.010 Y123.010 E23.14705
G1 X166.890 Y122.400 E23.18448
G1 X165.900 Y121.600 E23.22183
G1 X165.100 Y120.610 E23.25918
G1 X164.490 Y119.490 E23.29661
G1 X164.120 Y118.270 E23.33402
G1 X164.000 Y117.000 E23.37145
G1 X164.000 Y89.900 E24.16672
G1 X165.000 Y24.900 E26.07442
G1 X165.140 Y23.650 E26.11133
G1 X165.520 Y22.440 E26.14855
G1 X166.130 Y21.340 E26.18546
G1 X166.892 Y20.428 E26.22035
G1 F1500.000 E25.02035
G92 E0
G1 X174.736 Y92.262 F9600.000
G1 E1.20000 F1500.000
M204 S1500
G1 X175.000 Y92.250 E1.20774 F780.000
G1 X175.268 Y92.263 E1.21562
G1 X175.534 Y92.302 E1.22350
G1 X175.794 Y92.367 E1.23138
G1 X176.047 Y92.457 E1.23927
G1 X176.290 Y92.571 E1.24715
G1 X176.521 Y92.709 E1.25503
G1 X176.737 Y92.868 E1.26291
G1 X176.937 Y93.048 E1.27079
G1 X177.132 Y93.263 E1.27930
G1 X177.291 Y93.479 E1.28718
G1 X177.429 Y93.710 E1.29506
G1 X177.543 Y93.953 E1.30294
G1 X177.633 Y94.206 E1.31083
G1 X177.698 Y94.466 E1.31871
G1 X177.737 Y94.732 E1.32659
G1 X177.750 Y95.000 E1.33446
G1 X177.738 Y95.264 E1.34221
G1 X177.700 Y95.525 E1.34996
G1 X177.637 Y95.781 E1.35770
G1 X177.550 Y96.030 E1.36545
G1 X177.439 Y96.270 E1.37319
G1 X177.306 Y96.498 E1.38094
G1 X177.152 Y96.712 E1.38869
G1 X176.978 Y96.911 E1.39643
G1 X176.786 Y97.092 E1.40418
G1 X176.577 Y97.253 E1.41192
G1 X176.354 Y97.394 E1.41967
G1 X176.118 Y97.513 E1.42741
G1 X175.872 Y97.608 E1.43516
G1 X175.618 Y97.680 E1.44291
G1 X175.358 Y97.727 E1.45065
G1 X175.095 Y97.748 E1.45840
G1 X174.831 Y97.745 E1.46614
G1 X174.569 Y97.716 E1.47389
G1 X174.310 Y97.662 E1.48163
G1 X174.058 Y97.584 E1.48938
G1 X173.815 Y97.482 E1.49713
G1 X173.582 Y97.357 E1.50487
G1 X173.346 Y97.197 E1.51324
G1 X173.143 Y97.029 E1.52098
G1 X172.957 Y96.841 E1.52873
G1 X172.790 Y96.637 E1.53647
G1 X172.643 Y96.417 E1.54422
G1 X172.518 Y96.185 E1.55196
G1 X172.416 Y95.942 E1.55971
G1 X172.338 Y95.690 E1.56746
G1 X172.269 Y95.321 E1.57846
G1 X172.250 Y95.037 E1.58682
G1 X172.259 Y94.773 E1.59456
G1 X172.294 Y94.512 E1.60230
G1 X172.353 Y94.254 E1.61005
G1 X172.437 Y94.004 E1.61779
G1 X172.544 Y93.763 E1.62554
G1 X172.674 Y93.533 E1.63329
G1 X172.825 Y93.317 E1.64103
G1 X172.997 Y93.116 E1.64878
G1 X173.186 Y92.933 E1.65653
G1 X173.393 Y92.768 E1.66427
G1 X173.614 Y92.624 E1.67202
G1 X173.849 Y92.502 E1.67977
G1 X174.093 Y92.404 E1.68751
G1 X174.346 Y92.329 E1.69526
G1 X174.662 Y92.271 E1.70467
M204 S1500
G1 X174.677 Y92.773 F9600.000
M204 S1500
G1 X175.110 Y92.753 E1.71740 F780.000
G1 X175.545 Y92.817 E1.73031
G1 X175.960 Y92.965 E1.74322
G1 X176.337 Y93.191 E1.75613
G1 X176.670 Y93.492 E1.76931
G1 X176.932 Y93.846 E1.78222
G1 X177.119 Y94.244 E1.79513
G1 X177.226 Y94.671 E1.80804
G1 X177.247 Y95.108 E1.82089
G1 X177.185 Y95.535 E1.83356
G1 X177.043 Y95.943 E1.84623
G1 X176.825 Y96.316 E1.85890
G1 X176.540 Y96.640 E1.87157
G1 X176.199 Y96.904 E1.88424
G1 X175.813 Y97.098 E1.89691
G1 X175.397 Y97.215 E1.90958
G1 X174.967 Y97.250 E1.92225
G1 X174.538 Y97.202 E1.93492
G1 X174.126 Y97.073 E1.94759
G1 X173.738 Y96.863 E1.96053
G1 X173.406 Y96.588 E1.97320
G1 X173.132 Y96.254 E1.98586
G1 X172.927 Y95.874 E1.99853
G1 X172.852 Y95.671 E2.00488
G1 X172.780 Y95.365 E2.01412
G1 X172.751 Y94.925 E2.02706
G1 X172.807 Y94.497 E2.03972
G1 X172.943 Y94.087 E2.05239
G1 X173.156 Y93.711 E2.06506
G1 X173.436 Y93.383 E2.07773
G1 X173.773 Y93.114 E2.09040
G1 X174.156 Y92.914 E2.10307
G1 X174.603 Y92.786 E2.11671
M204 S1500
G1 X174.847 Y92.374 F9600.000
G1 F1500.000 E0.91671
G92 E0
G1 X197.259 Y94.773 F9600.000
G1 E1.20000 F1500.000
M204 S1500
G1 X197.294 Y94.511 E1.20774 F780.000
G1 X197.353 Y94.254 E1.21549
G1 X197.437 Y94.004 E1.22324
G1 X197.544 Y93.763 E1.23098
G1 X197.674 Y93.533 E1.23873
G1 X197.825 Y93.317 E1.24647
G1 X197.997 Y93.116 E1.25422
G1 X198.186 Y92.933 E1.26197
G1 X198.393 Y92.768 E1.26971
G1 X198.614 Y92.624 E1.27746
G1 X198.849 Y92.502 E1.28521
G1 X199.093 Y92.404 E1.29296
G1 X199.346 Y92.329 E1.30070
G1 X199.605 Y92.278 E1.30844
G1 X199.868 Y92.253 E1.31619
G1 X200.134 Y92.253 E1.32399
G1 X200.401 Y92.279 E1.33187
G1 X200.665 Y92.331 E1.33975
G1 X200.922 Y92.409 E1.34763
G1 X201.170 Y92.511 E1.35552
G1 X201.407 Y92.637 E1.36340
G1 X201.631 Y92.786 E1.37128
G1 X201.839 Y92.956 E1.37916
G1 X202.044 Y93.161 E1.38768
G1 X202.214 Y93.369 E1.39556
G1 X202.363 Y93.593 E1.40344
G1 X202.489 Y93.830 E1.41132
G1 X202.591 Y94.078 E1.41920
G1 X202.669 Y94.335 E1.42708
G1 X202.721 Y94.599 E1.43496
G1 X202.747 Y94.866 E1.44284
G1 X202.747 Y95.132 E1.45065
G1 X202.722 Y95.395 E1.45840
G1 X202.671 Y95.654 E1.46614
G1 X202.596 Y95.907 E1.47388
G1 X202.497 Y96.152 E1.48164
G1 X202.376 Y96.386 E1.48938
G1 X202.232 Y96.607 E1.49713
G1 X202.067 Y96.814 E1.50487
G1 X201.868 Y97.018 E1.51324
G1 X201.577 Y97.253 E1.52423
G1 X201.354 Y97.394 E1.53198
G1 X201.118 Y97.513 E1.53973
G1 X200.872 Y97.608 E1.54747
G1 X200.618 Y97.680 E1.55521
G1 X200.358 Y97.727 E1.56296
G1 X200.095 Y97.748 E1.57070
G1 X199.831 Y97.745 E1.57846
G1 X199.569 Y97.716 E1.58620
G1 X199.310 Y97.662 E1.59394
G1 X199.058 Y97.584 E1.60169
G1 X198.815 Y97.482 E1.60944
G1 X198.583 Y97.357 E1.61718
G1 X198.363 Y97.210 E1.62493
G1 X198.159 Y97.043 E1.63267
G1 X197.957 Y96.841 E1.64103
G1 X197.790 Y96.637 E1.64878
G1 X197.643 Y96.417 E1.65653
G1 X197.518 Y96.185 E1.66428
G1 X197.416 Y95.942 E1.67202
G1 X197.338 Y95.690 E1.67976
G1 X197.284 Y95.431 E1.68751
G1 X197.255 Y95.169 E1.69526
G1 X197.255 Y94.848 E1.70467
M204 S1500
G1 X197.751 Y94.925 F9600.000
M204 S1500
G1 X197.807 Y94.497 E1.71735 F780.000
G1 X197.943 Y94.087 E1.73001
G1 X198.156 Y93.711 E1.74268
G1 X198.436 Y93.383 E1.75535
G1 X198.773 Y93.114 E1.76802
G1 X199.156 Y92.914 E1.78069
G1 X199.570 Y92.791 E1.79336
G1 X200.000 Y92.750 E1.80603
G1 X200.438 Y92.793 E1.81894
G1 X200.859 Y92.920 E1.83185
G1 X201.247 Y93.127 E1.84476
G1 X201.588 Y93.406 E1.85767
G1 X201.873 Y93.753 E1.87085
G1 X202.080 Y94.141 E1.88376
G1 X202.207 Y94.562 E1.89668
G1 X202.250 Y95.000 E1.90958
G1 X202.209 Y95.430 E1.92225
G1 X202.086 Y95.844 E1.93492
G1 X201.886 Y96.227 E1.94759
G1 X201.611 Y96.571 E1.96053
G1 X201.376 Y96.780 E1.96977
G1 X201.199 Y96.904 E1.97611
G1 X200.813 Y97.098 E1.98878
G1 X200.397 Y97.215 E2.00145
G1 X199.967 Y97.250 E2.01412
G1 X199.538 Y97.202 E2.02679
G1 X199.126 Y97.073 E2.03946
G1 X198.746 Y96.868 E2.05213
G1 X198.406 Y96.588 E2.06507
G1 X198.132 Y96.254 E2.07773
G1 X197.927 Y95.874 E2.09040
G1 X197.798 Y95.462 E2.10307
G1 X197.750 Y95.000 E2.11671
M204 S1500
G1 X197.390 Y94.688 F9600.000
G1 F1500.000 E0.91671
G92 E0
G1 X238.250 Y95.037 F9600.000
G1 E1.20000 F1500.000
M204 S1500
G1 X238.259 Y94.773 E1.20775 F780.000
G1 X238.294 Y94.512 E1.21549
G1 X238.353 Y94.254 E1.22323
G1 X238.437 Y94.004 E1.23098
G1 X238.544 Y93.763 E1.23872
G1 X238.674 Y93.533 E1.24647
G1 X238.825 Y93.317 E1.25422
G1 X238.997 Y93.116 E1.26196
G1 X239.186 Y92.933 E1.26971
G1 X239.393 Y92.768 E1.27746
G1 X239.614 Y92.624 E1.28520
G1 X239.848 Y92.503 E1.29295
G1 X240.093 Y92.404 E1.30070
G1 X240.346 Y92.329 E1.30844
G1 X240.605 Y92.278 E1.31619
G1 X240.868 Y92.253 E1.32393
G1 X241.134 Y92.253 E1.33174
G1 X241.401 Y92.279 E1.33961
G1 X241.665 Y92.331 E1.34750
G1 X241.922 Y92.409 E1.35538
G1 X242.170 Y92.511 E1.36327
G1 X242.407 Y92.637 E1.37114
G1 X242.631 Y92.786 E1.37902
G1 X242.839 Y92.956 E1.38691
G1 X243.044 Y93.161 E1.39542
G1 X243.214 Y93.369 E1.40330
G1 X243.363 Y93.593 E1.41118
G1 X243.489 Y93.830 E1.41906
G1 X243.591 Y94.078 E1.42694
G1 X243.669 Y94.335 E1.43482
G1 X243.721 Y94.599 E1.44270
G1 X243.747 Y94.866 E1.45059
G1 X243.747 Y95.132 E1.45840
G1 X243.722 Y95.395 E1.46614
G1 X243.671 Y95.654 E1.47389
G1 X243.596 Y95.907 E1.48163
G1 X243.497 Y96.152 E1.48938
G1 X243.376 Y96.386 E1.49712
G1 X243.232 Y96.607 E1.50487
G1 X243.053 Y96.829 E1.51323
G1 X242.786 Y97.092 E1.52423
G1 X242.577 Y97.253 E1.53197
G1 X242.354 Y97.394 E1.53972
G1 X242.118 Y97.513 E1.54747
G1 X241.872 Y97.608 E1.55521
G1 X241.618 Y97.680 E1.56296
G1 X241.358 Y97.727 E1.57071
G1 X241.095 Y97.748 E1.57845
G1 X240.831 Y97.745 E1.58620
G1 X240.569 Y97.716 E1.59394
G1 X240.310 Y97.662 E1.60169
G1 X240.058 Y97.584 E1.60944
G1 X239.815 Y97.482 E1.61718
G1 X239.583 Y97.357 E1.62492
G1 X239.363 Y97.210 E1.63267
G1 X239.143 Y97.029 E1.64103
G1 X238.957 Y96.841 E1.64878
G1 X238.790 Y96.637 E1.65653
G1 X238.643 Y96.417 E1.66427
G1 X238.518 Y96.185 E1.67202
G1 X238.416 Y95.942 E1.67976
G1 X238.338 Y95.690 E1.68751
G1 X238.284 Y95.431 E1.69525
G1 X238.253 Y95.112 E1.70467
M204 S1500
G1 X238.754 Y95.141 F9600.000
M204 S1500
G1 X238.769 Y94.710 E1.71734 F780.000
G1 X238.865 Y94.289 E1.73001
G1 X239.040 Y93.894 E1.74268
G1 X239.288 Y93.540 E1.75535
G1 X239.598 Y93.240 E1.76802
G1 X239.960 Y93.005 E1.78069
G1 X240.360 Y92.843 E1.79336
G1 X240.784 Y92.760 E1.80603
G1 X241.220 Y92.761 E1.81882
G1 X241.651 Y92.846 E1.83173
G1 X242.058 Y93.014 E1.84464
G1 X242.424 Y93.258 E1.85755
G1 X242.742 Y93.576 E1.87073
G1 X242.986 Y93.942 E1.88364
G1 X243.154 Y94.349 E1.89655
G1 X243.239 Y94.780 E1.90946
G1 X243.240 Y95.216 E1.92225
G1 X243.157 Y95.640 E1.93492
G1 X242.995 Y96.040 E1.94759
G1 X242.754 Y96.409 E1.96052
G1 X242.540 Y96.640 E1.96977
G1 X242.376 Y96.780 E1.97611
G1 X242.010 Y97.010 E1.98878
G1 X241.608 Y97.166 E2.00145
G1 X241.183 Y97.243 E2.01412
G1 X240.751 Y97.236 E2.02679
G1 X240.329 Y97.148 E2.03946
G1 X239.931 Y96.980 E2.05213
G1 X239.565 Y96.733 E2.06506
G1 X239.261 Y96.428 E2.07773
G1 X239.020 Y96.069 E2.09040
G1 X238.852 Y95.671 E2.10307
G1 X238.761 Y95.216 E2.11671
M204 S1500
G1 X238.372 Y94.940 F9600.000
G1 F1500.000 E0.91671
G92 E0
G1 X263.250 Y95.037 F9600.000
G1 E1.20000 F1500.000
M204 S1500
G1 X263.259 Y94.773 E1.20775 F780.000
G1 X263.294 Y94.512 E1.21549
G1 X263.353 Y94.254 E1.22323
G1 X263.437 Y94.004 E1.23098
G1 X263.544 Y93.763 E1.23872
G1 X263.674 Y93.533 E1.24647
G1 X263.825 Y93.317 E1.25422
G1 X263.997 Y93.116 E1.26196
G1 X264.186 Y92.933 E1.26971
G1 X264.393 Y92.768 E1.27746
G1 X264.614 Y92.624 E1.28520
G1 X264.848 Y92.503 E1.29295
G1 X265.093 Y92.404 E1.30070
G1 X265.346 Y92.329 E1.30844
G1 X265.605 Y92.278 E1.31619
G1 X265.868 Y92.253 E1.32393
G1 X266.134 Y92.253 E1.33174
G1 X266.401 Y92.279 E1.33962
G1 X266.665 Y92.331 E1.34750
G1 X266.922 Y92.409 E1.35538
G1 X267.170 Y92.511 E1.36327
G1 X267.407 Y92.637 E1.37114
G1 X267.631 Y92.786 E1.37902
G1 X267.839 Y92.956 E1.38691
G1 X268.044 Y93.161 E1.39542
G1 X268.214 Y93.369 E1.40330
G1 X268.363 Y93.593 E1.41118
G1 X268.489 Y93.830 E1.41907
G1 X268.591 Y94.078 E1.42694
G1 X268.669 Y94.335 E1.43483
G1 X268.721 Y94.599 E1.44270
G1 X268.747 Y94.866 E1.45059
G1 X268.747 Y95.132 E1.45840
G1 X268.722 Y95.395 E1.46614
G1 X268.671 Y95.654 E1.47389
G1 X268.596 Y95.907 E1.48163
G1 X268.497 Y96.152 E1.48938
G1 X268.376 Y96.386 E1.49712
G1 X268.232 Y96.607 E1.50487
G1 X268.053 Y96.829 E1.51323
G1 X267.786 Y97.092 E1.52423
G1 X267.577 Y97.253 E1.53197
G1 X267.354 Y97.394 E1.53972
G1 X267.118 Y97.513 E1.54747
G1 X266.872 Y97.608 E1.55521
G1 X266.618 Y97.680 E1.56296
G1 X266.358 Y97.727 E1.57071
G1 X266.095 Y97.748 E1.57845
G1 X265.831 Y97.745 E1.58620
G1 X265.569 Y97.716 E1.59394
G1 X265.310 Y97.662 E1.60169
G1 X265.058 Y97.584 E1.60944
G1 X264.815 Y97.482 E1.61718
G1 X264.583 Y97.357 E1.62492
G1 X264.363 Y97.210 E1.63267
G1 X264.143 Y97.029 E1.64103
G1 X263.957 Y96.841 E1.64878
G1 X263.790 Y96.637 E1.65653
G1 X263.643 Y96.417 E1.66427
G1 X263.518 Y96.185 E1.67202
G1 X263.416 Y95.942 E1.67976
G1 X263.338 Y95.690 E1.68751
G1 X263.284 Y95.431 E1.69525
G1 X263.253 Y95.112 E1.70467
M204 S1500
G1 X263.754 Y95.141 F9600.000
M204 S1500
G1 X263.769 Y94.710 E1.71734 F780.000
G1 X263.865 Y94.289 E1.73001
G1 X264.040 Y93.894 E1.74268
G1 X264.288 Y93.540 E1.75535
G1 X264.598 Y93.240 E1.76802
G1 X264.960 Y93.005 E1.78069
G1 X265.360 Y92.843 E1.79336
G1 X265.784 Y92.760 E1.80603
G1 X266.220 Y92.761 E1.81882
G1 X266.651 Y92.846 E1.83173
G1 X267.058 Y93.014 E1.84464
G1 X267.424 Y93.258 E1.85755
G1 X267.742 Y93.576 E1.87073
G1 X267.986 Y93.942 E1.88364
G1 X268.154 Y94.349 E1.89655
G1 X268.239 Y94.780 E1.90946
G1 X268.240 Y95.216 E1.92225
G1 X268.157 Y95.640 E1.93492
G1 X267.995 Y96.040 E1.94759
G1 X267.754 Y96.409 E1.96052
G1 X267.540 Y96.640 E1.96977
G1 X267.376 Y96.780 E1.97611
G1 X267.010 Y97.010 E1.98878
G1 X266.608 Y97.166 E2.00145
G1 X266.183 Y97.243 E2.01412
G1 X265.751 Y97.236 E2.02679
G1 X265.329 Y97.148 E2.03946
G1 X264.931 Y96.980 E2.05213
G1 X264.565 Y96.733 E2.06506
G1 X264.261 Y96.428 E2.07773
G1 X264.020 Y96.069 E2.09040
G1 X263.852 Y95.671 E2.10307
G1 X263.761 Y95.216 E2.11671
M204 S1500
G1 X263.372 Y94.940 F9600.000
G1 F1500.000 E0.91671
G92 E0
G1 X269.750 Y90.750 F9600.000
G1 E1.20000 F1500.000
M204 S1500
G1 X269.750 Y116.208 E1.94709 F3705.000
G1 X269.180 Y116.081 E1.96423
G1 X268.755 Y115.952 E1.97727
G1 X268.232 Y115.735 E1.99389
G1 X267.816 Y115.513 E2.00772
G1 X267.444 Y115.270 E2.02077
G1 X267.093 Y114.996 E2.03382
G1 X266.664 Y114.587 E2.05121
G1 X266.374 Y114.250 E2.06426
G1 X266.033 Y113.765 E2.08165
G1 X265.815 Y113.378 E2.09470
G1 X265.630 Y112.973 E2.10775
G1 X265.438 Y112.413 E2.12514
G1 X265.337 Y111.980 E2.13819
G1 X265.272 Y111.540 E2.15124
G1 X265.250 Y111.257 E2.15957
G1 X265.250 Y110.422 E2.18407
G1 X220.500 Y105.052 E3.50671
G1 X175.750 Y110.422 E4.82935
G1 X175.750 Y111.257 E4.85385
G1 X175.728 Y111.540 E4.86218
G1 X175.663 Y111.980 E4.87523
G1 X175.562 Y112.413 E4.88828
G1 X175.370 Y112.973 E4.90567
G1 X175.185 Y113.378 E4.91872
