;Generated by Cura 2 GCodeWriter Version: 2.6.21
;FLAVOR:RepRap
;TIME:5110
;Filament used: 4.90655m
;Layer height: 0.38
;Generated with Cura_SteamEngine 2.6.23
;This G-Code has been generated specifically for the LulzBot Mini with standard extruder
G26                                ; clear potential 'probe fail' condition
G21                                ; set units to Millimetres
M107                               ; disable fans
G90                                ; absolute positioning
M82                                ; set extruder to absolute mode
G92 E0                             ; set extruder position to 0
M140 S110   ; start bed heating up
G28                                ; home all axes
M109 R170  ; wait for extruder to reach wiping temp
G1 Z150 E-30 F75                   ; retract filament
G1 X45 Y174 F11520                 ; move above wiper pad
G1 Z0  F1200                       ; push nozzle into wiper
G1 X45 Y174 Z-.5 F4000             ; wiping
G1 X55 Y172 Z-.5 F4000             ; wiping
G1 X45 Y174 Z0 F4000               ; wiping
G1 X55 Y172 F4000                  ; wiping
G1 X45 Y174 F4000                  ; wiping
G1 X55 Y172 F4000                  ; wiping
G1 X45 Y174 F4000                  ; wiping
G1 X55 Y172 F4000                  ; wiping
G1 X60 Y174 F4000                  ; wiping
G1 X80 Y172 F4000                  ; wiping
G1 X60 Y174 F4000                  ; wiping
G1 X80 Y172 F4000                  ; wiping
G1 X60 Y174 F4000                  ; wiping
G1 X90 Y172 F4000                  ; wiping
G1 X80 Y174 F4000                  ; wiping
G1 X100 Y172 F4000                 ; wiping
G1 X80 Y174 F4000                  ; wiping
G1 X100 Y172 F4000                 ; wiping
G1 X80 Y174 F4000                  ; wiping
G1 X100 Y172 F4000                 ; wiping
G1 X110 Y174 F4000                 ; wiping
G1 X100 Y172 F4000                 ; wiping
G1 X110 Y174 F4000                 ; wiping
G1 X100 Y172 F4000                 ; wiping
G1 X110 Y174 F4000                 ; wiping
G1 X115 Y172 Z-0.5 F1000           ; wiping
G1 Z10                             ; raise extruder
G28 X0 Y0                          ; home X and Y
M109 R170 ; wait for extruder to reach probe temp
M204 S300                          ; set probing acceleration
G29                                ; start auto-leveling sequence
M204 S2000                         ; restore standard acceleration
G1 X5 Y15 Z10 F5000                ; move up off last probe point
G4 S1                              ; pause
M400                               ; wait for moves to finish
M117 Heating...                    ; progress indicator message on LCD
M109 R240 ; wait for extruder to reach printing temp
M190 S110   ; wait for bed to reach printing temp
G1 Z2 E0 F75                       ; prime tiny bit of filment into the nozzle
M117 Mini Printing...              ; progress indicator message on LCD

;LAYER_COUNT:47
;LAYER:0
M107
G0 F2625 X50.215 Y41.936 Z0.425
;TYPE:SKIRT
G1 F900 X50.799 Y41.408 E0.02623
G1 X51.433 Y40.942 E0.05244
G1 X52.112 Y40.543 E0.07867
G1 X52.648 Y40.289 E0.09843
G1 X52.891 Y40.185 E0.10723
G1 X53.629 Y39.913 E0.13343
G1 X54.391 Y39.716 E0.15965
G1 X55.253 Y39.591 E0.18866
G1 X63.428 Y38.863 E0.46205
G1 X68.552 Y38.072 E0.63476
G1 X73.703 Y36.976 E0.81018
G1 X76.128 Y36.351 E0.8936
G1 X81.178 Y34.82 E1.06937
G1 X86.131 Y33.005 E1.24509
G1 X89.534 Y31.596 E1.36778
G1 X90.275 Y31.333 E1.39397
G1 X90.938 Y31.166 E1.41674
G1 X91.989 Y30.95 E1.45248
G1 X92.767 Y30.831 E1.4787
G1 X93.692 Y30.792 E1.50954
G1 X94.505 Y30.807 E1.53662
G1 X95.29 Y30.862 E1.56284
G1 X96.068 Y30.996 E1.58913
G1 X96.888 Y31.181 E1.61714
G1 X97.646 Y31.393 E1.64335
G1 X98.453 Y31.715 E1.6723
G1 X99.267 Y32.094 E1.70221
G1 X99.963 Y32.462 E1.72843
G1 X100.416 Y32.754 E1.74638
G1 X100.851 Y33.056 E1.76402
G1 X101.474 Y33.537 E1.79024
G1 X101.89 Y33.921 E1.8091
G1 X106.875 Y38.868 E2.04304
G1 X107.314 Y39.341 E2.06454
G1 X111.996 Y44.833 E2.30493
G1 X115.697 Y48.642 E2.48184
G1 X120.826 Y53.701 E2.72181
G1 X120.992 Y53.87 E2.72971
G1 X123.138 Y56.12 E2.83328
G1 X130.725 Y63.61 E3.18841
G1 X131.256 Y64.191 E3.21463
G1 X131.726 Y64.822 E3.24084
G1 X132.129 Y65.498 E3.26705
G1 X132.462 Y66.212 E3.29329
G1 X132.72 Y66.955 E3.31949
G1 X132.902 Y67.721 E3.34572
G1 X133.005 Y68.501 E3.37193
G1 X133.028 Y69.288 E3.39815
G1 X132.972 Y70.073 E3.42437
G1 X132.837 Y70.842 E3.45038
G1 X129.171 Y86.976 E4.0015
G1 X128.958 Y87.734 E4.02773
G1 X128.669 Y88.466 E4.05395
G1 X128.308 Y89.165 E4.08015
G1 X127.877 Y89.824 E4.10638
G1 X127.381 Y90.436 E4.13262
G1 X127.096 Y90.737 E4.14643
G1 X104.789 Y113.061 E5.19767
G1 X104.205 Y113.589 E5.22389
G1 X103.571 Y114.055 E5.2501
G1 X102.892 Y114.454 E5.27634
G1 X102.357 Y114.708 E5.29606
G1 X102.1 Y114.818 E5.30538
G1 X101.361 Y115.09 E5.33161
G1 X100.599 Y115.287 E5.35782
G1 X99.648 Y115.42 E5.38981
G1 X94.233 Y115.839 E5.57073
G1 X89.013 Y116.495 E5.74597
G1 X83.817 Y117.449 E5.92195
G1 X81.351 Y118.01 E6.00619
G1 X78.872 Y118.649 E6.09146
G1 X73.822 Y120.18 E6.26724
G1 X68.869 Y121.995 E6.44296
G1 X65.466 Y123.404 E6.56564
G1 X64.725 Y123.667 E6.59184
G1 X64.062 Y123.834 E6.61461
G1 X63.011 Y124.05 E6.65035
G1 X62.233 Y124.169 E6.67657
G1 X61.308 Y124.208 E6.70741
G1 X60.495 Y124.193 E6.73449
G1 X59.71 Y124.138 E6.76071
G1 X58.932 Y124.004 E6.787
G1 X58.112 Y123.819 E6.815
G1 X57.354 Y123.607 E6.84122
G1 X56.547 Y123.285 E6.87016
G1 X55.733 Y122.906 E6.90007
G1 X55.037 Y122.538 E6.9263
G1 X54.581 Y122.244 E6.94437
G1 X54.145 Y121.941 E6.96206
G1 X53.523 Y121.46 E6.98825
G1 X53.119 Y121.088 E7.00654
G1 X48.643 Y116.663 E7.2162
G1 X48.224 Y116.215 E7.23663
G1 X43.02 Y110.185 E7.50195
G1 X39.302 Y106.359 E7.67966
G1 X34.174 Y101.301 E7.91959
G1 X34.008 Y101.132 E7.92748
G1 X31.86 Y98.88 E8.03115
G1 X24.275 Y91.39 E8.38623
G1 X23.743 Y90.809 E8.41247
G1 X23.274 Y90.177 E8.43869
G1 X22.871 Y89.501 E8.4649
G1 X22.538 Y88.787 E8.49115
G1 X22.28 Y88.044 E8.51734
G1 X22.098 Y87.278 E8.54357
G1 X21.995 Y86.498 E8.56978
G1 X21.972 Y85.711 E8.596
G1 X22.028 Y84.926 E8.62222
G1 X22.162 Y84.158 E8.64819
G1 X25.826 Y68.026 E9.19924
G1 X26.04 Y67.269 E9.22544
G1 X26.328 Y66.537 E9.25164
G1 X26.69 Y65.837 E9.27789
G1 X27.121 Y65.178 E9.30412
G1 X27.616 Y64.567 E9.33032
G1 X27.902 Y64.265 E9.34417
G1 X50.215 Y41.936 E10.39567
G0 F2625 X50.569 Y42.289
G1 F900 X51.134 Y41.78 E10.421
G1 X51.75 Y41.332 E10.44637
G1 X52.41 Y40.952 E10.47174
G1 X52.844 Y40.749 E10.4877
G1 X53.087 Y40.645 E10.49651
G1 X53.802 Y40.382 E10.52188
G1 X54.54 Y40.196 E10.54723
G1 X55.297 Y40.089 E10.5727
G1 X63.486 Y39.36 E10.84656
G1 X68.645 Y38.564 E11.02044
G1 X73.81 Y37.464 E11.19635
G1 X76.26 Y36.833 E11.28062
G1 X81.353 Y35.288 E11.4579
G1 X86.3 Y33.476 E11.6334
G1 X89.725 Y32.058 E11.75688
G1 X90.443 Y31.804 E11.78225
G1 X91.038 Y31.655 E11.80268
G1 X92.089 Y31.439 E11.83842
G1 X92.842 Y31.326 E11.86378
G1 X93.683 Y31.292 E11.89182
G1 X94.496 Y31.307 E11.9189
G1 X95.255 Y31.361 E11.94425
G1 X95.958 Y31.484 E11.96802
G1 X96.778 Y31.669 E11.99603
G1 X97.51 Y31.875 E12.02136
G1 X98.242 Y32.168 E12.04762
G1 X99.056 Y32.547 E12.07753
G1 X99.729 Y32.905 E12.10292
G1 X100.131 Y33.165 E12.11887
G1 X100.566 Y33.467 E12.13651
G1 X101.167 Y33.933 E12.16184
G1 X101.538 Y34.276 E12.17867
G1 X106.523 Y39.223 E12.41261
G1 X106.933 Y39.666 E12.43272
G1 X111.617 Y45.161 E12.67323
G1 X115.341 Y48.993 E12.85123
G1 X120.475 Y54.057 E13.09143
G1 X120.63 Y54.215 E13.09881
G1 X122.794 Y56.484 E13.20325
G1 X130.373 Y63.966 E13.55801
G1 X130.886 Y64.528 E13.58335
G1 X131.338 Y65.141 E13.60872
G1 X131.722 Y65.799 E13.6341
G1 X132.035 Y66.492 E13.65943
G1 X132.274 Y67.215 E13.68479
G1 X132.436 Y67.959 E13.71016
G1 X132.518 Y68.716 E13.73552
G1 X132.521 Y69.477 E13.76087
G1 X132.445 Y70.235 E13.78625
G1 X132.35 Y70.731 E13.80307
G1 X128.684 Y86.865 E14.3542
G1 X128.476 Y87.598 E14.37958
G1 X128.193 Y88.305 E14.40494
G1 X127.838 Y88.978 E14.43029
G1 X127.413 Y89.61 E14.45566
G1 X126.742 Y90.384 E14.48978
G1 X104.435 Y112.708 E15.54102
G1 X103.87 Y113.217 E15.56635
G1 X103.254 Y113.665 E15.59172
G1 X102.594 Y114.045 E15.61709
G1 X102.16 Y114.248 E15.63305
G1 X101.903 Y114.358 E15.64236
G1 X101.188 Y114.621 E15.66774
G1 X100.45 Y114.807 E15.69309
G1 X99.61 Y114.921 E15.72133
G1 X94.174 Y115.342 E15.90295
G1 X88.949 Y115.998 E16.07836
G1 X83.732 Y116.956 E16.25505
G1 X81.229 Y117.526 E16.34056
G1 X78.74 Y118.167 E16.42617
G1 X73.647 Y119.712 E16.60345
G1 X68.7 Y121.524 E16.77895
G1 X65.275 Y122.942 E16.90243
G1 X64.557 Y123.196 E16.9278
G1 X63.962 Y123.345 E16.94823
G1 X62.911 Y123.561 E16.98397
G1 X62.158 Y123.674 E17.00933
G1 X61.317 Y123.708 E17.03737
G1 X60.504 Y123.693 E17.06445
G1 X59.745 Y123.639 E17.0898
G1 X59.042 Y123.516 E17.11357
G1 X58.222 Y123.331 E17.14158
G1 X57.49 Y123.125 E17.16691
G1 X56.758 Y122.832 E17.19317
G1 X55.944 Y122.453 E17.22308
G1 X55.271 Y122.095 E17.24847
G1 X54.867 Y121.834 E17.26449
G1 X54.431 Y121.531 E17.28218
G1 X53.829 Y121.064 E17.30756
G1 X53.471 Y120.733 E17.3238
G1 X48.995 Y116.308 E17.53346
G1 X48.603 Y115.888 E17.55259
G1 X43.395 Y109.853 E17.81813
G1 X39.658 Y106.008 E17.99673
G1 X34.525 Y100.945 E18.23689
G1 X34.37 Y100.787 E18.24427
G1 X32.219 Y98.532 E18.34807
G1 X24.626 Y91.034 E18.70353
G1 X24.113 Y90.471 E18.72891
G1 X23.662 Y89.858 E18.75426
G1 X23.278 Y89.201 E18.7796
G1 X22.964 Y88.507 E18.80498
G1 X22.726 Y87.784 E18.83033
G1 X22.564 Y87.04 E18.8557
G1 X22.481 Y86.283 E18.88106
G1 X22.479 Y85.522 E18.90641
G1 X22.556 Y84.764 E18.93179
G1 X22.65 Y84.269 E18.94857
G1 X26.314 Y68.137 E19.49962
G1 X26.521 Y67.405 E19.52496
G1 X26.804 Y66.698 E19.55033
G1 X27.16 Y66.025 E19.57569
G1 X27.584 Y65.393 E19.60104
G1 X28.256 Y64.618 E19.63521
G1 X50.569 Y42.289 E20.68671
G1 F600 E19.68671
G0 F2625 X55.101 Y47.042
G0 X56.115 Y48.055
G0 X56.148 Y48.128
G0 X56.107 Y48.037
;TYPE:WALL-INNER
G1 F600 E20.68671
G1 F900 X85.069 Y46.057 E21.65369
G1 X85.275 Y46.016 E21.66069
G1 X85.566 Y45.923 E21.67087
G1 X85.851 Y45.781 E21.68147
G1 X86.077 Y45.626 E21.6906
G1 X86.186 Y45.533 E21.69538
G1 X91.529 Y40.197 E21.94691
G1 X91.753 Y40.002 E21.9568
G1 X91.936 Y39.865 E21.96442
G1 X92.109 Y39.754 E21.97126
G1 X92.326 Y39.634 E21.97952
G1 X92.625 Y39.498 E21.99046
G1 X93.003 Y39.377 E22.00368
G1 X93.278 Y39.315 E22.01308
G1 X93.505 Y39.284 E22.02071
G1 X93.661 Y39.272 E22.02592
G1 X93.958 Y39.268 E22.03581
G1 X94.289 Y39.292 E22.04687
G1 X94.456 Y39.317 E22.05249
G1 X94.832 Y39.408 E22.06538
G1 X95.113 Y39.506 E22.07529
G1 X95.387 Y39.63 E22.08531
G1 X95.565 Y39.726 E22.09205
G1 X95.809 Y39.883 E22.10171
G1 X95.994 Y40.022 E22.10942
G1 X96.257 Y40.258 E22.12119
G1 X100.856 Y44.858 E22.33786
G1 X101.102 Y45.211 E22.3522
G1 X101.351 Y45.621 E22.36817
G1 X101.566 Y46.029 E22.38354
G1 X101.767 Y46.485 E22.40014
G1 X101.838 Y46.666 E22.40661
G1 X101.925 Y46.919 E22.41552
G1 X102.064 Y47.404 E22.43233
G1 X102.16 Y47.851 E22.44756
G1 X102.219 Y48.251 E22.46103
G1 X102.264 Y48.764 E22.47818
G1 X102.273 Y49.211 E22.49307
G1 X102.246 Y49.736 E22.51058
G1 X102.183 Y50.248 E22.52777
G1 X102.093 Y50.702 E22.54319
G1 X101.965 Y51.184 E22.5598
G1 X101.808 Y51.641 E22.57589
G1 X101.625 Y52.073 E22.59152
G1 X101.41 Y52.502 E22.60751
G1 X101.154 Y52.939 E22.62438
G1 X101.063 Y53.078 E22.62991
G1 X100.736 Y53.521 E22.64825
G1 X100.606 Y53.68 E22.65509
G1 X100.265 Y54.057 E22.67203
G1 X100.003 Y54.312 E22.6842
G1 X99.652 Y54.618 E22.69972
G1 X99.237 Y54.931 E22.71703
G1 X98.805 Y55.207 E22.73411
G1 X98.344 Y55.454 E22.75153
G1 X75.697 Y66.449 E23.59011
G1 X75.499 Y66.572 E23.59788
G1 X75.314 Y66.719 E23.60575
G1 X43.637 Y98.391 E25.09787
G1 X43.461 Y98.567 E25.10616
G1 X43.285 Y98.391 E25.11151
G1 X40.169 Y95.274 E25.25832
G1 X42.035 Y93.404 E25.34632
G1 X35.295 Y86.663 E25.66385
G1 X33.425 Y88.532 E25.75192
G1 X30.531 Y85.639 E25.88823
G1 X34.008 Y70.143 E26.41724
G1 X56.107 Y48.037 E27.45844
G0 F2625 X56.148 Y48.128
G0 X56.542 Y50.456
G0 X56.542 Y50.556
G1 F900 X56.366 Y50.732 E27.46673
G1 X40.554 Y66.545 E28.21163
G1 X56.366 Y82.358 E28.95652
G1 X56.542 Y82.534 E28.96481
G1 X56.718 Y82.358 E28.97016
G1 X72.532 Y66.545 E29.7151
G1 X56.718 Y50.732 E30.46005
G1 X56.542 Y50.556 E30.4654
G0 F2625 X56.542 Y50.456
G0 X66.901 Y54.422
G0 X66.995 Y54.455
G1 F900 X66.858 Y54.896 E30.48078
G1 X66.758 Y55.348 E30.4962
G1 X66.695 Y55.804 E30.51153
G1 X66.669 Y56.248 E30.52635
G1 X66.677 Y56.707 E30.54164
G1 X66.725 Y57.168 E30.55708
G1 X66.808 Y57.622 E30.57245
G1 X66.928 Y58.069 E30.58787
G1 X67.084 Y58.505 E30.60329
G1 X67.274 Y58.926 E30.61868
G1 X67.499 Y59.33 E30.63408
G1 X67.753 Y59.714 E30.64942
G1 X68.026 Y60.062 E30.66415
G1 X68.314 Y60.378 E30.67839
G1 X68.681 Y60.717 E30.69504
G1 X69.045 Y61.001 E30.71042
G1 X69.431 Y61.256 E30.72583
G1 X69.834 Y61.479 E30.74117
G1 X70.24 Y61.661 E30.75599
G1 X70.676 Y61.816 E30.7714
G1 X71.121 Y61.936 E30.78675
G1 X71.575 Y62.02 E30.80213
G1 X72.037 Y62.068 E30.81761
G1 X72.496 Y62.076 E30.8329
G1 X72.957 Y62.049 E30.84828
G1 X73.416 Y61.983 E30.86373
G1 X73.869 Y61.88 E30.8792
G1 X74.306 Y61.742 E30.89447
G1 X74.736 Y61.57 E30.90989
G1 X75.151 Y61.36 E30.92539
G1 X75.545 Y61.121 E30.94074
G1 X75.918 Y60.851 E30.95608
G1 X76.269 Y60.552 E30.97143
G1 X76.584 Y60.234 E30.98634
G1 X76.882 Y59.883 E31.00168
G1 X77.152 Y59.508 E31.01707
G1 X77.39 Y59.114 E31.03241
G1 X77.596 Y58.701 E31.04778
G1 X77.768 Y58.27 E31.06324
G1 X77.905 Y57.829 E31.07862
G1 X78.005 Y57.377 E31.09404
G1 X78.068 Y56.922 E31.10934
G1 X78.095 Y56.478 E31.12416
G1 X78.087 Y56.016 E31.13955
G1 X78.038 Y55.556 E31.15496
G1 X77.955 Y55.102 E31.17033
G1 X77.835 Y54.657 E31.18569
G1 X77.68 Y54.22 E31.20113
G1 X77.488 Y53.798 E31.21657
G1 X77.265 Y53.395 E31.23192
G1 X77.009 Y53.009 E31.24735
G1 X76.723 Y52.647 E31.26271
G1 X76.423 Y52.321 E31.27747
G1 X76.082 Y52.007 E31.29291
G1 X75.718 Y51.723 E31.30829
G1 X75.332 Y51.47 E31.32366
G1 X74.928 Y51.246 E31.33905
G1 X74.506 Y51.058 E31.35444
G1 X74.071 Y50.904 E31.36981
G1 X73.625 Y50.786 E31.38518
G1 X73.169 Y50.702 E31.40062
G1 X72.708 Y50.657 E31.41605
G1 X72.267 Y50.65 E31.43075
G1 X71.806 Y50.677 E31.44613
G1 X71.348 Y50.743 E31.46154
G1 X70.895 Y50.844 E31.477
G1 X70.455 Y50.984 E31.49238
G1 X70.027 Y51.156 E31.50775
G1 X69.613 Y51.364 E31.52318
G1 X69.218 Y51.604 E31.53858
G1 X68.845 Y51.874 E31.55391
G1 X68.494 Y52.173 E31.56927
G1 X68.179 Y52.491 E31.58418
G1 X67.881 Y52.842 E31.59952
G1 X67.611 Y53.217 E31.61491
G1 X67.373 Y53.611 E31.63025
G1 X67.167 Y54.024 E31.64562
G1 X66.995 Y54.455 E31.66108
G0 F2625 X66.901 Y54.422
G0 X67.578 Y53.195
G0 X68.467 Y52.144
G0 X69.594 Y51.33
G0 X70.885 Y50.806
G0 X72.267 Y50.611
G0 X89.17 Y50.39
G0 X89.267 Y50.37
G1 F900 X89.36 Y50.749 E31.67408
G1 X89.475 Y51.115 E31.68686
G1 X89.617 Y51.479 E31.69987
G1 X89.777 Y51.827 E31.71263
G1 X89.965 Y52.173 E31.72575
G1 X90.174 Y52.502 E31.73873
G1 X90.397 Y52.811 E31.75142
G1 X90.645 Y53.114 E31.76447
G1 X90.907 Y53.393 E31.77721
G1 X91.193 Y53.661 E31.79027
G1 X91.495 Y53.909 E31.80329
G1 X91.807 Y54.134 E31.8161
G1 X92.137 Y54.34 E31.82906
G1 X92.473 Y54.522 E31.84179
G1 X92.828 Y54.687 E31.85483
G1 X93.193 Y54.827 E31.86785
G1 X93.558 Y54.942 E31.8806
G1 X93.937 Y55.035 E31.8936
G1 X94.316 Y55.103 E31.90642
G1 X94.704 Y55.146 E31.91943
G1 X95.094 Y55.164 E31.93243
G1 X95.476 Y55.159 E31.94516
G1 X95.866 Y55.127 E31.95819
G1 X96.253 Y55.07 E31.97122
G1 X96.628 Y54.991 E31.98399
G1 X97.004 Y54.886 E31.99699
G1 X97.367 Y54.758 E32.00981
G1 X97.725 Y54.606 E32.02277
G1 X98.074 Y54.431 E32.03577
G1 X98.405 Y54.238 E32.04854
G1 X98.729 Y54.02 E32.06154
G1 X99.033 Y53.785 E32.07434
G1 X99.325 Y53.527 E32.08732
G1 X99.603 Y53.249 E32.10042
G1 X99.855 Y52.962 E32.11314
G1 X100.094 Y52.652 E32.12618
G1 X100.311 Y52.33 E32.13911
G1 X100.506 Y51.997 E32.15197
G1 X100.68 Y51.648 E32.16496
G1 X100.83 Y51.295 E32.17773
G1 X100.96 Y50.924 E32.19083
G1 X101.063 Y50.549 E32.20378
G1 X101.143 Y50.175 E32.21652
G1 X101.198 Y49.788 E32.22954
G1 X101.23 Y49.407 E32.24228
G1 X101.235 Y49.015 E32.25534
G1 X101.216 Y48.625 E32.26835
