;Generated by Cura 2 GCodeWriter Version: 2.6.33
;FLAVOR:RepRap
;TIME:2074
;Filament used: 0.75023m
;Layer height: 0.25
;Generated with Cura_SteamEngine 2.6.34
;This G-Code has been generated specifically for the LulzBot Mini with standard extruder
G26                                ; clear potential 'probe fail' condition
G21                                ; set units to Millimetres
M107                               ; disable fans
G90                                ; absolute positioning
M82                                ; set extruder to absolute mode
G92 E0                             ; set extruder position to 0
M140 S50   ; start bed heating up
G28                                ; home all axes
M109 R180  ; wait for extruder to reach wiping temp
G1 Z150 E-15 F75                   ; retract filament
G1 X45 Y174 F11520                 ; move above wiper pad
G1 Z0  F1200                       ; push nozzle into wiper
G1 X45 Y174 Z-.5 F4000             ; wiping
G1 X55 Y172 Z-.5 F4000             ; wiping
G1 X45 Y174 Z0 F4000               ; wiping
G1 X55 Y172 F4000                  ; wiping
G1 X45 Y174 F4000                  ; wiping
G1 X55 Y172 F4000                  ; wiping
G1 X45 Y174 F4000                  ; wiping
G1 X55 Y172 F4000                  ; wiping
G1 X60 Y174 F4000                  ; wiping
G1 X80 Y172 F4000                  ; wiping
G1 X60 Y174 F4000                  ; wiping
G1 X80 Y172 F4000                  ; wiping
G1 X60 Y174 F4000                  ; wiping
G1 X90 Y172 F4000                  ; wiping
G1 X80 Y174 F4000                  ; wiping
G1 X100 Y172 F4000                 ; wiping
G1 X80 Y174 F4000                  ; wiping
G1 X100 Y172 F4000                 ; wiping
G1 X80 Y174 F4000                  ; wiping
G1 X100 Y172 F4000                 ; wiping
G1 X110 Y174 F4000                 ; wiping
G1 X100 Y172 F4000                 ; wiping
G1 X110 Y174 F4000                 ; wiping
G1 X100 Y172 F4000                 ; wiping
G1 X110 Y174 F4000                 ; wiping
G1 X115 Y172 Z-0.5 F1000           ; wiping
G1 Z10                             ; raise extruder
G28 X0 Y0                          ; home X and Y
M109 R180 ; wait for extruder to reach probe temp
M204 S300                          ; set probing acceleration
M18 E; Turn extrudre off
G29                                ; start auto-leveling sequence
G92 E-15;
M204 S2000                         ; restore standard acceleration
G1 X5 Y15 Z10 F5000                ; move up off last probe point
G4 S1                              ; pause
M400                               ; wait for moves to finish
M117 Heating...                    ; progress indicator message on LCD
M109 R235 ; wait for extruder to reach printing temp
M190 S50   ; wait for bed to reach printing temp
G1 Z2 E0 F75                       ; prime tiny bit of filment into the nozzle
M117 Mini Printing...              ; progress indicator message on LCD

G92 E0
;LAYER_COUNT:34
;LAYER:0
M107
M204 S800
M205 X2
G0 F6300 X7.113 Y125.66 Z0.5
;TYPE:SKIRT
G1 F900 X7.47 Y125.641 E0.01887
G1 X16.127 Y125.691 E0.4758
G1 X16.626 Y125.736 E0.50225
G1 X18.635 Y126.09 E0.60992
G1 X19.046 Y126.193 E0.63228
G1 X20.077 Y126.531 E0.68955
G1 X20.345 Y126.633 E0.70468
G1 X21.305 Y127.054 E0.76001
G1 X21.564 Y127.184 E0.77531
G1 X22.524 Y127.722 E0.83339
G1 X22.778 Y127.881 E0.84921
G1 X23.662 Y128.501 E0.9062
G1 X23.889 Y128.677 E0.92136
G1 X24.695 Y129.367 E0.97736
G1 X24.908 Y129.568 E0.99282
G1 X25.673 Y130.366 E1.05116
G1 X25.865 Y130.588 E1.06666
G1 X26.521 Y131.424 E1.12274
G1 X26.69 Y131.662 E1.13815
G1 X27.258 Y132.553 E1.19392
G1 X27.401 Y132.803 E1.20912
G1 X27.906 Y133.796 E1.26792
G1 X28.026 Y134.065 E1.28347
G1 X28.402 Y135.03 E1.33813
G1 X28.494 Y135.305 E1.35344
G1 X28.794 Y136.372 E1.41194
G1 X28.859 Y136.655 E1.42726
G1 X29.042 Y137.681 E1.48227
G1 X29.083 Y138.034 E1.50103
G1 X29.191 Y139.933 E1.60142
G1 X29.196 Y140.115 E1.61103
G1 X29.163 Y147.858 E2.01972
G1 X29.132 Y148.271 E2.04158
G1 X29.058 Y148.782 E2.06883
G1 X28.874 Y149.467 E2.10627
G1 X28.578 Y150.202 E2.14809
G1 X28.359 Y150.638 E2.17384
G1 X28.193 Y150.883 E2.18946
G1 X27.729 Y151.498 E2.23012
G1 X27.404 Y151.862 E2.25588
G1 X27.185 Y152.051 E2.27115
G1 X26.565 Y152.535 E2.31266
G1 X26.157 Y152.803 E2.33843
G1 X25.894 Y152.929 E2.35382
G1 X25.181 Y153.231 E2.39469
G1 X24.718 Y153.384 E2.42043
G1 X24.357 Y153.448 E2.43978
G1 X23.292 Y153.569 E2.49635
G1 X22.953 Y153.588 E2.51427
G1 X9.184 Y153.576 E3.24101
G1 X8.799 Y153.551 E3.26138
G1 X7.569 Y153.389 E3.32686
G1 X7.092 Y153.286 E3.35262
G1 X6.83 Y153.192 E3.36731
G1 X5.618 Y152.696 E3.43643
G1 X5.184 Y152.475 E3.46213
G1 X4.946 Y152.313 E3.47733
G1 X3.917 Y151.532 E3.54551
G1 X3.555 Y151.206 E3.57123
G1 X3.365 Y150.985 E3.58661
G1 X2.558 Y149.944 E3.65613
G1 X2.292 Y149.535 E3.68188
G1 X2.166 Y149.272 E3.69727
G1 X1.669 Y148.087 E3.7651
G1 X1.517 Y147.623 E3.79087
G1 X1.458 Y147.289 E3.80877
G1 X1.268 Y145.699 E3.89329
G1 X1.247 Y145.343 E3.91211
G1 X1.259 Y131.576 E4.63875
G1 X1.285 Y131.184 E4.65948
G1 X1.38 Y130.475 E4.69724
G1 X1.484 Y129.999 E4.72296
G1 X1.568 Y129.761 E4.73628
G1 X1.862 Y129.029 E4.77791
G1 X2.08 Y128.593 E4.80364
G1 X2.248 Y128.347 E4.81936
G1 X2.711 Y127.733 E4.85995
G1 X3.035 Y127.369 E4.88567
G1 X3.257 Y127.178 E4.90113
G1 X3.878 Y126.694 E4.94269
G1 X4.286 Y126.426 E4.96845
G1 X4.543 Y126.302 E4.98351
G1 X5.263 Y125.996 E5.02481
G1 X5.726 Y125.843 E5.05054
G1 X6.087 Y125.778 E5.0699
G1 X7.113 Y125.66 E5.12441
G0 F6300 X7.187 Y126.306
G1 F900 X7.466 Y126.291 E5.13916
G1 X16.123 Y126.341 E5.59609
G1 X16.513 Y126.376 E5.61676
G1 X18.522 Y126.73 E5.72443
G1 X18.843 Y126.811 E5.7419
G1 X19.874 Y127.149 E5.79917
G1 X20.084 Y127.229 E5.81103
G1 X21.044 Y127.65 E5.86636
G1 X21.247 Y127.751 E5.87833
G1 X22.207 Y128.289 E5.93641
G1 X22.405 Y128.414 E5.94877
G1 X23.289 Y129.034 E6.00576
G1 X23.466 Y129.171 E6.01757
G1 X24.272 Y129.861 E6.07358
G1 X24.438 Y130.018 E6.08564
G1 X25.203 Y130.816 E6.14398
G1 X25.354 Y130.99 E6.15614
G1 X26.01 Y131.826 E6.21223
G1 X26.142 Y132.011 E6.22423
G1 X26.71 Y132.902 E6.28
G1 X26.821 Y133.098 E6.29189
G1 X27.326 Y134.091 E6.35068
G1 X27.42 Y134.301 E6.36283
G1 X27.796 Y135.266 E6.41749
G1 X27.868 Y135.481 E6.42946
G1 X28.168 Y136.548 E6.48796
G1 X28.219 Y136.769 E6.49993
G1 X28.402 Y137.795 E6.55494
G1 X28.434 Y138.071 E6.5696
G1 X28.542 Y139.97 E6.67
G1 X28.546 Y140.112 E6.6775
G1 X28.513 Y147.855 E7.08618
G1 X28.489 Y148.178 E7.10328
G1 X28.415 Y148.689 E7.13053
G1 X28.271 Y149.225 E7.15982
G1 X27.975 Y149.96 E7.20165
G1 X27.674 Y150.491 E7.23386
G1 X27.21 Y151.106 E7.27452
G1 X26.785 Y151.539 E7.30655
G1 X26.165 Y152.023 E7.34806
G1 X25.641 Y152.331 E7.38014
G1 X24.928 Y152.633 E7.42101
G1 X24.517 Y152.763 E7.44377
G1 X24.283 Y152.802 E7.45629
G1 X23.218 Y152.923 E7.51286
G1 X22.954 Y152.938 E7.52682
G1 X9.185 Y152.926 E8.25356
G1 X8.883 Y152.906 E8.26953
G1 X7.653 Y152.744 E8.33501
G1 X7.076 Y152.591 E8.36652
G1 X5.864 Y152.095 E8.43564
G1 X5.339 Y151.795 E8.46756
G1 X4.31 Y151.014 E8.53574
G1 X3.878 Y150.586 E8.56784
G1 X3.071 Y149.545 E8.63736
G1 X2.765 Y149.02 E8.66943
G1 X2.268 Y147.835 E8.73726
G1 X2.103 Y147.212 E8.77127
G1 X1.913 Y145.622 E8.85579
G1 X1.897 Y145.344 E8.87049
G1 X1.909 Y131.577 E9.59712
G1 X1.93 Y131.27 E9.61337
G1 X2.025 Y130.561 E9.65112
G1 X2.172 Y130.003 E9.68158
G1 X2.466 Y129.271 E9.72321
G1 X2.767 Y128.738 E9.75552
G1 X3.23 Y128.124 E9.79611
G1 X3.657 Y127.69 E9.82825
G1 X4.278 Y127.206 E9.8698
G1 X4.798 Y126.9 E9.90165
G1 X5.518 Y126.594 E9.94294
G1 X5.928 Y126.463 E9.96566
G1 X6.161 Y126.424 E9.97813
G1 X7.187 Y126.306 E10.03264
G1 F240 E8.03264
G0 F6300 X7.242 Y127.949
G0 X7.242 Y128.958
G0 X7.247 Y129.038
G0 X7.241 Y128.939
;TYPE:WALL-OUTER
G1 F240 E10.03264
G1 F900 X15.205 Y128.939 E10.45298
G1 X16.275 Y128.992 E10.50953
G1 X17.302 Y129.144 E10.56433
G1 X18.316 Y129.398 E10.6195
G1 X19.305 Y129.753 E10.67496
G1 X20.253 Y130.2 E10.73028
G1 X21.151 Y130.738 E10.78553
G1 X21.994 Y131.364 E10.84095
G1 X22.769 Y132.066 E10.89615
G1 X23.471 Y132.841 E10.95134
G1 X24.097 Y133.684 E11.00676
G1 X24.635 Y134.582 E11.06201
G1 X25.082 Y135.53 E11.11733
G1 X25.437 Y136.519 E11.17279
G1 X25.689 Y137.526 E11.22758
G1 X25.843 Y138.56 E11.28276
G1 X25.896 Y139.63 E11.3393
G1 X25.896 Y147.595 E11.7597
G1 X25.803 Y148.305 E11.7975
G1 X25.535 Y148.949 E11.83432
G1 X25.11 Y149.504 E11.87121
G1 X24.555 Y149.929 E11.90811
G1 X23.913 Y150.196 E11.94481
G1 X23.202 Y150.289 E11.98265
G1 X9.24 Y150.289 E12.71958
G1 X8.011 Y150.128 E12.785
G1 X6.887 Y149.661 E12.84925
G1 X5.917 Y148.918 E12.91374
G1 X5.174 Y147.948 E12.97823
G1 X4.707 Y146.824 E13.04247
G1 X4.546 Y145.595 E13.10789
G1 X4.546 Y131.633 E13.84482
G1 X4.639 Y130.922 E13.88267
G1 X4.906 Y130.28 E13.91937
G1 X5.331 Y129.725 E13.95626
G1 X5.887 Y129.299 E13.99323
G1 X6.528 Y129.034 E14.02984
G1 X7.241 Y128.939 E14.06781
G0 F6300 X7.541 Y128.939
G0 X7.541 Y129.039
G0 X12.876 Y131.487
G0 X12.972 Y131.512
G1 F900 X12.893 Y132.114 E14.09985
G1 X12.972 Y132.717 E14.13195
G1 X13.205 Y133.278 E14.16401
G1 X13.575 Y133.761 E14.19613
G1 X14.057 Y134.13 E14.22817
G1 X14.618 Y134.363 E14.26023
G1 X15.221 Y134.442 E14.29233
G1 X15.823 Y134.363 E14.32438
G1 X16.385 Y134.13 E14.35649
G1 X16.867 Y133.761 E14.38853
G1 X17.237 Y133.278 E14.42064
G1 X17.47 Y132.717 E14.4527
G1 X17.549 Y132.114 E14.4848
G1 X17.47 Y131.512 E14.51685
G1 X17.237 Y130.95 E14.54896
G1 X16.867 Y130.468 E14.58103
G1 X16.385 Y130.098 E14.6131
G1 X15.823 Y129.865 E14.64521
G1 X15.221 Y129.786 E14.67726
G1 X14.618 Y129.865 E14.70936
G1 X14.057 Y130.098 E14.74142
G1 X13.575 Y130.468 E14.77349
G1 X13.205 Y130.95 E14.80557
G1 X12.972 Y131.512 E14.83768
G0 F6300 X12.933 Y131.809
G0 X12.835 Y131.795
G0 X12.934 Y132.727
G0 X14.126 Y135.328
G0 X14.147 Y135.425
G1 F900 X14.014 Y135.468 E14.84505
G1 X13.093 Y135.849 E14.89766
G1 X13.014 Y135.896 E14.90251
G1 X12.164 Y136.551 E14.95915
G1 X11.506 Y137.403 E15.01597
G1 X11.439 Y137.526 E15.02336
G1 X11.048 Y138.47 E15.07729
G1 X10.921 Y139.445 E15.12919
G1 X10.892 Y139.591 E15.13705
G1 X11.037 Y140.724 E15.19733
G1 X11.468 Y141.769 E15.257
G1 X12.155 Y142.67 E15.3168
G1 X13.053 Y143.359 E15.37654
G1 X14.097 Y143.793 E15.43622
G1 X15.222 Y143.942 E15.49611
G1 X16.365 Y143.786 E15.557
G1 X17.305 Y143.398 E15.61068
G1 X17.415 Y143.342 E15.61719
G1 X18.208 Y142.734 E15.66993
G1 X18.302 Y142.652 E15.67652
G1 X18.978 Y141.762 E15.73551
G1 X19.405 Y140.719 E15.79499
G1 X19.549 Y139.6 E15.85454
G1 X19.397 Y138.482 E15.91409
G1 X18.964 Y137.441 E15.9736
G1 X18.275 Y136.549 E16.03309
G1 X17.381 Y135.864 E16.09254
G1 X16.339 Y135.433 E16.15205
G1 X15.221 Y135.286 E16.21157
G1 X14.147 Y135.425 E16.26873
G0 F6300 X14.014 Y135.468
G0 X13.866 Y135.529
G0 X13.829 Y135.437
G0 X15.221 Y135.246
G0 X16.349 Y135.395
G0 X17.4 Y135.83
G0 X20.619 Y138.4
G0 X20.705 Y138.45
G1 F900 X20.472 Y139.012 E16.30084
G1 X20.393 Y139.614 E16.33289
G1 X20.472 Y140.217 E16.36499
G1 X20.705 Y140.778 E16.39705
G1 X21.075 Y141.261 E16.42916
G1 X21.557 Y141.63 E16.4612
G1 X22.118 Y141.863 E16.49326
G1 X22.721 Y141.942 E16.52536
G1 X23.323 Y141.863 E16.55741
G1 X23.885 Y141.63 E16.58952
G1 X24.367 Y141.261 E16.62156
G1 X24.737 Y140.778 E16.65367
G1 X24.97 Y140.217 E16.68574
G1 X25.049 Y139.614 E16.71784
G1 X24.97 Y139.012 E16.74988
G1 X24.737 Y138.45 E16.78199
G1 X24.367 Y137.968 E16.81406
G1 X23.885 Y137.598 E16.84614
G1 X23.323 Y137.365 E16.87825
G1 X22.721 Y137.286 E16.91029
G1 X22.118 Y137.365 E16.94239
G1 X21.557 Y137.598 E16.97446
G1 X21.075 Y137.968 E17.00653
G1 X20.705 Y138.45 E17.0386
G0 F6300 X20.591 Y138.727
G0 X20.029 Y138.31
;TYPE:SKIN
G1 F900 X19.532 Y137.111 E17.10711
G1 X18.737 Y136.085 E17.17561
G1 X17.709 Y135.296 E17.24401
G1 X16.509 Y134.799 E17.31256
G1 X16.479 Y134.795 E17.31416
G1 X16.713 Y134.698 E17.32753
G1 X17.331 Y134.225 E17.36861
G1 X17.805 Y133.606 E17.40976
G1 X18.104 Y132.887 E17.45086
G1 X18.205 Y132.114 E17.49201
G1 X18.104 Y131.342 E17.5331
G1 X17.805 Y130.622 E17.57425
G1 X17.331 Y130.004 E17.61536
G1 X17.01 Y129.757 E17.63673
G1 X17.18 Y129.783 E17.64581
G1 X18.118 Y130.018 E17.69685
G1 X19.059 Y130.356 E17.74962
G1 X19.944 Y130.772 E17.80124
G1 X20.789 Y131.278 E17.85322
G1 X21.584 Y131.87 E17.90554
G1 X22.309 Y132.526 E17.95715
G1 X22.965 Y133.251 E18.00875
G1 X23.557 Y134.046 E18.06107
G1 X24.063 Y134.891 E18.11305
G1 X24.479 Y135.776 E18.16467
G1 X24.817 Y136.717 E18.21744
G1 X25.053 Y137.656 E18.26854
G1 X25.078 Y137.826 E18.27761
G1 X24.831 Y137.504 E18.29903
G1 X24.213 Y137.03 E18.34014
G1 X23.493 Y136.731 E18.38129
G1 X22.721 Y136.63 E18.42238
G1 X21.948 Y136.731 E18.46353
G1 X21.229 Y137.03 E18.50463
G1 X20.611 Y137.504 E18.54574
G1 X20.137 Y138.122 E18.58685
G1 X20.036 Y138.364 E18.60069
G1 X20.029 Y138.31 E18.60356
G0 F6300 X20.099 Y136.782
G1 F900 X19.199 Y135.62 E18.68114
G1 X18.037 Y134.728 E18.75846
G1 X17.831 Y134.643 E18.77022
G1 X18.373 Y133.934 E18.81732
G1 X18.737 Y133.057 E18.86744
G1 X18.861 Y132.114 E18.91764
G1 X18.737 Y131.172 E18.96779
G1 X18.62 Y130.889 E18.98395
G1 X18.814 Y130.959 E18.99484
G1 X19.635 Y131.345 E19.04272
G1 X20.433 Y131.823 E19.09182
G1 X21.168 Y132.37 E19.14018
G1 X21.849 Y132.986 E19.18864
G1 X22.465 Y133.667 E19.23711
G1 X23.012 Y134.402 E19.28547
G1 X23.49 Y135.2 E19.33457
G1 X23.876 Y136.021 E19.38245
G1 X23.946 Y136.215 E19.39334
G1 X23.663 Y136.098 E19.4095
G1 X22.721 Y135.974 E19.45965
G1 X21.778 Y136.098 E19.50985
G1 X20.901 Y136.462 E19.55997
G1 X20.192 Y137.006 E19.60713
G1 X20.099 Y136.782 E19.61994
G0 F6300 X20.573 Y135.894
G1 F900 X20.36 Y136.058 E19.63412
G1 X19.661 Y135.156 E19.69436
G1 X18.776 Y134.476 E19.75326
G1 X18.941 Y134.261 E19.76757
G1 X19.37 Y133.227 E19.82665
G1 X19.517 Y132.114 E19.88591
G1 X19.505 Y132.025 E19.89065
G1 X20.077 Y132.368 E19.92585
G1 X20.752 Y132.87 E19.97025
G1 X21.389 Y133.446 E20.01558
G1 X21.965 Y134.083 E20.06091
G1 X22.467 Y134.758 E20.10531
G1 X22.81 Y135.33 E20.14051
G1 X22.721 Y135.318 E20.14525
G1 X21.608 Y135.465 E20.20451
G1 X20.573 Y135.894 E20.26364
G0 F6300 X20.123 Y134.692
G1 F900 X19.625 Y134.309 E20.2968
G1 X20.003 Y133.397 E20.34891
G1 X20.036 Y133.148 E20.36217
G1 X20.343 Y133.376 E20.38235
G1 X20.929 Y133.906 E20.42405
G1 X21.459 Y134.492 E20.46576
G1 X21.687 Y134.799 E20.48594
G1 X21.438 Y134.832 E20.4992
G1 X20.525 Y135.21 E20.55135
G1 X20.123 Y134.692 E20.58596
G0 F6300 X20.039 Y140.887
G1 F900 X20.041 Y140.874 E20.58666
G1 X20.137 Y141.106 E20.59991
G1 X20.611 Y141.725 E20.64106
G1 X21.229 Y142.198 E20.68213
G1 X21.948 Y142.497 E20.72323
G1 X22.721 Y142.598 E20.76438
G1 X23.493 Y142.497 E20.80547
G1 X24.213 Y142.198 E20.84662
G1 X24.831 Y141.725 E20.8877
G1 X25.246 Y141.183 E20.92373
G1 X25.246 Y147.557 E21.26016
G1 X25.171 Y148.133 E21.29081
G1 X24.969 Y148.619 E21.31859
G1 X24.646 Y149.04 E21.3466
G1 X24.225 Y149.363 E21.37461
G1 X23.741 Y149.564 E21.40227
G1 X23.164 Y149.639 E21.43298
G1 X9.278 Y149.639 E22.1659
G1 X8.183 Y149.496 E22.22418
G1 X7.217 Y149.094 E22.27941
G1 X6.381 Y148.454 E22.33498
G1 X5.741 Y147.618 E22.39055
G1 X5.339 Y146.652 E22.44577
G1 X5.196 Y145.557 E22.50406
G1 X5.196 Y131.671 E23.23698
G1 X5.271 Y131.094 E23.26769
G1 X5.472 Y130.61 E23.29535
G1 X5.795 Y130.189 E23.32336
G1 X6.219 Y129.865 E23.35152
G1 X6.696 Y129.667 E23.37878
G1 X7.282 Y129.589 E23.40998
G1 X13.652 Y129.589 E23.7462
G1 X13.111 Y130.004 E23.78219
G1 X12.637 Y130.622 E23.82329
G1 X12.338 Y131.342 E23.86444
G1 X12.237 Y132.114 E23.90554
G1 X12.338 Y132.887 E23.94668
G1 X12.637 Y133.606 E23.98778
G1 X13.111 Y134.225 E24.02893
G1 X13.729 Y134.698 E24.07001
G1 X13.973 Y134.799 E24.08395
G1 X13.79 Y134.858 E24.0941
G1 X12.801 Y135.267 E24.15058
G1 X12.648 Y135.358 E24.15998
G1 X11.7 Y136.087 E24.2231
G1 X10.96 Y137.047 E24.28708
G1 X10.851 Y137.245 E24.29901
G1 X10.414 Y138.3 E24.35928
G1 X10.283 Y139.319 E24.4135
G1 X10.234 Y139.569 E24.42695
G1 X10.403 Y140.892 E24.49735
G1 X10.9 Y142.095 E24.56605
G1 X11.691 Y143.132 E24.63489
G1 X12.725 Y143.927 E24.70373
G1 X13.927 Y144.427 E24.77244
