; generated by Slic3r 1.1.7 on 2015-03-02 at 16:37:43

; perimeters extrusion width = 0.40mm
; infill extrusion width = 0.60mm
; solid infill extrusion width = 0.50mm
; top infill extrusion width = 0.40mm

G21 ; set units to millimeters
M107

M301 P34 I4 D113     ; set PID nozzle
M304 P162 I17 D378 ; set PID Bed

M104 S230                 ; set extruder temp for budaschnozzle
;M104 S240                 ; set extruder temp for hex_hot_end
M140 S100                 ; set bed temp for PET
;M140 S110                 ; set bed temp for PEI (reminder ~G1 Z2 ~ M140 S(@-10 degree change) ;if -m is present in file name)

;G28                            ; home
;G1 Z5 F300                ; move bed down 5mm
;M84                            ; disable steppers
;G4 S300                     ; wait 5 mins to preheat

G28                            ; home

G90 ; use absolute coordinates
G92 E0
M82 ; use absolute distances for extrusion
M204 S2000
G1 F1200.000 E-1.20000
G92 E0
G1 Z0.350 F9600.000
G1 X22.305 Y70.629 F9600.000
G1 E1.20000 F1200.000
G1 X24.043 Y69.241 E1.27307 F1260.000
G1 X27.000 Y68.495 E1.37329
G1 X127.000 Y68.495 E4.65920
G1 X129.188 Y68.891 E4.73227
G1 X131.098 Y70.031 E4.80534 F1260.000
G1 X132.485 Y71.769 E4.87841
G1 X133.232 Y74.726 E4.97864
G1 X133.232 Y187.726 E8.69171
G1 X132.835 Y189.914 E8.76478
G1 X131.050 Y192.463 E8.86702
G1 X113.897 Y207.060 E9.60711
G1 X112.828 Y207.653 E9.64729
G1 X111.708 Y208.048 E9.68629
G1 X109.206 Y208.595 E9.77046
G1 X107.245 Y208.756 E9.83510
G1 X77.662 Y209.505 E10.80748
G1 X76.179 Y209.503 E10.85621
G1 X46.367 Y208.734 E11.83613
G1 X43.824 Y208.432 E11.92029
G1 X42.478 Y208.094 E11.96588
G1 X41.328 Y207.720 E12.00564
G1 X40.244 Y207.153 E12.04582
G1 X39.462 Y206.580 E12.07767
G1 X22.950 Y192.463 E12.79150
G1 X21.545 Y190.739 E12.86457
G1 X20.768 Y187.726 E12.96681
G1 X20.768 Y74.726 E16.67988
G1 X21.165 Y72.538 E16.75296
G1 X22.266 Y70.693 E16.82356
G1 X22.849 Y70.975 F9600.000
G1 X22.914 Y70.874 E16.82752 F1260.000
G1 X24.624 Y69.638 E16.89686
G1 X27.000 Y69.110 E16.97682
G1 X127.000 Y69.110 E20.26273
G1 X129.073 Y69.507 E20.33206
G1 X130.853 Y70.640 E20.40140 F1260.000
G1 X132.089 Y72.350 E20.47074
G1 X132.616 Y74.726 E20.55070
G1 X132.616 Y187.726 E24.26377
G1 X132.219 Y189.799 E24.33311
G1 X130.649 Y191.995 E24.42181
G1 X113.560 Y206.545 E25.15930
G1 X112.582 Y207.088 E25.19606
G1 X111.558 Y207.450 E25.23176
G1 X109.152 Y207.982 E25.31273
G1 X107.229 Y208.140 E25.37612
G1 X77.662 Y208.890 E26.34797
G1 X76.195 Y208.888 E26.39619
G1 X46.421 Y208.120 E27.37485
G1 X43.974 Y207.835 E27.45583
G1 X42.628 Y207.497 E27.50142
G1 X41.573 Y207.155 E27.53786
G1 X40.581 Y206.637 E27.57462
G1 X39.862 Y206.112 E27.60387
G1 X23.351 Y191.995 E28.31770
G1 X22.033 Y190.346 E28.38704
G1 X21.384 Y187.726 E28.47574
G1 X21.384 Y74.726 E32.18881
G1 X21.781 Y72.654 E32.25815
G1 X22.809 Y71.038 E32.32106
G1 F1200.000 E31.12106
G92 E0
G1 X34.249 Y182.727 F9600.000
G1 E1.20000 F1200.000
G1 X34.033 Y183.189 E1.21676 F1564.500
G1 X33.741 Y183.606 E1.23351
G1 X33.380 Y183.967 E1.25026
G1 X32.962 Y184.259 E1.26702
G1 X32.500 Y184.475 E1.28377
G1 X32.008 Y184.607 E1.30052
G1 X31.500 Y184.651 E1.31727
G1 X30.992 Y184.607 E1.33403
G1 X30.500 Y184.475 E1.35078
G1 X30.038 Y184.259 E1.36753
G1 X29.620 Y183.967 E1.38429
G1 X29.259 Y183.606 E1.40104
G1 X28.967 Y183.189 E1.41780
G1 X28.741 Y182.687 E1.43589
G1 X28.619 Y182.234 E1.45128
G1 X28.575 Y181.726 E1.46804
G1 X28.619 Y181.218 E1.48479
G1 X28.751 Y180.726 E1.50154
G1 X28.967 Y180.264 E1.51830
G1 X29.289 Y179.817 E1.53640
G1 X29.620 Y179.486 E1.55179
G1 X30.038 Y179.193 E1.56854
G1 X30.500 Y178.978 E1.58529
G1 X30.992 Y178.846 E1.60205
G1 X31.541 Y178.805 E1.62014
G1 X32.008 Y178.846 E1.63553 F1564.500
G1 X32.500 Y178.978 E1.65229
G1 X32.962 Y179.193 E1.66904
G1 X33.380 Y179.486 E1.68579
G1 X33.741 Y179.846 E1.70255
G1 X34.033 Y180.264 E1.71930
G1 X34.249 Y180.726 E1.73605
G1 X34.381 Y181.218 E1.75281
G1 X34.425 Y181.726 E1.76956
G1 X34.381 Y182.234 E1.78632
G1 X34.268 Y182.654 E1.80060
G1 F1200.000 E0.60060
G92 E0
G1 X31.461 Y178.344 F9600.000
G1 X31.616 Y152.641 F9600.000
G1 E1.20000 F1200.000
G1 X31.500 Y152.651 E1.20383 F1564.500
G1 X30.992 Y152.607 E1.22058
G1 X30.500 Y152.475 E1.23734
G1 X30.038 Y152.259 E1.25409
G1 X29.620 Y151.967 E1.27085
G1 X29.259 Y151.606 E1.28760
G1 X28.967 Y151.189 E1.30435
G1 X28.751 Y150.727 E1.32110
G1 X28.619 Y150.234 E1.33786
G1 X28.575 Y149.726 E1.35461
G1 X28.619 Y149.218 E1.37137
G1 X28.769 Y148.688 E1.38946
G1 X28.967 Y148.264 E1.40485
G1 X29.259 Y147.846 E1.42161
G1 X29.620 Y147.486 E1.43836
G1 X30.038 Y147.193 E1.45511
G1 X30.500 Y146.978 E1.47187
G1 X30.992 Y146.846 E1.48862
G1 X31.541 Y146.805 E1.50672
G1 X32.008 Y146.846 E1.52211 F1564.500
G1 X32.500 Y146.978 E1.53886
G1 X32.962 Y147.193 E1.55561
G1 X33.380 Y147.486 E1.57237
G1 X33.741 Y147.846 E1.58912
G1 X34.033 Y148.264 E1.60588
G1 X34.249 Y148.726 E1.62263
G1 X34.381 Y149.218 E1.63938
G1 X34.425 Y149.726 E1.65614
G1 X34.381 Y150.234 E1.67289
G1 X34.249 Y150.727 E1.68964
G1 X34.033 Y151.189 E1.70640
G1 X33.741 Y151.606 E1.72315
G1 X33.380 Y151.967 E1.73990
G1 X32.963 Y152.259 E1.75666
G1 X32.500 Y152.475 E1.77341
G1 X32.008 Y152.607 E1.79016
G1 X31.691 Y152.635 E1.80062
G1 F1200.000 E0.60062
G92 E0
G1 X31.556 Y146.337 F9600.000
G1 X120.259 Y81.606 F9600.000
G1 E1.20000 F1200.000
G1 X119.967 Y81.189 E1.21675 F1564.500
G1 X119.751 Y80.727 E1.23351
G1 X119.619 Y80.234 E1.25026
G1 X119.575 Y79.726 E1.26701
G1 X119.619 Y79.218 E1.28377
G1 X119.751 Y78.726 E1.30052
G1 X119.967 Y78.264 E1.31727
G1 X120.259 Y77.846 E1.33403
G1 X120.620 Y77.486 E1.35078
G1 X121.038 Y77.193 E1.36753
G1 X121.500 Y76.978 E1.38429
G1 X121.992 Y76.846 E1.40104
G1 X122.541 Y76.805 E1.41914
G1 X123.008 Y76.846 E1.43453 F1564.500
G1 X123.500 Y76.978 E1.45128
G1 X123.963 Y77.193 E1.46804
G1 X124.380 Y77.486 E1.48479
G1 X124.741 Y77.846 E1.50154
G1 X125.033 Y78.264 E1.51829
G1 X125.249 Y78.726 E1.53505
G1 X125.381 Y79.218 E1.55180
G1 X125.425 Y79.726 E1.56855
G1 X125.381 Y80.234 E1.58531
G1 X125.249 Y80.727 E1.60206
G1 X125.009 Y81.223 E1.62016
G1 X124.741 Y81.606 E1.63555
G1 X124.380 Y81.967 E1.65230
G1 X123.962 Y82.259 E1.66906
G1 X123.500 Y82.475 E1.68581
G1 X123.008 Y82.607 E1.70256
G1 X122.500 Y82.651 E1.71932
G1 X121.992 Y82.607 E1.73607
G1 X121.500 Y82.475 E1.75282
G1 X121.037 Y82.259 E1.76958
G1 X120.620 Y81.967 E1.78633
G1 X120.312 Y81.659 E1.80062
G1 F1200.000 E0.60062
G92 E0
G1 X122.624 Y76.344 F9600.000
G1 X101.026 Y79.924 F9600.000
G1 E1.20000 F1200.000
G1 X100.989 Y80.342 E1.21378 F2100.000
G1 X100.830 Y80.938 E1.23407
G1 X100.568 Y81.498 E1.25437
G1 X100.214 Y82.004 E1.27466
G1 X99.778 Y82.440 E1.29495
G1 X99.271 Y82.795 E1.31525
G1 X98.712 Y83.056 E1.33554
G1 X98.115 Y83.216 E1.35584
G1 X97.500 Y83.269 E1.37613
G1 X96.885 Y83.216 E1.39643
G1 X96.288 Y83.056 E1.41672
G1 X95.728 Y82.795 E1.43701
G1 X95.222 Y82.440 E1.45731
G1 X94.786 Y82.004 E1.47760
G1 X94.431 Y81.498 E1.49790
G1 X94.171 Y80.938 E1.51819
G1 X94.011 Y80.341 E1.53849
G1 X93.957 Y79.726 E1.55878
G1 X94.011 Y79.111 E1.57908
G1 X94.170 Y78.514 E1.59937
G1 X94.431 Y77.955 E1.61966
G1 X94.786 Y77.449 E1.63996
G1 X95.222 Y77.012 E1.66025
G1 X95.729 Y76.658 E1.68055
G1 X96.288 Y76.397 E1.70084
G1 X96.885 Y76.237 E1.72113
G1 X97.500 Y76.183 E1.74143
G1 X97.595 Y76.191 E1.74457
G1 X98.115 Y76.237 E1.76173 F2100.000
G1 X98.712 Y76.397 E1.78201
G1 X99.272 Y76.658 E1.80231
G1 X99.778 Y77.012 E1.82261
G1 X100.214 Y77.449 E1.84290
G1 X100.569 Y77.955 E1.86320
G1 X100.829 Y78.514 E1.88349
G1 X100.989 Y79.111 E1.90379
G1 X101.043 Y79.726 E1.92408
G1 X101.032 Y79.849 E1.92813
G1 X100.412 Y79.870 F9600.000
G1 X100.381 Y80.234 E1.94014 F1564.500
G1 X100.249 Y80.727 E1.95689
G1 X100.033 Y81.189 E1.97364
G1 X99.741 Y81.606 E1.99040
G1 X99.380 Y81.967 E2.00715
G1 X98.962 Y82.259 E2.02391
G1 X98.500 Y82.475 E2.04066
G1 X98.008 Y82.607 E2.05741
G1 X97.500 Y82.651 E2.07417
G1 X96.992 Y82.607 E2.09092
G1 X96.500 Y82.475 E2.10767
G1 X96.038 Y82.259 E2.12442
G1 X95.620 Y81.967 E2.14118
G1 X95.259 Y81.606 E2.15793
G1 X94.967 Y81.189 E2.17469
G1 X94.751 Y80.727 E2.19144
G1 X94.619 Y80.234 E2.20819
G1 X94.575 Y79.726 E2.22495
G1 X94.619 Y79.218 E2.24170
G1 X94.751 Y78.726 E2.25845
G1 X94.991 Y78.230 E2.27655
G1 X95.259 Y77.846 E2.29194
G1 X95.620 Y77.486 E2.30869
G1 X96.038 Y77.193 E2.32545
G1 X96.500 Y76.978 E2.34220
G1 X97.033 Y76.842 E2.36030
G1 X97.500 Y76.801 E2.37569 F1564.500
G1 X98.008 Y76.846 E2.39244
G1 X98.500 Y76.978 E2.40919
G1 X98.962 Y77.193 E2.42595
G1 X99.380 Y77.486 E2.44270
G1 X99.741 Y77.846 E2.45946
G1 X100.033 Y78.264 E2.47621
G1 X100.249 Y78.726 E2.49296
G1 X100.381 Y79.218 E2.50972
G1 X100.419 Y79.795 E2.52872
G1 F1200.000 E1.32872
G92 E0
G1 X96.861 Y76.406 F9600.000
G1 X93.043 Y79.726 F9600.000
G1 E1.20000 F1200.000
G1 X92.989 Y80.342 E1.22030 F2100.000
G1 X92.830 Y80.938 E1.24058
G1 X92.569 Y81.498 E1.26088
G1 X92.514 Y81.576 E1.26402
G1 X92.214 Y82.004 E1.28118
G1 X91.778 Y82.440 E1.30147
G1 X91.271 Y82.795 E1.32177
G1 X90.712 Y83.056 E1.34206
G1 X90.115 Y83.216 E1.36235
G1 X89.500 Y83.269 E1.38265
G1 X88.885 Y83.216 E1.40295
G1 X88.288 Y83.056 E1.42323
G1 X87.728 Y82.795 E1.44353
G1 X87.222 Y82.440 E1.46383
G1 X86.786 Y82.004 E1.48412
G1 X86.431 Y81.498 E1.50442
G1 X86.171 Y80.938 E1.52471
G1 X86.011 Y80.341 E1.54500
G1 X85.957 Y79.726 E1.56530
G1 X86.011 Y79.111 E1.58559
G1 X86.170 Y78.515 E1.60588
G1 X86.432 Y77.955 E1.62618
G1 X86.786 Y77.449 E1.64648
G1 X87.222 Y77.012 E1.66677
G1 X87.729 Y76.658 E1.68707
G1 X88.288 Y76.397 E1.70735
G1 X88.885 Y76.237 E1.72765
G1 X89.500 Y76.183 E1.74795
G1 X89.595 Y76.191 E1.75108
G1 X90.115 Y76.237 E1.76824 F2100.000
G1 X90.712 Y76.397 E1.78853
G1 X91.272 Y76.658 E1.80883
G1 X91.778 Y77.012 E1.82912
G1 X92.214 Y77.449 E1.84942
G1 X92.569 Y77.955 E1.86972
G1 X92.829 Y78.514 E1.89000
G1 X92.989 Y79.111 E1.91030
G1 X93.037 Y79.652 E1.92813
G1 X92.425 Y79.726 F9600.000
G1 X92.381 Y80.234 E1.94489 F1564.500
G1 X92.249 Y80.727 E1.96164
G1 X92.033 Y81.189 E1.97839
G1 X91.711 Y81.636 E1.99649
G1 X91.380 Y81.967 E2.01188
G1 X90.962 Y82.259 E2.02863
G1 X90.500 Y82.475 E2.04539
G1 X90.008 Y82.607 E2.06214
G1 X89.500 Y82.651 E2.07889
G1 X88.992 Y82.607 E2.09565
G1 X88.500 Y82.475 E2.11240
G1 X88.038 Y82.259 E2.12915
G1 X87.620 Y81.967 E2.14591
G1 X87.259 Y81.606 E2.16266
G1 X86.967 Y81.189 E2.17941
G1 X86.741 Y80.687 E2.19751
G1 X86.619 Y80.234 E2.21290
G1 X86.575 Y79.726 E2.22966
G1 X86.619 Y79.218 E2.24641
G1 X86.751 Y78.726 E2.26316
G1 X86.991 Y78.230 E2.28126
G1 X87.259 Y77.846 E2.29665
G1 X87.620 Y77.486 E2.31340
G1 X88.038 Y77.193 E2.33016
G1 X88.500 Y76.978 E2.34691
G1 X89.033 Y76.842 E2.36501
G1 X89.500 Y76.801 E2.38040 F1564.500
G1 X90.008 Y76.846 E2.39715
G1 X90.500 Y76.978 E2.41390
G1 X90.962 Y77.193 E2.43066
G1 X91.380 Y77.486 E2.44741
G1 X91.741 Y77.846 E2.46417
G1 X92.033 Y78.264 E2.48092
G1 X92.249 Y78.726 E2.49767
G1 X92.381 Y79.218 E2.51443
G1 X92.418 Y79.652 E2.52871
G1 F1200.000 E1.32871
G92 E0
G1 X88.862 Y76.406 F9600.000
G1 X34.425 Y79.726 F9600.000
G1 E1.20000 F1200.000
G1 X34.381 Y80.234 E1.21675 F1564.500
G1 X34.249 Y80.727 E1.23351
G1 X34.009 Y81.223 E1.25161
G1 X33.741 Y81.606 E1.26699
G1 X33.380 Y81.967 E1.28375
G1 X32.962 Y82.259 E1.30050
G1 X32.500 Y82.475 E1.31725
G1 X32.008 Y82.607 E1.33401
G1 X31.500 Y82.651 E1.35076
G1 X30.992 Y82.607 E1.36752
G1 X30.500 Y82.475 E1.38427
G1 X30.038 Y82.259 E1.40102
G1 X29.620 Y81.967 E1.41778
G1 X29.259 Y81.606 E1.43453
G1 X28.967 Y81.189 E1.45128
G1 X28.751 Y80.727 E1.46804
G1 X28.619 Y80.234 E1.48479
G1 X28.575 Y79.726 E1.50154
G1 X28.619 Y79.218 E1.51830
G1 X28.751 Y78.726 E1.53505
G1 X28.967 Y78.264 E1.55180
G1 X29.259 Y77.846 E1.56856
G1 X29.620 Y77.486 E1.58531
G1 X30.038 Y77.193 E1.60207
G1 X30.500 Y76.978 E1.61882
G1 X30.992 Y76.846 E1.63557
G1 X31.541 Y76.805 E1.65367
G1 X32.008 Y76.846 E1.66906 F1564.500
G1 X32.500 Y76.978 E1.68581
G1 X32.962 Y77.193 E1.70256
G1 X33.380 Y77.486 E1.71932
G1 X33.741 Y77.846 E1.73607
G1 X34.033 Y78.264 E1.75283
G1 X34.249 Y78.726 E1.76958
G1 X34.381 Y79.218 E1.78633
G1 X34.418 Y79.652 E1.80062
G1 F1200.000 E0.60062
G92 E0
G1 X31.434 Y76.349 F9600.000
G1 X52.957 Y79.726 F9600.000
G1 E1.20000 F1200.000
G1 X53.011 Y79.111 E1.22030 F2100.000
G1 X53.170 Y78.515 E1.24058
G1 X53.432 Y77.955 E1.26088
G1 X53.786 Y77.449 E1.28118
G1 X54.222 Y77.012 E1.30147
G1 X54.729 Y76.658 E1.32177
G1 X55.288 Y76.397 E1.34206
G1 X55.885 Y76.237 E1.36235
G1 X56.500 Y76.183 E1.38265
G1 X56.595 Y76.191 E1.38578
G1 X57.115 Y76.237 E1.40294 F2100.000
G1 X57.712 Y76.397 E1.42323
G1 X58.272 Y76.658 E1.44353
G1 X58.778 Y77.012 E1.46382
G1 X59.214 Y77.449 E1.48412
G1 X59.569 Y77.955 E1.50442
G1 X59.829 Y78.514 E1.52470
G1 X59.989 Y79.111 E1.54500
G1 X60.043 Y79.726 E1.56530
G1 X59.989 Y80.342 E1.58559
G1 X59.830 Y80.938 E1.60588
G1 X59.568 Y81.498 E1.62618
G1 X59.214 Y82.004 E1.64647
G1 X58.778 Y82.440 E1.66677
G1 X58.271 Y82.795 E1.68707
G1 X57.712 Y83.056 E1.70735
G1 X57.115 Y83.216 E1.72765
G1 X56.500 Y83.269 E1.74795
G1 X55.885 Y83.216 E1.76824
G1 X55.288 Y83.056 E1.78853
G1 X54.728 Y82.795 E1.80883
G1 X54.650 Y82.740 E1.81196
G1 X54.222 Y82.440 E1.82912
G1 X53.786 Y82.004 E1.84942
G1 X53.431 Y81.498 E1.86972
G1 X53.171 Y80.938 E1.89000
G1 X53.011 Y80.341 E1.91030
G1 X52.963 Y79.801 E1.92813
G1 X53.575 Y79.726 F9600.000
G1 X53.619 Y79.218 E1.94489 F1564.500
G1 X53.751 Y78.726 E1.96164
G1 X53.967 Y78.264 E1.97839
G1 X54.259 Y77.846 E1.99514
G1 X54.620 Y77.486 E2.01190
G1 X55.038 Y77.193 E2.02865
G1 X55.500 Y76.978 E2.04540
G1 X56.033 Y76.842 E2.06350
G1 X56.500 Y76.801 E2.07889 F1564.500
G1 X57.008 Y76.846 E2.09565
G1 X57.500 Y76.978 E2.11240
G1 X57.962 Y77.193 E2.12915
G1 X58.380 Y77.486 E2.14591
G1 X58.741 Y77.846 E2.16266
G1 X59.033 Y78.264 E2.17941
G1 X59.249 Y78.726 E2.19617
G1 X59.381 Y79.218 E2.21292
G1 X59.425 Y79.726 E2.22967
G1 X59.381 Y80.234 E2.24643
G1 X59.231 Y80.764 E2.26452
G1 X59.033 Y81.189 E2.27991
G1 X58.741 Y81.606 E2.29667
G1 X58.380 Y81.967 E2.31342
G1 X57.962 Y82.259 E2.33018
G1 X57.500 Y82.475 E2.34693
G1 X57.008 Y82.607 E2.36368
G1 X56.500 Y82.651 E2.38044
G1 X55.992 Y82.607 E2.39719
G1 X55.500 Y82.475 E2.41394
G1 X55.003 Y82.236 E2.43204
G1 X54.620 Y81.967 E2.44743
G1 X54.259 Y81.606 E2.46418
G1 X53.967 Y81.189 E2.48094
G1 X53.751 Y80.727 E2.49769
G1 X53.619 Y80.234 E2.51444
G1 X53.582 Y79.801 E2.52873
G1 F1200.000 E1.32873
G92 E0
G1 X56.103 Y76.379 F9600.000
G1 X60.957 Y79.726 F9600.000
G1 E1.20000 F1200.000
G1 X61.011 Y79.111 E1.22030 F2100.000
G1 X61.170 Y78.514 E1.24058
G1 X61.432 Y77.955 E1.26088
G1 X61.786 Y77.449 E1.28118
G1 X62.222 Y77.012 E1.30147
G1 X62.729 Y76.658 E1.32177
G1 X63.288 Y76.397 E1.34206
G1 X63.885 Y76.237 E1.36235
G1 X64.500 Y76.183 E1.38265
G1 X64.595 Y76.191 E1.38578
G1 X65.115 Y76.237 E1.40295 F2100.000
G1 X65.712 Y76.397 E1.42323
G1 X66.272 Y76.658 E1.44353
G1 X66.778 Y77.012 E1.46383
G1 X67.214 Y77.449 E1.48412
G1 X67.569 Y77.955 E1.50442
G1 X67.829 Y78.514 E1.52470
G1 X67.989 Y79.111 E1.54500
G1 X67.998 Y79.206 E1.54814
G1 X68.043 Y79.726 E1.56530
G1 X67.989 Y80.342 E1.58559
G1 X67.830 Y80.938 E1.60588
G1 X67.568 Y81.498 E1.62618
G1 X67.214 Y82.004 E1.64647
G1 X66.778 Y82.440 E1.66677
G1 X66.271 Y82.795 E1.68707
G1 X65.712 Y83.056 E1.70735
G1 X65.115 Y83.216 E1.72765
G1 X64.500 Y83.269 E1.74795
G1 X63.885 Y83.216 E1.76824
G1 X63.288 Y83.056 E1.78853
G1 X62.728 Y82.795 E1.80883
G1 X62.650 Y82.740 E1.81196
G1 X62.222 Y82.440 E1.82912
G1 X61.786 Y82.004 E1.84942
G1 X61.431 Y81.498 E1.86972
G1 X61.171 Y80.938 E1.89000
G1 X61.011 Y80.342 E1.91030
G1 X60.963 Y79.801 E1.92813
G1 X61.575 Y79.726 F9600.000
G1 X61.619 Y79.218 E1.94489 F1564.500
G1 X61.751 Y78.726 E1.96164
G1 X61.967 Y78.264 E1.97839
G1 X62.259 Y77.846 E1.99514
G1 X62.620 Y77.486 E2.01190
G1 X63.038 Y77.193 E2.02865
G1 X63.500 Y76.978 E2.04540
G1 X64.033 Y76.842 E2.06350
G1 X64.500 Y76.801 E2.07889 F1564.500
G1 X65.008 Y76.846 E2.09565
G1 X65.500 Y76.978 E2.11240
G1 X65.962 Y77.193 E2.12915
G1 X66.380 Y77.486 E2.14591
G1 X66.741 Y77.846 E2.16266
G1 X67.033 Y78.264 E2.17941
